presets/film_stocks/Agfa_Vista_100.cube
# 独寻胶片模拟 -- Agfa Vista 100
# Agfa, ISO 100, 2001, negative
TITLE "Agfa Vista 100"
LUT_3D_SIZE 33
DOMAIN_MIN 0.0 0.0 0.0
DOMAIN_MAX 1.0 1.0 1.0
0.000000 0.000000 0.000000
0.054558 0.001757 0.000000
0.099684 0.003211 0.000000
0.141823 0.004568 0.000000
0.182133 0.005866 0.000000
0.221136 0.007122 0.000000
0.259126 0.008346 0.000000
0.296296 0.009543 0.000000
0.332778 0.010718 0.000000
0.368667 0.011874 0.000000
0.404039 0.013013 0.000000
0.438952 0.014138 0.000000
0.473453 0.015249 0.000000
0.507581 0.016348 0.000000
0.541367 0.017436 0.000000
0.574839 0.018514 0.000000
0.608022 0.019583 0.000000
0.640935 0.020643 0.000000
0.673597 0.021695 0.000000
0.706022 0.022739 0.000000
0.738225 0.023776 0.000000
0.770219 0.024807 0.000000
0.802015 0.025831 0.000000
0.833623 0.026849 0.000000
0.865052 0.027861 0.000000
0.896311 0.028868 0.000000
0.927407 0.029869 0.000000
0.958347 0.030866 0.000000
0.989138 0.031858 0.000000
1.000000 0.032845 0.000000
1.000000 0.033827 0.000000
1.000000 0.034806 0.000000
1.000000 0.035780 0.000000
0.000000 0.052503 0.000000
0.052509 0.053420 0.000000
0.097815 0.054334 0.000000
0.140051 0.055247 0.000000
0.180427 0.056156 0.000000
0.219479 0.057064 0.000000
0.257509 0.057969 0.000000
0.294711 0.058873 0.000000
0.331220 0.059774 0.000000
0.367133 0.060673 0.000000
0.402526 0.061571 0.000000
0.437458 0.062466 0.000000
0.471975 0.063359 0.000000
0.506118 0.064251 0.000000
0.539919 0.065140 0.000000
0.573404 0.066028 0.000000
0.606599 0.066914 0.000000
0.639523 0.067798 0.000000
0.672195 0.068681 0.000000
0.704630 0.069562 0.000000
0.736843 0.070441 0.000000
0.768846 0.071318 0.000000
0.800650 0.072194 0.000000
0.832266 0.073069 0.000000
0.863702 0.073941 0.000000
0.894968 0.074813 0.000000
0.926071 0.075682 0.000000
0.957018 0.076551 0.000000
0.987815 0.077417 0.000000
1.000000 0.078283 0.000000
1.000000 0.079146 0.000000
1.000000 0.080009 0.000000
1.000000 0.080870 0.000000
0.000000 0.095930 0.000000
0.050448 0.096768 0.000000
0.095940 0.097604 0.000000
0.138276 0.098440 0.000000
0.178718 0.099275 0.000000
0.217820 0.100109 0.000000
0.255889 0.100942 0.000000
0.293124 0.101773 0.000000
0.329660 0.102604 0.000000
0.365598 0.103434 0.000000
0.401012 0.104262 0.000000
0.435962 0.105090 0.000000
0.470497 0.105917 0.000000
0.504655 0.106742 0.000000
0.538470 0.107567 0.000000
0.571968 0.108391 0.000000
0.605175 0.109214 0.000000
0.638111 0.110036 0.000000
0.670793 0.110857 0.000000
0.703238 0.111677 0.000000
0.735460 0.112496 0.000000
0.767472 0.113315 0.000000
0.799284 0.114132 0.000000
0.830908 0.114949 0.000000
0.862352 0.115764 0.000000
0.893625 0.116579 0.000000
0.924735 0.117393 0.000000
0.955688 0.118206 0.000000
0.986492 0.119019 0.000000
1.000000 0.119830 0.000000
1.000000 0.120641 0.000000
1.000000 0.121451 0.000000
1.000000 0.122260 0.000000
0.000000 0.136482 0.000000
0.048375 0.137277 0.000000
0.094060 0.138071 0.000000
0.136497 0.138865 0.000000
0.177007 0.139658 0.000000
0.216159 0.140450 0.000000
0.254268 0.141242 0.000000
0.291536 0.142033 0.000000
0.328100 0.142823 0.000000
0.364061 0.143613 0.000000
0.399497 0.144402 0.000000
0.434466 0.145190 0.000000
0.469018 0.145978 0.000000
0.503192 0.146765 0.000000
0.537020 0.147551 0.000000
0.570532 0.148337 0.000000
0.603751 0.149122 0.000000
0.636698 0.149907 0.000000
0.669391 0.150691 0.000000
0.701846 0.151474 0.000000
0.734077 0.152257 0.000000
0.766098 0.153039 0.000000
0.797918 0.153821 0.000000
0.829550 0.154602 0.000000
0.861002 0.155382 0.000000
0.892282 0.156162 0.000000
0.923398 0.156941 0.000000
0.954358 0.157720 0.000000
0.985168 0.158498 0.000000
1.000000 0.159275 0.000000
1.000000 0.160052 0.000000
1.000000 0.160828 0.000000
1.000000 0.161604 0.000000
0.000000 0.175274 0.000000
0.046288 0.176040 0.000000
0.092175 0.176805 0.000000
0.134715 0.177570 0.000000
0.175294 0.178334 0.000000
0.214496 0.179098 0.000000
0.252646 0.179862 0.000000
0.289946 0.180624 0.000000
0.326538 0.181387 0.000000
0.362524 0.182149 0.000000
0.397981 0.182910 0.000000
0.432969 0.183671 0.000000
0.467538 0.184432 0.000000
0.501727 0.185192 0.000000
0.535570 0.185951 0.000000
0.569095 0.186710 0.000000
0.602326 0.187469 0.000000
0.635284 0.188227 0.000000
0.667988 0.188985 0.000000
0.700453 0.189742 0.000000
0.732694 0.190499 0.000000
0.764723 0.191255 0.000000
0.796552 0.192011 0.000000
0.828192 0.192767 0.000000
0.859651 0.193522 0.000000
0.890938 0.194276 0.000000
0.922062 0.195030 0.000000
0.953028 0.195784 0.000000
0.983845 0.196537 0.000000
1.000000 0.197290 0.000000
1.000000 0.198043 0.000000
1.000000 0.198795 0.000000
1.000000 0.199546 0.000000
0.000000 0.212808 0.000000
0.044187 0.213551 0.000000
0.090284 0.214295 0.000000
0.132929 0.215038 0.000000
0.173578 0.215781 0.000000
0.212831 0.216523 0.000000
0.251021 0.217265 0.000000
0.288355 0.218007 0.000000
0.324976 0.218748 0.000000
0.360986 0.219489 0.000000
0.396464 0.220229 0.000000
0.431472 0.220970 0.000000
0.466058 0.221709 0.000000
0.500262 0.222449 0.000000
0.534120 0.223188 0.000000
0.567658 0.223926 0.000000
0.600901 0.224665 0.000000
0.633871 0.225403 0.000000
0.666585 0.226140 0.000000
0.699060 0.226877 0.000000
0.731310 0.227614 0.000000
0.763348 0.228351 0.000000
0.795185 0.229087 0.000000
0.826833 0.229822 0.000000
0.858300 0.230558 0.000000
0.889594 0.231293 0.000000
0.920725 0.232028 0.000000
0.951698 0.232762 0.000000
0.982521 0.233496 0.000000
1.000000 0.234230 0.000000
1.000000 0.234963 0.000000
1.000000 0.235696 0.000000
1.000000 0.236429 0.000000
0.000000 0.249368 0.000000
0.042070 0.250094 0.000000
0.088386 0.250820 0.000000
0.131140 0.251546 0.000000
0.171859 0.252272 0.000000
0.211165 0.252997 0.000000
0.249396 0.253722 0.000000
0.286763 0.254446 0.000000
0.323412 0.255171 0.000000
0.359447 0.255895 0.000000
0.394946 0.256618 0.000000
0.429973 0.257342 0.000000
0.464576 0.258065 0.000000
0.498797 0.258788 0.000000
0.532668 0.259510 0.000000
0.566220 0.260232 0.000000
0.599475 0.260954 0.000000
0.632456 0.261676 0.000000
0.665181 0.262397 0.000000
0.697666 0.263118 0.000000
0.729925 0.263838 0.000000
0.761972 0.264559 0.000000
0.793818 0.265279 0.000000
0.825474 0.265999 0.000000
0.856948 0.266718 0.000000
0.888250 0.267437 0.000000
0.919387 0.268156 0.000000
0.950367 0.268875 0.000000
0.981196 0.269593 0.000000
1.000000 0.270311 0.000000
1.000000 0.271029 0.000000
1.000000 0.271746 0.000000
1.000000 0.272463 0.000000
0.000000 0.285138 0.000000
0.039938 0.285850 0.000000
0.086483 0.286562 0.000000
0.129347 0.287273 0.000000
0.170138 0.287984 0.000000
0.209496 0.288695 0.000000
0.247768 0.289406 0.000000
0.285170 0.290117 0.000000
0.321847 0.290827 0.000000
0.357906 0.291537 0.000000
0.393428 0.292246 0.000000
0.428474 0.292956 0.000000
0.463094 0.293665 0.000000
0.497331 0.294374 0.000000
0.531217 0.295082 0.000000
0.564781 0.295791 0.000000
0.598049 0.296499 0.000000
0.631041 0.297207 0.000000
0.663777 0.297914 0.000000
0.696272 0.298622 0.000000
0.728541 0.299329 0.000000
0.760597 0.300036 0.000000
0.792451 0.300742 0.000000
0.824115 0.301449 0.000000
0.855597 0.302155 0.000000
0.886906 0.302861 0.000000
0.918050 0.303566 0.000000
0.949036 0.304272 0.000000
0.979872 0.304977 0.000000
1.000000 0.305682 0.000000
1.000000 0.306386 0.000000
1.000000 0.307091 0.000000
1.000000 0.307795 0.000000
0.000000 0.320245 0.000000
0.037788 0.320945 0.000000
0.084573 0.321645 0.000000
0.127550 0.322344 0.000000
0.168414 0.323043 0.000000
0.207826 0.323742 0.000000
0.246139 0.324440 0.000000
0.283575 0.325139 0.000000
0.320281 0.325837 0.000000
0.356365 0.326535 0.000000
0.391908 0.327233 0.000000
0.426974 0.327930 0.000000
0.461612 0.328627 0.000000
0.495864 0.329324 0.000000
0.529764 0.330021 0.000000
0.563342 0.330718 0.000000
0.596622 0.331414 0.000000
0.629626 0.332110 0.000000
0.662372 0.332806 0.000000
0.694877 0.333502 0.000000
0.727156 0.334198 0.000000
0.759220 0.334893 0.000000
0.791083 0.335588 0.000000
0.822755 0.336283 0.000000
0.854244 0.336977 0.000000
0.885561 0.337672 0.000000
0.916712 0.338366 0.000000
0.947705 0.339060 0.000000
0.978547 0.339754 0.000000
1.000000 0.340447 0.000000
1.000000 0.341141 0.000000
1.000000 0.341834 0.000000
1.000000 0.342527 0.000000
0.000000 0.354783 0.000000
0.035620 0.355472 0.000000
0.082657 0.356161 0.000000
0.125750 0.356850 0.000000
0.166687 0.357538 0.000000
0.206153 0.358227 0.000000
0.244509 0.358915 0.000000
0.281979 0.359603 0.000000
0.318714 0.360290 0.000000
0.354823 0.360978 0.000000
0.390388 0.361665 0.000000
0.425473 0.362352 0.000000
0.460128 0.363039 0.000000
0.494396 0.363726 0.000000
0.528311 0.364413 0.000000
0.561902 0.365099 0.000000
0.595195 0.365785 0.000000
0.628210 0.366471 0.000000
0.660967 0.367157 0.000000
0.693482 0.367842 0.000000
0.725770 0.368528 0.000000
0.757844 0.369213 0.000000
0.789715 0.369898 0.000000
0.821395 0.370583 0.000000
0.852892 0.371267 0.000000
0.884216 0.371952 0.000000
0.915374 0.372636 0.000000
0.946374 0.373320 0.000000
0.977222 0.374004 0.000000
1.000000 0.374688 0.000000
1.000000 0.375371 0.000000
1.000000 0.376054 0.000000
1.000000 0.376737 0.000000
0.000000 0.388823 0.000000
0.033432 0.389503 0.000000
0.080734 0.390183 0.000000
0.123945 0.390862 0.000000
0.164958 0.391541 0.000000
0.204478 0.392220 0.000000
0.242877 0.392899 0.000000
0.280381 0.393577 0.000000
0.317146 0.394256 0.000000
0.353280 0.394934 0.000000
0.388867 0.395612 0.000000
0.423971 0.396290 0.000000
0.458644 0.396968 0.000000
0.492928 0.397646 0.000000
0.526858 0.398323 0.000000
0.560462 0.399000 0.000000
0.593767 0.399677 0.000000
0.626794 0.400354 0.000000
0.659562 0.401031 0.000000
0.692087 0.401708 0.000000
0.724384 0.402384 0.000000
0.756467 0.403060 0.000000
0.788347 0.403736 0.000000
0.820034 0.404412 0.000000
0.851539 0.405088 0.000000
0.882870 0.405763 0.000000
0.914035 0.406439 0.000000
0.945042 0.407114 0.000000
0.975896 0.407789 0.000000
1.000000 0.408464 0.000000
1.000000 0.409139 0.000000
1.000000 0.409813 0.000000
1.000000 0.410487 0.000000
0.000000 0.422421 0.000000
0.031222 0.423093 0.000000
0.078804 0.423764 0.000000
0.122137 0.424435 0.000000
0.163226 0.425106 0.000000
0.202802 0.425776 0.000000
0.241243 0.426447 0.000000
0.278783 0.427117 0.000000
0.315576 0.427787 0.000000
0.351736 0.428457 0.000000
0.387345 0.429127 0.000000
0.422469 0.429797 0.000000
0.457159 0.430467 0.000000
0.491459 0.431136 0.000000
0.525403 0.431805 0.000000
0.559022 0.432474 0.000000
0.592339 0.433143 0.000000
0.625377 0.433812 0.000000
0.658156 0.434481 0.000000
0.690691 0.435149 0.000000
0.722998 0.435818 0.000000
0.755090 0.436486 0.000000
0.786978 0.437154 0.000000
0.818674 0.437822 0.000000
0.850186 0.438489 0.000000
0.881525 0.439157 0.000000
0.912697 0.439824 0.000000
0.943710 0.440492 0.000000
0.974571 0.441159 0.000000
1.000000 0.441826 0.000000
1.000000 0.442493 0.000000
1.000000 0.443159 0.000000
1.000000 0.443826 0.000000
0.000000 0.455623 0.000000
0.028989 0.456287 0.000000
0.076867 0.456950 0.000000
0.120325 0.457614 0.000000
0.161492 0.458277 0.000000
0.201123 0.458940 0.000000
0.239608 0.459603 0.000000
0.277182 0.460266 0.000000
0.314005 0.460929 0.000000
0.350190 0.461591 0.000000
0.385822 0.462254 0.000000
0.420965 0.462916 0.000000
0.455674 0.463578 0.000000
0.489990 0.464240 0.000000
0.523949 0.464902 0.000000
0.557580 0.465564 0.000000
0.590910 0.466226 0.000000
0.623960 0.466887 0.000000
0.656749 0.467548 0.000000
0.689295 0.468210 0.000000
0.721611 0.468871 0.000000
0.753712 0.469531 0.000000
0.785609 0.470192 0.000000
0.817313 0.470853 0.000000
0.848833 0.471513 0.000000
0.880179 0.472174 0.000000
0.911358 0.472834 0.000000
0.942378 0.473494 0.000000
0.973245 0.474154 0.000000
1.000000 0.474814 0.000000
1.000000 0.475473 0.000000
1.000000 0.476133 0.000000
1.000000 0.476792 0.000000
0.000000 0.488465 0.000000
0.026729 0.489122 0.000000
0.074923 0.489779 0.000000
0.118508 0.490435 0.000000
0.159754 0.491092 0.000000
0.199442 0.491748 0.000000
0.237970 0.492404 0.000000
0.275581 0.493060 0.000000
0.312434 0.493716 0.000000
0.348644 0.494372 0.000000
0.384298 0.495028 0.000000
0.419461 0.495683 0.000000
0.454188 0.496339 0.000000
0.488520 0.496994 0.000000
0.522493 0.497649 0.000000
0.556138 0.498304 0.000000
0.589481 0.498959 0.000000
0.622542 0.499614 0.000000
0.655342 0.500268 0.000000
0.687898 0.500923 0.000000
0.720224 0.501577 0.000000
0.752334 0.502231 0.000000
0.784239 0.502886 0.000000
0.815951 0.503540 0.000000
0.847479 0.504193 0.000000
0.878832 0.504847 0.000000
0.910018 0.505501 0.000000
0.941045 0.506154 0.000000
0.971919 0.506808 0.000000
1.000000 0.507461 0.000000
1.000000 0.508114 0.000000
1.000000 0.508767 0.000000
1.000000 0.509420 0.000000
0.000000 0.520979 0.000000
0.024440 0.521629 0.000000
0.072971 0.522280 0.000000
0.116688 0.522930 0.000000
0.158014 0.523580 0.000000
0.197759 0.524230 0.000000
0.236332 0.524880 0.000000
0.273978 0.525530 0.000000
0.310861 0.526180 0.000000
0.347097 0.526829 0.000000
0.382773 0.527479 0.000000
0.417957 0.528128 0.000000
0.452701 0.528777 0.000000
0.487049 0.529426 0.000000
0.521037 0.530075 0.000000
0.554696 0.530724 0.000000
0.588051 0.531373 0.000000
0.621124 0.532022 0.000000
0.653935 0.532670 0.000000
0.686501 0.533319 0.000000
0.718837 0.533967 0.000000
0.750956 0.534615 0.000000
0.782870 0.535263 0.000000
0.814590 0.535911 0.000000
0.846125 0.536559 0.000000
0.877486 0.537206 0.000000
0.908679 0.537854 0.000000
0.939712 0.538501 0.000000
0.970592 0.539149 0.000000
1.000000 0.539796 0.000000
1.000000 0.540443 0.000000
1.000000 0.541090 0.000000
1.000000 0.541737 0.000000
0.000000 0.553191 0.000000
0.022119 0.553836 0.000000
0.071011 0.554480 0.000000
0.114863 0.555125 0.000000
0.156271 0.555769 0.000000
0.196074 0.556413 0.000000
0.234691 0.557058 0.000000
0.272373 0.557702 0.000000
0.309286 0.558346 0.000000
0.345548 0.558989 0.000000
0.381247 0.559633 0.000000
0.416451 0.560277 0.000000
0.451213 0.560920 0.000000
0.485577 0.561564 0.000000
0.519581 0.562207 0.000000
0.553253 0.562850 0.000000
0.586620 0.563493 0.000000
0.619705 0.564136 0.000000
0.652527 0.564779 0.000000
0.685104 0.565422 0.000000
0.717449 0.566064 0.000000
0.749577 0.566707 0.000000
0.781499 0.567349 0.000000
0.813228 0.567991 0.000000
0.844771 0.568633 0.000000
0.876139 0.569276 0.000000
0.907339 0.569917 0.000000
0.938379 0.570559 0.000000
0.969266 0.571201 0.000000
1.000000 0.571843 0.000000
1.000000 0.572484 0.000000
1.000000 0.573126 0.000000
1.000000 0.573767 0.000000
0.000000 0.585124 0.000000
0.019760 0.585763 0.000000
0.069044 0.586403 0.000000
0.113033 0.587042 0.000000
0.154525 0.587681 0.000000
0.194386 0.588320 0.000000
0.233049 0.588958 0.000000
0.270767 0.589597 0.000000
0.307711 0.590236 0.000000
0.343999 0.590874 0.000000
0.379721 0.591512 0.000000
0.414944 0.592151 0.000000
0.449724 0.592789 0.000000
0.484105 0.593427 0.000000
0.518123 0.594065 0.000000
0.551809 0.594703 0.000000
0.585190 0.595341 0.000000
0.618286 0.595978 0.000000
0.651119 0.596616 0.000000
0.683706 0.597253 0.000000
0.716061 0.597891 0.000000
0.748198 0.598528 0.000000
0.780129 0.599165 0.000000
0.811865 0.599802 0.000000
0.843416 0.600439 0.000000
0.874791 0.601076 0.000000
0.905999 0.601713 0.000000
0.937045 0.602349 0.000000
0.967939 0.602986 0.000000
0.998685 0.603622 0.000000
1.000000 0.604259 0.000000
1.000000 0.604895 0.000000
1.000000 0.605531 0.000000
0.000000 0.616798 0.000000
0.017358 0.617432 0.000000
0.067067 0.618066 0.000000
0.111200 0.618700 0.000000
0.152775 0.619334 0.000000
0.192697 0.619968 0.000000
0.231405 0.620602 0.000000
0.269160 0.621235 0.000000
0.306134 0.621869 0.000000
0.342449 0.622503 0.000000
0.378193 0.623136 0.000000
0.413437 0.623769 0.000000
0.448235 0.624403 0.000000
0.482632 0.625036 0.000000
0.516666 0.625669 0.000000
0.550365 0.626302 0.000000
0.583758 0.626934 0.000000
0.616867 0.627567 0.000000
0.649711 0.628200 0.000000
0.682307 0.628832 0.000000
0.714672 0.629465 0.000000
0.746818 0.630097 0.000000
0.778758 0.630729 0.000000
0.810502 0.631362 0.000000
0.842061 0.631994 0.000000
0.873444 0.632626 0.000000
0.904658 0.633257 0.000000
0.935712 0.633889 0.000000
0.966611 0.634521 0.000000
0.997364 0.635153 0.000000
1.000000 0.635784 0.000000
1.000000 0.636415 0.000000
1.000000 0.637047 0.000000
0.000000 0.648229 0.000000
0.014905 0.648858 0.000000
0.065082 0.649488 0.000000
0.109361 0.650117 0.000000
0.151023 0.650747 0.000000
0.191005 0.651376 0.000000
0.229759 0.652005 0.000000
0.267551 0.652634 0.000000
0.304556 0.653263 0.000000
0.340897 0.653892 0.000000
0.376665 0.654520 0.000000
0.411929 0.655149 0.000000
0.446745 0.655778 0.000000
0.481159 0.656406 0.000000
0.515207 0.657035 0.000000
0.548921 0.657663 0.000000
0.582326 0.658291 0.000000
0.615446 0.658919 0.000000
0.648301 0.659547 0.000000
0.680908 0.660175 0.000000
0.713283 0.660803 0.000000
0.745438 0.661431 0.000000
0.777387 0.662059 0.000000
0.809139 0.662686 0.000000
0.840706 0.663314 0.000000
0.872096 0.663941 0.000000
0.903317 0.664568 0.000000
0.934378 0.665196 0.000000
0.965284 0.665823 0.000000
0.996042 0.666450 0.000000
1.000000 0.667077 0.000000
1.000000 0.667704 0.000000
1.000000 0.668330 0.000000
0.000000 0.679433 0.000000
0.012390 0.680058 0.000000
0.063088 0.680683 0.000000
0.107519 0.681308 0.000000
0.149268 0.681933 0.000000
0.189311 0.682558 0.000000
0.228112 0.683183 0.000000
0.265941 0.683807 0.000000
0.302977 0.684432 0.000000
0.339345 0.685056 0.000000
0.375135 0.685681 0.000000
0.410420 0.686305 0.000000
0.445255 0.686929 0.000000
0.479685 0.687553 0.000000
0.513748 0.688177 0.000000
0.547475 0.688801 0.000000
0.580894 0.689425 0.000000
0.614026 0.690049 0.000000
0.646892 0.690673 0.000000
0.679509 0.691296 0.000000
0.711893 0.691920 0.000000
0.744058 0.692543 0.000000
0.776015 0.693167 0.000000
0.807776 0.693790 0.000000
0.839350 0.694413 0.000000
0.870748 0.695036 0.000000
0.901976 0.695659 0.000000
0.933043 0.696282 0.000000
0.963956 0.696905 0.000000
0.994721 0.697528 0.000000
1.000000 0.698151 0.000000
1.000000 0.698773 0.000000
1.000000 0.699396 0.000000
0.000000 0.710424 0.000000
0.009795 0.711045 0.000000
0.061084 0.711666 0.000000
0.105671 0.712286 0.000000
0.147510 0.712907 0.000000
0.187615 0.713528 0.000000
0.226462 0.714148 0.000000
0.264330 0.714769 0.000000
0.301397 0.715389 0.000000
0.337791 0.716010 0.000000
0.373605 0.716630 0.000000
0.408910 0.717250 0.000000
0.443763 0.717870 0.000000
0.478210 0.718490 0.000000
0.512288 0.719110 0.000000
0.546029 0.719730 0.000000
0.579461 0.720350 0.000000
0.612605 0.720970 0.000000
0.645482 0.721589 0.000000
0.678110 0.722209 0.000000
0.710503 0.722828 0.000000
0.742677 0.723448 0.000000
0.774643 0.724067 0.000000
0.806412 0.724686 0.000000
0.837994 0.725305 0.000000
0.869399 0.725924 0.000000
0.900635 0.726543 0.000000
0.931709 0.727162 0.000000
0.962628 0.727781 0.000000
0.993399 0.728400 0.000000
1.000000 0.729018 0.000000
1.000000 0.729637 0.000000
1.000000 0.730255 0.000000
0.000000 0.741213 0.000000
0.007090 0.741830 0.000000
0.059070 0.742447 0.000000
0.103818 0.743064 0.000000
0.145749 0.743681 0.000000
0.185916 0.744297 0.000000
0.224811 0.744914 0.000000
0.262716 0.745531 0.000000
0.299815 0.746147 0.000000
0.336236 0.746764 0.000000
0.372074 0.747380 0.000000
0.407399 0.747996 0.000000
0.442271 0.748612 0.000000
0.476735 0.749229 0.000000
0.510828 0.749845 0.000000
0.544583 0.750461 0.000000
0.578027 0.751076 0.000000
0.611183 0.751692 0.000000
0.644071 0.752308 0.000000
0.676709 0.752924 0.000000
0.709113 0.753539 0.000000
0.741296 0.754155 0.000000
0.773270 0.754770 0.000000
0.805048 0.755386 0.000000
0.836638 0.756001 0.000000
0.868051 0.756616 0.000000
0.899293 0.757231 0.000000
0.930374 0.757846 0.000000
0.961300 0.758461 0.000000
0.992077 0.759076 0.000000
1.000000 0.759691 0.000000
1.000000 0.760306 0.000000
1.000000 0.760921 0.000000
0.000000 0.771811 0.000000
0.004216 0.772425 0.000000
0.057046 0.773038 0.000000
0.101961 0.773651 0.000000
0.143984 0.774264 0.000000
0.184215 0.774877 0.000000
0.223158 0.775490 0.000000
0.261102 0.776103 0.000000
0.298233 0.776716 0.000000
0.334681 0.777329 0.000000
0.370541 0.777941 0.000000
0.405888 0.778554 0.000000
0.440778 0.779166 0.000000
0.475258 0.779779 0.000000
0.509367 0.780391 0.000000
0.543136 0.781003 0.000000
0.576593 0.781616 0.000000
0.609761 0.782228 0.000000
0.642660 0.782840 0.000000
0.675309 0.783452 0.000000
0.707722 0.784064 0.000000
0.739914 0.784676 0.000000
0.771898 0.785288 0.000000
0.803683 0.785899 0.000000
0.835282 0.786511 0.000000
0.866701 0.787122 0.000000
0.897951 0.787734 0.000000
0.929039 0.788345 0.000000
0.959971 0.788957 0.000000
0.990754 0.789568 0.000000
1.000000 0.790179 0.000000
1.000000 0.790791 0.000000
1.000000 0.791402 0.000000
0.000000 0.802229 0.000000
0.000957 0.802838 0.000000
0.055012 0.803448 0.000000
0.100098 0.804058 0.000000
0.142216 0.804667 0.000000
0.182512 0.805277 0.000000
0.221503 0.805886 0.000000
0.259486 0.806496 0.000000
0.296649 0.807105 0.000000
0.333124 0.807714 0.000000
0.369008 0.808323 0.000000
0.404376 0.808932 0.000000
0.439284 0.809541 0.000000
0.473781 0.810150 0.000000
0.507905 0.810759 0.000000
0.541689 0.811368 0.000000
0.575158 0.811977 0.000000
0.608338 0.812585 0.000000
0.641249 0.813194 0.000000
0.673908 0.813803 0.000000
0.706331 0.814411 0.000000
0.738533 0.815019 0.000000
0.770525 0.815628 0.000000
0.802319 0.816236 0.000000
0.833925 0.816844 0.000000
0.865352 0.817452 0.000000
0.896609 0.818060 0.000000
0.927703 0.818668 0.000000
0.958642 0.819276 0.000000
0.989432 0.819884 0.000000
1.000000 0.820492 0.000000
1.000000 0.821100 0.000000
1.000000 0.821707 0.000000
0.000000 0.832474 0.000000
0.000000 0.833081 0.000000
0.052965 0.833687 0.000000
0.098230 0.834293 0.000000
0.140445 0.834899 0.000000
0.180806 0.835505 0.000000
0.219847 0.836112 0.000000
0.257868 0.836718 0.000000
0.295063 0.837323 0.000000
0.331566 0.837929 0.000000
0.367474 0.838535 0.000000
0.402862 0.839141 0.000000
0.437790 0.839747 0.000000
0.472304 0.840352 0.000000
0.506443 0.840958 0.000000
0.540240 0.841563 0.000000
0.573723 0.842169 0.000000
0.606915 0.842774 0.000000
0.639837 0.843379 0.000000
0.672507 0.843984 0.000000
0.704940 0.844590 0.000000
0.737150 0.845195 0.000000
0.769151 0.845800 0.000000
0.800953 0.846405 0.000000
0.832567 0.847010 0.000000
0.864002 0.847614 0.000000
0.895266 0.848219 0.000000
0.926368 0.848824 0.000000
0.957313 0.849428 0.000000
0.988109 0.850033 0.000000
1.000000 0.850638 0.000000
1.000000 0.851242 0.000000
1.000000 0.851846 0.000000
0.000000 0.862556 0.000000
0.000000 0.863159 0.000000
0.050907 0.863762 0.000000
0.096357 0.864365 0.000000
0.138671 0.864968 0.000000
0.179098 0.865571 0.000000
0.218188 0.866174 0.000000
0.256249 0.866776 0.000000
0.293477 0.867379 0.000000
0.330007 0.867982 0.000000
0.365939 0.868584 0.000000
0.401348 0.869187 0.000000
0.436295 0.869790 0.000000
0.470826 0.870392 0.000000
0.504980 0.870994 0.000000
0.538792 0.871597 0.000000
0.572287 0.872199 0.000000
0.605492 0.872801 0.000000
0.638425 0.873403 0.000000
0.671105 0.874005 0.000000
0.703548 0.874607 0.000000
0.735768 0.875209 0.000000
0.767777 0.875811 0.000000
0.799588 0.876413 0.000000
0.831210 0.877015 0.000000
0.862652 0.877616 0.000000
0.893923 0.878218 0.000000
0.925032 0.878819 0.000000
0.955983 0.879421 0.000000
0.986786 0.880022 0.000000
1.000000 0.880624 0.000000
1.000000 0.881225 0.000000
1.000000 0.881826 0.000000
0.000000 0.892480 0.000000
0.000000 0.893080 0.000000
0.048837 0.893680 0.000000
0.094479 0.894280 0.000000
0.136893 0.894880 0.000000
0.177388 0.895480 0.000000
0.216528 0.896080 0.000000
0.254628 0.896680 0.000000
0.291889 0.897279 0.000000
0.328447 0.897879 0.000000
0.364403 0.898479 0.000000
0.399833 0.899078 0.000000
0.434799 0.899678 0.000000
0.469347 0.900277 0.000000
0.503517 0.900876 0.000000
0.537342 0.901476 0.000000
0.570851 0.902075 0.000000
0.604067 0.902674 0.000000
0.637012 0.903273 0.000000
0.669702 0.903872 0.000000
0.702155 0.904471 0.000000
0.734385 0.905070 0.000000
0.766403 0.905669 0.000000
0.798222 0.906268 0.000000
0.829852 0.906866 0.000000
