presets/film_stocks/Agfa_Vista_100.cube
# 独寻胶片模拟 -- Agfa Vista 100
# Agfa, ISO 100, 2001, negative
TITLE "Agfa Vista 100"
LUT_3D_SIZE 9
DOMAIN_MIN 0.0 0.0 0.0
DOMAIN_MAX 1.0 1.0 1.0
0.000000 0.000000 0.000000
0.182133 0.005866 0.000000
0.332778 0.010718 0.000000
0.473453 0.015249 0.000000
0.608022 0.019583 0.000000
0.738225 0.023776 0.000000
0.865052 0.027861 0.000000
0.989138 0.031858 0.000000
1.000000 0.035780 0.000000
0.000000 0.175274 0.000000
0.175294 0.178334 0.000000
0.326538 0.181387 0.000000
0.467538 0.184432 0.000000
0.602326 0.187469 0.000000
0.732694 0.190499 0.000000
0.859651 0.193522 0.000000
0.983845 0.196537 0.000000
1.000000 0.199546 0.000000
0.000000 0.320245 0.000000
0.168414 0.323043 0.000000
0.320281 0.325837 0.000000
0.461612 0.328627 0.000000
0.596622 0.331414 0.000000
0.727156 0.334198 0.000000
0.854244 0.336977 0.000000
0.978547 0.339754 0.000000
1.000000 0.342527 0.000000
0.000000 0.455623 0.000000
0.161492 0.458277 0.000000
0.314005 0.460929 0.000000
0.455674 0.463578 0.000000
0.590910 0.466226 0.000000
0.721611 0.468871 0.000000
0.848833 0.471513 0.000000
0.973245 0.474154 0.000000
1.000000 0.476792 0.000000
0.000000 0.585124 0.000000
0.154525 0.587681 0.000000
0.307711 0.590236 0.000000
0.449724 0.592789 0.000000
0.585190 0.595341 0.000000
0.716061 0.597891 0.000000
0.843416 0.600439 0.000000
0.967939 0.602986 0.000000
1.000000 0.605531 0.000000
0.000000 0.710424 0.000000
0.147510 0.712907 0.000000
0.301397 0.715389 0.000000
0.443763 0.717870 0.000000
0.579461 0.720350 0.000000
0.710503 0.722828 0.000000
0.837994 0.725305 0.000000
0.962628 0.727781 0.000000
1.000000 0.730255 0.000000
0.000000 0.832474 0.000000
0.140445 0.834899 0.000000
0.295063 0.837323 0.000000
0.437790 0.839747 0.000000
0.573723 0.842169 0.000000
0.704940 0.844590 0.000000
0.832567 0.847010 0.000000
0.957313 0.849428 0.000000
1.000000 0.851846 0.000000
0.000000 0.951887 0.000000
0.133326 0.954264 0.000000
0.288709 0.956640 0.000000
0.431804 0.959015 0.000000
0.567977 0.961390 0.000000
0.699369 0.963763 0.000000
0.827135 0.966136 0.000000
0.951993 0.968507 0.000000
1.000000 0.970878 0.000000
0.000000 1.000000 0.000000
0.126150 1.000000 0.000000
0.282334 1.000000 0.000000
0.425806 1.000000 0.000000
0.562222 1.000000 0.000000
0.693792 1.000000 0.000000
0.821697 1.000000 0.000000
0.946670 1.000000 0.000000
1.000000 1.000000 0.000000
0.000000 0.000000 0.170888
0.170854 0.000000 0.166468
0.322499 0.000000 0.162030
0.463711 0.000000 0.157573
0.598643 0.000000 0.153098
0.729117 0.002190 0.148602
0.856159 0.007478 0.144087
0.980423 0.012204 0.139550
1.000000 0.016662 0.134990
0.000000 0.160848 0.168378
0.163947 0.163947 0.163947
0.316229 0.167038 0.159499
0.457777 0.170121 0.155032
0.592933 0.173195 0.150545
0.723575 0.176260 0.146038
0.850749 0.179318 0.141511
0.975123 0.182368 0.136961
1.000000 0.185411 0.132389
0.000000 0.307108 0.165862
0.156996 0.309924 0.161421
0.309942 0.312735 0.156962
0.451832 0.315543 0.152484
0.587216 0.318346 0.147986
0.718026 0.321147 0.143467
0.845335 0.323943 0.138927
0.969818 0.326736 0.134365
1.000000 0.329525 0.129779
0.000000 0.443176 0.163340
0.149999 0.445841 0.158889
0.303635 0.448504 0.154419
0.445875 0.451164 0.149929
0.581490 0.453822 0.145420
0.712472 0.456478 0.140889
0.839915 0.459131 0.136337
0.964509 0.461782 0.131761
1.000000 0.464431 0.127162
0.000000 0.573142 0.160812
0.142952 0.575706 0.156350
0.297308 0.578269 0.151869
0.439906 0.580830 0.147369
0.575755 0.583390 0.142847
0.706910 0.585947 0.138304
0.834489 0.588504 0.133739
0.959195 0.591058 0.129150
1.000000 0.593611 0.124536
0.000000 0.698789 0.158278
0.135853 0.701278 0.153806
0.290961 0.703767 0.149314
0.433925 0.706254 0.144801
0.570012 0.708739 0.140268
0.701342 0.711224 0.135712
0.829059 0.713707 0.131133
0.953877 0.716188 0.126530
1.000000 0.718669 0.121902
0.000000 0.821115 0.155738
0.128698 0.823545 0.151255
0.284593 0.825974 0.146751
0.427931 0.828402 0.142227
0.564261 0.830829 0.137681
0.695767 0.833255 0.133112
0.823623 0.835680 0.128520
0.948555 0.838104 0.123903
1.000000 0.840527 0.119260
0.000000 0.940755 0.153192
0.121482 0.943137 0.148697
0.278204 0.945517 0.144182
0.421925 0.947896 0.139645
0.558500 0.950275 0.135087
0.690186 0.952652 0.130505
0.818182 0.955029 0.125898
0.943228 0.957405 0.121267
1.000000 0.959780 0.116608
0.000000 1.000000 0.150640
0.114202 1.000000 0.146133
0.271793 1.000000 0.141606
0.415906 1.000000 0.137057
0.552731 1.000000 0.132485
0.684598 1.000000 0.127889
0.812735 1.000000 0.123269
0.937897 1.000000 0.118622
1.000000 1.000000 0.113948
0.000000 0.000000 0.312232
0.159463 0.000000 0.308198
0.312170 0.000000 0.304156
0.453938 0.000000 0.300105
0.589241 0.000000 0.296046
0.719992 0.000000 0.291979
0.847252 0.000000 0.287904
0.971696 0.000000 0.283820
1.000000 0.000000 0.279727
0.000000 0.146224 0.309940
0.152482 0.149368 0.305901
0.305870 0.152502 0.301854
0.447986 0.155626 0.297799
0.583518 0.158741 0.293736
0.714439 0.161847 0.289664
0.841834 0.164944 0.285583
0.966389 0.168032 0.281494
1.000000 0.171111 0.277396
0.000000 0.293887 0.307645
0.145453 0.296720 0.303602
0.299550 0.299550 0.299550
0.442021 0.302376 0.295490
0.577787 0.305198 0.291422
0.708880 0.308015 0.287346
0.836411 0.310829 0.283260
0.961077 0.313639 0.279166
1.000000 0.316446 0.275063
0.000000 0.430676 0.305348
0.138373 0.433353 0.301300
0.293210 0.436027 0.297244
0.436044 0.438698 0.293179
0.572047 0.441368 0.289106
0.703314 0.444034 0.285024
0.830982 0.446699 0.280934
0.955761 0.449361 0.276835
1.000000 0.452020 0.272726
0.000000 0.561122 0.303048
0.131238 0.563694 0.298995
0.286850 0.566265 0.294934
0.430055 0.568834 0.290865
0.566298 0.571402 0.286787
0.697742 0.573968 0.282700
0.825548 0.576532 0.278605
0.950440 0.579094 0.274500
1.000000 0.581655 0.270387
0.000000 0.687125 0.300745
0.124044 0.689620 0.296688
0.280469 0.692115 0.292622
0.424053 0.694608 0.288548
0.560541 0.697100 0.284465
0.692163 0.699591 0.280374
0.820109 0.702080 0.276273
0.945115 0.704568 0.272163
1.000000 0.707054 0.268044
0.000000 0.809732 0.298440
0.116787 0.812167 0.294378
0.274065 0.814601 0.290307
0.418039 0.817035 0.286228
0.554775 0.819467 0.282140
0.686577 0.821898 0.278044
0.814664 0.824327 0.273938
0.939785 0.826756 0.269823
1.000000 0.829184 0.265698
0.000000 0.929604 0.296132
0.109462 0.931990 0.292065
0.267639 0.934374 0.287990
0.412011 0.936758 0.283906
0.548999 0.939140 0.279813
0.680985 0.941522 0.275711
0.809214 0.943903 0.271600
0.934450 0.946283 0.267480
1.000000 0.948662 0.263350
0.000000 1.000000 0.293821
0.102062 1.000000 0.289750
0.261190 1.000000 0.285669
0.405970 1.000000 0.281580
0.543215 1.000000 0.277482
0.675385 1.000000 0.273375
0.803758 1.000000 0.269259
0.929112 1.000000 0.265133
1.000000 1.000000 0.260998
0.000000 0.000000 0.444223
0.147947 0.000000 0.440397
0.301790 0.000000 0.436567
0.444134 0.000000 0.432732
0.579817 0.000000 0.428891
0.710849 0.000000 0.425045
0.838331 0.000000 0.421194
0.962958 0.000000 0.417338
1.000000 0.000000 0.413477
0.000000 0.131378 0.442049
0.140886 0.134572 0.438221
0.295457 0.137754 0.434387
0.438161 0.140926 0.430549
0.574080 0.144087 0.426706
0.705285 0.147238 0.422857
0.832905 0.150378 0.419003
0.957643 0.153509 0.415144
1.000000 0.156630 0.411279
0.000000 0.280575 0.439873
0.133770 0.283429 0.436042
0.289104 0.286278 0.432206
0.432177 0.289123 0.428365
0.568334 0.291963 0.424519
0.699715 0.294800 0.420667
0.827473 0.297632 0.416810
0.952324 0.300460 0.412948
1.000000 0.303285 0.409080
0.000000 0.418122 0.437696
0.126598 0.420810 0.433862
0.282730 0.423496 0.430023
0.426179 0.426179 0.426179
0.562580 0.428860 0.422330
0.694139 0.431538 0.418475
0.822035 0.434214 0.414615
0.947000 0.436887 0.410750
1.000000 0.439558 0.406879
0.000000 0.549063 0.435518
0.119364 0.551644 0.431681
0.276335 0.554223 0.427839
0.420169 0.556801 0.423992
0.556817 0.559376 0.420140
0.688556 0.561950 0.416282
0.816592 0.564522 0.412419
0.941672 0.567093 0.408551
1.000000 0.569661 0.404677
0.000000 0.675431 0.433337
0.112063 0.677933 0.429498
0.269917 0.680434 0.425653
0.414147 0.682933 0.421803
0.551045 0.685432 0.417948
0.682965 0.687928 0.414087
0.811144 0.690424 0.410221
0.936340 0.692918 0.406349
1.000000 0.695411 0.402472
0.000000 0.798325 0.431155
0.104691 0.800766 0.427313
0.263476 0.803205 0.423465
0.408111 0.805643 0.419612
0.545264 0.808080 0.415754
0.677368 0.810516 0.411890
0.805690 0.812951 0.408021
0.931002 0.815385 0.404146
1.000000 0.817818 0.400266
0.000000 0.918433 0.428972
0.097240 0.920823 0.425126
0.257011 0.923211 0.421276
0.402061 0.925599 0.417420
0.539474 0.927986 0.413558
0.671765 0.930372 0.409691
0.800231 0.932758 0.405819
0.925660 0.935142 0.401941
1.000000 0.937525 0.398058
0.000000 1.000000 0.426787
0.089702 1.000000 0.422938
0.250522 1.000000 0.419084
0.395998 1.000000 0.415225
0.533674 1.000000 0.411361
0.666154 1.000000 0.407491
0.794766 1.000000 0.403615
0.920314 1.000000 0.399734
1.000000 1.000000 0.395848
0.000000 0.000000 0.570483
0.136296 0.000000 0.566800
0.291356 0.000000 0.563112
0.434297 0.000000 0.559421
0.570370 0.000000 0.555726
0.701688 0.000000 0.552028
0.829396 0.000000 0.548326
0.954208 0.000000 0.544620
1.000000 0.000000 0.540910
0.000000 0.116275 0.568390
0.129144 0.119527 0.564704
0.284989 0.122766 0.561014
0.428304 0.125992 0.557321
0.564618 0.129206 0.553624
0.696114 0.132408 0.549924
0.823961 0.135598 0.546220
0.948886 0.138777 0.542512
1.000000 0.141945 0.538800
0.000000 0.267168 0.566295
0.121932 0.270043 0.562607
0.278602 0.272912 0.558916
0.422299 0.275777 0.555220
0.558858 0.278638 0.551521
0.690533 0.281495 0.547819
0.818520 0.284347 0.544112
0.943559 0.287194 0.540402
1.000000 0.290038 0.536688
0.000000 0.405511 0.564199
0.114656 0.408211 0.560509
0.272192 0.410909 0.556816
0.416280 0.413605 0.553118
0.553090 0.416298 0.549417
0.684945 0.418988 0.545712
0.813073 0.421675 0.542004
0.938228 0.424360 0.538291
1.000000 0.427043 0.534575
0.000000 0.536964 0.562102
0.107310 0.539554 0.558410
0.265759 0.542142 0.554714
0.410249 0.544728 0.551015
0.547312 0.547312 0.547312
0.679351 0.549894 0.543605
0.807622 0.552475 0.539894
0.932892 0.555053 0.536180
1.000000 0.557630 0.532461
0.000000 0.663706 0.560004
0.099887 0.666215 0.556310
0.259303 0.668723 0.552612
0.404204 0.671229 0.548910
0.541525 0.673733 0.545205
0.673749 0.676237 0.541496
0.802164 0.678738 0.537783
0.927552 0.681239 0.534066
1.000000 0.683738 0.530346
0.000000 0.786894 0.557905
0.092381 0.789339 0.554208
0.252823 0.791784 0.550508
0.398146 0.794228 0.546805
0.535728 0.796670 0.543097
0.668141 0.799111 0.539386
0.796701 0.801551 0.535671
0.922207 0.803990 0.531952
1.000000 0.806428 0.528229
0.000000 0.907241 0.555804
0.084782 0.909635 0.552106
0.246317 0.912028 0.548404
0.392074 0.914421 0.544698
0.529923 0.916812 0.540988
0.662525 0.919202 0.537275
0.791233 0.921592 0.533557
0.916858 0.923980 0.529836
1.000000 0.926368 0.526111
0.000000 1.000000 0.553702
0.077079 1.000000 0.550002
0.239786 1.000000 0.546298
0.385988 1.000000 0.542590
0.524107 1.000000 0.538878
0.656903 1.000000 0.535162
0.785758 1.000000 0.531443
0.911504 1.000000 0.527719
1.000000 1.000000 0.523992
0.000000 0.000000 0.692648
0.124493 0.000000 0.689070
0.280866 0.000000 0.685490
0.424426 0.000000 0.681906
0.560899 0.000000 0.678320
0.692510 0.000000 0.674731
0.820447 0.000000 0.671139
0.945445 0.000000 0.667544
1.000000 0.000000 0.663946
0.000000 0.100870 0.690615
0.117240 0.104191 0.687035
0.274464 0.107496 0.683453
0.418413 0.110786 0.679868
0.555133 0.114062 0.676280
0.686924 0.117323 0.672689
0.815002 0.120571 0.669096
0.940116 0.123806 0.665499
1.000000 0.127028 0.661900
0.000000 0.253659 0.688580
0.109919 0.256556 0.684999
0.268039 0.259448 0.681416
0.412386 0.262335 0.677829
0.549358 0.265217 0.674239
0.681332 0.268094 0.670647
0.809552 0.270967 0.667052
0.934782 0.273835 0.663454
1.000000 0.276699 0.659852
0.000000 0.392840 0.686545
0.102524 0.395554 0.682963
0.261591 0.398265 0.679377
0.406346 0.400973 0.675789
0.543575 0.403678 0.672198
0.675733 0.406381 0.668604
0.804097 0.409081 0.665007
0.929443 0.411778 0.661407
1.000000 0.414472 0.657804
0.000000 0.524824 0.684509
0.095048 0.527423 0.680925
0.255120 0.530020 0.677338
0.400293 0.532614 0.673748
0.537782 0.535207 0.670155
0.670127 0.537798 0.666559
0.798636 0.540387 0.662961
0.924100 0.542975 0.659359
1.000000 0.545560 0.655755
0.000000 0.651951 0.682472
0.087483 0.654466 0.678886
0.248623 0.656981 0.675298
0.394225 0.659493 0.671706
0.531979 0.662005 0.668112
0.664514 0.664514 0.664514
0.793169 0.667023 0.660914
0.918752 0.669530 0.657311
1.000000 0.672035 0.653705
0.000000 0.775437 0.680434
0.079819 0.777888 0.676847
0.242101 0.780338 0.673256
0.388144 0.782787 0.669663
0.526167 0.785235 0.666067
0.658894 0.787681 0.662468
0.787697 0.790127 0.658866
0.913400 0.792571 0.655261
1.000000 0.795014 0.651654
0.000000 0.896028 0.678395
0.072042 0.898427 0.674806
0.235553 0.900825 0.671214
0.382049 0.903221 0.667620
0.520346 0.905617 0.664022
0.653267 0.908012 0.660421
0.782219 0.910406 0.656818
0.908043 0.912799 0.653211
1.000000 0.915191 0.649602
0.000000 1.000000 0.676356
0.064136 1.000000 0.672765
0.228977 1.000000 0.669171
0.375939 1.000000 0.665575
0.514514 1.000000 0.661976
0.647632 1.000000 0.658373
0.776735 1.000000 0.654768
0.902681 1.000000 0.651160
1.000000 1.000000 0.647548
0.000000 0.000000 0.811644
0.112519 0.000000 0.808151
0.270316 0.000000 0.804655
0.414521 0.000000 0.801157
0.551404 0.000000 0.797657
0.683313 0.000000 0.794154
0.811482 0.000000 0.790649
0.936671 0.000000 0.787142
1.000000 0.000000 0.783632
0.000000 0.085103 0.809659
0.105151 0.088508 0.806164
0.263877 0.091893 0.802667
0.408486 0.095260 0.799168
0.545623 0.098609 0.795666
0.677716 0.101941 0.792162
0.806029 0.105257 0.788656
0.931334 0.108557 0.785147
1.000000 0.111843 0.781636
0.000000 0.240042 0.807673
0.097705 0.242962 0.804177
0.257414 0.245878 0.800678
0.402437 0.248788 0.797178
0.539834 0.251693 0.793675
0.672113 0.254593 0.790169
0.800570 0.257488 0.786662
0.925992 0.260378 0.783152
1.000000 0.263263 0.779639
0.000000 0.380109 0.805686
0.090173 0.382836 0.802188
0.250926 0.385560 0.798689
0.396375 0.388281 0.795187
0.534035 0.390999 0.791682
0.666502 0.393715 0.788176
0.795105 0.396427 0.784667
0.920646 0.399137 0.781155
1.000000 0.401844 0.777642
0.000000 0.512642 0.803698
0.082544 0.515250 0.800199
0.244413 0.517856 0.796698
0.390299 0.520460 0.793195
0.528226 0.523061 0.789689
0.660885 0.525661 0.786181
0.789635 0.528259 0.782671
0.915295 0.530855 0.779158
1.000000 0.533449 0.775643
0.000000 0.640163 0.801710
0.074809 0.642686 0.798210
0.237874 0.645207 0.794707
0.384208 0.647726 0.791203
0.522408 0.650244 0.787696
0.655260 0.652761 0.784186
0.784159 0.655276 0.780675
0.909940 0.657790 0.777161
1.000000 0.660302 0.773644
0.000000 0.763956 0.799720
0.066951 0.766412 0.796219
0.231308 0.768868 0.792715
0.378104 0.771322 0.789209
0.516580 0.773775 0.785701
0.649628 0.776227 0.782190
0.778677 0.778677 0.778677
0.904580 0.781127 0.775162
1.000000 0.783576 0.771644
0.000000 0.884795 0.797730
0.058952 0.887198 0.794228
0.224714 0.889600 0.790723
0.371984 0.892001 0.787216
0.510742 0.894402 0.783706
0.643989 0.896801 0.780194
0.773190 0.899199 0.776680
0.899215 0.901597 0.773163
1.000000 0.903993 0.769644
0.000000 1.000000 0.795740
0.050786 1.000000 0.792236
0.218091 1.000000 0.788729
0.365849 1.000000 0.785221
0.504895 1.000000 0.781710
0.638342 1.000000 0.778197
0.767697 1.000000 0.774681
0.893845 1.000000 0.771163
1.000000 1.000000 0.767642
0.000000 0.000000 0.928069
0.100351 0.000000 0.924646
0.259705 0.000000 0.921220
0.404580 0.000000 0.917792
0.541885 0.000000 0.914363
0.674098 0.000000 0.910931
0.802503 0.000000 0.907498
0.927884 0.000000 0.904062
1.000000 0.000000 0.900625
0.000000 0.068881 0.926123
0.092850 0.072393 0.922699
0.253226 0.075880 0.919272
0.398523 0.079342 0.915843
0.536089 0.082782 0.912412
0.668490 0.086201 0.908980
0.797041 0.089600 0.905545
0.922540 0.092979 0.902109
1.000000 0.096340 0.898670
0.000000 0.226307 0.924177
0.085257 0.229254 0.920751
0.246722 0.232194 0.917323
0.392452 0.235129 0.913893
0.530284 0.238059 0.910461
0.662874 0.240983 0.907028
0.791572 0.243902 0.903592
0.917190 0.246815 0.900154
1.000000 0.249724 0.896715
0.000000 0.367312 0.922230
0.077561 0.370053 0.918803
0.240193 0.372791 0.915374
0.386366 0.375526 0.911943
0.524469 0.378258 0.908510
0.657252 0.380987 0.905075
0.786099 0.383713 0.901638
0.911837 0.386436 0.898199
1.000000 0.389156 0.894759
0.000000 0.500417 0.920282
0.069748 0.503034 0.916854
0.233636 0.505649 0.913424
0.380267 0.508262 0.909992
0.518644 0.510873 0.906558
0.651623 0.513482 0.903122
0.780619 0.516089 0.899684
0.906478 0.518695 0.896244
1.000000 0.521298 0.892802
0.000000 0.628343 0.918333
0.061802 0.630873 0.914904
0.227052 0.633401 0.911473
0.374152 0.635927 0.908040
0.512810 0.638452 0.904605
0.645986 0.640976 0.901168
0.775133 0.643498 0.897729
0.901115 0.646018 0.894288
1.000000 0.648537 0.890845
0.000000 0.752448 0.916384
0.053698 0.754910 0.912954
0.220439 0.757371 0.909522
0.368023 0.759831 0.906088
0.506966 0.762289 0.902651
0.640342 0.764747 0.899213
0.769642 0.767203 0.895773
0.895746 0.769658 0.892331
1.000000 0.772112 0.888887
0.000000 0.873540 0.914435
0.045407 0.875948 0.911003
0.213797 0.878354 0.907570
0.361878 0.880760 0.904135
0.501112 0.883165 0.900697
0.634690 0.885569 0.897258
0.764145 0.887972 0.893817
0.890373 0.890373 0.890373
1.000000 0.892774 0.886928
0.000000 0.992156 0.912485
0.036880 0.994518 0.909052
0.207123 0.996879 0.905617
0.355717 0.999240 0.902181
0.495247 1.000000 0.898743
0.629031 1.000000 0.895302
0.758642 1.000000 0.891860
0.884996 1.000000 0.888415
1.000000 1.000000 0.884969
0.000000 0.000000 1.000000
0.087956 0.000000 1.000000
0.249028 0.000000 1.000000
0.394603 0.000000 1.000000
0.532340 0.000000 1.000000
0.664863 0.000000 1.000000
0.793509 0.000000 1.000000
0.919085 0.000000 1.000000
1.000000 0.000000 1.000000
0.000000 0.052058 1.000000
0.080298 0.055715 1.000000
0.242507 0.059337 1.000000
0.388522 0.062926 1.000000
0.526529 0.066485 1.000000
0.659244 0.070015 1.000000
0.788037 0.073518 1.000000
0.913733 0.076997 1.000000
1.000000 0.080452 1.000000
0.000000 0.212447 1.000000
0.072528 0.215421 1.000000
0.235961 0.218389 1.000000
0.382428 0.221351 1.000000
0.520708 0.224307 1.000000
0.653617 0.227257 1.000000
0.782560 0.230201 1.000000
0.908376 0.233140 1.000000
1.000000 0.236073 1.000000
0.000000 0.354449 1.000000
0.064632 0.357205 1.000000
0.229386 0.359957 1.000000
0.376319 0.362706 1.000000
0.514877 0.365452 1.000000
0.647983 0.368195 1.000000
0.777076 0.370935 1.000000
0.903014 0.373672 1.000000
1.000000 0.376406 1.000000
0.000000 0.488146 1.000000
0.056587 0.490773 1.000000
0.222784 0.493398 1.000000
0.370194 0.496021 1.000000
0.509036 0.498641 1.000000
0.642341 0.501260 1.000000
0.771587 0.503876 1.000000
0.897648 0.506491 1.000000
1.000000 0.509103 1.000000
0.000000 0.616490 1.000000
0.048366 0.619027 1.000000
0.216152 0.621562 1.000000
0.364055 0.624095 1.000000
0.503186 0.626627 1.000000
0.636692 0.629158 1.000000
0.766092 0.631687 1.000000
0.892276 0.634215 1.000000
1.000000 0.636741 1.000000
0.000000 0.740914 1.000000
0.039929 0.743381 1.000000
0.209489 0.745848 1.000000
0.357900 0.748314 1.000000
0.497325 0.750778 1.000000
0.631036 0.753241 1.000000
0.760591 0.755703 1.000000
0.886900 0.758163 1.000000
1.000000 0.760623 1.000000
0.000000 0.862263 1.000000
0.031213 0.864675 1.000000
0.202795 0.867087 1.000000
0.351729 0.869497 1.000000
0.491453 0.871907 1.000000
0.625371 0.874315 1.000000
0.755084 0.876723 1.000000
0.881519 0.879129 1.000000
1.000000 0.881535 1.000000
0.000000 0.981094 1.000000
0.022109 0.983460 1.000000
0.196067 0.985825 1.000000
0.345542 0.988190 1.000000
0.485571 0.990554 1.000000
0.619700 0.992916 1.000000
0.749571 0.995278 1.000000
0.876133 0.997640 1.000000
1.000000 1.000000 1.000000
