presets/film_stocks/Agfa_Vista_100.cube
# 独寻胶片模拟 -- Agfa Vista 100
# Agfa, ISO 100, 2001, negative
TITLE "Agfa Vista 100"
LUT_3D_SIZE 5
DOMAIN_MIN 0.0 0.0 0.0
DOMAIN_MAX 1.0 1.0 1.0
0.000000 0.000000 0.000000
0.332778 0.010718 0.000000
0.608022 0.019583 0.000000
0.865052 0.027861 0.000000
1.000000 0.035780 0.000000
0.000000 0.320245 0.000000
0.320281 0.325837 0.000000
0.596622 0.331414 0.000000
0.854244 0.336977 0.000000
1.000000 0.342527 0.000000
0.000000 0.585124 0.000000
0.307711 0.590236 0.000000
0.585190 0.595341 0.000000
0.843416 0.600439 0.000000
1.000000 0.605531 0.000000
0.000000 0.832474 0.000000
0.295063 0.837323 0.000000
0.573723 0.842169 0.000000
0.832567 0.847010 0.000000
1.000000 0.851846 0.000000
0.000000 1.000000 0.000000
0.282334 1.000000 0.000000
0.562222 1.000000 0.000000
0.821697 1.000000 0.000000
1.000000 1.000000 0.000000
0.000000 0.000000 0.312232
0.312170 0.000000 0.304156
0.589241 0.000000 0.296046
0.847252 0.000000 0.287904
1.000000 0.000000 0.279727
0.000000 0.293887 0.307645
0.299550 0.299550 0.299550
0.577787 0.305198 0.291422
0.836411 0.310829 0.283260
1.000000 0.316446 0.275063
0.000000 0.561122 0.303048
0.286850 0.566265 0.294934
0.566298 0.571402 0.286787
0.825548 0.576532 0.278605
1.000000 0.581655 0.270387
0.000000 0.809732 0.298440
0.274065 0.814601 0.290307
0.554775 0.819467 0.282140
0.814664 0.824327 0.273938
1.000000 0.829184 0.265698
0.000000 1.000000 0.293821
0.261190 1.000000 0.285669
0.543215 1.000000 0.277482
0.803758 1.000000 0.269259
1.000000 1.000000 0.260998
0.000000 0.000000 0.570483
0.291356 0.000000 0.563112
0.570370 0.000000 0.555726
0.829396 0.000000 0.548326
1.000000 0.000000 0.540910
0.000000 0.267168 0.566295
0.278602 0.272912 0.558916
0.558858 0.278638 0.551521
0.818520 0.284347 0.544112
1.000000 0.290038 0.536688
0.000000 0.536964 0.562102
0.265759 0.542142 0.554714
0.547312 0.547312 0.547312
0.807622 0.552475 0.539894
1.000000 0.557630 0.532461
0.000000 0.786894 0.557905
0.252823 0.791784 0.550508
0.535728 0.796670 0.543097
0.796701 0.801551 0.535671
1.000000 0.806428 0.528229
0.000000 1.000000 0.553702
0.239786 1.000000 0.546298
0.524107 1.000000 0.538878
0.785758 1.000000 0.531443
1.000000 1.000000 0.523992
0.000000 0.000000 0.811644
0.270316 0.000000 0.804655
0.551404 0.000000 0.797657
0.811482 0.000000 0.790649
1.000000 0.000000 0.783632
0.000000 0.240042 0.807673
0.257414 0.245878 0.800678
0.539834 0.251693 0.793675
0.800570 0.257488 0.786662
1.000000 0.263263 0.779639
0.000000 0.512642 0.803698
0.244413 0.517856 0.796698
0.528226 0.523061 0.789689
0.789635 0.528259 0.782671
1.000000 0.533449 0.775643
0.000000 0.763956 0.799720
0.231308 0.768868 0.792715
0.516580 0.773775 0.785701
0.778677 0.778677 0.778677
1.000000 0.783576 0.771644
0.000000 1.000000 0.795740
0.218091 1.000000 0.788729
0.504895 1.000000 0.781710
0.767697 1.000000 0.774681
1.000000 1.000000 0.767642
0.000000 0.000000 1.000000
0.249028 0.000000 1.000000
0.532340 0.000000 1.000000
0.793509 0.000000 1.000000
1.000000 0.000000 1.000000
0.000000 0.212447 1.000000
0.235961 0.218389 1.000000
0.520708 0.224307 1.000000
0.782560 0.230201 1.000000
1.000000 0.236073 1.000000
0.000000 0.488146 1.000000
0.222784 0.493398 1.000000
0.509036 0.498641 1.000000
0.771587 0.503876 1.000000
1.000000 0.509103 1.000000
0.000000 0.740914 1.000000
0.209489 0.745848 1.000000
0.497325 0.750778 1.000000
0.760591 0.755703 1.000000
1.000000 0.760623 1.000000
0.000000 0.981094 1.000000
0.196067 0.985825 1.000000
0.485571 0.990554 1.000000
0.749571 0.995278 1.000000
1.000000 1.000000 1.000000
