presets/film_stocks/Fuji_Pro_160C.cube
# 独寻胶片模拟 -- Fuji Pro 160C
# Fujifilm, ISO 160, 2004, negative
TITLE "Fuji Pro 160C"
LUT_3D_SIZE 5
DOMAIN_MIN 0.0 0.0 0.0
DOMAIN_MAX 1.0 1.0 1.0
0.000000 0.000000 0.000000
0.320925 0.005658 0.000000
0.613395 0.010814 0.000000
0.896007 0.015797 0.000000
1.000000 0.020669 0.000000
0.000000 0.295411 0.000000
0.303006 0.299418 0.000000
0.596287 0.303422 0.000000
0.879352 0.307421 0.000000
1.000000 0.311417 0.000000
0.000000 0.564630 0.000000
0.285012 0.568460 0.000000
0.579145 0.572288 0.000000
0.862676 0.576115 0.000000
1.000000 0.579940 0.000000
0.000000 0.824774 0.000000
0.266939 0.828504 0.000000
0.561968 0.832233 0.000000
0.845977 0.835961 0.000000
1.000000 0.839688 0.000000
0.000000 1.000000 0.000000
0.248779 1.000000 0.000000
0.544753 1.000000 0.000000
0.829255 1.000000 0.000000
1.000000 1.000000 0.000000
0.000000 0.000000 0.284052
0.291776 0.000000 0.278281
0.585584 0.000000 0.272502
0.868939 0.000000 0.266713
1.000000 0.000000 0.260916
0.000000 0.269701 0.279511
0.273733 0.273733 0.273733
0.568420 0.277761 0.267947
0.852249 0.281786 0.262152
1.000000 0.285806 0.256347
0.000000 0.540098 0.274964
0.255606 0.543940 0.269180
0.551220 0.547780 0.263386
0.835535 0.551619 0.257584
1.000000 0.555455 0.251773
0.000000 0.800897 0.270412
0.237389 0.804635 0.264621
0.533982 0.808371 0.258820
0.818799 0.812107 0.253011
1.000000 0.815841 0.247192
0.000000 1.000000 0.265855
0.219074 1.000000 0.260056
0.516705 1.000000 0.254249
0.802038 1.000000 0.248432
1.000000 1.000000 0.242606
0.000000 0.000000 0.542919
0.262421 0.000000 0.537405
0.557681 0.000000 0.531888
0.841812 0.000000 0.526367
1.000000 0.000000 0.520841
0.000000 0.243817 0.538580
0.244239 0.247877 0.533063
0.540457 0.251934 0.527543
0.825084 0.255985 0.522018
1.000000 0.260032 0.516490
0.000000 0.515488 0.534238
0.225961 0.519342 0.528719
0.523195 0.523195 0.523195
0.808333 0.527046 0.517667
1.000000 0.530894 0.512135
0.000000 0.776969 0.529894
0.207579 0.780715 0.524372
0.505893 0.784460 0.518845
0.791557 0.788203 0.513314
1.000000 0.791946 0.507778
0.000000 1.000000 0.525548
0.189083 1.000000 0.520022
0.488549 1.000000 0.514492
0.774756 1.000000 0.508957
1.000000 1.000000 0.503419
0.000000 0.000000 0.793060
0.232834 0.000000 0.787692
0.529680 0.000000 0.782321
0.814624 0.000000 0.776947
1.000000 0.000000 0.771571
0.000000 0.217738 0.788835
0.214493 0.221831 0.783465
0.512393 0.225919 0.778092
0.797857 0.230001 0.772716
1.000000 0.234078 0.767338
0.000000 0.490795 0.784608
0.196040 0.494663 0.779236
0.495065 0.498529 0.773861
0.781066 0.502392 0.768483
1.000000 0.506254 0.763103
0.000000 0.752990 0.780380
0.177466 0.756745 0.775006
0.477694 0.760497 0.769629
0.764249 0.764249 0.764249
1.000000 0.767999 0.758867
0.000000 1.000000 0.776150
0.158753 1.000000 0.770774
0.460279 1.000000 0.765395
0.747406 1.000000 0.760013
1.000000 1.000000 0.754628
0.000000 0.000000 1.000000
0.202981 0.000000 1.000000
0.501574 0.000000 1.000000
0.787372 0.000000 1.000000
1.000000 0.000000 1.000000
0.000000 0.191439 1.000000
0.184454 0.195569 1.000000
0.484220 0.199692 1.000000
0.770565 0.203809 1.000000
1.000000 0.207921 1.000000
0.000000 0.466015 1.000000
0.165795 0.469897 1.000000
0.466822 0.473776 1.000000
0.753732 0.477654 1.000000
1.000000 0.481529 1.000000
0.000000 0.728958 1.000000
0.146988 0.732721 1.000000
0.449378 0.736482 1.000000
0.736873 0.740242 1.000000
1.000000 0.744000 1.000000
0.000000 0.985269 1.000000
0.128010 0.988953 1.000000
0.431887 0.992636 1.000000
0.719986 0.996319 1.000000
1.000000 1.000000 1.000000
