presets/film_stocks/Fuji_Crystal_Archive_Super_Type_C.cube
# 独寻胶片模拟 -- Fuji Crystal Archive Super Type C
# Fujifilm, ISO 0, 2007, negative
TITLE "Fuji Crystal Archive Super Type C"
LUT_3D_SIZE 9
DOMAIN_MIN 0.0 0.0 0.0
DOMAIN_MAX 1.0 1.0 1.0
0.000000 0.000000 0.000000
0.122976 0.000000 0.002618
0.228348 0.000000 0.004861
0.327960 0.000000 0.006982
0.424008 0.000000 0.009027
0.517489 0.000000 0.011017
0.608973 0.000000 0.012965
0.698831 0.000000 0.014878
0.787319 0.000000 0.016762
0.015926 0.175899 0.000000
0.134044 0.174557 0.000000
0.238650 0.173213 0.001812
0.337834 0.171868 0.004122
0.433586 0.170522 0.006276
0.526843 0.169174 0.008344
0.618148 0.167825 0.010350
0.707857 0.166475 0.012311
0.796217 0.165124 0.014235
0.029572 0.326618 0.000000
0.145003 0.325372 0.000000
0.248900 0.324125 0.000000
0.347672 0.322878 0.000959
0.443138 0.321630 0.003366
0.536177 0.320382 0.005561
0.627306 0.319133 0.007653
0.716868 0.317883 0.009679
0.805103 0.316633 0.011654
0.042472 0.469099 0.000000
0.155864 0.467906 0.000000
0.259099 0.466713 0.000000
0.357478 0.465519 0.000000
0.452666 0.464325 0.000000
0.545491 0.463130 0.002588
0.636449 0.461935 0.004834
0.725866 0.460740 0.006956
0.813978 0.459544 0.009001
0.054910 0.606481 0.000000
0.166635 0.605324 0.000000
0.269250 0.604167 0.000000
0.367251 0.603010 0.000000
0.462169 0.601852 0.000000
0.554787 0.600694 0.000000
0.645575 0.599536 0.001781
0.734851 0.598378 0.004093
0.822841 0.597219 0.006249
0.067016 0.740191 0.000000
0.177322 0.739062 0.000000
0.279355 0.737932 0.000000
0.376993 0.736802 0.000000
0.471650 0.735672 0.000000
0.564064 0.734542 0.000000
0.654686 0.733411 0.000000
0.743823 0.732281 0.000926
0.831692 0.731150 0.003337
0.078863 0.871047 0.000000
0.187933 0.869939 0.000000
0.289416 0.868831 0.000000
0.386705 0.867723 0.000000
0.481107 0.866615 0.000000
0.573322 0.865507 0.000000
0.663782 0.864399 0.000000
0.752781 0.863290 0.000000
0.840532 0.862181 0.000000
0.090500 0.999575 0.000000
0.198473 0.998485 0.000000
0.299436 0.997396 0.000000
0.396387 0.996306 0.000000
0.490543 0.995216 0.000000
0.582563 0.994126 0.000000
0.672863 0.993036 0.000000
0.761727 0.991946 0.000000
0.849361 0.990855 0.000000
0.101959 1.000000 0.000000
0.208945 1.000000 0.000000
0.309416 1.000000 0.000000
0.406042 1.000000 0.000000
0.499956 1.000000 0.000000
0.591786 1.000000 0.000000
0.681929 1.000000 0.000000
0.770660 1.000000 0.000000
0.858179 1.000000 0.000000
0.029976 0.000000 0.156679
0.145338 0.000000 0.158109
0.249213 0.000000 0.159537
0.347974 0.000000 0.160964
0.443431 0.000000 0.162389
0.536463 0.000000 0.163813
0.627587 0.000000 0.165235
0.717145 0.000000 0.166656
0.805376 0.000000 0.168075
0.042859 0.157556 0.154764
0.156196 0.156196 0.156196
0.259411 0.154834 0.157626
0.357778 0.153471 0.159055
0.452958 0.152106 0.160482
0.545777 0.150740 0.161908
0.636729 0.149372 0.163332
0.726142 0.148003 0.164755
0.814250 0.146632 0.166176
0.055286 0.309645 0.152846
0.166964 0.308390 0.154280
0.269560 0.307136 0.155713
0.367550 0.305880 0.157144
0.462461 0.304624 0.158573
0.555072 0.303368 0.160001
0.645855 0.302110 0.161427
0.735127 0.300853 0.162852
0.823112 0.299594 0.164275
0.067383 0.452865 0.150925
0.177649 0.451666 0.152362
0.279664 0.450468 0.153796
0.377291 0.449269 0.155229
0.471940 0.448070 0.156661
0.564348 0.446870 0.158091
0.654966 0.445670 0.159519
0.744098 0.444470 0.160946
0.831964 0.443269 0.162371
0.079223 0.590747 0.149002
0.188258 0.589587 0.150440
0.289724 0.588426 0.151877
0.387002 0.587265 0.153312
0.481397 0.586104 0.154746
0.573606 0.584942 0.156178
0.664061 0.583780 0.157608
0.753056 0.582618 0.159037
0.840803 0.581456 0.160464
0.090854 0.724834 0.147075
0.198795 0.723702 0.148516
0.299743 0.722569 0.149955
0.396684 0.721437 0.151392
0.490832 0.720304 0.152828
0.582846 0.719171 0.154262
0.673141 0.718037 0.155694
0.762002 0.716904 0.157125
0.849632 0.715770 0.158555
0.102308 0.855990 0.145145
0.209265 0.854880 0.146588
0.309721 0.853770 0.148030
0.406338 0.852660 0.149469
0.500245 0.851549 0.150907
0.592069 0.850439 0.152343
0.682207 0.849328 0.153778
0.770934 0.848217 0.155211
0.858450 0.847106 0.156642
0.113611 0.984767 0.143213
0.219673 0.983676 0.144658
0.319661 0.982584 0.146101
0.415964 0.981492 0.147543
0.509636 0.980401 0.148983
0.601274 0.979309 0.150422
0.691259 0.978217 0.151859
0.779855 0.977124 0.153294
0.867256 0.976032 0.154727
0.124779 1.000000 0.141277
0.230023 1.000000 0.142724
0.329564 1.000000 0.144170
0.425563 1.000000 0.145614
0.519007 1.000000 0.147057
0.610463 1.000000 0.148497
0.700296 1.000000 0.149936
0.788763 1.000000 0.151374
0.876052 1.000000 0.152809
0.055661 0.000000 0.290929
0.167293 0.000000 0.292257
0.269871 0.000000 0.293584
0.367849 0.000000 0.294911
0.462752 0.000000 0.296236
0.555356 0.000000 0.297561
0.646135 0.000000 0.298886
0.735402 0.000000 0.300209
0.823384 0.000000 0.301532
0.067750 0.138953 0.289152
0.177976 0.137572 0.290481
0.279973 0.136189 0.291809
0.377590 0.134804 0.293136
0.472231 0.133418 0.294463
0.564632 0.132030 0.295789
0.655245 0.130640 0.297114
0.744373 0.129249 0.298439
0.832235 0.127855 0.299763
0.079583 0.292558 0.287373
0.188582 0.291296 0.288703
0.290032 0.290032 0.290032
0.387300 0.288768 0.291361
0.481687 0.287504 0.292688
0.573890 0.286238 0.294015
0.664340 0.284972 0.295341
0.753331 0.283705 0.296667
0.841074 0.282438 0.297992
0.091208 0.436560 0.285594
0.199117 0.435356 0.286924
0.300050 0.434153 0.288254
0.396981 0.432948 0.289584
0.491121 0.431744 0.290912
0.583129 0.430539 0.292240
0.673420 0.429333 0.293567
0.762276 0.428127 0.294894
0.849903 0.426921 0.296220
0.102657 0.574963 0.283812
0.209586 0.573799 0.285144
0.310027 0.572635 0.286475
0.406633 0.571470 0.287805
0.500533 0.570305 0.289135
0.592351 0.569139 0.290464
0.682485 0.567974 0.291792
0.771208 0.566808 0.293119
0.858720 0.565641 0.294446
0.113955 0.709438 0.282030
0.219992 0.708303 0.283363
0.319966 0.707167 0.284695
0.416259 0.706032 0.286026
0.509924 0.704896 0.287356
0.601556 0.703760 0.288686
0.691536 0.702624 0.290015
0.780128 0.701487 0.291344
0.867526 0.700350 0.292671
0.125120 0.840901 0.280246
0.230339 0.839789 0.281580
0.329868 0.838677 0.282913
0.425857 0.837564 0.284245
0.519294 0.836451 0.285577
0.610744 0.835338 0.286907
0.700573 0.834225 0.288237
0.789036 0.833112 0.289567
0.876322 0.831998 0.290895
0.136166 0.969932 0.278460
0.240631 0.968839 0.279795
0.339734 0.967746 0.281129
0.435430 0.966652 0.282463
0.528644 0.965558 0.283795
0.619916 0.964464 0.285127
0.709596 0.963370 0.286458
0.797932 0.962276 0.287788
0.885107 0.961181 0.289118
0.147106 1.000000 0.276674
0.250871 1.000000 0.278010
0.349566 1.000000 0.279345
0.444978 1.000000 0.280679
0.537975 1.000000 0.282013
0.629071 1.000000 0.283346
0.718605 1.000000 0.284678
0.806816 1.000000 0.286009
0.893882 1.000000 0.287339
0.079943 0.000000 0.417842
0.188906 0.000000 0.419113
0.290340 0.000000 0.420384
0.387597 0.000000 0.421655
0.481977 0.000000 0.422925
0.574173 0.000000 0.424195
0.664619 0.000000 0.425464
0.753605 0.000000 0.426733
0.841345 0.000000 0.428001
0.091562 0.120045 0.416140
0.199439 0.118639 0.417412
0.300356 0.117231 0.418684
0.397277 0.115821 0.419955
0.491410 0.114409 0.421226
0.583413 0.112995 0.422496
0.673698 0.111579 0.423766
0.762550 0.110161 0.425036
0.850173 0.108740 0.426304
0.103006 0.275352 0.414438
0.209906 0.274080 0.415711
0.310332 0.272807 0.416983
0.406929 0.271534 0.418255
0.500821 0.270260 0.419526
0.592634 0.268985 0.420797
0.682763 0.267709 0.422068
0.771482 0.266433 0.423338
0.858990 0.265156 0.424607
0.114300 0.420182 0.412735
0.220310 0.418973 0.414008
0.320270 0.417763 0.415281
0.416553 0.416553 0.416553
0.510212 0.415343 0.417825
0.601838 0.414133 0.419097
0.691814 0.412922 0.420368
0.780402 0.411710 0.421639
0.867796 0.410498 0.422909
0.125460 0.559127 0.411031
0.230656 0.557959 0.412305
0.330171 0.556791 0.413578
0.426151 0.555622 0.414851
0.519581 0.554453 0.416124
0.611026 0.553284 0.417396
0.700850 0.552114 0.418668
0.789309 0.550944 0.419939
0.876592 0.549774 0.421210
0.136503 0.694002 0.409326
0.240946 0.692864 0.410600
0.340036 0.691725 0.411875
0.435723 0.690586 0.413148
0.528931 0.689448 0.414422
0.620197 0.688308 0.415694
0.709872 0.687169 0.416967
0.798205 0.686030 0.418239
0.885377 0.684890 0.419510
0.147440 0.825780 0.407620
0.251184 0.824666 0.408895
0.349867 0.823551 0.410170
0.445270 0.822436 0.411445
0.538261 0.821320 0.412718
0.629352 0.820205 0.413992
0.718881 0.819089 0.415265
0.807088 0.817974 0.416537
0.894151 0.816858 0.417809
0.158280 0.955071 0.405913
0.261372 0.953975 0.407189
0.359665 0.952880 0.408465
0.454792 0.951784 0.409740
0.547571 0.950688 0.411014
0.638490 0.949592 0.412288
0.727876 0.948496 0.413562
0.815960 0.947400 0.414835
0.902915 0.946303 0.416108
0.169031 1.000000 0.404206
0.271513 1.000000 0.405483
0.369431 1.000000 0.406759
0.464291 1.000000 0.408034
0.556862 1.000000 0.409310
0.647613 1.000000 0.410584
0.736858 1.000000 0.411858
0.824821 1.000000 0.413132
0.911669 1.000000 0.414405
0.103355 0.000000 0.540212
0.210226 0.000000 0.541445
0.310638 0.000000 0.542678
0.407225 0.000000 0.543910
0.501110 0.000000 0.545142
0.592917 0.000000 0.546374
0.683041 0.000000 0.547605
0.771756 0.000000 0.548836
0.859261 0.000000 0.550067
0.114644 0.100771 0.538562
0.220629 0.099335 0.539796
0.320574 0.097896 0.541029
0.416848 0.096455 0.542262
0.510500 0.095012 0.543494
0.602121 0.093566 0.544726
0.692091 0.092117 0.545958
0.780675 0.090665 0.547189
0.868067 0.089211 0.548420
0.125801 0.258015 0.536912
0.230972 0.256733 0.538146
0.330474 0.255450 0.539379
0.426445 0.254167 0.540613
0.519869 0.252882 0.541845
0.611308 0.251597 0.543078
0.701127 0.250311 0.544310
0.789582 0.249025 0.545542
0.876862 0.247737 0.546774
0.136840 0.403726 0.535261
0.241261 0.402512 0.536495
0.340338 0.401296 0.537729
0.436017 0.400081 0.538963
0.529217 0.398865 0.540196
0.620478 0.397648 0.541429
0.710149 0.396431 0.542662
0.798478 0.395214 0.543894
0.885646 0.393996 0.545126
0.147774 0.543237 0.533609
0.251497 0.542065 0.534844
0.350168 0.540892 0.536079
0.445563 0.539720 0.537313
0.538547 0.538547 0.538547
0.629632 0.537373 0.539780
0.719157 0.536199 0.541013
0.807361 0.535025 0.542246
0.894420 0.533851 0.543478
0.158611 0.678524 0.531957
0.261684 0.677383 0.533192
0.359965 0.676241 0.534427
0.455084 0.675100 0.535662
0.547856 0.673958 0.536896
0.638770 0.672815 0.538130
0.728152 0.671673 0.539364
0.816232 0.670530 0.540597
0.903184 0.669387 0.541830
0.169360 0.810626 0.530304
0.271823 0.809509 0.531540
0.369730 0.808391 0.532775
0.464582 0.807274 0.534010
0.557147 0.806156 0.535245
0.647893 0.805038 0.536480
0.737133 0.803920 0.537714
0.825092 0.802802 0.538947
0.911938 0.801683 0.540181
0.180027 0.940181 0.528651
0.281917 0.939083 0.529887
0.379465 0.937986 0.531123
0.474056 0.936888 0.532358
0.566419 0.935790 0.533594
0.657000 0.934692 0.534828
0.746102 0.933594 0.536063
0.833941 0.932495 0.537297
0.920681 0.931397 0.538531
0.190619 1.000000 0.526997
0.291968 1.000000 0.528233
0.389169 1.000000 0.529470
0.483508 1.000000 0.530706
0.575673 1.000000 0.531941
0.666092 1.000000 0.533177
0.755057 1.000000 0.534412
0.842778 1.000000 0.535646
0.929415 1.000000 0.536880
0.126141 0.000000 0.659312
0.231289 0.000000 0.660516
0.330777 0.000000 0.661720
0.426739 0.000000 0.662923
0.520156 0.000000 0.664126
0.611589 0.000000 0.665329
0.701404 0.000000 0.666532
0.789856 0.000000 0.667734
0.877131 0.000000 0.668936
0.137177 0.081040 0.657701
0.241576 0.079566 0.658906
0.340640 0.078088 0.660110
0.436310 0.076607 0.661313
0.529504 0.075123 0.662517
0.620759 0.073635 0.663720
0.710426 0.072143 0.664923
0.798750 0.070648 0.666126
0.885915 0.069149 0.667328
0.148108 0.240537 0.656090
0.251811 0.239244 0.657295
0.350469 0.237951 0.658499
0.445855 0.236656 0.659703
0.538832 0.235361 0.660907
0.629913 0.234064 0.662111
0.719433 0.232767 0.663314
0.807633 0.231469 0.664517
0.894689 0.230171 0.665720
0.158942 0.387190 0.654478
0.261996 0.385969 0.655683
0.360265 0.384748 0.656888
0.455376 0.383526 0.658093
0.548142 0.382304 0.659297
0.639051 0.381081 0.660501
0.728428 0.379858 0.661704
0.816504 0.378634 0.662908
0.903453 0.377410 0.664111
0.169688 0.527291 0.652866
0.272133 0.526115 0.654072
0.370030 0.524938 0.655277
0.464873 0.523761 0.656481
0.557432 0.522584 0.657686
0.648173 0.521406 0.658890
0.737409 0.520228 0.660094
0.825364 0.519050 0.661298
0.912206 0.517871 0.662501
0.180353 0.663004 0.651254
0.282226 0.661860 0.652459
0.379763 0.660715 0.653665
0.474347 0.659570 0.654870
0.566703 0.658425 0.656075
0.657279 0.657279 0.657279
0.746377 0.656134 0.658484
0.834212 0.654988 0.659688
0.920949 0.653842 0.660892
0.190943 0.795437 0.649641
0.292275 0.794318 0.650847
0.389466 0.793198 0.652052
0.483798 0.792078 0.653258
0.575957 0.790957 0.654463
0.666371 0.789837 0.655668
0.755332 0.788716 0.656873
0.843049 0.787595 0.658077
0.929682 0.786474 0.659281
0.201463 0.925263 0.648027
0.302283 0.924163 0.649233
0.399141 0.923064 0.650440
0.493227 0.921964 0.651645
0.585192 0.920864 0.652851
0.675448 0.919763 0.654056
0.764274 0.918663 0.655261
0.851875 0.917563 0.656466
0.938406 0.916462 0.657671
0.211917 1.000000 0.646413
0.312252 1.000000 0.647620
0.408787 1.000000 0.648826
0.502634 1.000000 0.650032
0.594411 1.000000 0.651238
0.684510 1.000000 0.652444
0.773203 1.000000 0.653649
0.860690 1.000000 0.654855
0.947120 1.000000 0.656059
0.148441 0.000000 0.775869
0.252124 0.000000 0.777050
0.350770 0.000000 0.778230
0.446148 0.000000 0.779411
0.539118 0.000000 0.780591
0.630193 0.000000 0.781770
0.719710 0.000000 0.782950
0.807905 0.000000 0.784129
0.894958 0.000000 0.785308
0.159273 0.060708 0.774290
0.262307 0.059181 0.775471
0.360565 0.057649 0.776651
0.455668 0.056113 0.777832
0.548427 0.054571 0.779012
0.639331 0.053024 0.780192
0.728703 0.051472 0.781372
0.816776 0.049914 0.782552
0.903721 0.048350 0.783731
0.170016 0.222905 0.772710
0.272444 0.221601 0.773891
0.370329 0.220295 0.775072
0.465164 0.218988 0.776253
0.557716 0.217681 0.777433
0.648452 0.216372 0.778614
0.737684 0.215063 0.779794
0.825635 0.213752 0.780974
0.912474 0.212441 0.782153
0.180679 0.370569 0.771130
0.282535 0.369342 0.772311
0.380061 0.368114 0.773492
0.474637 0.366886 0.774673
0.566988 0.365657 0.775854
0.657559 0.364427 0.777035
0.746652 0.363198 0.778215
0.834483 0.361967 0.779395
0.921217 0.360736 0.780575
0.191267 0.511287 0.769549
0.292583 0.510106 0.770731
0.389764 0.508925 0.771912
0.484087 0.507744 0.773094
0.576240 0.506562 0.774275
0.666650 0.505380 0.775456
0.755606 0.504197 0.776636
0.843320 0.503015 0.777817
0.929950 0.501831 0.778997
0.201785 0.647440 0.767968
0.302590 0.646293 0.769150
0.399437 0.645145 0.770332
0.493516 0.643996 0.771513
0.585476 0.642848 0.772695
0.675726 0.641699 0.773876
0.764548 0.640550 0.775057
0.852145 0.639401 0.776238
0.938673 0.638251 0.777418
0.212237 0.780214 0.766386
0.312557 0.779092 0.767569
0.409083 0.777969 0.768751
0.502923 0.776847 0.769933
0.594693 0.775724 0.771114
0.684788 0.774601 0.772296
0.773477 0.773477 0.773477
0.860960 0.772354 0.774658
0.947387 0.771230 0.775839
0.222628 0.910316 0.764804
0.322487 0.909214 0.765987
0.418701 0.908112 0.767170
0.512308 0.907010 0.768352
0.603894 0.905908 0.769534
0.693835 0.904806 0.770716
0.782394 0.903703 0.771897
0.869764 0.902600 0.773079
0.956090 0.901498 0.774260
0.232961 1.000000 0.763222
0.332379 1.000000 0.764405
0.428293 1.000000 0.765588
0.521673 1.000000 0.766770
0.613078 1.000000 0.767953
0.702868 1.000000 0.769135
0.791299 1.000000 0.770317
0.878557 1.000000 0.771498
0.964785 1.000000 0.772680
0.170345 0.000000 0.890354
0.272754 0.000000 0.891515
0.370628 0.000000 0.892676
0.465455 0.000000 0.893837
0.558001 0.000000 0.894998
0.648732 0.000000 0.896158
0.737959 0.000000 0.897319
0.825907 0.000000 0.898479
0.912743 0.000000 0.899639
0.181005 0.039503 0.888800
0.282844 0.037893 0.889961
0.380359 0.036276 0.891123
0.474927 0.034650 0.892284
0.567272 0.033014 0.893445
0.657838 0.031369 0.894606
0.746926 0.029713 0.895766
0.834755 0.028047 0.896927
0.921485 0.026368 0.898087
0.191591 0.205104 0.887246
0.292891 0.203786 0.888408
0.390061 0.202468 0.889569
0.484377 0.201148 0.890731
0.576524 0.199827 0.891892
0.666928 0.198505 0.893053
0.755881 0.197182 0.894214
0.843591 0.195857 0.895375
0.930218 0.194532 0.896535
0.202106 0.353858 0.885692
0.302896 0.352624 0.886854
0.399734 0.351389 0.888016
0.493805 0.350154 0.889177
0.585759 0.348918 0.890339
0.676004 0.347682 0.891500
0.764822 0.346445 0.892661
0.852416 0.345208 0.893822
0.938941 0.343970 0.894983
0.212557 0.495222 0.884137
0.312862 0.494037 0.885299
0.409379 0.492851 0.886461
0.503211 0.491665 0.887623
0.594976 0.490479 0.888785
0.685066 0.489292 0.889947
0.773751 0.488105 0.891108
0.861230 0.486918 0.892269
0.947654 0.485730 0.893430
0.222946 0.631832 0.882582
0.322791 0.630680 0.883745
0.418996 0.629529 0.884907
0.512596 0.628377 0.886069
0.604176 0.627226 0.887231
0.694112 0.626073 0.888393
0.782668 0.624921 0.889555
0.870034 0.623768 0.890716
0.956357 0.622616 0.891877
0.233277 0.764955 0.881027
0.332682 0.763830 0.882190
0.428587 0.762705 0.883352
0.521960 0.761579 0.884515
0.613359 0.760454 0.885677
0.703145 0.759328 0.886839
0.791572 0.758202 0.888001
0.878826 0.757076 0.889162
0.965051 0.755950 0.890324
0.243554 0.895339 0.879471
0.342539 0.894236 0.880634
0.438153 0.893131 0.881797
0.531305 0.892027 0.882960
0.622526 0.890923 0.884122
0.712164 0.889818 0.885285
0.800464 0.888713 0.886447
0.887609 0.887609 0.887609
0.973736 0.886503 0.888770
0.253779 1.000000 0.877915
0.352361 1.000000 0.879079
0.447693 1.000000 0.880242
0.540629 1.000000 0.881405
0.631676 1.000000 0.882567
0.721169 1.000000 0.883730
0.809345 1.000000 0.884892
0.896380 1.000000 0.886054
0.982411 1.000000 0.887216
0.191914 0.000000 1.000000
0.293198 0.000000 1.000000
0.390358 0.000000 1.000000
0.484667 0.000000 1.000000
0.576808 0.000000 1.000000
0.667207 0.000000 1.000000
0.756155 0.000000 1.000000
0.843862 0.000000 1.000000
0.930486 0.000000 1.000000
0.202428 0.016724 1.000000
0.303203 0.014932 1.000000
0.400030 0.013115 1.000000
0.494094 0.011266 1.000000
0.586042 0.009380 1.000000
0.676283 0.007447 1.000000
0.765096 0.005451 1.000000
0.852687 0.003360 1.000000
0.939208 0.001081 1.000000
0.212876 0.187116 1.000000
0.313168 0.185783 1.000000
0.409674 0.184450 1.000000
0.503499 0.183115 1.000000
0.595258 0.181779 1.000000
0.685343 0.180441 1.000000
0.774025 0.179103 1.000000
0.861501 0.177764 1.000000
0.947921 0.176423 1.000000
0.223264 0.337051 0.998497
0.323095 0.335810 0.999643
0.419291 0.334568 1.000000
0.512884 0.333325 1.000000
0.604458 0.332082 1.000000
0.694390 0.330839 1.000000
0.782941 0.329594 1.000000
0.870304 0.328350 1.000000
0.956624 0.327104 1.000000
0.233593 0.479095 0.996965
0.332985 0.477905 0.998110
0.428881 0.476715 0.999256
0.522247 0.475524 1.000000
0.613641 0.474333 1.000000
0.703422 0.473141 1.000000
0.791845 0.471949 1.000000
0.879096 0.470757 1.000000
0.965318 0.469565 1.000000
0.243868 0.616176 0.995432
0.342841 0.615022 0.996578
0.438446 0.613867 0.997724
0.531591 0.612712 0.998869
0.622807 0.611556 1.000000
0.712441 0.610401 1.000000
0.800737 0.609245 1.000000
0.887878 0.608089 1.000000
0.974002 0.606932 1.000000
0.254092 0.749659 0.993899
0.352662 0.748532 0.995045
0.447986 0.747404 0.996191
0.540915 0.746276 0.997337
0.631957 0.745147 0.998483
0.721445 0.744019 0.999628
0.809617 0.742890 1.000000
0.896649 0.741761 1.000000
0.982677 0.740632 1.000000
0.264266 0.880333 0.992366
0.362451 0.879227 0.993512
0.457501 0.878120 0.994658
0.550220 0.877014 0.995804
0.641091 0.875907 0.996950
0.730437 0.874800 0.998096
0.818486 0.873693 0.999241
0.905410 0.872586 1.000000
0.991343 0.871479 1.000000
0.274393 1.000000 0.990832
0.372208 1.000000 0.991979
0.466993 1.000000 0.993125
0.559506 1.000000 0.994271
0.650210 1.000000 0.995417
0.739415 1.000000 0.996563
0.827343 1.000000 0.997709
0.914161 1.000000 0.998855
1.000000 1.000000 1.000000
