presets/film_stocks/Fuji_Eterna-CP_3523XD.cube
# 独寻胶片模拟 -- Fuji Eterna-CP 3523XD
# Fujifilm, ISO 0, 2010, negative
TITLE "Fuji Eterna-CP 3523XD"
LUT_3D_SIZE 5
DOMAIN_MIN 0.0 0.0 0.0
DOMAIN_MAX 1.0 1.0 1.0
0.000000 0.000000 0.000000
0.502938 0.003777 0.000000
0.918924 0.006901 0.000000
1.000000 0.009819 0.000000
1.000000 0.012609 0.000000
0.000000 0.331383 0.000000
0.437274 0.333061 0.000000
0.859251 0.334738 0.000000
1.000000 0.336413 0.000000
1.000000 0.338087 0.000000
0.000000 0.605473 0.000000
0.370091 0.607007 0.000000
0.798949 0.608539 0.000000
1.000000 0.610071 0.000000
1.000000 0.611603 0.000000
0.000000 0.861426 0.000000
0.301012 0.862880 0.000000
0.737957 0.864334 0.000000
1.000000 0.865788 0.000000
1.000000 0.867241 0.000000
0.000000 1.000000 0.000000
0.229442 1.000000 0.000000
0.676197 1.000000 0.000000
1.000000 1.000000 0.000000
1.000000 1.000000 0.000000
0.000000 0.000000 0.305063
0.368673 0.000000 0.303203
0.797687 0.000000 0.301342
1.000000 0.000000 0.299479
1.000000 0.000000 0.297614
0.000000 0.297845 0.301413
0.299550 0.299550 0.299550
0.736679 0.301254 0.297685
1.000000 0.302956 0.295819
1.000000 0.304657 0.293951
0.000000 0.574957 0.297757
0.227919 0.576503 0.295890
0.674902 0.578047 0.294022
1.000000 0.579591 0.292152
1.000000 0.581135 0.290281
0.000000 0.832519 0.294094
0.152660 0.833981 0.292224
0.612264 0.835443 0.290352
1.000000 0.836904 0.288479
1.000000 0.838364 0.286603
0.000000 1.000000 0.290424
0.070981 1.000000 0.288550
0.548648 1.000000 0.286675
0.960819 1.000000 0.284798
1.000000 1.000000 0.282919
0.000000 0.000000 0.557384
0.226394 0.000000 0.555686
0.673607 0.000000 0.553986
1.000000 0.000000 0.552286
1.000000 0.000000 0.550585
0.000000 0.263730 0.554051
0.151040 0.265466 0.552351
0.610950 0.267201 0.550651
1.000000 0.268934 0.548949
1.000000 0.270665 0.547247
0.000000 0.544196 0.550716
0.069162 0.545754 0.549014
0.547312 0.547312 0.547312
0.959590 0.548868 0.545609
1.000000 0.550425 0.543905
0.000000 0.803461 0.547377
0.000000 0.804931 0.545674
0.482541 0.806400 0.543970
0.900319 0.807869 0.542265
1.000000 0.809338 0.540560
0.000000 1.000000 0.544035
0.000000 1.000000 0.542331
0.416433 1.000000 0.540625
0.840455 1.000000 0.538919
1.000000 1.000000 0.537212
0.000000 0.000000 0.793008
0.067336 0.000000 0.791397
0.545975 0.000000 0.789785
0.958362 0.000000 0.788173
1.000000 0.000000 0.786561
0.000000 0.228937 0.789847
0.000000 0.230711 0.788235
0.481179 0.232482 0.786623
0.899078 0.234251 0.785010
1.000000 0.236019 0.783397
0.000000 0.513172 0.786685
0.000000 0.514744 0.785072
0.415041 0.516315 0.783459
0.839202 0.517885 0.781845
1.000000 0.519455 0.780230
0.000000 0.774245 0.783520
0.000000 0.775723 0.781907
0.347274 0.777200 0.780292
0.778677 0.778677 0.778677
1.000000 0.780154 0.777062
0.000000 1.000000 0.780354
0.000000 1.000000 0.778739
0.277447 1.000000 0.777124
0.717438 1.000000 0.775508
1.000000 1.000000 0.773892
0.000000 0.000000 1.000000
0.000000 0.000000 1.000000
0.413647 0.000000 1.000000
0.837949 0.000000 1.000000
1.000000 0.000000 1.000000
0.000000 0.193329 1.000000
0.000000 0.195147 1.000000
0.345843 0.196964 1.000000
0.777410 0.198777 1.000000
1.000000 0.200589 1.000000
0.000000 0.481864 1.000000
0.000000 0.483451 1.000000
0.275967 0.485036 1.000000
0.716155 0.486622 1.000000
1.000000 0.488206 1.000000
0.000000 0.744862 1.000000
0.000000 0.746349 1.000000
0.203291 0.747835 1.000000
0.654102 0.749321 1.000000
1.000000 0.750806 1.000000
0.000000 0.994308 1.000000
0.000000 0.995731 1.000000
0.126367 0.997154 1.000000
0.591152 0.998577 1.000000
1.000000 1.000000 1.000000
