presets/film_stocks/Fuji_Crystal_Archive_DPII.cube
# 独寻胶片模拟 -- Fuji Crystal Archive DPII
# Fujifilm, ISO 0, 2006, negative
TITLE "Fuji Crystal Archive DPII"
LUT_3D_SIZE 33
DOMAIN_MIN 0.0 0.0 0.0
DOMAIN_MAX 1.0 1.0 1.0
0.000000 0.000000 0.000000
0.034612 0.000000 0.000712
0.064628 0.000000 0.001329
0.093124 0.000000 0.001915
0.120676 0.000000 0.002482
0.147546 0.000000 0.003034
0.173885 0.000000 0.003576
0.199790 0.000000 0.004108
0.225330 0.000000 0.004634
0.250554 0.000000 0.005152
0.275502 0.000000 0.005665
0.300204 0.000000 0.006173
0.324683 0.000000 0.006677
0.348961 0.000000 0.007176
0.373054 0.000000 0.007671
0.396977 0.000000 0.008163
0.420743 0.000000 0.008652
0.444362 0.000000 0.009138
0.467843 0.000000 0.009621
0.491196 0.000000 0.010101
0.514426 0.000000 0.010579
0.537542 0.000000 0.011054
0.560550 0.000000 0.011527
0.583453 0.000000 0.011998
0.606258 0.000000 0.012467
0.628970 0.000000 0.012934
0.651591 0.000000 0.013399
0.674126 0.000000 0.013863
0.696579 0.000000 0.014324
0.718952 0.000000 0.014784
0.741249 0.000000 0.015243
0.763472 0.000000 0.015700
0.785625 0.000000 0.016155
0.004401 0.049667 0.000000
0.037756 0.049284 0.000000
0.067571 0.048902 0.000491
0.095953 0.048519 0.001125
0.123427 0.048135 0.001720
0.150237 0.047751 0.002292
0.176528 0.047367 0.002849
0.202394 0.046983 0.003394
0.227900 0.046598 0.003930
0.253095 0.046213 0.004457
0.278016 0.045827 0.004978
0.302694 0.045441 0.005493
0.327152 0.045055 0.006002
0.351410 0.044668 0.006507
0.375486 0.044281 0.007008
0.399393 0.043894 0.007505
0.423143 0.043506 0.007998
0.446747 0.043118 0.008487
0.470215 0.042730 0.008974
0.493555 0.042341 0.009458
0.516774 0.041952 0.009939
0.539879 0.041562 0.010418
0.562875 0.041172 0.010894
0.585769 0.040781 0.011368
0.608564 0.040390 0.011839
0.631266 0.039999 0.012309
0.653878 0.039607 0.012777
0.676405 0.039215 0.013242
0.698849 0.038823 0.013706
0.721215 0.038430 0.014169
0.743504 0.038036 0.014629
0.765720 0.037642 0.015088
0.787866 0.037248 0.015546
0.008217 0.092740 0.000000
0.040872 0.092383 0.000000
0.070500 0.092026 0.000000
0.098773 0.091668 0.000258
0.126171 0.091311 0.000917
0.152923 0.090953 0.001522
0.179167 0.090595 0.002101
0.204994 0.090237 0.002662
0.230466 0.089879 0.003211
0.255632 0.089521 0.003750
0.280527 0.089163 0.004280
0.305182 0.088804 0.004803
0.329619 0.088446 0.005320
0.353858 0.088087 0.005831
0.377916 0.087728 0.006337
0.401806 0.087368 0.006839
0.425541 0.087009 0.007337
0.449132 0.086650 0.007832
0.472586 0.086290 0.008322
0.495913 0.085930 0.008810
0.519120 0.085570 0.009295
0.542214 0.085210 0.009777
0.565200 0.084849 0.010256
0.588083 0.084489 0.010733
0.610869 0.084128 0.011208
0.633561 0.083767 0.011680
0.656165 0.083406 0.012151
0.678683 0.083045 0.012619
0.701119 0.082684 0.013085
0.723477 0.082322 0.013550
0.745759 0.081960 0.014013
0.767968 0.081599 0.014474
0.790106 0.081236 0.014934
0.011840 0.133631 0.000000
0.043962 0.133288 0.000000
0.073415 0.132945 0.000000
0.101585 0.132602 0.000000
0.128908 0.132259 0.000000
0.155604 0.131915 0.000704
0.181802 0.131572 0.001321
0.207590 0.131228 0.001908
0.233030 0.130885 0.002474
0.258166 0.130541 0.003027
0.283036 0.130197 0.003569
0.307668 0.129853 0.004102
0.332084 0.129509 0.004627
0.356304 0.129165 0.005146
0.380344 0.128821 0.005659
0.404218 0.128477 0.006167
0.427938 0.128132 0.006670
0.451514 0.127788 0.007170
0.474956 0.127443 0.007665
0.498270 0.127098 0.008157
0.521466 0.126754 0.008646
0.544548 0.126409 0.009132
0.567523 0.126064 0.009614
0.590396 0.125719 0.010095
0.613172 0.125373 0.010572
0.635856 0.125028 0.011048
0.658450 0.124683 0.011521
0.680960 0.124337 0.011992
0.703388 0.123991 0.012461
0.725738 0.123646 0.012928
0.748012 0.123300 0.013393
0.770214 0.122954 0.013857
0.792345 0.122608 0.014318
0.015343 0.173167 0.000000
0.047028 0.172833 0.000000
0.076318 0.172500 0.000000
0.104387 0.172167 0.000000
0.131639 0.171833 0.000000
0.158279 0.171500 0.000000
0.184433 0.171166 0.000483
0.210183 0.170832 0.001117
0.235590 0.170498 0.001712
0.260698 0.170165 0.002285
0.285543 0.169831 0.002842
0.310151 0.169497 0.003387
0.334547 0.169163 0.003923
0.358748 0.168828 0.004450
0.382771 0.168494 0.004971
0.406629 0.168160 0.005486
0.430334 0.167826 0.005996
0.453896 0.167491 0.006501
0.477324 0.167157 0.007002
0.500626 0.166822 0.007498
0.523810 0.166488 0.007991
0.546881 0.166153 0.008481
0.569845 0.165818 0.008968
0.592708 0.165483 0.009452
0.615475 0.165148 0.009933
0.638149 0.164813 0.010411
0.660735 0.164478 0.010888
0.683237 0.164143 0.011362
0.705657 0.163808 0.011833
0.727999 0.163472 0.012303
0.750265 0.163137 0.012771
0.772460 0.162802 0.013236
0.794584 0.162466 0.013700
0.018759 0.211724 0.000000
0.050072 0.211398 0.000000
0.079208 0.211072 0.000000
0.107181 0.210746 0.000000
0.134364 0.210420 0.000000
0.160950 0.210094 0.000000
0.187059 0.209767 0.000000
0.212772 0.209441 0.000249
0.238147 0.209115 0.000909
0.263227 0.208788 0.001514
0.288047 0.208462 0.002094
0.312633 0.208135 0.002655
0.337008 0.207809 0.003204
0.361190 0.207482 0.003743
0.385196 0.207155 0.004273
0.409038 0.206829 0.004796
0.432728 0.206502 0.005313
0.456276 0.206175 0.005824
0.479691 0.205848 0.006331
0.502981 0.205521 0.006833
0.526152 0.205194 0.007331
0.549213 0.204867 0.007825
0.572167 0.204540 0.008316
0.595020 0.204213 0.008804
0.617777 0.203885 0.009289
0.640442 0.203558 0.009771
0.663019 0.203231 0.010250
0.685512 0.202903 0.010727
0.707924 0.202576 0.011202
0.730258 0.202248 0.011674
0.752518 0.201920 0.012145
0.774705 0.201593 0.012613
0.796822 0.201265 0.013079
0.022108 0.249520 0.000000
0.053097 0.249200 0.000000
0.082087 0.248879 0.000000
0.109968 0.248559 0.000000
0.137083 0.248239 0.000000
0.163616 0.247919 0.000000
0.189682 0.247598 0.000000
0.215358 0.247278 0.000000
0.240701 0.246957 0.000000
0.265753 0.246637 0.000695
0.290548 0.246316 0.001314
0.315112 0.245996 0.001900
0.339467 0.245675 0.002467
0.363631 0.245354 0.003020
0.387619 0.245034 0.003562
0.411445 0.244713 0.004095
0.435120 0.244392 0.004620
0.458654 0.244071 0.005139
0.482056 0.243750 0.005652
0.505334 0.243429 0.006160
0.528494 0.243108 0.006664
0.551543 0.242787 0.007163
0.574487 0.242466 0.007659
0.597330 0.242145 0.008151
0.620078 0.241824 0.008640
0.642734 0.241503 0.009125
0.665302 0.241181 0.009608
0.687787 0.240860 0.010089
0.710191 0.240539 0.010566
0.732517 0.240217 0.011042
0.754769 0.239896 0.011515
0.776949 0.239574 0.011986
0.799060 0.239253 0.012455
0.025401 0.286693 0.000000
0.056102 0.286378 0.000000
0.084955 0.286063 0.000000
0.112746 0.285747 0.000000
0.139796 0.285432 0.000000
0.166277 0.285116 0.000000
0.192300 0.284801 0.000000
0.217941 0.284485 0.000000
0.243252 0.284170 0.000000
0.268277 0.283854 0.000000
0.293047 0.283539 0.000474
0.317589 0.283223 0.001110
0.341924 0.282907 0.001705
0.366069 0.282592 0.002278
0.390040 0.282276 0.002835
0.413851 0.281960 0.003380
0.437511 0.281644 0.003916
0.461031 0.281328 0.004444
0.484421 0.281012 0.004965
0.507686 0.280696 0.005480
0.530835 0.280380 0.005989
0.553873 0.280064 0.006494
0.576806 0.279748 0.006995
0.599639 0.279432 0.007492
0.622378 0.279116 0.007985
0.645025 0.278800 0.008475
0.667584 0.278483 0.008962
0.690061 0.278167 0.009446
0.712457 0.277851 0.009927
0.734776 0.277534 0.010405
0.757020 0.277218 0.010882
0.779193 0.276902 0.011355
0.801296 0.276585 0.011827
0.028648 0.323342 0.000000
0.059089 0.323031 0.000000
0.087812 0.322720 0.000000
0.115518 0.322409 0.000000
0.142503 0.322097 0.000000
0.168933 0.321786 0.000000
0.194915 0.321475 0.000000
0.220520 0.321163 0.000000
0.245801 0.320852 0.000000
0.270798 0.320541 0.000000
0.295544 0.320229 0.000000
0.320064 0.319918 0.000240
0.344379 0.319606 0.000901
0.368506 0.319295 0.001507
0.392460 0.318983 0.002086
0.416255 0.318672 0.002648
0.439901 0.318360 0.003197
0.463407 0.318048 0.003736
0.486784 0.317737 0.004266
0.510037 0.317425 0.004790
0.533174 0.317113 0.005306
0.556202 0.316801 0.005818
0.579124 0.316490 0.006324
0.601948 0.316178 0.006827
0.624676 0.315866 0.007325
0.647314 0.315554 0.007819
0.669866 0.315242 0.008310
0.692334 0.314930 0.008798
0.714722 0.314618 0.009283
0.737033 0.314306 0.009765
0.759270 0.313994 0.010244
0.781436 0.313682 0.010721
0.803533 0.313369 0.011196
0.031855 0.359539 0.000000
0.062061 0.359231 0.000000
0.090660 0.358924 0.000000
0.118281 0.358616 0.000000
0.145204 0.358308 0.000000
0.171585 0.358001 0.000000
0.197526 0.357693 0.000000
0.223096 0.357385 0.000000
0.248346 0.357078 0.000000
0.273317 0.356770 0.000000
0.298039 0.356462 0.000000
0.322537 0.356154 0.000000
0.346832 0.355847 0.000000
0.370941 0.355539 0.000687
0.394879 0.355231 0.001306
0.418658 0.354923 0.001893
0.442289 0.354615 0.002460
0.465782 0.354307 0.003013
0.489145 0.353999 0.003555
0.512387 0.353691 0.004088
0.535513 0.353383 0.004614
0.558529 0.353075 0.005133
0.581442 0.352767 0.005646
0.604255 0.352458 0.006154
0.626974 0.352150 0.006658
0.649604 0.351842 0.007157
0.672146 0.351534 0.007653
0.694606 0.351225 0.008145
0.716986 0.350917 0.008633
0.739290 0.350609 0.009119
0.761519 0.350300 0.009602
0.783678 0.349992 0.010083
0.805768 0.349684 0.010560
0.035027 0.395338 0.000000
0.065016 0.395034 0.000000
0.093497 0.394729 0.000000
0.121038 0.394425 0.000000
0.147900 0.394121 0.000000
0.174233 0.393816 0.000000
0.200133 0.393512 0.000000
0.225668 0.393207 0.000000
0.250889 0.392903 0.000000
0.275833 0.392598 0.000000
0.300531 0.392294 0.000000
0.325008 0.391989 0.000000
0.349283 0.391684 0.000000
0.373374 0.391380 0.000000
0.397295 0.391075 0.000465
0.421059 0.390770 0.001102
0.444676 0.390466 0.001697
0.468155 0.390161 0.002270
0.491506 0.389856 0.002828
0.514735 0.389551 0.003373
0.537850 0.389247 0.003909
0.560855 0.388942 0.004437
0.583758 0.388637 0.004958
0.606562 0.388332 0.005473
0.629272 0.388027 0.005983
0.651892 0.387722 0.006488
0.674426 0.387417 0.006989
0.696877 0.387112 0.007486
0.719250 0.386807 0.007979
0.741546 0.386502 0.008469
0.763768 0.386197 0.008956
0.785920 0.385892 0.009439
0.808003 0.385587 0.009921
0.038168 0.430784 0.000000
0.067957 0.430482 0.000000
0.096325 0.430181 0.000000
0.123788 0.429879 0.000000
0.150591 0.429578 0.000000
0.176875 0.429276 0.000000
0.202736 0.428975 0.000000
0.228237 0.428673 0.000000
0.253428 0.428371 0.000000
0.278346 0.428070 0.000000
0.303021 0.427768 0.000000
0.327477 0.427466 0.000000
0.351733 0.427165 0.000000
0.375806 0.426863 0.000000
0.399710 0.426561 0.000000
0.423458 0.426259 0.000231
0.447061 0.425958 0.000893
0.470527 0.425656 0.001499
0.493865 0.425354 0.002079
0.517083 0.425052 0.002641
0.540186 0.424750 0.003190
0.563181 0.424448 0.003729
0.586073 0.424146 0.004260
0.608867 0.423844 0.004783
0.631568 0.423542 0.005300
0.654179 0.423240 0.005811
0.676705 0.422938 0.006318
0.699148 0.422636 0.006820
0.721512 0.422334 0.007318
0.743801 0.422032 0.007813
0.766016 0.421730 0.008304
0.788160 0.421428 0.008792
0.810237 0.421125 0.009276
0.041280 0.465911 0.000000
0.070884 0.465612 0.000000
0.099144 0.465313 0.000000
0.126531 0.465014 0.000000
0.153276 0.464715 0.000000
0.179514 0.464416 0.000000
0.205335 0.464118 0.000000
0.230803 0.463819 0.000000
0.255965 0.463520 0.000000
0.280857 0.463220 0.000000
0.305509 0.462921 0.000000
0.329943 0.462622 0.000000
0.354180 0.462323 0.000000
0.378235 0.462024 0.000000
0.402124 0.461725 0.000000
0.425857 0.461426 0.000000
0.449445 0.461127 0.000000
0.472898 0.460827 0.000679
0.496223 0.460528 0.001298
0.519429 0.460229 0.001886
0.542521 0.459930 0.002453
0.565505 0.459630 0.003006
0.588387 0.459331 0.003548
0.611172 0.459032 0.004081
0.633863 0.458732 0.004607
0.656465 0.458433 0.005126
0.678983 0.458134 0.005639
0.701418 0.457834 0.006147
0.723774 0.457535 0.006651
0.746055 0.457235 0.007151
0.768263 0.456936 0.007646
0.790400 0.456636 0.008138
0.812470 0.456337 0.008627
0.044367 0.500749 0.000000
0.073797 0.500453 0.000000
0.101954 0.500156 0.000000
0.129268 0.499860 0.000000
0.155956 0.499563 0.000000
0.182148 0.499266 0.000000
0.207931 0.498970 0.000000
0.233366 0.498673 0.000000
0.258499 0.498377 0.000000
0.283366 0.498080 0.000000
0.307994 0.497783 0.000000
0.332408 0.497487 0.000000
0.356626 0.497190 0.000000
0.380663 0.496893 0.000000
0.404535 0.496596 0.000000
0.428253 0.496300 0.000000
0.451828 0.496003 0.000000
0.475267 0.495706 0.000000
0.498580 0.495409 0.000457
0.521774 0.495112 0.001094
0.544855 0.494815 0.001690
0.567828 0.494518 0.002263
0.590700 0.494221 0.002821
0.613475 0.493925 0.003366
0.636157 0.493628 0.003902
0.658751 0.493331 0.004430
0.681260 0.493034 0.004951
0.703687 0.492737 0.005467
0.726035 0.492440 0.005976
0.748309 0.492143 0.006482
0.770509 0.491845 0.006982
0.792640 0.491548 0.007479
0.814703 0.491251 0.007973
0.047430 0.535322 0.000000
0.076698 0.535028 0.000000
0.104755 0.534734 0.000000
0.131998 0.534439 0.000000
0.158631 0.534145 0.000000
0.184778 0.533851 0.000000
0.210524 0.533556 0.000000
0.235926 0.533262 0.000000
0.261031 0.532967 0.000000
0.285872 0.532673 0.000000
0.310478 0.532378 0.000000
0.334871 0.532084 0.000000
0.359069 0.531789 0.000000
0.383090 0.531495 0.000000
0.406946 0.531200 0.000000
0.430649 0.530905 0.000000
0.454209 0.530611 0.000000
0.477635 0.530316 0.000000
0.500936 0.530022 0.000000
0.524118 0.529727 0.000222
0.547187 0.529432 0.000885
0.570151 0.529138 0.001492
0.593012 0.528843 0.002072
0.615778 0.528548 0.002634
0.638451 0.528253 0.003183
0.661036 0.527959 0.003722
0.683536 0.527664 0.004253
0.705955 0.527369 0.004776
0.728296 0.527074 0.005293
0.750562 0.526779 0.005805
0.772755 0.526484 0.006312
0.794879 0.526190 0.006814
0.816935 0.525895 0.007312
0.050471 0.569652 0.000000
0.079587 0.569359 0.000000
0.107548 0.569067 0.000000
0.134722 0.568775 0.000000
0.161301 0.568482 0.000000
0.187404 0.568190 0.000000
0.213113 0.567897 0.000000
0.238483 0.567605 0.000000
0.263560 0.567313 0.000000
0.288376 0.567020 0.000000
0.312959 0.566728 0.000000
0.337331 0.566435 0.000000
0.361511 0.566143 0.000000
0.385514 0.565850 0.000000
0.409354 0.565557 0.000000
0.433042 0.565265 0.000000
0.456589 0.564972 0.000000
0.480002 0.564680 0.000000
0.503290 0.564387 0.000000
0.526460 0.564094 0.000000
0.549519 0.563802 0.000000
0.572472 0.563509 0.000671
0.595324 0.563216 0.001291
0.618079 0.562924 0.001878
0.640743 0.562631 0.002446
0.663319 0.562338 0.002999
0.685811 0.562046 0.003541
0.708222 0.561753 0.004075
0.730556 0.561460 0.004600
0.752814 0.561167 0.005119
0.775000 0.560874 0.005633
0.797117 0.560582 0.006141
0.819166 0.560289 0.006645
0.053493 0.603755 0.000000
0.082465 0.603464 0.000000
0.110334 0.603174 0.000000
0.137440 0.602883 0.000000
0.163966 0.602593 0.000000
0.190026 0.602302 0.000000
0.215698 0.602012 0.000000
0.241037 0.601721 0.000000
0.266086 0.601430 0.000000
0.290877 0.601140 0.000000
0.315438 0.600849 0.000000
0.339790 0.600559 0.000000
0.363951 0.600268 0.000000
0.387937 0.599977 0.000000
0.411761 0.599687 0.000000
0.435435 0.599396 0.000000
0.458967 0.599105 0.000000
0.482367 0.598815 0.000000
0.505643 0.598524 0.000000
0.528802 0.598233 0.000000
0.551850 0.597942 0.000000
0.574792 0.597652 0.000000
0.597634 0.597361 0.000448
0.620380 0.597070 0.001086
0.643035 0.596779 0.001683
0.665602 0.596488 0.002256
0.688086 0.596197 0.002814
0.710489 0.595907 0.003359
0.732814 0.595616 0.003896
0.755065 0.595325 0.004424
0.777244 0.595034 0.004945
0.799354 0.594743 0.005460
0.821396 0.594452 0.005970
0.056496 0.637647 0.000000
0.085332 0.637358 0.000000
0.113111 0.637069 0.000000
0.140152 0.636781 0.000000
0.166627 0.636492 0.000000
0.192644 0.636203 0.000000
0.218280 0.635914 0.000000
0.243588 0.635625 0.000000
0.268609 0.635337 0.000000
0.293376 0.635048 0.000000
0.317915 0.634759 0.000000
0.342247 0.634470 0.000000
0.366390 0.634181 0.000000
0.390359 0.633892 0.000000
0.414167 0.633603 0.000000
0.437825 0.633314 0.000000
0.461344 0.633025 0.000000
0.484731 0.632737 0.000000
0.507995 0.632448 0.000000
0.531142 0.632159 0.000000
0.554179 0.631870 0.000000
0.577111 0.631581 0.000000
0.599943 0.631291 0.000000
0.622680 0.631002 0.000212
0.645326 0.630713 0.000877
0.667884 0.630424 0.001484
0.690360 0.630135 0.002064
0.712755 0.629846 0.002627
0.735072 0.629557 0.003176
0.757316 0.629268 0.003716
0.779488 0.628979 0.004246
0.801591 0.628690 0.004770
0.823626 0.628400 0.005287
0.059481 0.671342 0.000000
0.088187 0.671055 0.000000
0.115881 0.670768 0.000000
0.142858 0.670481 0.000000
0.169282 0.670193 0.000000
0.195259 0.669906 0.000000
0.220859 0.669619 0.000000
0.246136 0.669332 0.000000
0.271130 0.669045 0.000000
0.295873 0.668758 0.000000
0.320389 0.668470 0.000000
0.344702 0.668183 0.000000
0.368826 0.667896 0.000000
0.392778 0.667609 0.000000
0.416571 0.667321 0.000000
0.440215 0.667034 0.000000
0.463720 0.666747 0.000000
0.487094 0.666459 0.000000
0.510346 0.666172 0.000000
0.533482 0.665885 0.000000
0.556508 0.665597 0.000000
0.579429 0.665310 0.000000
0.602251 0.665023 0.000000
0.624979 0.664735 0.000000
0.647616 0.664448 0.000000
0.670166 0.664160 0.000662
0.692633 0.663873 0.001283
0.715020 0.663586 0.001871
0.737330 0.663298 0.002439
0.759566 0.663011 0.002992
0.781731 0.662723 0.003535
0.803827 0.662436 0.004068
0.825856 0.662148 0.004594
0.062450 0.704852 0.000000
0.091033 0.704566 0.000000
0.118644 0.704281 0.000000
0.145559 0.703995 0.000000
0.171934 0.703710 0.000000
0.197869 0.703424 0.000000
0.223434 0.703138 0.000000
0.248681 0.702853 0.000000
0.273648 0.702567 0.000000
0.298367 0.702281 0.000000
0.322862 0.701996 0.000000
0.347154 0.701710 0.000000
0.371261 0.701424 0.000000
0.395197 0.701139 0.000000
0.418973 0.700853 0.000000
0.442603 0.700567 0.000000
0.466094 0.700281 0.000000
0.489456 0.699996 0.000000
0.512696 0.699710 0.000000
0.535820 0.699424 0.000000
0.558835 0.699138 0.000000
0.581746 0.698853 0.000000
0.604559 0.698567 0.000000
0.627277 0.698281 0.000000
0.649905 0.697995 0.000000
0.672446 0.697709 0.000000
0.694905 0.697423 0.000440
0.717284 0.697137 0.001078
0.739586 0.696851 0.001675
0.761815 0.696566 0.002249
0.783973 0.696280 0.002807
0.806062 0.695994 0.003353
0.828084 0.695708 0.003889
0.065404 0.738188 0.000000
0.093869 0.737904 0.000000
0.121400 0.737619 0.000000
0.148254 0.737335 0.000000
0.174580 0.737051 0.000000
0.200475 0.736767 0.000000
0.226006 0.736483 0.000000
0.251223 0.736199 0.000000
0.276164 0.735914 0.000000
0.300859 0.735630 0.000000
0.325333 0.735346 0.000000
0.349605 0.735062 0.000000
0.373694 0.734777 0.000000
0.397613 0.734493 0.000000
0.421374 0.734209 0.000000
0.444989 0.733925 0.000000
0.468467 0.733640 0.000000
0.491816 0.733356 0.000000
0.515044 0.733072 0.000000
0.538157 0.732787 0.000000
0.561161 0.732503 0.000000
0.584062 0.732219 0.000000
0.606865 0.731934 0.000000
0.629574 0.731650 0.000000
0.652193 0.731366 0.000000
0.674726 0.731081 0.000000
0.697176 0.730797 0.000000
0.719547 0.730512 0.000203
0.741842 0.730228 0.000869
0.764064 0.729943 0.001477
0.786214 0.729659 0.002057
0.808296 0.729374 0.002620
0.830312 0.729090 0.003169
0.068343 0.771358 0.000000
0.096696 0.771076 0.000000
0.124149 0.770793 0.000000
0.150944 0.770510 0.000000
0.177223 0.770227 0.000000
0.203078 0.769945 0.000000
0.228575 0.769662 0.000000
0.253762 0.769379 0.000000
0.278677 0.769096 0.000000
0.303348 0.768813 0.000000
0.327801 0.768530 0.000000
0.352054 0.768248 0.000000
0.376125 0.767965 0.000000
0.400028 0.767682 0.000000
0.423774 0.767399 0.000000
0.447375 0.767116 0.000000
0.470839 0.766833 0.000000
0.494175 0.766550 0.000000
0.517391 0.766267 0.000000
0.540493 0.765984 0.000000
0.563487 0.765701 0.000000
0.586377 0.765418 0.000000
0.609170 0.765135 0.000000
0.631870 0.764852 0.000000
0.654480 0.764569 0.000000
0.677004 0.764286 0.000000
0.699447 0.764003 0.000000
0.721810 0.763720 0.000000
0.744097 0.763437 0.000000
0.766311 0.763154 0.000654
0.788455 0.762871 0.001275
0.810530 0.762588 0.001863
0.832540 0.762305 0.002432
0.071268 0.804373 0.000000
0.099514 0.804092 0.000000
0.126891 0.803810 0.000000
0.153629 0.803529 0.000000
0.179861 0.803247 0.000000
0.205677 0.802966 0.000000
0.231141 0.802684 0.000000
0.256299 0.802403 0.000000
0.281187 0.802121 0.000000
0.305836 0.801840 0.000000
0.330268 0.801558 0.000000
0.354502 0.801277 0.000000
0.378555 0.800995 0.000000
0.402441 0.800713 0.000000
0.426172 0.800432 0.000000
0.449758 0.800150 0.000000
0.473209 0.799869 0.000000
0.496533 0.799587 0.000000
0.519737 0.799305 0.000000
0.542828 0.799024 0.000000
0.565811 0.798742 0.000000
0.588691 0.798460 0.000000
0.611475 0.798179 0.000000
0.634165 0.797897 0.000000
0.656766 0.797615 0.000000
0.679282 0.797334 0.000000
0.701716 0.797052 0.000000
0.724072 0.796770 0.000000
0.746352 0.796488 0.000000
0.768558 0.796207 0.000000
0.790695 0.795925 0.000431
0.812764 0.795643 0.001070
0.834766 0.795361 0.001668
0.074180 0.837239 0.000000
0.102323 0.836959 0.000000
0.129627 0.836679 0.000000
0.156308 0.836398 0.000000
0.182494 0.836118 0.000000
0.208272 0.835838 0.000000
0.233703 0.835558 0.000000
0.258832 0.835277 0.000000
0.283696 0.834997 0.000000
0.308321 0.834717 0.000000
0.332732 0.834437 0.000000
0.356947 0.834156 0.000000
0.380983 0.833876 0.000000
0.404852 0.833596 0.000000
0.428568 0.833315 0.000000
0.452141 0.833035 0.000000
0.475579 0.832755 0.000000
0.498890 0.832474 0.000000
0.522082 0.832194 0.000000
0.545162 0.831913 0.000000
0.568134 0.831633 0.000000
0.591004 0.831353 0.000000
0.613778 0.831072 0.000000
0.636459 0.830792 0.000000
0.659051 0.830511 0.000000
0.681559 0.830231 0.000000
0.703985 0.829950 0.000000
0.726333 0.829670 0.000000
0.748605 0.829389 0.000000
0.770805 0.829109 0.000000
0.792934 0.828828 0.000000
0.814996 0.828548 0.000193
0.836992 0.828267 0.000861
0.077079 0.869964 0.000000
0.105123 0.869685 0.000000
0.132356 0.869406 0.000000
0.158982 0.869127 0.000000
0.185124 0.868848 0.000000
0.210864 0.868569 0.000000
0.236263 0.868290 0.000000
0.261364 0.868010 0.000000
0.286201 0.867731 0.000000
0.310804 0.867452 0.000000
0.335194 0.867173 0.000000
0.359391 0.866894 0.000000
0.383409 0.866615 0.000000
0.407263 0.866336 0.000000
0.430963 0.866057 0.000000
0.454522 0.865777 0.000000
0.477946 0.865498 0.000000
0.501245 0.865219 0.000000
0.524426 0.864940 0.000000
0.547494 0.864661 0.000000
0.570456 0.864381 0.000000
0.593316 0.864102 0.000000
0.616081 0.863823 0.000000
0.638752 0.863544 0.000000
0.661336 0.863265 0.000000
0.683835 0.862985 0.000000
0.706253 0.862706 0.000000
0.728593 0.862427 0.000000
0.750858 0.862147 0.000000
0.773050 0.861868 0.000000
0.795173 0.861589 0.000000
0.817228 0.861309 0.000000
0.839218 0.861030 0.000000
0.079967 0.902554 0.000000
0.107915 0.902276 0.000000
0.135080 0.901998 0.000000
0.161652 0.901720 0.000000
0.187750 0.901442 0.000000
0.213453 0.901164 0.000000
0.238819 0.900886 0.000000
0.263892 0.900608 0.000000
0.288705 0.900330 0.000000
0.313285 0.900052 0.000000
0.337655 0.899774 0.000000
0.361832 0.899496 0.000000
0.385833 0.899218 0.000000
0.409671 0.898940 0.000000
0.433357 0.898662 0.000000
0.456901 0.898384 0.000000
0.480313 0.898106 0.000000
0.503600 0.897828 0.000000
0.526768 0.897550 0.000000
0.549826 0.897272 0.000000
0.572777 0.896994 0.000000
0.595628 0.896716 0.000000
0.618382 0.896438 0.000000
0.641045 0.896160 0.000000
0.663620 0.895882 0.000000
0.686110 0.895603 0.000000
0.708520 0.895325 0.000000
0.730853 0.895047 0.000000
0.753110 0.894769 0.000000
0.775295 0.894491 0.000000
0.797411 0.894213 0.000000
0.819459 0.893935 0.000000
0.841443 0.893656 0.000000
0.082843 0.935015 0.000000
0.110699 0.934738 0.000000
0.137797 0.934461 0.000000
0.164316 0.934184 0.000000
0.190371 0.933907 0.000000
0.216038 0.933630 0.000000
0.241373 0.933354 0.000000
0.266418 0.933077 0.000000
0.291206 0.932800 0.000000
0.315764 0.932523 0.000000
0.340113 0.932246 0.000000
0.364272 0.931969 0.000000
0.388256 0.931692 0.000000
0.412078 0.931415 0.000000
0.435749 0.931138 0.000000
0.459280 0.930861 0.000000
0.482678 0.930584 0.000000
0.505953 0.930307 0.000000
0.529110 0.930031 0.000000
0.552156 0.929754 0.000000
0.575097 0.929477 0.000000
0.597938 0.929200 0.000000
0.620683 0.928923 0.000000
0.643336 0.928646 0.000000
