presets/film_stocks/Fuji_Superia_X-Tra_400.cube
# 独寻胶片模拟 -- Fuji Superia X-Tra 400
# Fujifilm, ISO 400, 1998, negative
TITLE "Fuji Superia X-Tra 400"
LUT_3D_SIZE 33
DOMAIN_MIN 0.0 0.0 0.0
DOMAIN_MAX 1.0 1.0 1.0
0.000000 0.000000 0.000000
0.053891 0.001883 0.000000
0.098465 0.003440 0.000000
0.140089 0.004895 0.000000
0.179907 0.006286 0.000000
0.218432 0.007632 0.000000
0.255959 0.008943 0.000000
0.292674 0.010226 0.000000
0.328709 0.011485 0.000000
0.364160 0.012724 0.000000
0.399100 0.013944 0.000000
0.433586 0.015149 0.000000
0.467665 0.016340 0.000000
0.501375 0.017518 0.000000
0.534748 0.018684 0.000000
0.567812 0.019839 0.000000
0.600589 0.020984 0.000000
0.633100 0.022120 0.000000
0.665362 0.023248 0.000000
0.697391 0.024367 0.000000
0.729200 0.025478 0.000000
0.760803 0.026582 0.000000
0.792210 0.027680 0.000000
0.823432 0.028770 0.000000
0.854477 0.029855 0.000000
0.885353 0.030934 0.000000
0.916069 0.032007 0.000000
0.946631 0.033075 0.000000
0.977045 0.034138 0.000000
1.000000 0.035195 0.000000
1.000000 0.036248 0.000000
1.000000 0.037297 0.000000
1.000000 0.038341 0.000000
0.000000 0.052188 0.000000
0.052035 0.053182 0.000000
0.096772 0.054172 0.000000
0.138484 0.055160 0.000000
0.178361 0.056145 0.000000
0.216931 0.057128 0.000000
0.254493 0.058108 0.000000
0.291238 0.059086 0.000000
0.327298 0.060061 0.000000
0.362770 0.061034 0.000000
0.397729 0.062004 0.000000
0.432232 0.062973 0.000000
0.466326 0.063939 0.000000
0.500050 0.064903 0.000000
0.533436 0.065864 0.000000
0.566512 0.066824 0.000000
0.599300 0.067782 0.000000
0.631820 0.068737 0.000000
0.664092 0.069691 0.000000
0.696130 0.070642 0.000000
0.727948 0.071592 0.000000
0.759559 0.072540 0.000000
0.790974 0.073485 0.000000
0.822202 0.074430 0.000000
0.853254 0.075372 0.000000
0.884137 0.076312 0.000000
0.914859 0.077251 0.000000
0.945427 0.078188 0.000000
0.975847 0.079124 0.000000
1.000000 0.080057 0.000000
1.000000 0.080990 0.000000
1.000000 0.081920 0.000000
1.000000 0.082849 0.000000
0.000000 0.095354 0.000000
0.050170 0.096262 0.000000
0.095074 0.097169 0.000000
0.136876 0.098075 0.000000
0.176813 0.098979 0.000000
0.215428 0.099882 0.000000
0.253026 0.100784 0.000000
0.289800 0.101685 0.000000
0.325885 0.102584 0.000000
0.361379 0.103482 0.000000
0.396357 0.104379 0.000000
0.430877 0.105275 0.000000
0.464987 0.106170 0.000000
0.498725 0.107064 0.000000
0.532124 0.107957 0.000000
0.565211 0.108848 0.000000
0.598010 0.109738 0.000000
0.630541 0.110628 0.000000
0.662822 0.111516 0.000000
0.694869 0.112403 0.000000
0.726695 0.113289 0.000000
0.758314 0.114174 0.000000
0.789736 0.115058 0.000000
0.820972 0.115941 0.000000
0.852030 0.116823 0.000000
0.882920 0.117704 0.000000
0.913648 0.118584 0.000000
0.944222 0.119463 0.000000
0.974648 0.120342 0.000000
1.000000 0.121219 0.000000
1.000000 0.122095 0.000000
1.000000 0.122970 0.000000
1.000000 0.123844 0.000000
0.000000 0.135663 0.000000
0.048293 0.136525 0.000000
0.093372 0.137385 0.000000
0.135265 0.138245 0.000000
0.175263 0.139105 0.000000
0.213924 0.139963 0.000000
0.251557 0.140820 0.000000
0.288361 0.141677 0.000000
0.324472 0.142533 0.000000
0.359988 0.143388 0.000000
0.394985 0.144243 0.000000
0.429522 0.145097 0.000000
0.463647 0.145950 0.000000
0.497399 0.146802 0.000000
0.530811 0.147653 0.000000
0.563910 0.148504 0.000000
0.596719 0.149354 0.000000
0.629261 0.150203 0.000000
0.661551 0.151052 0.000000
0.693607 0.151900 0.000000
0.725442 0.152747 0.000000
0.757069 0.153593 0.000000
0.788499 0.154439 0.000000
0.819742 0.155284 0.000000
0.850807 0.156128 0.000000
0.881703 0.156972 0.000000
0.912437 0.157815 0.000000
0.943017 0.158657 0.000000
0.973449 0.159499 0.000000
1.000000 0.160340 0.000000
1.000000 0.161180 0.000000
1.000000 0.162020 0.000000
1.000000 0.162859 0.000000
0.000000 0.174223 0.000000
0.046406 0.175052 0.000000
0.091665 0.175882 0.000000
0.133651 0.176711 0.000000
0.173711 0.177539 0.000000
0.212418 0.178366 0.000000
0.250088 0.179193 0.000000
0.286922 0.180020 0.000000
0.323057 0.180846 0.000000
0.358595 0.181671 0.000000
0.393611 0.182496 0.000000
0.428166 0.183320 0.000000
0.462306 0.184144 0.000000
0.496073 0.184967 0.000000
0.529497 0.185789 0.000000
0.562608 0.186611 0.000000
0.595429 0.187433 0.000000
0.627980 0.188253 0.000000
0.660281 0.189074 0.000000
0.692345 0.189894 0.000000
0.724189 0.190713 0.000000
0.755824 0.191532 0.000000
0.787261 0.192350 0.000000
0.818511 0.193168 0.000000
0.849583 0.193985 0.000000
0.880486 0.194802 0.000000
0.911226 0.195618 0.000000
0.941812 0.196434 0.000000
0.972250 0.197249 0.000000
1.000000 0.198063 0.000000
1.000000 0.198878 0.000000
1.000000 0.199691 0.000000
1.000000 0.200504 0.000000
0.000000 0.211531 0.000000
0.044507 0.212337 0.000000
0.089954 0.213143 0.000000
0.132035 0.213948 0.000000
0.172157 0.214753 0.000000
0.210910 0.215557 0.000000
0.248617 0.216361 0.000000
0.285481 0.217165 0.000000
0.321642 0.217968 0.000000
0.357202 0.218770 0.000000
0.392237 0.219572 0.000000
0.426809 0.220374 0.000000
0.460965 0.221175 0.000000
0.494746 0.221976 0.000000
0.528183 0.222776 0.000000
0.561306 0.223576 0.000000
0.594138 0.224376 0.000000
0.626699 0.225175 0.000000
0.659009 0.225974 0.000000
0.691083 0.226772 0.000000
0.722935 0.227570 0.000000
0.754578 0.228367 0.000000
0.786023 0.229164 0.000000
0.817280 0.229961 0.000000
0.848359 0.230757 0.000000
0.879268 0.231553 0.000000
0.910015 0.232348 0.000000
0.940607 0.233143 0.000000
0.971050 0.233938 0.000000
1.000000 0.234732 0.000000
1.000000 0.235525 0.000000
1.000000 0.236319 0.000000
1.000000 0.237112 0.000000
0.000000 0.247872 0.000000
0.042596 0.248659 0.000000
0.088237 0.249446 0.000000
0.130415 0.250232 0.000000
0.170601 0.251019 0.000000
0.209401 0.251804 0.000000
0.247145 0.252590 0.000000
0.284039 0.253375 0.000000
0.320226 0.254160 0.000000
0.355808 0.254944 0.000000
0.390863 0.255728 0.000000
0.425452 0.256511 0.000000
0.459624 0.257295 0.000000
0.493418 0.258078 0.000000
0.526869 0.258860 0.000000
0.560003 0.259642 0.000000
0.592846 0.260424 0.000000
0.625418 0.261206 0.000000
0.657738 0.261987 0.000000
0.689821 0.262768 0.000000
0.721681 0.263548 0.000000
0.753332 0.264328 0.000000
0.784785 0.265108 0.000000
0.816049 0.265887 0.000000
0.847135 0.266666 0.000000
0.878051 0.267445 0.000000
0.908804 0.268223 0.000000
0.939402 0.269001 0.000000
0.969851 0.269779 0.000000
1.000000 0.270556 0.000000
1.000000 0.271333 0.000000
1.000000 0.272110 0.000000
1.000000 0.272886 0.000000
0.000000 0.283427 0.000000
0.040672 0.284199 0.000000
0.086516 0.284970 0.000000
0.128793 0.285741 0.000000
0.169043 0.286512 0.000000
0.207890 0.287282 0.000000
0.245671 0.288052 0.000000
0.282596 0.288822 0.000000
0.318808 0.289592 0.000000
0.354413 0.290361 0.000000
0.389487 0.291130 0.000000
0.424094 0.291898 0.000000
0.458281 0.292666 0.000000
0.492090 0.293434 0.000000
0.525553 0.294202 0.000000
0.558700 0.294969 0.000000
0.591554 0.295736 0.000000
0.624137 0.296503 0.000000
0.656466 0.297269 0.000000
0.688558 0.298036 0.000000
0.720427 0.298801 0.000000
0.752086 0.299567 0.000000
0.783546 0.300332 0.000000
0.814818 0.301097 0.000000
0.845910 0.301862 0.000000
0.876833 0.302626 0.000000
0.907592 0.303390 0.000000
0.938196 0.304154 0.000000
0.968651 0.304918 0.000000
0.998963 0.305681 0.000000
1.000000 0.306444 0.000000
1.000000 0.307206 0.000000
1.000000 0.307969 0.000000
0.000000 0.318324 0.000000
0.038735 0.319082 0.000000
0.084789 0.319840 0.000000
0.127167 0.320598 0.000000
0.167483 0.321356 0.000000
0.206378 0.322113 0.000000
0.244196 0.322870 0.000000
0.281152 0.323627 0.000000
0.317390 0.324383 0.000000
0.353017 0.325139 0.000000
0.388111 0.325895 0.000000
0.422735 0.326651 0.000000
0.456938 0.327406 0.000000
0.490761 0.328161 0.000000
0.524238 0.328916 0.000000
0.557397 0.329671 0.000000
0.590262 0.330425 0.000000
0.622855 0.331179 0.000000
0.655193 0.331933 0.000000
0.687295 0.332687 0.000000
0.719172 0.333440 0.000000
0.750839 0.334193 0.000000
0.782307 0.334946 0.000000
0.813586 0.335699 0.000000
0.844686 0.336451 0.000000
0.875614 0.337203 0.000000
0.906380 0.337955 0.000000
0.936990 0.338706 0.000000
0.967451 0.339458 0.000000
0.997768 0.340209 0.000000
1.000000 0.340959 0.000000
1.000000 0.341710 0.000000
1.000000 0.342460 0.000000
0.000000 0.352655 0.000000
0.036782 0.353402 0.000000
0.083057 0.354148 0.000000
0.125538 0.354895 0.000000
0.165920 0.355641 0.000000
0.204864 0.356386 0.000000
0.242720 0.357132 0.000000
0.279706 0.357877 0.000000
0.315971 0.358623 0.000000
0.351620 0.359367 0.000000
0.386734 0.360112 0.000000
0.421376 0.360857 0.000000
0.455595 0.361601 0.000000
0.489432 0.362345 0.000000
0.522922 0.363088 0.000000
0.556093 0.363832 0.000000
0.588969 0.364575 0.000000
0.621572 0.365318 0.000000
0.653921 0.366061 0.000000
0.686031 0.366804 0.000000
0.717917 0.367546 0.000000
0.749592 0.368288 0.000000
0.781068 0.369030 0.000000
0.812354 0.369772 0.000000
0.843461 0.370514 0.000000
0.874396 0.371255 0.000000
0.905168 0.371996 0.000000
0.935784 0.372737 0.000000
0.966250 0.373477 0.000000
0.996573 0.374218 0.000000
1.000000 0.374958 0.000000
1.000000 0.375698 0.000000
1.000000 0.376438 0.000000
0.000000 0.386491 0.000000
0.034814 0.387227 0.000000
0.081320 0.387964 0.000000
0.123906 0.388700 0.000000
0.164356 0.389436 0.000000
0.203348 0.390172 0.000000
0.241242 0.390907 0.000000
0.278260 0.391642 0.000000
0.314551 0.392378 0.000000
0.350223 0.393113 0.000000
0.385357 0.393847 0.000000
0.420016 0.394582 0.000000
0.454251 0.395316 0.000000
0.488103 0.396050 0.000000
0.521605 0.396784 0.000000
0.554788 0.397518 0.000000
0.587676 0.398251 0.000000
0.620289 0.398985 0.000000
0.652648 0.399718 0.000000
0.684767 0.400451 0.000000
0.716662 0.401183 0.000000
0.748345 0.401916 0.000000
0.779828 0.402648 0.000000
0.811122 0.403380 0.000000
0.842235 0.404112 0.000000
0.873177 0.404844 0.000000
0.903956 0.405575 0.000000
0.934578 0.406307 0.000000
0.965050 0.407038 0.000000
0.995378 0.407769 0.000000
1.000000 0.408499 0.000000
1.000000 0.409230 0.000000
1.000000 0.409960 0.000000
0.000000 0.419887 0.000000
0.032829 0.420615 0.000000
0.079577 0.421342 0.000000
0.122271 0.422069 0.000000
0.162789 0.422796 0.000000
0.201831 0.423523 0.000000
0.239763 0.424249 0.000000
0.276813 0.424976 0.000000
0.313130 0.425702 0.000000
0.348825 0.426428 0.000000
0.383979 0.427154 0.000000
0.418655 0.427880 0.000000
0.452906 0.428605 0.000000
0.486772 0.429330 0.000000
0.520288 0.430055 0.000000
0.553483 0.430780 0.000000
0.586382 0.431505 0.000000
0.619006 0.432229 0.000000
0.651374 0.432954 0.000000
0.683503 0.433678 0.000000
0.715406 0.434402 0.000000
0.747097 0.435126 0.000000
0.778588 0.435849 0.000000
0.809889 0.436573 0.000000
0.841010 0.437296 0.000000
0.871958 0.438019 0.000000
0.902743 0.438742 0.000000
0.933371 0.439465 0.000000
0.963849 0.440187 0.000000
0.994183 0.440910 0.000000
1.000000 0.441632 0.000000
1.000000 0.442354 0.000000
1.000000 0.443076 0.000000
0.000000 0.452890 0.000000
0.030826 0.453609 0.000000
0.077828 0.454328 0.000000
0.120632 0.455047 0.000000
0.161220 0.455766 0.000000
0.200311 0.456484 0.000000
0.238283 0.457203 0.000000
0.275364 0.457921 0.000000
0.311708 0.458639 0.000000
0.347425 0.459357 0.000000
0.382599 0.460075 0.000000
0.417294 0.460793 0.000000
0.451561 0.461510 0.000000
0.485442 0.462227 0.000000
0.518971 0.462944 0.000000
0.552178 0.463661 0.000000
0.585088 0.464378 0.000000
0.617723 0.465095 0.000000
0.650100 0.465811 0.000000
0.682238 0.466527 0.000000
0.714150 0.467244 0.000000
0.745850 0.467959 0.000000
0.777348 0.468675 0.000000
0.808656 0.469391 0.000000
0.839784 0.470106 0.000000
0.870739 0.470822 0.000000
0.901530 0.471537 0.000000
0.932164 0.472252 0.000000
0.962648 0.472967 0.000000
0.992987 0.473681 0.000000
1.000000 0.474396 0.000000
1.000000 0.475110 0.000000
1.000000 0.475824 0.000000
0.000000 0.485535 0.000000
0.028803 0.486246 0.000000
0.076074 0.486958 0.000000
0.118990 0.487670 0.000000
0.159648 0.488381 0.000000
0.198791 0.489092 0.000000
0.236802 0.489803 0.000000
0.273914 0.490514 0.000000
0.310285 0.491225 0.000000
0.346026 0.491936 0.000000
0.381220 0.492646 0.000000
0.415932 0.493356 0.000000
0.450215 0.494066 0.000000
0.484110 0.494776 0.000000
0.517653 0.495486 0.000000
0.550872 0.496196 0.000000
0.583794 0.496905 0.000000
0.616439 0.497615 0.000000
0.648826 0.498324 0.000000
0.680973 0.499033 0.000000
0.712894 0.499742 0.000000
0.744601 0.500451 0.000000
0.776108 0.501159 0.000000
0.807423 0.501868 0.000000
0.838558 0.502576 0.000000
0.869520 0.503284 0.000000
0.900317 0.503992 0.000000
0.930957 0.504700 0.000000
0.961447 0.505408 0.000000
0.991792 0.506116 0.000000
1.000000 0.506823 0.000000
1.000000 0.507530 0.000000
1.000000 0.508237 0.000000
0.000000 0.517853 0.000000
0.026759 0.518558 0.000000
0.074313 0.519263 0.000000
0.117345 0.519968 0.000000
0.158074 0.520673 0.000000
0.197268 0.521377 0.000000
0.235318 0.522081 0.000000
0.272463 0.522785 0.000000
0.308861 0.523489 0.000000
0.344625 0.524193 0.000000
0.379839 0.524897 0.000000
0.414570 0.525601 0.000000
0.448869 0.526304 0.000000
0.482778 0.527007 0.000000
0.516334 0.527710 0.000000
0.549566 0.528413 0.000000
0.582499 0.529116 0.000000
0.615154 0.529819 0.000000
0.647552 0.530522 0.000000
0.679708 0.531224 0.000000
0.711637 0.531926 0.000000
0.743353 0.532629 0.000000
0.774867 0.533331 0.000000
0.806190 0.534033 0.000000
0.837331 0.534734 0.000000
0.868300 0.535436 0.000000
0.899104 0.536137 0.000000
0.929750 0.536839 0.000000
0.960245 0.537540 0.000000
0.990596 0.538241 0.000000
1.000000 0.538942 0.000000
1.000000 0.539643 0.000000
1.000000 0.540343 0.000000
0.000000 0.549872 0.000000
0.024691 0.550571 0.000000
0.072546 0.551270 0.000000
0.115696 0.551968 0.000000
0.156498 0.552666 0.000000
0.195743 0.553364 0.000000
0.233834 0.554062 0.000000
0.271011 0.554760 0.000000
0.307436 0.555458 0.000000
0.343223 0.556156 0.000000
0.378458 0.556853 0.000000
0.413206 0.557551 0.000000
0.447521 0.558248 0.000000
0.481446 0.558945 0.000000
0.515015 0.559642 0.000000
0.548259 0.560339 0.000000
0.581203 0.561036 0.000000
0.613869 0.561732 0.000000
0.646277 0.562429 0.000000
0.678442 0.563125 0.000000
0.710380 0.563821 0.000000
0.742104 0.564517 0.000000
0.773626 0.565213 0.000000
0.804956 0.565909 0.000000
0.836105 0.566605 0.000000
0.867080 0.567300 0.000000
0.897890 0.567996 0.000000
0.928542 0.568691 0.000000
0.959043 0.569386 0.000000
0.989400 0.570081 0.000000
1.000000 0.570776 0.000000
1.000000 0.571471 0.000000
1.000000 0.572165 0.000000
0.000000 0.581614 0.000000
0.022596 0.582307 0.000000
0.070772 0.582999 0.000000
0.114044 0.583692 0.000000
0.154919 0.584384 0.000000
0.194217 0.585077 0.000000
0.232348 0.585769 0.000000
0.269558 0.586461 0.000000
0.306010 0.587153 0.000000
0.341821 0.587845 0.000000
0.377076 0.588537 0.000000
0.411842 0.589228 0.000000
0.446174 0.589920 0.000000
0.480113 0.590611 0.000000
0.513696 0.591302 0.000000
0.546952 0.591993 0.000000
0.579907 0.592684 0.000000
0.612584 0.593375 0.000000
0.645002 0.594066 0.000000
0.677176 0.594757 0.000000
0.709123 0.595447 0.000000
0.740855 0.596138 0.000000
0.772385 0.596828 0.000000
0.803722 0.597518 0.000000
0.834878 0.598208 0.000000
0.865860 0.598898 0.000000
0.896676 0.599588 0.000000
0.927334 0.600277 0.000000
0.957842 0.600967 0.000000
0.988203 0.601656 0.000000
1.000000 0.602346 0.000000
1.000000 0.603035 0.000000
1.000000 0.603724 0.000000
0.000000 0.613097 0.000000
0.020472 0.613785 0.000000
0.068992 0.614472 0.000000
0.112388 0.615159 0.000000
0.153338 0.615846 0.000000
0.192689 0.616533 0.000000
0.230861 0.617220 0.000000
0.268104 0.617907 0.000000
0.304583 0.618593 0.000000
0.340417 0.619280 0.000000
0.375693 0.619966 0.000000
0.410478 0.620652 0.000000
0.444826 0.621338 0.000000
0.478779 0.622024 0.000000
0.512376 0.622710 0.000000
0.545644 0.623396 0.000000
0.578611 0.624082 0.000000
0.611299 0.624767 0.000000
0.643726 0.625453 0.000000
0.675910 0.626138 0.000000
0.707865 0.626823 0.000000
0.739606 0.627508 0.000000
0.771143 0.628193 0.000000
0.802488 0.628878 0.000000
0.833651 0.629563 0.000000
0.864639 0.630248 0.000000
0.895462 0.630932 0.000000
0.926126 0.631617 0.000000
0.956639 0.632301 0.000000
0.987007 0.632985 0.000000
1.000000 0.633669 0.000000
1.000000 0.634353 0.000000
1.000000 0.635037 0.000000
0.000000 0.644340 0.000000
0.018315 0.645022 0.000000
0.067205 0.645705 0.000000
0.110729 0.646387 0.000000
0.151755 0.647069 0.000000
0.191159 0.647750 0.000000
0.229372 0.648432 0.000000
0.266648 0.649114 0.000000
0.303155 0.649795 0.000000
0.339013 0.650477 0.000000
0.374309 0.651158 0.000000
0.409113 0.651839 0.000000
0.443477 0.652520 0.000000
0.477445 0.653201 0.000000
0.511055 0.653882 0.000000
0.544336 0.654563 0.000000
0.577315 0.655244 0.000000
0.610013 0.655924 0.000000
0.642450 0.656605 0.000000
0.674643 0.657285 0.000000
0.706607 0.657965 0.000000
0.738356 0.658645 0.000000
0.769901 0.659325 0.000000
0.801254 0.660005 0.000000
0.832423 0.660685 0.000000
0.863418 0.661365 0.000000
0.894248 0.662044 0.000000
0.924918 0.662724 0.000000
0.955437 0.663403 0.000000
0.985810 0.664083 0.000000
1.000000 0.664762 0.000000
1.000000 0.665441 0.000000
1.000000 0.666120 0.000000
0.000000 0.675357 0.000000
0.016118 0.676035 0.000000
0.065411 0.676712 0.000000
0.109065 0.677389 0.000000
0.150169 0.678066 0.000000
0.189628 0.678744 0.000000
0.227882 0.679421 0.000000
0.265191 0.680097 0.000000
0.301726 0.680774 0.000000
0.337608 0.681451 0.000000
0.372925 0.682127 0.000000
0.407747 0.682804 0.000000
0.442127 0.683480 0.000000
0.476111 0.684157 0.000000
0.509734 0.684833 0.000000
0.543028 0.685509 0.000000
0.576017 0.686185 0.000000
0.608726 0.686861 0.000000
0.641173 0.687536 0.000000
0.673376 0.688212 0.000000
0.705349 0.688888 0.000000
0.737106 0.689563 0.000000
0.768659 0.690238 0.000000
0.800019 0.690914 0.000000
0.831195 0.691589 0.000000
0.862197 0.692264 0.000000
0.893033 0.692939 0.000000
0.923710 0.693614 0.000000
0.954234 0.694289 0.000000
0.984613 0.694963 0.000000
1.000000 0.695638 0.000000
1.000000 0.696312 0.000000
1.000000 0.696987 0.000000
0.000000 0.706162 0.000000
0.013875 0.706835 0.000000
0.063609 0.707508 0.000000
0.107398 0.708181 0.000000
0.148581 0.708853 0.000000
0.188094 0.709526 0.000000
0.226390 0.710198 0.000000
0.263733 0.710871 0.000000
0.300296 0.711543 0.000000
0.336202 0.712215 0.000000
0.371540 0.712887 0.000000
0.406380 0.713559 0.000000
0.440777 0.714231 0.000000
0.474776 0.714903 0.000000
0.508412 0.715575 0.000000
0.541718 0.716246 0.000000
0.574720 0.716918 0.000000
0.607439 0.717589 0.000000
0.639896 0.718261 0.000000
0.672108 0.718932 0.000000
0.704090 0.719603 0.000000
0.735856 0.720274 0.000000
0.767416 0.720945 0.000000
0.798784 0.721616 0.000000
0.829967 0.722287 0.000000
0.860976 0.722958 0.000000
0.891818 0.723628 0.000000
0.922501 0.724299 0.000000
0.953032 0.724969 0.000000
0.983416 0.725639 0.000000
1.000000 0.726310 0.000000
1.000000 0.726980 0.000000
1.000000 0.727650 0.000000
0.000000 0.736766 0.000000
0.011576 0.737435 0.000000
0.061800 0.738104 0.000000
0.105727 0.738772 0.000000
0.146990 0.739441 0.000000
0.186559 0.740109 0.000000
0.224897 0.740777 0.000000
0.262274 0.741445 0.000000
0.298865 0.742113 0.000000
0.334795 0.742781 0.000000
0.370154 0.743449 0.000000
0.405012 0.744117 0.000000
0.439426 0.744785 0.000000
0.473440 0.745452 0.000000
0.507090 0.746120 0.000000
0.540409 0.746787 0.000000
0.573422 0.747455 0.000000
0.606152 0.748122 0.000000
0.638619 0.748789 0.000000
0.670841 0.749456 0.000000
0.702831 0.750123 0.000000
0.734605 0.750790 0.000000
0.766174 0.751457 0.000000
0.797548 0.752124 0.000000
0.828739 0.752790 0.000000
0.859754 0.753457 0.000000
0.890603 0.754123 0.000000
0.921292 0.754790 0.000000
0.951828 0.755456 0.000000
0.982219 0.756122 0.000000
1.000000 0.756788 0.000000
1.000000 0.757454 0.000000
1.000000 0.758120 0.000000
0.000000 0.767181 0.000000
0.009207 0.767846 0.000000
0.059983 0.768510 0.000000
0.104052 0.769175 0.000000
0.145396 0.769839 0.000000
0.185021 0.770504 0.000000
0.223402 0.771168 0.000000
0.260813 0.771832 0.000000
0.297433 0.772496 0.000000
0.333387 0.773160 0.000000
0.368767 0.773824 0.000000
0.403644 0.774488 0.000000
0.438075 0.775151 0.000000
0.472103 0.775815 0.000000
0.505768 0.776479 0.000000
0.539099 0.777142 0.000000
0.572124 0.777805 0.000000
0.604865 0.778469 0.000000
0.637342 0.779132 0.000000
0.669572 0.779795 0.000000
0.701572 0.780458 0.000000
0.733354 0.781121 0.000000
0.764930 0.781784 0.000000
0.796313 0.782447 0.000000
0.827510 0.783109 0.000000
0.858533 0.783772 0.000000
0.889388 0.784434 0.000000
0.920083 0.785097 0.000000
0.950625 0.785759 0.000000
0.981021 0.786422 0.000000
1.000000 0.787084 0.000000
1.000000 0.787746 0.000000
1.000000 0.788408 0.000000
0.000000 0.797416 0.000000
0.006740 0.798077 0.000000
0.058157 0.798738 0.000000
0.102373 0.799398 0.000000
0.143800 0.800059 0.000000
0.183482 0.800719 0.000000
0.221906 0.801380 0.000000
0.259352 0.802040 0.000000
0.296000 0.802700 0.000000
0.331978 0.803361 0.000000
0.367380 0.804021 0.000000
0.402276 0.804681 0.000000
0.436723 0.805341 0.000000
0.470766 0.806000 0.000000
0.504445 0.806660 0.000000
0.537788 0.807320 0.000000
0.570825 0.807979 0.000000
0.603576 0.808639 0.000000
0.636064 0.809298 0.000000
0.668304 0.809958 0.000000
0.700312 0.810617 0.000000
0.732102 0.811276 0.000000
0.763687 0.811935 0.000000
0.795077 0.812594 0.000000
0.826282 0.813253 0.000000
0.857311 0.813912 0.000000
0.888172 0.814571 0.000000
0.918873 0.815230 0.000000
0.949422 0.815888 0.000000
0.979823 0.816547 0.000000
1.000000 0.817205 0.000000
1.000000 0.817864 0.000000
1.000000 0.818522 0.000000
0.000000 0.827480 0.000000
0.004125 0.828137 0.000000
0.056323 0.828794 0.000000
0.100690 0.829451 0.000000
0.142201 0.830108 0.000000
0.181941 0.830765 0.000000
0.220409 0.831422 0.000000
0.257889 0.832079 0.000000
0.294566 0.832735 0.000000
0.330569 0.833392 0.000000
0.365991 0.834048 0.000000
0.400906 0.834705 0.000000
0.435370 0.835361 0.000000
0.469429 0.836017 0.000000
0.503121 0.836673 0.000000
0.536477 0.837329 0.000000
0.569525 0.837985 0.000000
0.602288 0.838641 0.000000
0.634785 0.839297 0.000000
0.667035 0.839953 0.000000
0.699052 0.840609 0.000000
0.730851 0.841264 0.000000
0.762443 0.841920 0.000000
0.793840 0.842575 0.000000
0.825052 0.843231 0.000000
0.856088 0.843886 0.000000
0.886956 0.844541 0.000000
0.917664 0.845196 0.000000
0.948218 0.845851 0.000000
0.978625 0.846506 0.000000
1.000000 0.847161 0.000000
1.000000 0.847816 0.000000
1.000000 0.848471 0.000000
0.000000 0.857381 0.000000
0.001199 0.858035 0.000000
0.054479 0.858688 0.000000
0.099003 0.859342 0.000000
0.140599 0.859995 0.000000
0.180398 0.860649 0.000000
0.218909 0.861302 0.000000
0.256425 0.861955 0.000000
0.293131 0.862608 0.000000
0.329158 0.863261 0.000000
0.364602 0.863914 0.000000
0.399536 0.864567 0.000000
0.434017 0.865220 0.000000
0.468091 0.865873 0.000000
0.501797 0.866526 0.000000
0.535166 0.867178 0.000000
0.568226 0.867831 0.000000
0.600999 0.868483 0.000000
0.633507 0.869136 0.000000
0.665766 0.869788 0.000000
0.697792 0.870440 0.000000
0.729599 0.871093 0.000000
0.761199 0.871745 0.000000
0.792604 0.872397 0.000000
0.823823 0.873049 0.000000
0.854866 0.873701 0.000000
0.885740 0.874352 0.000000
0.916454 0.875004 0.000000
0.947014 0.875656 0.000000
0.977427 0.876307 0.000000
1.000000 0.876959 0.000000
1.000000 0.877611 0.000000
1.000000 0.878262 0.000000
0.000000 0.887126 0.000000
0.000000 0.887777 0.000000
0.052627 0.888427 0.000000
0.097311 0.889077 0.000000
0.138995 0.889727 0.000000
0.178853 0.890377 0.000000
0.217409 0.891027 0.000000
0.254959 0.891677 0.000000
0.291695 0.892327 0.000000
0.327747 0.892977 0.000000
0.363213 0.893626 0.000000
0.398165 0.894276 0.000000
0.432663 0.894926 0.000000
0.466752 0.895575 0.000000
0.500472 0.896225 0.000000
0.533854 0.896874 0.000000
0.566925 0.897523 0.000000
0.599710 0.898172 0.000000
0.632227 0.898822 0.000000
0.664496 0.899471 0.000000
0.696531 0.900120 0.000000
0.728347 0.900769 0.000000
0.759955 0.901417 0.000000
0.791367 0.902066 0.000000
