presets/film_stocks/Fuji_Eterna-CP_Type_3513DI.cube
# 独寻胶片模拟 -- Fuji Eterna-CP Type 3513DI
# Fujifilm, ISO 0, 2002, negative
TITLE "Fuji Eterna-CP Type 3513DI"
LUT_3D_SIZE 9
DOMAIN_MIN 0.0 0.0 0.0
DOMAIN_MAX 1.0 1.0 1.0
0.000000 0.000000 0.000000
0.000000 0.000000 0.000000
0.000000 0.000000 0.000000
0.000000 0.000000 0.000000
0.000000 0.000000 0.000000
0.000000 0.000000 0.000000
0.000000 0.000000 0.000000
0.000000 0.000000 0.000000
0.000000 0.000000 0.000000
0.004521 0.000000 0.000000
0.000000 0.000000 0.000000
0.000000 0.000000 0.000000
0.000000 0.000000 0.000000
0.000000 0.000000 0.000000
0.000000 0.000000 0.000000
0.000000 0.000000 0.000000
0.000000 0.000000 0.000000
0.000000 0.000000 0.000000
0.007613 0.000000 0.000000
0.000000 0.000000 0.000000
0.000000 0.000000 0.000000
0.000000 0.000000 0.000000
0.000000 0.000000 0.000000
0.000000 0.000000 0.000000
0.000000 0.000000 0.000000
0.000000 0.000000 0.000000
0.000000 0.000000 0.000000
0.010327 0.000000 0.000000
0.000000 0.000000 0.000000
0.000000 0.000000 0.000000
0.000000 0.000000 0.000000
0.000000 0.000000 0.000000
0.000000 0.000000 0.000000
0.000000 0.000000 0.000000
0.000000 0.000000 0.000000
0.000000 0.000000 0.000000
0.012821 0.000000 0.000000
0.000000 0.000000 0.000000
0.000000 0.000000 0.000000
0.000000 0.000000 0.000000
0.000000 0.000000 0.000000
0.000000 0.000000 0.000000
0.000000 0.000000 0.000000
0.000000 0.000000 0.000000
0.000000 0.000000 0.000000
0.015163 0.000000 0.000000
0.000000 0.000000 0.000000
0.000000 0.000000 0.000000
0.000000 0.000000 0.000000
0.000000 0.000000 0.000000
0.000000 0.000000 0.000000
0.000000 0.000000 0.000000
0.000000 0.000000 0.000000
0.000000 0.000000 0.000000
0.017390 0.000000 0.000000
0.000000 0.000000 0.000000
0.000000 0.000000 0.000000
0.000000 0.000000 0.000000
0.000000 0.000000 0.000000
0.000000 0.000000 0.000000
0.000000 0.000000 0.000000
0.000000 0.000000 0.000000
0.000000 0.000000 0.000000
0.019528 0.000000 0.000000
0.000000 0.000000 0.000000
0.000000 0.000000 0.000000
0.000000 0.000000 0.000000
0.000000 0.000000 0.000000
0.000000 0.000000 0.000000
0.000000 0.000000 0.000000
0.000000 0.000000 0.000000
0.000000 0.000000 0.000000
0.021590 0.000000 0.000000
0.000000 0.000000 0.000000
0.000000 0.000000 0.000000
0.000000 0.000000 0.000000
0.000000 0.000000 0.000000
0.000000 0.000000 0.000000
0.000000 0.000000 0.000000
0.000000 0.000000 0.000000
0.000000 0.000000 0.000000
0.221288 0.226700 0.209454
0.208445 0.226503 0.209429
0.195334 0.226306 0.209403
0.181926 0.226108 0.209378
0.168184 0.225910 0.209353
0.154060 0.225713 0.209327
0.139494 0.225515 0.209302
0.124407 0.225317 0.209277
0.108689 0.225119 0.209251
0.222229 0.209607 0.209429
0.209404 0.209404 0.209404
0.196314 0.209201 0.209379
0.182930 0.208999 0.209353
0.169213 0.208796 0.209328
0.155120 0.208593 0.209303
0.140589 0.208390 0.209277
0.125544 0.208187 0.209252
0.109877 0.207984 0.209227
0.223168 0.192039 0.209405
0.210362 0.191831 0.209379
0.197293 0.191622 0.209354
0.183931 0.191413 0.209329
0.170241 0.191204 0.209303
0.156177 0.190996 0.209278
0.141681 0.190787 0.209253
0.126677 0.190578 0.209227
0.111061 0.190368 0.209202
0.224106 0.173924 0.209380
0.211319 0.173708 0.209354
0.198270 0.173493 0.209329
0.184931 0.173277 0.209304
0.171266 0.173061 0.209278
0.157232 0.172845 0.209253
0.142770 0.172629 0.209228
0.127807 0.172413 0.209202
0.112241 0.172197 0.209177
0.225043 0.155161 0.209355
0.212274 0.154937 0.209330
0.199245 0.154714 0.209304
0.185929 0.154490 0.209279
0.172290 0.154265 0.209254
0.158284 0.154041 0.209228
0.143857 0.153817 0.209203
0.128934 0.153592 0.209178
0.113416 0.153368 0.209152
0.225979 0.135616 0.209330
0.213227 0.135382 0.209305
0.200219 0.135148 0.209280
0.186925 0.134914 0.209254
0.173311 0.134679 0.209229
0.159335 0.134445 0.209204
0.144941 0.134210 0.209178
0.130057 0.133975 0.209153
0.114588 0.133740 0.209128
0.226913 0.115089 0.209306
0.214180 0.114842 0.209280
0.201191 0.114594 0.209255
0.187920 0.114347 0.209230
0.174331 0.114100 0.209204
0.160383 0.113852 0.209179
0.146022 0.113604 0.209154
0.131178 0.113356 0.209128
0.115756 0.113108 0.209103
0.227846 0.093265 0.209281
0.215131 0.093001 0.209255
0.202162 0.092736 0.209230
0.188912 0.092470 0.209205
0.175348 0.092205 0.209179
0.161429 0.091939 0.209154
0.147100 0.091673 0.209129
0.132295 0.091407 0.209103
0.116920 0.091140 0.209078
0.228778 0.069585 0.209256
0.216080 0.069293 0.209231
0.203131 0.069001 0.209205
0.189903 0.068708 0.209180
0.176364 0.068415 0.209155
0.162472 0.068122 0.209129
0.148176 0.067828 0.209104
0.133409 0.067534 0.209079
0.118080 0.067239 0.209053
0.372646 0.381760 0.352718
0.361885 0.381594 0.352696
0.351018 0.381428 0.352675
0.340038 0.381262 0.352654
0.328940 0.381095 0.352632
0.317717 0.380929 0.352611
0.306361 0.380762 0.352590
0.294865 0.380596 0.352568
0.283219 0.380430 0.352547
0.373438 0.367460 0.352697
0.362685 0.367292 0.352675
0.351826 0.367124 0.352654
0.340855 0.366955 0.352633
0.329765 0.366787 0.352611
0.318552 0.366618 0.352590
0.307207 0.366450 0.352569
0.295721 0.366281 0.352547
0.284087 0.366113 0.352526
0.374230 0.352975 0.352676
0.363485 0.352804 0.352655
0.352633 0.352633 0.352633
0.341671 0.352463 0.352612
0.330590 0.352292 0.352591
0.319386 0.352121 0.352569
0.308051 0.351951 0.352548
0.296576 0.351780 0.352527
0.284953 0.351609 0.352505
0.375022 0.338290 0.352655
0.364284 0.338117 0.352634
0.353440 0.337944 0.352612
0.342486 0.337770 0.352591
0.331415 0.337597 0.352570
0.320220 0.337424 0.352548
0.308895 0.337251 0.352527
0.297431 0.337078 0.352506
0.285819 0.336905 0.352484
0.375812 0.323391 0.352634
0.365082 0.323216 0.352613
0.354247 0.323040 0.352592
0.343301 0.322864 0.352570
0.332238 0.322689 0.352549
0.321053 0.322513 0.352528
0.309738 0.322337 0.352506
0.298284 0.322161 0.352485
0.286683 0.321985 0.352464
0.376602 0.308263 0.352613
0.365880 0.308084 0.352592
0.355052 0.307906 0.352571
0.344115 0.307727 0.352549
0.333061 0.307549 0.352528
0.321885 0.307370 0.352507
0.310580 0.307192 0.352485
0.299137 0.307013 0.352464
0.287547 0.306834 0.352443
0.377392 0.292885 0.352593
0.366677 0.292703 0.352571
0.355857 0.292522 0.352550
0.344928 0.292340 0.352529
0.333883 0.292159 0.352507
0.322717 0.291977 0.352486
0.311421 0.291796 0.352465
0.299989 0.291614 0.352443
0.288410 0.291432 0.352422
0.378181 0.277236 0.352572
0.367473 0.277051 0.352550
0.356662 0.276866 0.352529
0.345741 0.276681 0.352508
0.334705 0.276496 0.352486
0.323548 0.276312 0.352465
0.312262 0.276127 0.352444
0.300840 0.275942 0.352422
0.289272 0.275757 0.352401
0.378970 0.261289 0.352551
0.368269 0.261101 0.352530
0.357466 0.260912 0.352508
0.346553 0.260724 0.352487
0.335526 0.260535 0.352466
0.324378 0.260347 0.352444
0.313102 0.260158 0.352423
0.301690 0.259970 0.352402
0.290134 0.259781 0.352380
0.505471 0.517834 0.478439
0.495755 0.517683 0.478420
0.485977 0.517533 0.478400
0.476133 0.517383 0.478381
0.466222 0.517232 0.478362
0.456240 0.517082 0.478343
0.446186 0.516931 0.478323
0.436057 0.516781 0.478304
0.425849 0.516631 0.478285
0.506187 0.504930 0.478420
0.496477 0.504778 0.478401
0.486703 0.504626 0.478382
0.476864 0.504475 0.478362
0.466958 0.504323 0.478343
0.456981 0.504172 0.478324
0.446933 0.504020 0.478304
0.436809 0.503868 0.478285
0.426607 0.503717 0.478266
0.506904 0.491916 0.478401
0.497198 0.491763 0.478382
0.487429 0.491610 0.478363
0.477594 0.491457 0.478343
0.467693 0.491304 0.478324
0.457722 0.491151 0.478305
0.447679 0.490998 0.478286
0.437561 0.490845 0.478266
0.427365 0.490692 0.478247
0.507620 0.478787 0.478383
0.497918 0.478633 0.478363
0.488154 0.478479 0.478344
0.478325 0.478325 0.478325
0.468428 0.478170 0.478305
0.458463 0.478016 0.478286
0.448425 0.477862 0.478267
0.438312 0.477707 0.478247
0.428122 0.477553 0.478228
0.508335 0.465539 0.478364
0.498638 0.465384 0.478344
0.488879 0.465228 0.478325
0.479054 0.465072 0.478306
0.469163 0.464916 0.478287
0.459203 0.464761 0.478267
0.449170 0.464605 0.478248
0.439063 0.464449 0.478229
0.428879 0.464293 0.478209
0.509050 0.452165 0.478345
0.499358 0.452008 0.478326
0.489603 0.451851 0.478306
0.479784 0.451694 0.478287
0.469898 0.451536 0.478268
0.459942 0.451379 0.478248
0.449915 0.451222 0.478229
0.439814 0.451064 0.478210
0.429636 0.450907 0.478190
0.509765 0.438660 0.478326
0.500078 0.438501 0.478307
0.490327 0.438342 0.478287
0.480513 0.438183 0.478268
0.470632 0.438024 0.478249
0.460682 0.437865 0.478230
0.450660 0.437707 0.478210
0.440564 0.437548 0.478191
0.430392 0.437389 0.478172
0.510480 0.425015 0.478307
0.500797 0.424855 0.478288
0.491051 0.424694 0.478269
0.481242 0.424534 0.478249
0.471365 0.424373 0.478230
0.461420 0.424213 0.478211
0.451404 0.424052 0.478191
0.441314 0.423892 0.478172
0.431147 0.423731 0.478153
0.511194 0.411225 0.478288
0.501516 0.411062 0.478269
0.491775 0.410900 0.478250
0.481970 0.410738 0.478230
0.472099 0.410576 0.478211
0.462159 0.410413 0.478192
0.452148 0.410251 0.478173
0.442064 0.410089 0.478153
0.431903 0.409926 0.478134
0.627531 0.642879 0.593971
0.618492 0.642739 0.593953
0.609409 0.642599 0.593935
0.600282 0.642459 0.593918
0.591109 0.642319 0.593900
0.581888 0.642179 0.593882
0.572619 0.642039 0.593864
0.563300 0.641899 0.593846
0.553930 0.641759 0.593828
0.628198 0.630876 0.593954
0.619162 0.630736 0.593936
0.610083 0.630595 0.593918
0.600959 0.630454 0.593900
0.591789 0.630313 0.593882
0.582572 0.630172 0.593864
0.573307 0.630031 0.593846
0.563991 0.629890 0.593828
0.554625 0.629749 0.593810
0.628865 0.618798 0.593936
0.619833 0.618656 0.593918
0.610757 0.618515 0.593900
0.601636 0.618373 0.593882
0.592469 0.618231 0.593864
0.583256 0.618089 0.593846
0.573994 0.617947 0.593829
0.564683 0.617806 0.593811
0.555320 0.617664 0.593793
0.629532 0.606641 0.593919
0.620503 0.606499 0.593901
0.611430 0.606356 0.593883
0.602313 0.606213 0.593865
0.593150 0.606071 0.593847
0.583939 0.605928 0.593829
0.574681 0.605785 0.593811
0.565374 0.605643 0.593793
0.556015 0.605500 0.593775
0.630198 0.594404 0.593901
0.621172 0.594260 0.593883
0.612103 0.594117 0.593865
0.602989 0.593973 0.593847
0.593829 0.593829 0.593829
0.584623 0.593686 0.593811
0.575368 0.593542 0.593793
0.566064 0.593398 0.593775
0.556709 0.593255 0.593757
0.630865 0.582083 0.593884
0.621842 0.581938 0.593866
0.612776 0.581793 0.593848
0.603665 0.581649 0.593830
0.594509 0.581504 0.593812
0.585306 0.581359 0.593794
0.576055 0.581215 0.593776
0.566755 0.581070 0.593758
0.557404 0.580925 0.593740
0.631531 0.569675 0.593866
0.622511 0.569529 0.593848
0.613448 0.569383 0.593830
0.604341 0.569238 0.593812
0.595188 0.569092 0.593794
0.585989 0.568946 0.593776
0.576741 0.568801 0.593758
0.567445 0.568655 0.593740
0.558097 0.568509 0.593722
0.632197 0.557177 0.593849
0.623180 0.557030 0.593831
0.614121 0.556884 0.593813
0.605017 0.556737 0.593795
0.595867 0.556590 0.593777
0.586671 0.556443 0.593759
0.577427 0.556296 0.593741
0.568134 0.556150 0.593723
0.558791 0.556003 0.593705
0.632862 0.544586 0.593831
0.623849 0.544438 0.593813
0.614793 0.544290 0.593795
0.605692 0.544142 0.593777
0.596546 0.543995 0.593759
0.587353 0.543847 0.593741
0.578113 0.543699 0.593723
0.568824 0.543551 0.593705
0.559484 0.543403 0.593687
0.742163 0.760315 0.702474
0.733616 0.760183 0.702457
0.725035 0.760051 0.702440
0.716421 0.759918 0.702423
0.707772 0.759786 0.702406
0.699088 0.759653 0.702389
0.690369 0.759521 0.702372
0.681613 0.759388 0.702355
0.672819 0.759256 0.702338
0.742795 0.748967 0.702457
0.734249 0.748833 0.702440
0.725671 0.748700 0.702423
0.717059 0.748567 0.702406
0.708413 0.748434 0.702389
0.699732 0.748301 0.702372
0.691015 0.748168 0.702355
0.682262 0.748035 0.702338
0.673472 0.747902 0.702321
0.743426 0.737561 0.702441
0.734883 0.737427 0.702424
0.726307 0.737293 0.702407
0.717698 0.737159 0.702390
0.709054 0.737025 0.702373
0.700376 0.736892 0.702356
0.691662 0.736758 0.702339
0.682911 0.736624 0.702322
0.674124 0.736490 0.702305
0.744057 0.726096 0.702424
0.735516 0.725962 0.702407
0.726943 0.725827 0.702390
0.718336 0.725693 0.702373
0.709695 0.725558 0.702356
0.701019 0.725424 0.702339
0.692308 0.725289 0.702322
0.683560 0.725155 0.702305
0.674775 0.725020 0.702288
0.744688 0.714572 0.702407
0.736150 0.714436 0.702390
0.727579 0.714301 0.702374
0.718974 0.714166 0.702357
0.710336 0.714031 0.702340
0.701663 0.713896 0.702323
0.692954 0.713761 0.702306
0.684209 0.713625 0.702289
0.675427 0.713490 0.702272
0.745318 0.702986 0.702391
0.736783 0.702850 0.702374
0.728214 0.702714 0.702357
0.719613 0.702578 0.702340
0.710977 0.702442 0.702323
0.702306 0.702306 0.702306
0.693600 0.702170 0.702289
0.684857 0.702034 0.702272
0.676078 0.701898 0.702255
0.745949 0.691336 0.702374
0.737416 0.691199 0.702357
0.728850 0.691063 0.702340
0.720250 0.690926 0.702323
0.711617 0.690789 0.702306
0.702949 0.690653 0.702289
0.694245 0.690516 0.702272
0.685506 0.690379 0.702255
0.676729 0.690243 0.702238
0.746579 0.679621 0.702358
0.738048 0.679484 0.702341
0.729485 0.679346 0.702324
0.720888 0.679209 0.702307
0.712257 0.679072 0.702290
0.703592 0.678934 0.702273
0.694891 0.678797 0.702256
0.686154 0.678659 0.702239
0.677380 0.678522 0.702222
0.747209 0.667840 0.702341
0.738681 0.667701 0.702324
0.730120 0.667563 0.702307
0.721525 0.667425 0.702290
0.712897 0.667287 0.702273
0.704234 0.667148 0.702256
0.695536 0.667010 0.702239
0.686802 0.666872 0.702222
0.678031 0.666734 0.702205
0.851205 0.872024 0.805684
0.843038 0.871898 0.805668
0.834845 0.871771 0.805652
0.826625 0.871645 0.805636
0.818378 0.871518 0.805619
0.810104 0.871391 0.805603
0.801801 0.871265 0.805587
0.793470 0.871138 0.805571
0.785110 0.871011 0.805554
0.851809 0.861182 0.805669
0.843644 0.861055 0.805652
0.835452 0.860928 0.805636
0.827234 0.860801 0.805620
0.818989 0.860673 0.805604
0.810717 0.860546 0.805587
0.802417 0.860419 0.805571
0.794088 0.860292 0.805555
0.785730 0.860165 0.805539
0.852412 0.850294 0.805653
0.844249 0.850167 0.805636
0.836059 0.850039 0.805620
0.827844 0.849911 0.805604
0.819601 0.849784 0.805588
0.811330 0.849656 0.805571
0.803032 0.849528 0.805555
0.794705 0.849401 0.805539
0.786350 0.849273 0.805523
0.853015 0.839360 0.805637
0.844854 0.839232 0.805621
0.836667 0.839104 0.805604
0.828453 0.838976 0.805588
0.820212 0.838848 0.805572
0.811943 0.838719 0.805556
0.803647 0.838591 0.805539
0.795323 0.838463 0.805523
0.786969 0.838335 0.805507
0.853618 0.828379 0.805621
0.845459 0.828250 0.805605
0.837273 0.828122 0.805588
0.829061 0.827993 0.805572
0.820823 0.827864 0.805556
0.812556 0.827735 0.805540
0.804262 0.827607 0.805523
0.795940 0.827478 0.805507
0.787589 0.827349 0.805491
0.854221 0.817350 0.805605
0.846064 0.817221 0.805589
0.837880 0.817091 0.805573
0.829670 0.816962 0.805556
0.821433 0.816833 0.805540
0.813169 0.816703 0.805524
0.804877 0.816574 0.805508
0.796557 0.816445 0.805491
0.788208 0.816315 0.805475
0.854824 0.806271 0.805589
0.846668 0.806141 0.805573
0.838487 0.806011 0.805557
0.830279 0.805882 0.805540
0.822044 0.805752 0.805524
0.813782 0.805622 0.805508
0.805492 0.805492 0.805492
0.797174 0.805362 0.805476
0.788827 0.805232 0.805459
0.855427 0.795142 0.805573
0.847273 0.795012 0.805557
0.839093 0.794881 0.805541
0.830887 0.794751 0.805525
0.822654 0.794620 0.805508
0.814394 0.794490 0.805492
0.806106 0.794359 0.805476
0.797790 0.794229 0.805460
0.789445 0.794098 0.805443
0.856029 0.783961 0.805557
0.847877 0.783830 0.805541
0.839700 0.783699 0.805525
0.831496 0.783568 0.805509
0.823265 0.783437 0.805493
0.815007 0.783306 0.805476
0.806721 0.783175 0.805460
0.798407 0.783043 0.805444
0.790064 0.782912 0.805428
0.955807 0.979184 0.904692
0.947948 0.979063 0.904677
0.940068 0.978941 0.904661
0.932166 0.978819 0.904645
0.924241 0.978697 0.904630
0.916294 0.978575 0.904614
0.908325 0.978453 0.904599
0.900332 0.978332 0.904583
0.892316 0.978210 0.904567
0.956388 0.968752 0.904677
0.948531 0.968630 0.904661
0.940652 0.968507 0.904646
0.932751 0.968385 0.904630
0.924829 0.968263 0.904615
0.916883 0.968141 0.904599
0.908915 0.968018 0.904583
0.900924 0.967896 0.904568
0.892910 0.967774 0.904552
0.956969 0.958282 0.904662
0.949113 0.958160 0.904646
0.941236 0.958037 0.904631
0.933337 0.957914 0.904615
0.925416 0.957791 0.904599
0.917472 0.957669 0.904584
0.909506 0.957546 0.904568
0.901517 0.957423 0.904552
0.893504 0.957301 0.904537
0.957549 0.947775 0.904646
0.949695 0.947652 0.904631
0.941820 0.947528 0.904615
0.933922 0.947405 0.904600
0.926003 0.947282 0.904584
0.918061 0.947159 0.904568
0.910096 0.947036 0.904553
0.902109 0.946913 0.904537
0.894098 0.946789 0.904521
0.958130 0.937229 0.904631
0.950277 0.937105 0.904616
0.942403 0.936981 0.904600
0.934508 0.936858 0.904584
0.926590 0.936734 0.904569
0.918650 0.936610 0.904553
0.910687 0.936487 0.904537
0.902701 0.936363 0.904522
0.894691 0.936240 0.904506
0.958710 0.926643 0.904616
0.950859 0.926519 0.904600
0.942987 0.926395 0.904585
0.935093 0.926271 0.904569
0.927177 0.926147 0.904553
0.919238 0.926023 0.904538
0.911277 0.925899 0.904522
0.903293 0.925775 0.904507
0.895285 0.925650 0.904491
0.959290 0.916018 0.904601
0.951441 0.915893 0.904585
0.943570 0.915768 0.904569
0.935678 0.915644 0.904554
0.927763 0.915519 0.904538
0.919826 0.915395 0.904523
0.911867 0.915270 0.904507
0.903884 0.915146 0.904491
0.895879 0.915021 0.904476
0.959870 0.905351 0.904585
0.952023 0.905226 0.904570
0.944154 0.905101 0.904554
0.936263 0.904976 0.904539
0.928350 0.904851 0.904523
0.920415 0.904726 0.904507
0.912457 0.904601 0.904492
0.904476 0.904476 0.904476
0.896472 0.904351 0.904460
0.960450 0.894643 0.904570
0.952604 0.894518 0.904554
0.944737 0.894392 0.904539
0.936847 0.894267 0.904523
0.928936 0.894141 0.904508
0.921003 0.894016 0.904492
0.913047 0.893890 0.904476
0.905067 0.893765 0.904461
0.897065 0.893639 0.904445
1.000000 1.000000 1.000000
1.000000 1.000000 1.000000
1.000000 1.000000 1.000000
1.000000 1.000000 1.000000
1.000000 1.000000 1.000000
1.000000 1.000000 1.000000
1.000000 1.000000 1.000000
1.000000 1.000000 1.000000
0.995418 1.000000 1.000000
1.000000 1.000000 1.000000
1.000000 1.000000 1.000000
1.000000 1.000000 1.000000
1.000000 1.000000 1.000000
1.000000 1.000000 1.000000
1.000000 1.000000 1.000000
1.000000 1.000000 1.000000
1.000000 1.000000 1.000000
0.995991 1.000000 1.000000
1.000000 1.000000 1.000000
1.000000 1.000000 1.000000
1.000000 1.000000 1.000000
1.000000 1.000000 1.000000
1.000000 1.000000 1.000000
1.000000 1.000000 1.000000
1.000000 1.000000 1.000000
1.000000 1.000000 1.000000
0.996564 1.000000 1.000000
1.000000 1.000000 1.000000
1.000000 1.000000 1.000000
1.000000 1.000000 1.000000
1.000000 1.000000 1.000000
1.000000 1.000000 1.000000
1.000000 1.000000 1.000000
1.000000 1.000000 1.000000
1.000000 1.000000 1.000000
0.997137 1.000000 1.000000
1.000000 1.000000 1.000000
1.000000 1.000000 1.000000
1.000000 1.000000 1.000000
1.000000 1.000000 1.000000
1.000000 1.000000 1.000000
1.000000 1.000000 1.000000
1.000000 1.000000 1.000000
1.000000 1.000000 1.000000
0.997710 1.000000 1.000000
1.000000 1.000000 1.000000
1.000000 1.000000 1.000000
1.000000 1.000000 1.000000
1.000000 1.000000 1.000000
1.000000 1.000000 1.000000
1.000000 1.000000 1.000000
1.000000 1.000000 1.000000
1.000000 1.000000 1.000000
0.998283 1.000000 1.000000
1.000000 1.000000 1.000000
1.000000 1.000000 1.000000
1.000000 1.000000 1.000000
1.000000 1.000000 1.000000
1.000000 1.000000 1.000000
1.000000 1.000000 1.000000
1.000000 1.000000 1.000000
1.000000 1.000000 1.000000
0.998855 1.000000 1.000000
1.000000 1.000000 1.000000
1.000000 1.000000 1.000000
1.000000 1.000000 1.000000
1.000000 1.000000 1.000000
1.000000 1.000000 1.000000
1.000000 1.000000 1.000000
1.000000 1.000000 1.000000
1.000000 1.000000 1.000000
0.999428 1.000000 1.000000
1.000000 1.000000 1.000000
1.000000 1.000000 1.000000
1.000000 1.000000 1.000000
1.000000 1.000000 1.000000
1.000000 1.000000 1.000000
1.000000 1.000000 1.000000
1.000000 1.000000 1.000000
1.000000 1.000000 1.000000
1.000000 1.000000 1.000000
