presets/film_stocks/Fuji_Crystal_Archive_Super_Type_C.cube
# 独寻胶片模拟 -- Fuji Crystal Archive Super Type C
# Fujifilm, ISO 0, 2007, negative
TITLE "Fuji Crystal Archive Super Type C"
LUT_3D_SIZE 5
DOMAIN_MIN 0.0 0.0 0.0
DOMAIN_MAX 1.0 1.0 1.0
0.000000 0.000000 0.000000
0.228348 0.000000 0.004861
0.424008 0.000000 0.009027
0.608973 0.000000 0.012965
0.787319 0.000000 0.016762
0.029572 0.326618 0.000000
0.248900 0.324125 0.000000
0.443138 0.321630 0.003366
0.627306 0.319133 0.007653
0.805103 0.316633 0.011654
0.054910 0.606481 0.000000
0.269250 0.604167 0.000000
0.462169 0.601852 0.000000
0.645575 0.599536 0.001781
0.822841 0.597219 0.006249
0.078863 0.871047 0.000000
0.289416 0.868831 0.000000
0.481107 0.866615 0.000000
0.663782 0.864399 0.000000
0.840532 0.862181 0.000000
0.101959 1.000000 0.000000
0.309416 1.000000 0.000000
0.499956 1.000000 0.000000
0.681929 1.000000 0.000000
0.858179 1.000000 0.000000
0.055661 0.000000 0.290929
0.269871 0.000000 0.293584
0.462752 0.000000 0.296236
0.646135 0.000000 0.298886
0.823384 0.000000 0.301532
0.079583 0.292558 0.287373
0.290032 0.290032 0.290032
0.481687 0.287504 0.292688
0.664340 0.284972 0.295341
0.841074 0.282438 0.297992
0.102657 0.574963 0.283812
0.310027 0.572635 0.286475
0.500533 0.570305 0.289135
0.682485 0.567974 0.291792
0.858720 0.565641 0.294446
0.125120 0.840901 0.280246
0.329868 0.838677 0.282913
0.519294 0.836451 0.285577
0.700573 0.834225 0.288237
0.876322 0.831998 0.290895
0.147106 1.000000 0.276674
0.349566 1.000000 0.279345
0.537975 1.000000 0.282013
0.718605 1.000000 0.284678
0.893882 1.000000 0.287339
0.103355 0.000000 0.540212
0.310638 0.000000 0.542678
0.501110 0.000000 0.545142
0.683041 0.000000 0.547605
0.859261 0.000000 0.550067
0.125801 0.258015 0.536912
0.330474 0.255450 0.539379
0.519869 0.252882 0.541845
0.701127 0.250311 0.544310
0.876862 0.247737 0.546774
0.147774 0.543237 0.533609
0.350168 0.540892 0.536079
0.538547 0.538547 0.538547
0.719157 0.536199 0.541013
0.894420 0.533851 0.543478
0.169360 0.810626 0.530304
0.369730 0.808391 0.532775
0.557147 0.806156 0.535245
0.737133 0.803920 0.537714
0.911938 0.801683 0.540181
0.190619 1.000000 0.526997
0.389169 1.000000 0.529470
0.575673 1.000000 0.531941
0.755057 1.000000 0.534412
0.929415 1.000000 0.536880
0.148441 0.000000 0.775869
0.350770 0.000000 0.778230
0.539118 0.000000 0.780591
0.719710 0.000000 0.782950
0.894958 0.000000 0.785308
0.170016 0.222905 0.772710
0.370329 0.220295 0.775072
0.557716 0.217681 0.777433
0.737684 0.215063 0.779794
0.912474 0.212441 0.782153
0.191267 0.511287 0.769549
0.389764 0.508925 0.771912
0.576240 0.506562 0.774275
0.755606 0.504197 0.776636
0.929950 0.501831 0.778997
0.212237 0.780214 0.766386
0.409083 0.777969 0.768751
0.594693 0.775724 0.771114
0.773477 0.773477 0.773477
0.947387 0.771230 0.775839
0.232961 1.000000 0.763222
0.428293 1.000000 0.765588
0.613078 1.000000 0.767953
0.791299 1.000000 0.770317
0.964785 1.000000 0.772680
0.191914 0.000000 1.000000
0.390358 0.000000 1.000000
0.576808 0.000000 1.000000
0.756155 0.000000 1.000000
0.930486 0.000000 1.000000
0.212876 0.187116 1.000000
0.409674 0.184450 1.000000
0.595258 0.181779 1.000000
0.774025 0.179103 1.000000
0.947921 0.176423 1.000000
0.233593 0.479095 0.996965
0.428881 0.476715 0.999256
0.613641 0.474333 1.000000
0.791845 0.471949 1.000000
0.965318 0.469565 1.000000
0.254092 0.749659 0.993899
0.447986 0.747404 0.996191
0.631957 0.745147 0.998483
0.809617 0.742890 1.000000
0.982677 0.740632 1.000000
0.274393 1.000000 0.990832
0.466993 1.000000 0.993125
0.650210 1.000000 0.995417
0.827343 1.000000 0.997709
1.000000 1.000000 1.000000
