presets/film_stocks/Fuji_C200.cube
# 独寻胶片模拟 -- Fuji C200
# Fujifilm, ISO 200, 2017, negative
TITLE "Fuji C200"
LUT_3D_SIZE 5
DOMAIN_MIN 0.0 0.0 0.0
DOMAIN_MAX 1.0 1.0 1.0
0.000000 0.000000 0.000000
0.320191 0.009855 0.000000
0.594546 0.018299 0.000000
0.853905 0.026282 0.000000
1.000000 0.033979 0.000000
0.000000 0.308812 0.000000
0.308438 0.314625 0.000000
0.583647 0.320426 0.000000
0.843473 0.326214 0.000000
1.000000 0.331989 0.000000
0.000000 0.573417 0.000000
0.296631 0.578817 0.000000
0.572723 0.584212 0.000000
0.833026 0.589600 0.000000
1.000000 0.594982 0.000000
0.000000 0.823559 0.000000
0.284768 0.828731 0.000000
0.561774 0.833899 0.000000
0.822563 0.839063 0.000000
1.000000 0.844223 0.000000
0.000000 1.000000 0.000000
0.272845 1.000000 0.000000
0.550800 1.000000 0.000000
0.812084 1.000000 0.000000
1.000000 1.000000 0.000000
0.000000 0.000000 0.303851
0.301870 0.000000 0.294895
0.577567 0.000000 0.285906
0.837658 0.000000 0.276883
1.000000 0.000000 0.267825
0.000000 0.284161 0.299006
0.290032 0.290032 0.290032
0.566629 0.295889 0.281025
0.827201 0.301732 0.271983
1.000000 0.307562 0.262905
0.000000 0.550588 0.294151
0.278136 0.556015 0.285160
0.555666 0.561435 0.276134
0.816729 0.566849 0.267073
1.000000 0.572257 0.257975
0.000000 0.801719 0.289287
0.266179 0.806907 0.280277
0.544677 0.812091 0.271233
0.806241 0.817272 0.262151
1.000000 0.822448 0.253032
0.000000 1.000000 0.284413
0.254156 1.000000 0.275385
0.533662 1.000000 0.266320
0.795736 1.000000 0.257219
1.000000 1.000000 0.248079
0.000000 0.000000 0.564206
0.283415 0.000000 0.555898
0.560528 0.000000 0.547576
0.821372 0.000000 0.539238
1.000000 0.000000 0.530885
0.000000 0.259251 0.559710
0.271485 0.265186 0.551394
0.549550 0.271106 0.543063
0.810891 0.277010 0.534717
1.000000 0.282899 0.526356
0.000000 0.527645 0.555209
0.259492 0.533099 0.546885
0.538547 0.538547 0.538547
0.800393 0.543987 0.530192
1.000000 0.549422 0.521822
0.000000 0.779806 0.550704
0.247432 0.785012 0.542372
0.527516 0.790213 0.534025
0.789880 0.795411 0.525662
1.000000 0.800604 0.517283
0.000000 1.000000 0.546195
0.235301 1.000000 0.537855
0.516457 1.000000 0.529499
0.779349 1.000000 0.521127
1.000000 1.000000 0.512740
0.000000 0.000000 0.810330
0.264815 0.000000 0.802378
0.543426 0.000000 0.794417
0.805047 0.000000 0.786445
1.000000 0.000000 0.778465
0.000000 0.234050 0.806026
0.252785 0.240057 0.798069
0.532407 0.246047 0.790102
0.794541 0.252019 0.782126
1.000000 0.257974 0.774140
0.000000 0.504581 0.801719
0.240686 0.510064 0.793756
0.521361 0.515541 0.785784
0.784017 0.521010 0.777803
1.000000 0.526473 0.769811
0.000000 0.757820 0.797409
0.228513 0.763043 0.789441
0.510287 0.768262 0.781464
0.773477 0.773477 0.773477
1.000000 0.778688 0.765480
0.000000 1.000000 0.793096
0.216262 1.000000 0.785123
0.499184 1.000000 0.777141
0.762920 1.000000 0.769149
1.000000 1.000000 0.761147
0.000000 0.000000 1.000000
0.246056 0.000000 1.000000
0.526259 0.000000 1.000000
0.788683 0.000000 1.000000
1.000000 0.000000 1.000000
0.000000 0.208518 1.000000
0.233917 0.214608 1.000000
0.515198 0.220677 1.000000
0.778150 0.226727 1.000000
1.000000 0.232757 1.000000
0.000000 0.481390 1.000000
0.221701 0.486904 1.000000
0.504107 0.492411 1.000000
0.767600 0.497911 1.000000
1.000000 0.503403 1.000000
0.000000 0.735756 1.000000
0.209404 0.740998 1.000000
0.492988 0.746236 1.000000
0.757033 0.751469 1.000000
1.000000 0.756698 1.000000
0.000000 0.979757 1.000000
0.197020 0.984822 1.000000
0.481838 0.989885 1.000000
0.746448 0.994944 1.000000
1.000000 1.000000 1.000000
