presets/film_stocks/Fuji_Eterna-CP_3523XD.cube
# 独寻胶片模拟 -- Fuji Eterna-CP 3523XD
# Fujifilm, ISO 0, 2010, negative
TITLE "Fuji Eterna-CP 3523XD"
LUT_3D_SIZE 33
DOMAIN_MIN 0.0 0.0 0.0
DOMAIN_MAX 1.0 1.0 1.0
0.000000 0.000000 0.000000
0.082455 0.000619 0.000000
0.150655 0.001131 0.000000
0.214342 0.001610 0.000000
0.275264 0.002067 0.000000
0.334209 0.002510 0.000000
0.391626 0.002941 0.000000
0.447802 0.003363 0.000000
0.502938 0.003777 0.000000
0.557179 0.004184 0.000000
0.610638 0.004586 0.000000
0.663403 0.004982 0.000000
0.715545 0.005374 0.000000
0.767123 0.005761 0.000000
0.818185 0.006145 0.000000
0.868774 0.006525 0.000000
0.918924 0.006901 0.000000
0.968666 0.007275 0.000000
1.000000 0.007645 0.000000
1.000000 0.008014 0.000000
1.000000 0.008379 0.000000
1.000000 0.008742 0.000000
1.000000 0.009103 0.000000
1.000000 0.009462 0.000000
1.000000 0.009819 0.000000
1.000000 0.010173 0.000000
1.000000 0.010526 0.000000
1.000000 0.010877 0.000000
1.000000 0.011227 0.000000
1.000000 0.011575 0.000000
1.000000 0.011921 0.000000
1.000000 0.012266 0.000000
1.000000 0.012609 0.000000
0.000000 0.054329 0.000000
0.071690 0.054604 0.000000
0.140872 0.054879 0.000000
0.205078 0.055154 0.000000
0.266349 0.055429 0.000000
0.325554 0.055703 0.000000
0.383178 0.055977 0.000000
0.439524 0.056251 0.000000
0.494803 0.056525 0.000000
0.549170 0.056798 0.000000
0.602739 0.057071 0.000000
0.655602 0.057344 0.000000
0.707833 0.057617 0.000000
0.759491 0.057890 0.000000
0.810628 0.058163 0.000000
0.861284 0.058435 0.000000
0.911497 0.058707 0.000000
0.961298 0.058979 0.000000
1.000000 0.059251 0.000000
1.000000 0.059522 0.000000
1.000000 0.059794 0.000000
1.000000 0.060065 0.000000
1.000000 0.060336 0.000000
1.000000 0.060607 0.000000
1.000000 0.060877 0.000000
1.000000 0.061148 0.000000
1.000000 0.061418 0.000000
1.000000 0.061688 0.000000
1.000000 0.061958 0.000000
1.000000 0.062228 0.000000
1.000000 0.062498 0.000000
1.000000 0.062767 0.000000
1.000000 0.063036 0.000000
0.000000 0.099266 0.000000
0.060675 0.099517 0.000000
0.130986 0.099768 0.000000
0.195751 0.100020 0.000000
0.257389 0.100271 0.000000
0.316865 0.100522 0.000000
0.374701 0.100773 0.000000
0.431222 0.101023 0.000000
0.486649 0.101274 0.000000
0.541143 0.101525 0.000000
0.594824 0.101775 0.000000
0.647788 0.102026 0.000000
0.700108 0.102276 0.000000
0.751848 0.102526 0.000000
0.803059 0.102777 0.000000
0.853785 0.103027 0.000000
0.904061 0.103277 0.000000
0.953922 0.103527 0.000000
1.000000 0.103776 0.000000
1.000000 0.104026 0.000000
1.000000 0.104276 0.000000
1.000000 0.104525 0.000000
1.000000 0.104775 0.000000
1.000000 0.105024 0.000000
1.000000 0.105273 0.000000
1.000000 0.105523 0.000000
1.000000 0.105772 0.000000
1.000000 0.106021 0.000000
1.000000 0.106270 0.000000
1.000000 0.106518 0.000000
1.000000 0.106767 0.000000
1.000000 0.107016 0.000000
1.000000 0.107264 0.000000
0.000000 0.141228 0.000000
0.049350 0.141467 0.000000
0.120986 0.141705 0.000000
0.186357 0.141944 0.000000
0.248382 0.142182 0.000000
0.308139 0.142420 0.000000
0.366195 0.142658 0.000000
0.422896 0.142896 0.000000
0.478474 0.143134 0.000000
0.533098 0.143372 0.000000
0.586894 0.143610 0.000000
0.639959 0.143848 0.000000
0.692371 0.144086 0.000000
0.744194 0.144324 0.000000
0.795480 0.144561 0.000000
0.846275 0.144799 0.000000
0.896617 0.145037 0.000000
0.946537 0.145274 0.000000
0.996066 0.145511 0.000000
1.000000 0.145749 0.000000
1.000000 0.145986 0.000000
1.000000 0.146223 0.000000
1.000000 0.146461 0.000000
1.000000 0.146698 0.000000
1.000000 0.146935 0.000000
1.000000 0.147172 0.000000
1.000000 0.147409 0.000000
1.000000 0.147646 0.000000
1.000000 0.147883 0.000000
1.000000 0.148120 0.000000
1.000000 0.148356 0.000000
1.000000 0.148593 0.000000
1.000000 0.148830 0.000000
0.000000 0.181370 0.000000
0.037616 0.181599 0.000000
0.110861 0.181829 0.000000
0.176892 0.182058 0.000000
0.239325 0.182288 0.000000
0.299377 0.182518 0.000000
0.357660 0.182747 0.000000
0.414545 0.182976 0.000000
0.470278 0.183206 0.000000
0.525035 0.183435 0.000000
0.578947 0.183664 0.000000
0.632116 0.183894 0.000000
0.684620 0.184123 0.000000
0.736527 0.184352 0.000000
0.787890 0.184581 0.000000
0.838756 0.184810 0.000000
0.889162 0.185039 0.000000
0.939144 0.185268 0.000000
0.988729 0.185497 0.000000
1.000000 0.185726 0.000000
1.000000 0.185955 0.000000
1.000000 0.186184 0.000000
1.000000 0.186413 0.000000
1.000000 0.186641 0.000000
1.000000 0.186870 0.000000
1.000000 0.187099 0.000000
1.000000 0.187327 0.000000
1.000000 0.187556 0.000000
1.000000 0.187784 0.000000
1.000000 0.188013 0.000000
1.000000 0.188241 0.000000
1.000000 0.188470 0.000000
1.000000 0.188698 0.000000
0.000000 0.220208 0.000000
0.025293 0.220432 0.000000
0.100594 0.220655 0.000000
0.167350 0.220878 0.000000
0.230217 0.221101 0.000000
0.290575 0.221324 0.000000
0.349094 0.221547 0.000000
0.406169 0.221769 0.000000
0.462061 0.221992 0.000000
0.516954 0.222215 0.000000
0.570985 0.222438 0.000000
0.624258 0.222661 0.000000
0.676856 0.222883 0.000000
0.728849 0.223106 0.000000
0.780290 0.223329 0.000000
0.831226 0.223551 0.000000
0.881699 0.223774 0.000000
0.931741 0.223997 0.000000
0.981384 0.224219 0.000000
1.000000 0.224442 0.000000
1.000000 0.224664 0.000000
1.000000 0.224886 0.000000
1.000000 0.225109 0.000000
1.000000 0.225331 0.000000
1.000000 0.225553 0.000000
1.000000 0.225776 0.000000
1.000000 0.225998 0.000000
1.000000 0.226220 0.000000
1.000000 0.226442 0.000000
1.000000 0.226665 0.000000
1.000000 0.226887 0.000000
1.000000 0.227109 0.000000
1.000000 0.227331 0.000000
0.000000 0.258040 0.000000
0.011934 0.258258 0.000000
0.090168 0.258476 0.000000
0.157725 0.258694 0.000000
0.221055 0.258911 0.000000
0.281734 0.259129 0.000000
0.340496 0.259347 0.000000
0.397766 0.259565 0.000000
0.453821 0.259782 0.000000
0.508853 0.260000 0.000000
0.563005 0.260217 0.000000
0.616385 0.260435 0.000000
0.669079 0.260653 0.000000
0.721158 0.260870 0.000000
0.772678 0.261088 0.000000
0.823687 0.261305 0.000000
0.874226 0.261523 0.000000
0.924330 0.261740 0.000000
0.974031 0.261957 0.000000
1.000000 0.262175 0.000000
1.000000 0.262392 0.000000
1.000000 0.262609 0.000000
1.000000 0.262827 0.000000
1.000000 0.263044 0.000000
1.000000 0.263261 0.000000
1.000000 0.263478 0.000000
1.000000 0.263695 0.000000
1.000000 0.263913 0.000000
1.000000 0.264130 0.000000
1.000000 0.264347 0.000000
1.000000 0.264564 0.000000
1.000000 0.264781 0.000000
1.000000 0.264998 0.000000
0.000000 0.295054 0.000000
0.000000 0.295268 0.000000
0.079558 0.295481 0.000000
0.148011 0.295695 0.000000
0.211835 0.295908 0.000000
0.272850 0.296122 0.000000
0.331865 0.296335 0.000000
0.389338 0.296548 0.000000
0.445559 0.296762 0.000000
0.500734 0.296975 0.000000
0.555008 0.297188 0.000000
0.608497 0.297402 0.000000
0.661289 0.297615 0.000000
0.713455 0.297828 0.000000
0.765054 0.298041 0.000000
0.816137 0.298255 0.000000
0.866743 0.298468 0.000000
0.916910 0.298681 0.000000
0.966669 0.298894 0.000000
1.000000 0.299107 0.000000
1.000000 0.299320 0.000000
1.000000 0.299533 0.000000
1.000000 0.299746 0.000000
1.000000 0.299959 0.000000
1.000000 0.300172 0.000000
1.000000 0.300385 0.000000
1.000000 0.300598 0.000000
1.000000 0.300811 0.000000
1.000000 0.301024 0.000000
1.000000 0.301237 0.000000
1.000000 0.301450 0.000000
1.000000 0.301663 0.000000
1.000000 0.301876 0.000000
0.000000 0.331383 0.000000
0.000000 0.331592 0.000000
0.068729 0.331802 0.000000
0.138201 0.332012 0.000000
0.202555 0.332222 0.000000
0.263923 0.332432 0.000000
0.323201 0.332641 0.000000
0.380881 0.332851 0.000000
0.437274 0.333061 0.000000
0.492594 0.333270 0.000000
0.546995 0.333480 0.000000
0.600594 0.333690 0.000000
0.653484 0.333899 0.000000
0.705739 0.334109 0.000000
0.757420 0.334318 0.000000
0.808576 0.334528 0.000000
0.859251 0.334738 0.000000
0.909481 0.334947 0.000000
0.959299 0.335157 0.000000
1.000000 0.335366 0.000000
1.000000 0.335576 0.000000
1.000000 0.335785 0.000000
1.000000 0.335994 0.000000
1.000000 0.336204 0.000000
1.000000 0.336413 0.000000
1.000000 0.336623 0.000000
1.000000 0.336832 0.000000
1.000000 0.337041 0.000000
1.000000 0.337250 0.000000
1.000000 0.337460 0.000000
1.000000 0.337669 0.000000
1.000000 0.337878 0.000000
1.000000 0.338087 0.000000
0.000000 0.367122 0.000000
0.000000 0.367328 0.000000
0.057638 0.367535 0.000000
0.128285 0.367742 0.000000
0.193210 0.367948 0.000000
0.254951 0.368155 0.000000
0.314502 0.368361 0.000000
0.372397 0.368568 0.000000
0.428966 0.368774 0.000000
0.484434 0.368981 0.000000
0.538963 0.369187 0.000000
0.592675 0.369394 0.000000
0.645666 0.369600 0.000000
0.698011 0.369807 0.000000
0.749773 0.370013 0.000000
0.801005 0.370219 0.000000
0.851749 0.370426 0.000000
0.902043 0.370632 0.000000
0.951920 0.370839 0.000000
1.000000 0.371045 0.000000
1.000000 0.371251 0.000000
1.000000 0.371457 0.000000
1.000000 0.371664 0.000000
1.000000 0.371870 0.000000
1.000000 0.372076 0.000000
1.000000 0.372282 0.000000
1.000000 0.372489 0.000000
1.000000 0.372695 0.000000
1.000000 0.372901 0.000000
1.000000 0.373107 0.000000
1.000000 0.373313 0.000000
1.000000 0.373519 0.000000
1.000000 0.373726 0.000000
0.000000 0.402346 0.000000
0.000000 0.402549 0.000000
0.046214 0.402753 0.000000
0.118253 0.402957 0.000000
0.183797 0.403161 0.000000
0.245931 0.403365 0.000000
0.305766 0.403568 0.000000
0.363883 0.403772 0.000000
0.420633 0.403976 0.000000
0.476253 0.404179 0.000000
0.530913 0.404383 0.000000
0.584740 0.404587 0.000000
0.637833 0.404790 0.000000
0.690270 0.404994 0.000000
0.742116 0.405198 0.000000
0.793423 0.405401 0.000000
0.844237 0.405605 0.000000
0.894596 0.405808 0.000000
0.944533 0.406012 0.000000
0.994077 0.406215 0.000000
1.000000 0.406419 0.000000
1.000000 0.406623 0.000000
1.000000 0.406826 0.000000
1.000000 0.407029 0.000000
1.000000 0.407233 0.000000
1.000000 0.407436 0.000000
1.000000 0.407640 0.000000
1.000000 0.407843 0.000000
1.000000 0.408047 0.000000
1.000000 0.408250 0.000000
1.000000 0.408453 0.000000
1.000000 0.408657 0.000000
1.000000 0.408860 0.000000
0.000000 0.437112 0.000000
0.000000 0.437313 0.000000
0.034343 0.437515 0.000000
0.108091 0.437716 0.000000
0.174312 0.437917 0.000000
0.236860 0.438119 0.000000
0.296993 0.438320 0.000000
0.355339 0.438521 0.000000
0.412275 0.438722 0.000000
0.468052 0.438923 0.000000
0.522845 0.439125 0.000000
0.576789 0.439326 0.000000
0.629986 0.439527 0.000000
0.682516 0.439728 0.000000
0.734446 0.439929 0.000000
0.785830 0.440130 0.000000
0.836715 0.440331 0.000000
0.887139 0.440532 0.000000
0.937137 0.440733 0.000000
0.986738 0.440934 0.000000
1.000000 0.441136 0.000000
1.000000 0.441337 0.000000
1.000000 0.441538 0.000000
1.000000 0.441739 0.000000
1.000000 0.441940 0.000000
1.000000 0.442141 0.000000
1.000000 0.442341 0.000000
1.000000 0.442542 0.000000
1.000000 0.442743 0.000000
1.000000 0.442944 0.000000
1.000000 0.443145 0.000000
1.000000 0.443346 0.000000
1.000000 0.443547 0.000000
0.000000 0.471468 0.000000
0.000000 0.471667 0.000000
0.021805 0.471866 0.000000
0.097783 0.472065 0.000000
0.164748 0.472264 0.000000
0.227738 0.472463 0.000000
0.288181 0.472662 0.000000
0.346765 0.472861 0.000000
0.403892 0.473060 0.000000
0.459828 0.473259 0.000000
0.514759 0.473458 0.000000
0.568822 0.473657 0.000000
0.622124 0.473856 0.000000
0.674749 0.474055 0.000000
0.726764 0.474254 0.000000
0.778226 0.474452 0.000000
0.829182 0.474651 0.000000
0.879673 0.474850 0.000000
0.929732 0.475049 0.000000
0.979390 0.475248 0.000000
1.000000 0.475447 0.000000
1.000000 0.475645 0.000000
1.000000 0.475844 0.000000
1.000000 0.476043 0.000000
1.000000 0.476242 0.000000
1.000000 0.476440 0.000000
1.000000 0.476639 0.000000
1.000000 0.476838 0.000000
1.000000 0.477036 0.000000
1.000000 0.477235 0.000000
1.000000 0.477434 0.000000
1.000000 0.477632 0.000000
1.000000 0.477831 0.000000
0.000000 0.505453 0.000000
0.000000 0.505650 0.000000
0.007962 0.505847 0.000000
0.087310 0.506043 0.000000
0.155100 0.506240 0.000000
0.218560 0.506437 0.000000
0.279328 0.506634 0.000000
0.338158 0.506831 0.000000
0.395483 0.507028 0.000000
0.451583 0.507225 0.000000
0.506653 0.507422 0.000000
0.560838 0.507619 0.000000
0.614247 0.507815 0.000000
0.666968 0.508012 0.000000
0.719070 0.508209 0.000000
0.770611 0.508406 0.000000
0.821640 0.508603 0.000000
0.872197 0.508799 0.000000
0.922319 0.508996 0.000000
0.972035 0.509193 0.000000
1.000000 0.509390 0.000000
1.000000 0.509586 0.000000
1.000000 0.509783 0.000000
1.000000 0.509980 0.000000
1.000000 0.510177 0.000000
1.000000 0.510373 0.000000
1.000000 0.510570 0.000000
1.000000 0.510767 0.000000
1.000000 0.510963 0.000000
1.000000 0.511160 0.000000
1.000000 0.511356 0.000000
1.000000 0.511553 0.000000
1.000000 0.511750 0.000000
0.000000 0.539097 0.000000
0.000000 0.539292 0.000000
0.000000 0.539487 0.000000
0.076644 0.539682 0.000000
0.145361 0.539877 0.000000
0.209324 0.540072 0.000000
0.270433 0.540268 0.000000
0.329519 0.540463 0.000000
0.387047 0.540657 0.000000
0.443315 0.540852 0.000000
0.498528 0.541047 0.000000
0.552837 0.541242 0.000000
0.606355 0.541437 0.000000
0.659173 0.541632 0.000000
0.711363 0.541827 0.000000
0.762985 0.542022 0.000000
0.814087 0.542217 0.000000
0.864712 0.542412 0.000000
0.914896 0.542607 0.000000
0.964671 0.542802 0.000000
1.000000 0.542997 0.000000
1.000000 0.543191 0.000000
1.000000 0.543386 0.000000
1.000000 0.543581 0.000000
1.000000 0.543776 0.000000
1.000000 0.543971 0.000000
1.000000 0.544166 0.000000
1.000000 0.544360 0.000000
1.000000 0.544555 0.000000
1.000000 0.544750 0.000000
1.000000 0.544945 0.000000
1.000000 0.545139 0.000000
1.000000 0.545334 0.000000
0.000000 0.572430 0.000000
0.000000 0.572623 0.000000
0.000000 0.572816 0.000000
0.065750 0.573010 0.000000
0.135523 0.573203 0.000000
0.200027 0.573396 0.000000
0.261494 0.573589 0.000000
0.320845 0.573783 0.000000
0.378583 0.573976 0.000000
0.435023 0.574169 0.000000
0.490383 0.574362 0.000000
0.544818 0.574556 0.000000
0.598448 0.574749 0.000000
0.651365 0.574942 0.000000
0.703644 0.575135 0.000000
0.755347 0.575328 0.000000
0.806524 0.575522 0.000000
0.857217 0.575715 0.000000
0.907465 0.575908 0.000000
0.957298 0.576101 0.000000
1.000000 0.576294 0.000000
1.000000 0.576487 0.000000
1.000000 0.576680 0.000000
1.000000 0.576874 0.000000
1.000000 0.577067 0.000000
1.000000 0.577260 0.000000
1.000000 0.577453 0.000000
1.000000 0.577646 0.000000
1.000000 0.577839 0.000000
1.000000 0.578032 0.000000
1.000000 0.578225 0.000000
1.000000 0.578418 0.000000
1.000000 0.578611 0.000000
0.000000 0.605473 0.000000
0.000000 0.605665 0.000000
0.000000 0.605857 0.000000
0.054576 0.606048 0.000000
0.125576 0.606240 0.000000
0.190664 0.606432 0.000000
0.252509 0.606623 0.000000
0.312136 0.606815 0.000000
0.370091 0.607007 0.000000
0.426708 0.607198 0.000000
0.482217 0.607390 0.000000
0.536782 0.607581 0.000000
0.590525 0.607773 0.000000
0.643543 0.607965 0.000000
0.695913 0.608156 0.000000
0.747698 0.608348 0.000000
0.798949 0.608539 0.000000
0.849712 0.608731 0.000000
0.900024 0.608922 0.000000
0.949917 0.609114 0.000000
0.999420 0.609305 0.000000
1.000000 0.609497 0.000000
1.000000 0.609688 0.000000
1.000000 0.609880 0.000000
1.000000 0.610071 0.000000
1.000000 0.610263 0.000000
1.000000 0.610454 0.000000
1.000000 0.610646 0.000000
1.000000 0.610837 0.000000
1.000000 0.611029 0.000000
1.000000 0.611220 0.000000
1.000000 0.611412 0.000000
1.000000 0.611603 0.000000
0.000000 0.638248 0.000000
0.000000 0.638438 0.000000
0.000000 0.638629 0.000000
0.043045 0.638819 0.000000
0.115510 0.639009 0.000000
0.181232 0.639199 0.000000
0.243476 0.639389 0.000000
0.303391 0.639579 0.000000
0.361569 0.639770 0.000000
0.418369 0.639960 0.000000
0.474031 0.640150 0.000000
0.528727 0.640340 0.000000
0.582586 0.640530 0.000000
0.635706 0.640720 0.000000
0.688168 0.640910 0.000000
0.740037 0.641100 0.000000
0.791365 0.641290 0.000000
0.842198 0.641480 0.000000
0.892574 0.641670 0.000000
0.942528 0.641860 0.000000
0.992087 0.642050 0.000000
1.000000 0.642240 0.000000
1.000000 0.642430 0.000000
1.000000 0.642620 0.000000
1.000000 0.642810 0.000000
1.000000 0.643000 0.000000
1.000000 0.643190 0.000000
1.000000 0.643380 0.000000
1.000000 0.643570 0.000000
1.000000 0.643760 0.000000
1.000000 0.643950 0.000000
1.000000 0.644140 0.000000
1.000000 0.644330 0.000000
0.000000 0.670773 0.000000
0.000000 0.670961 0.000000
0.000000 0.671150 0.000000
0.031023 0.671339 0.000000
0.105311 0.671528 0.000000
0.171726 0.671716 0.000000
0.234392 0.671905 0.000000
0.294607 0.672094 0.000000
0.353017 0.672283 0.000000
0.410004 0.672471 0.000000
0.465823 0.672660 0.000000
0.520654 0.672849 0.000000
0.574630 0.673037 0.000000
0.627855 0.673226 0.000000
0.680411 0.673415 0.000000
0.732363 0.673603 0.000000
0.783769 0.673792 0.000000
0.834673 0.673981 0.000000
0.885115 0.674169 0.000000
0.935130 0.674358 0.000000
0.984746 0.674547 0.000000
1.000000 0.674735 0.000000
1.000000 0.674924 0.000000
1.000000 0.675113 0.000000
1.000000 0.675301 0.000000
1.000000 0.675490 0.000000
1.000000 0.675678 0.000000
1.000000 0.675867 0.000000
1.000000 0.676055 0.000000
1.000000 0.676244 0.000000
1.000000 0.676433 0.000000
1.000000 0.676621 0.000000
1.000000 0.676810 0.000000
0.000000 0.703062 0.000000
0.000000 0.703250 0.000000
0.000000 0.703437 0.000000
0.018231 0.703624 0.000000
0.094960 0.703812 0.000000
0.162140 0.703999 0.000000
0.225254 0.704187 0.000000
0.285784 0.704374 0.000000
0.344434 0.704562 0.000000
0.401614 0.704749 0.000000
0.457594 0.704936 0.000000
0.512562 0.705124 0.000000
0.566658 0.705311 0.000000
0.619989 0.705498 0.000000
0.672640 0.705686 0.000000
0.724678 0.705873 0.000000
0.776162 0.706060 0.000000
0.827138 0.706248 0.000000
0.877646 0.706435 0.000000
0.927723 0.706622 0.000000
0.977396 0.706810 0.000000
1.000000 0.706997 0.000000
1.000000 0.707184 0.000000
1.000000 0.707372 0.000000
1.000000 0.707559 0.000000
1.000000 0.707746 0.000000
1.000000 0.707933 0.000000
1.000000 0.708121 0.000000
1.000000 0.708308 0.000000
1.000000 0.708495 0.000000
1.000000 0.708682 0.000000
1.000000 0.708870 0.000000
1.000000 0.709057 0.000000
0.000000 0.735131 0.000000
0.000000 0.735317 0.000000
0.000000 0.735503 0.000000
0.003646 0.735689 0.000000
0.084437 0.735875 0.000000
0.152468 0.736061 0.000000
0.216061 0.736248 0.000000
0.276920 0.736434 0.000000
0.335818 0.736620 0.000000
0.393198 0.736806 0.000000
0.449343 0.736992 0.000000
0.504451 0.737178 0.000000
0.558670 0.737365 0.000000
0.612108 0.737551 0.000000
0.664855 0.737737 0.000000
0.716981 0.737923 0.000000
0.768544 0.738109 0.000000
0.819593 0.738295 0.000000
0.870168 0.738481 0.000000
0.920307 0.738667 0.000000
0.970038 0.738853 0.000000
1.000000 0.739039 0.000000
1.000000 0.739225 0.000000
1.000000 0.739411 0.000000
1.000000 0.739597 0.000000
1.000000 0.739783 0.000000
1.000000 0.739970 0.000000
1.000000 0.740156 0.000000
1.000000 0.740342 0.000000
1.000000 0.740528 0.000000
1.000000 0.740714 0.000000
1.000000 0.740900 0.000000
1.000000 0.741086 0.000000
0.000000 0.766990 0.000000
0.000000 0.767175 0.000000
0.000000 0.767360 0.000000
0.000000 0.767545 0.000000
0.073714 0.767730 0.000000
0.142703 0.767915 0.000000
0.206809 0.768100 0.000000
0.268013 0.768285 0.000000
0.327170 0.768470 0.000000
0.384754 0.768655 0.000000
0.441068 0.768840 0.000000
0.496321 0.769025 0.000000
0.550664 0.769210 0.000000
0.604212 0.769395 0.000000
0.657057 0.769580 0.000000
0.709271 0.769765 0.000000
0.760914 0.769950 0.000000
0.812037 0.770135 0.000000
0.862680 0.770320 0.000000
0.912882 0.770505 0.000000
0.962672 0.770690 0.000000
1.000000 0.770874 0.000000
1.000000 0.771059 0.000000
1.000000 0.771244 0.000000
1.000000 0.771429 0.000000
1.000000 0.771614 0.000000
1.000000 0.771799 0.000000
1.000000 0.771984 0.000000
1.000000 0.772168 0.000000
1.000000 0.772353 0.000000
1.000000 0.772538 0.000000
1.000000 0.772723 0.000000
1.000000 0.772908 0.000000
0.000000 0.798653 0.000000
0.000000 0.798837 0.000000
0.000000 0.799021 0.000000
0.000000 0.799205 0.000000
0.062749 0.799389 0.000000
0.132836 0.799572 0.000000
0.197494 0.799756 0.000000
0.259062 0.799940 0.000000
0.318487 0.800124 0.000000
0.376283 0.800308 0.000000
0.432771 0.800492 0.000000
0.488170 0.800676 0.000000
0.542640 0.800859 0.000000
0.596300 0.801043 0.000000
0.649245 0.801227 0.000000
0.701549 0.801411 0.000000
0.753274 0.801595 0.000000
0.804470 0.801778 0.000000
0.855183 0.801962 0.000000
0.905448 0.802146 0.000000
0.955297 0.802330 0.000000
1.000000 0.802514 0.000000
1.000000 0.802697 0.000000
1.000000 0.802881 0.000000
1.000000 0.803065 0.000000
1.000000 0.803249 0.000000
1.000000 0.803432 0.000000
1.000000 0.803616 0.000000
1.000000 0.803800 0.000000
1.000000 0.803984 0.000000
1.000000 0.804167 0.000000
1.000000 0.804351 0.000000
1.000000 0.804535 0.000000
0.000000 0.830128 0.000000
0.000000 0.830311 0.000000
0.000000 0.830494 0.000000
0.000000 0.830677 0.000000
0.051488 0.830860 0.000000
0.122859 0.831042 0.000000
0.188113 0.831225 0.000000
0.250064 0.831408 0.000000
0.309768 0.831591 0.000000
0.367782 0.831774 0.000000
0.424449 0.831956 0.000000
0.479999 0.832139 0.000000
0.534599 0.832322 0.000000
0.588373 0.832505 0.000000
0.641419 0.832687 0.000000
0.693814 0.832870 0.000000
0.745621 0.833053 0.000000
0.796893 0.833236 0.000000
0.847675 0.833418 0.000000
0.898005 0.833601 0.000000
0.947914 0.833784 0.000000
0.997432 0.833967 0.000000
1.000000 0.834149 0.000000
1.000000 0.834332 0.000000
1.000000 0.834515 0.000000
1.000000 0.834697 0.000000
1.000000 0.834880 0.000000
1.000000 0.835063 0.000000
1.000000 0.835245 0.000000
1.000000 0.835428 0.000000
1.000000 0.835611 0.000000
1.000000 0.835793 0.000000
1.000000 0.835976 0.000000
0.000000 0.861426 0.000000
0.000000 0.861607 0.000000
0.000000 0.861789 0.000000
0.000000 0.861971 0.000000
0.039841 0.862153 0.000000
0.112758 0.862335 0.000000
0.178661 0.862516 0.000000
0.241017 0.862698 0.000000
0.301012 0.862880 0.000000
0.359253 0.863062 0.000000
0.416103 0.863244 0.000000
0.471807 0.863425 0.000000
0.526539 0.863607 0.000000
0.580430 0.863789 0.000000
0.633578 0.863971 0.000000
0.686066 0.864152 0.000000
0.737957 0.864334 0.000000
0.789306 0.864516 0.000000
0.840158 0.864698 0.000000
0.890552 0.864879 0.000000
0.940522 0.865061 0.000000
0.990097 0.865243 0.000000
1.000000 0.865424 0.000000
1.000000 0.865606 0.000000
1.000000 0.865788 0.000000
1.000000 0.865969 0.000000
1.000000 0.866151 0.000000
1.000000 0.866333 0.000000
1.000000 0.866514 0.000000
1.000000 0.866696 0.000000
1.000000 0.866878 0.000000
1.000000 0.867059 0.000000
1.000000 0.867241 0.000000
0.000000 0.892553 0.000000
0.000000 0.892734 0.000000
0.000000 0.892915 0.000000
0.000000 0.893096 0.000000
0.027648 0.893276 0.000000
0.102519 0.893457 0.000000
0.169134 0.893638 0.000000
0.231919 0.893819 0.000000
0.292218 0.894000 0.000000
0.350692 0.894181 0.000000
0.407731 0.894361 0.000000
0.463594 0.894542 0.000000
0.518461 0.894723 0.000000
0.572470 0.894904 0.000000
0.625723 0.895085 0.000000
0.678304 0.895265 0.000000
0.730280 0.895446 0.000000
0.781707 0.895627 0.000000
0.832630 0.895808 0.000000
0.883090 0.895989 0.000000
0.933122 0.896169 0.000000
0.982753 0.896350 0.000000
1.000000 0.896531 0.000000
1.000000 0.896711 0.000000
1.000000 0.896892 0.000000
1.000000 0.897073 0.000000
1.000000 0.897254 0.000000
1.000000 0.897434 0.000000
1.000000 0.897615 0.000000
1.000000 0.897796 0.000000
1.000000 0.897977 0.000000
1.000000 0.898157 0.000000
1.000000 0.898338 0.000000
0.000000 0.923519 0.000000
0.000000 0.923699 0.000000
0.000000 0.923878 0.000000
0.000000 0.924058 0.000000
0.014547 0.924238 0.000000
0.092124 0.924418 0.000000
0.159525 0.924598 0.000000
0.222767 0.924778 0.000000
0.283384 0.924958 0.000000
0.342100 0.925138 0.000000
0.399334 0.925318 0.000000
0.455358 0.925498 0.000000
0.510364 0.925678 0.000000
0.564493 0.925857 0.000000
0.617853 0.926037 0.000000
0.670530 0.926217 0.000000
0.722592 0.926397 0.000000
0.774097 0.926577 0.000000
0.825092 0.926757 0.000000
0.875619 0.926937 0.000000
0.925712 0.927116 0.000000
0.975401 0.927296 0.000000
1.000000 0.927476 0.000000
1.000000 0.927656 0.000000
1.000000 0.927836 0.000000
