presets/film_stocks/Fujiflex_Crystal_Archive_New_Version.cube
# 独寻胶片模拟 -- Fujiflex Crystal Archive New Version
# Fujifilm, ISO 0, 0, negative
TITLE "Fujiflex Crystal Archive New Version"
LUT_3D_SIZE 5
DOMAIN_MIN 0.0 0.0 0.0
DOMAIN_MAX 1.0 1.0 1.0
0.000000 0.000000 0.000000
0.226046 0.000000 0.004689
0.422081 0.000000 0.008755
0.608186 0.000000 0.012615
0.788123 0.000000 0.016347
0.028259 0.323605 0.000000
0.246204 0.321066 0.000000
0.440944 0.318525 0.003344
0.626321 0.315981 0.007511
0.805755 0.313435 0.011424
0.052766 0.604245 0.000000
0.266181 0.601875 0.000000
0.459719 0.599504 0.000000
0.644398 0.597132 0.001935
0.823345 0.594759 0.006244
0.076032 0.870671 0.000000
0.285994 0.868395 0.000000
0.478410 0.866117 0.000000
0.662420 0.863840 0.000000
0.840894 0.861561 0.000381
0.098527 1.000000 0.000000
0.305657 1.000000 0.000000
0.497021 1.000000 0.000000
0.680388 1.000000 0.000000
0.858402 1.000000 0.000000
0.053756 0.000000 0.287656
0.267009 0.000000 0.290341
0.460500 0.000000 0.293022
0.645150 0.000000 0.295701
0.824077 0.000000 0.298378
0.076983 0.289387 0.284128
0.286816 0.286816 0.286816
0.479187 0.284243 0.289501
0.663170 0.281667 0.292184
0.841624 0.279089 0.294864
0.099451 0.572397 0.280595
0.306473 0.570013 0.283287
0.497795 0.567627 0.285976
0.681135 0.565241 0.288662
0.859131 0.562854 0.291345
0.121369 0.840107 0.277057
0.325993 0.837822 0.279753
0.516326 0.835536 0.282445
0.699049 0.833249 0.285135
0.876598 0.830961 0.287822
0.142857 1.000000 0.273514
0.345385 1.000000 0.276213
0.534785 1.000000 0.278910
0.716912 1.000000 0.281603
0.894028 1.000000 0.284294
0.100374 0.000000 0.537121
0.307290 0.000000 0.539628
0.498568 0.000000 0.542133
0.681883 0.000000 0.544638
0.859860 0.000000 0.547141
0.122272 0.254716 0.533828
0.326803 0.252109 0.536337
0.517097 0.249499 0.538844
0.699794 0.246886 0.541350
0.877326 0.244270 0.543854
0.143745 0.540352 0.530533
0.346190 0.537953 0.533043
0.535552 0.535552 0.535552
0.717655 0.533150 0.538060
0.894753 0.530748 0.540566
0.164869 0.809421 0.527236
0.365458 0.807126 0.529748
0.553938 0.804830 0.532258
0.735468 0.802534 0.534768
0.912144 0.800237 0.537276
0.185698 1.000000 0.523936
0.384614 1.000000 0.526450
0.572257 1.000000 0.528962
0.753233 1.000000 0.531473
0.929498 1.000000 0.533983
0.144631 0.000000 0.773950
0.346995 0.000000 0.776358
0.536320 0.000000 0.778766
0.718399 0.000000 0.781173
0.895479 0.000000 0.783578
0.165742 0.219517 0.770787
0.366258 0.216867 0.773197
0.554703 0.214213 0.775605
0.736209 0.211555 0.778013
0.912868 0.208894 0.780420
0.186560 0.508097 0.767623
0.385410 0.505681 0.770034
0.573019 0.503264 0.772443
0.753972 0.500846 0.774852
0.930220 0.498426 0.777260
0.207125 0.778606 0.764457
0.404458 0.776301 0.766869
0.591271 0.773996 0.769280
0.771689 0.771689 0.771689
0.947537 0.769383 0.774099
0.227467 1.000000 0.761290
0.423408 1.000000 0.763703
0.609461 1.000000 0.766115
0.789362 1.000000 0.768526
0.964820 1.000000 0.770936
0.187422 0.000000 1.000000
0.386206 0.000000 1.000000
0.573781 0.000000 1.000000
0.754711 0.000000 1.000000
0.930943 0.000000 1.000000
0.207977 0.183682 0.999856
0.405250 0.180979 1.000000
0.592030 0.178271 1.000000
0.772427 0.175559 1.000000
0.948258 0.172842 1.000000
0.228311 0.475614 0.996781
0.424196 0.473181 0.999123
0.610218 0.470746 1.000000
0.790098 0.468310 1.000000
0.965539 0.465873 1.000000
0.248447 0.747656 0.993705
0.443049 0.745341 0.996048
0.628346 0.743025 0.998391
0.807725 0.740709 1.000000
0.982786 0.738391 1.000000
0.268405 1.000000 0.990628
0.461814 1.000000 0.992972
0.646417 1.000000 0.995315
0.825310 1.000000 0.997658
1.000000 1.000000 1.000000
