presets/film_stocks/Fuji_Eterna_500_Vivid.cube
# 独寻胶片模拟 -- Fuji Eterna 500 Vivid
# Fujifilm, ISO 500, 2007, negative
TITLE "Fuji Eterna 500 Vivid"
LUT_3D_SIZE 9
DOMAIN_MIN 0.0 0.0 0.0
DOMAIN_MAX 1.0 1.0 1.0
0.000000 0.000000 0.000000
0.168517 0.003056 0.000000
0.322092 0.005841 0.000000
0.470490 0.008533 0.000000
0.615625 0.011165 0.000000
0.758379 0.013754 0.000000
0.899264 0.016309 0.000000
1.000000 0.018836 0.000000
1.000000 0.021340 0.000000
0.000000 0.155644 0.000000
0.159356 0.157812 0.000000
0.313345 0.159978 0.000000
0.461976 0.162142 0.000000
0.607270 0.164304 0.000000
0.750146 0.166464 0.000000
0.891129 0.168622 0.000000
1.000000 0.170778 0.000000
1.000000 0.172933 0.000000
0.000000 0.297487 0.000000
0.150157 0.299559 0.000000
0.304582 0.301631 0.000000
0.453450 0.303702 0.000000
0.598907 0.305771 0.000000
0.741907 0.307840 0.000000
0.882990 0.309907 0.000000
1.000000 0.311974 0.000000
1.000000 0.314040 0.000000
0.000000 0.434549 0.000000
0.140919 0.436568 0.000000
0.295800 0.438585 0.000000
0.444913 0.440603 0.000000
0.590536 0.442619 0.000000
0.733661 0.444635 0.000000
0.874844 0.446650 0.000000
1.000000 0.448665 0.000000
1.000000 0.450679 0.000000
0.000000 0.568596 0.000000
0.131639 0.570577 0.000000
0.287001 0.572558 0.000000
0.436364 0.574538 0.000000
0.582157 0.576517 0.000000
0.725409 0.578496 0.000000
0.866694 0.580475 0.000000
1.000000 0.582453 0.000000
1.000000 0.584431 0.000000
0.000000 0.700445 0.000000
0.122312 0.702397 0.000000
0.278182 0.704349 0.000000
0.427804 0.706301 0.000000
0.573769 0.708252 0.000000
0.717150 0.710203 0.000000
0.858538 0.712153 0.000000
0.998306 0.714103 0.000000
1.000000 0.716053 0.000000
0.000000 0.830568 0.000000
0.112936 0.832497 0.000000
0.269344 0.834426 0.000000
0.419232 0.836355 0.000000
0.565373 0.838283 0.000000
0.708885 0.840211 0.000000
0.850377 0.842139 0.000000
0.990231 0.844066 0.000000
1.000000 0.845993 0.000000
0.000000 0.959273 0.000000
0.103504 0.961183 0.000000
0.260486 0.963093 0.000000
0.410647 0.965002 0.000000
0.556968 0.966911 0.000000
0.700613 0.968820 0.000000
0.842210 0.970729 0.000000
0.982152 0.972637 0.000000
1.000000 0.974545 0.000000
0.000000 1.000000 0.000000
0.094012 1.000000 0.000000
0.251606 1.000000 0.000000
0.402050 1.000000 0.000000
0.548554 1.000000 0.000000
0.692334 1.000000 0.000000
0.834038 1.000000 0.000000
0.974067 1.000000 0.000000
1.000000 1.000000 0.000000
0.000000 0.000000 0.148287
0.152443 0.000000 0.145417
0.306758 0.000000 0.142544
0.455567 0.000000 0.139667
0.600983 0.000000 0.136785
0.743952 0.000000 0.133899
0.885010 0.000000 0.131009
1.000000 0.000953 0.128114
1.000000 0.003870 0.125215
0.000000 0.141033 0.146088
0.143216 0.143216 0.143216
0.297981 0.145397 0.140339
0.447032 0.147575 0.137459
0.592614 0.149751 0.134574
0.735708 0.151925 0.131685
0.876866 0.154097 0.128791
1.000000 0.156267 0.125893
1.000000 0.158435 0.122990
0.000000 0.283548 0.143887
0.133946 0.285627 0.141012
0.289186 0.287706 0.138132
0.438487 0.289783 0.135248
0.584237 0.291859 0.132360
0.727457 0.293935 0.129468
0.868717 0.296009 0.126570
1.000000 0.298082 0.123669
1.000000 0.300155 0.120762
0.000000 0.420982 0.141684
0.124631 0.423005 0.138805
0.280372 0.425028 0.135922
0.429929 0.427049 0.133035
0.575852 0.429070 0.130144
0.719200 0.431091 0.127248
0.860562 0.433110 0.124347
1.000000 0.435129 0.121442
1.000000 0.437148 0.118531
0.000000 0.555286 0.139478
0.115268 0.557271 0.136596
0.271539 0.559254 0.133710
0.421360 0.561238 0.130820
0.567457 0.563220 0.127925
0.710937 0.565203 0.125025
0.852403 0.567184 0.122121
0.992236 0.569166 0.119212
1.000000 0.571146 0.116298
0.000000 0.687330 0.137270
0.105850 0.689285 0.134385
0.262686 0.691240 0.131496
0.412779 0.693194 0.128602
0.559055 0.695147 0.125703
0.702666 0.697101 0.122800
0.844237 0.699054 0.119892
0.984157 0.701006 0.116979
1.000000 0.702958 0.114061
0.000000 0.817610 0.135060
0.096374 0.819542 0.132171
0.253811 0.821473 0.129278
0.404185 0.823403 0.126381
0.550643 0.825334 0.123479
0.694389 0.827264 0.120572
0.836066 0.829193 0.117660
0.976074 0.831123 0.114743
1.000000 0.833052 0.111821
0.000000 0.946446 0.132846
0.086831 0.948358 0.129955
0.244915 0.950270 0.127058
0.395578 0.952181 0.124157
0.542222 0.954091 0.121252
0.686105 0.956002 0.118341
0.827890 0.957912 0.115425
0.967986 0.959822 0.112505
1.000000 0.961732 0.109579
0.000000 1.000000 0.130631
0.077215 1.000000 0.127735
0.235997 1.000000 0.124836
0.386958 1.000000 0.121931
0.533792 1.000000 0.119022
0.677814 1.000000 0.116107
0.819708 1.000000 0.113188
0.959893 1.000000 0.110263
1.000000 1.000000 0.107332
0.000000 0.000000 0.283425
0.136250 0.000000 0.280684
0.291370 0.000000 0.277941
0.440608 0.000000 0.275196
0.586317 0.000000 0.272449
0.729505 0.000000 0.269700
0.870740 0.000000 0.266949
1.000000 0.000000 0.264197
1.000000 0.000000 0.261442
0.000000 0.126315 0.281325
0.126947 0.128515 0.278582
0.282561 0.130712 0.275838
0.432054 0.132906 0.273091
0.577933 0.135099 0.270343
0.721250 0.137288 0.267592
0.862587 0.139475 0.264840
1.000000 0.141660 0.262086
1.000000 0.143843 0.259329
0.000000 0.269560 0.279223
0.117596 0.271647 0.276479
0.273733 0.273733 0.273733
0.423488 0.275818 0.270985
0.569541 0.277901 0.268235
0.712988 0.279984 0.265483
0.854428 0.282065 0.262729
0.994240 0.284145 0.259973
1.000000 0.286225 0.257215
0.000000 0.407385 0.277120
0.108192 0.409413 0.274375
0.264885 0.411440 0.271627
0.414909 0.413466 0.268878
0.561141 0.415491 0.266126
0.704719 0.417516 0.263373
0.846264 0.419540 0.260617
0.986162 0.421564 0.257860
1.000000 0.423587 0.255100
0.000000 0.541954 0.275016
0.098731 0.543942 0.272269
0.256016 0.545929 0.269520
0.406319 0.547915 0.266769
0.552731 0.549901 0.264016
0.696444 0.551887 0.261261
0.838094 0.553872 0.258504
0.978080 0.555857 0.255745
1.000000 0.557841 0.252984
0.000000 0.674198 0.272911
0.089206 0.676155 0.270163
0.247125 0.678112 0.267412
0.397715 0.680069 0.264660
0.544313 0.682026 0.261905
0.688161 0.683981 0.259149
0.829919 0.685937 0.256390
0.969993 0.687892 0.253630
1.000000 0.689847 0.250867
0.000000 0.804638 0.270805
0.079609 0.806571 0.268055
0.238212 0.808504 0.265303
0.389098 0.810437 0.262549
0.535885 0.812370 0.259793
0.679872 0.814302 0.257035
0.821739 0.816234 0.254275
0.961902 0.818165 0.251513
1.000000 0.820097 0.248748
0.000000 0.933607 0.268698
0.069929 0.935521 0.265946
0.229276 0.937434 0.263193
0.380468 0.939347 0.260437
0.527448 0.941260 0.257680
0.671576 0.943172 0.254920
0.813552 0.945084 0.252158
0.953806 0.946996 0.249394
1.000000 0.948907 0.246628
0.000000 1.000000 0.266589
0.060155 1.000000 0.263836
0.220315 1.000000 0.261081
0.371825 1.000000 0.258324
0.519002 1.000000 0.255565
0.663272 1.000000 0.252804
0.805360 1.000000 0.250040
0.945704 1.000000 0.247275
1.000000 1.000000 0.244507
0.000000 0.000000 0.414009
0.119921 0.000000 0.411340
0.275926 0.000000 0.408670
0.425615 0.000000 0.405998
0.571625 0.000000 0.403325
0.715039 0.000000 0.400651
0.856453 0.000000 0.397976
0.996243 0.000000 0.395299
1.000000 0.000000 0.392621
0.000000 0.111475 0.411964
0.110531 0.113694 0.409294
0.267082 0.115910 0.406622
0.417039 0.118123 0.403950
0.563226 0.120334 0.401276
0.706772 0.122541 0.398601
0.848290 0.124745 0.395925
0.988167 0.126947 0.393247
1.000000 0.129146 0.390568
0.000000 0.255522 0.409918
0.101085 0.257617 0.407247
0.258218 0.259710 0.404574
0.408452 0.261802 0.401901
0.554819 0.263894 0.399226
0.698498 0.265984 0.396550
0.840122 0.268072 0.393873
0.980086 0.270160 0.391194
1.000000 0.272247 0.388514
0.000000 0.393756 0.407871
0.091576 0.395788 0.405199
0.249333 0.397820 0.402526
0.399851 0.399851 0.399851
0.546403 0.401881 0.397175
0.690217 0.403911 0.394498
0.831948 0.405940 0.391820
0.972000 0.407968 0.389141
1.000000 0.409995 0.386460
0.000000 0.528599 0.405823
0.081997 0.530590 0.403150
0.240426 0.532580 0.400476
0.391238 0.534570 0.397801
0.537977 0.536560 0.395124
0.681930 0.538549 0.392446
0.823769 0.540537 0.389767
0.963910 0.542525 0.387086
1.000000 0.544513 0.384405
0.000000 0.661047 0.403775
0.072340 0.663008 0.401101
0.231495 0.664967 0.398426
0.382611 0.666927 0.395750
0.529543 0.668886 0.393072
0.673635 0.670844 0.390393
0.815584 0.672803 0.387713
0.955815 0.674760 0.385031
1.000000 0.676718 0.382348
0.000000 0.791651 0.401726
0.062590 0.793587 0.399051
0.222541 0.795522 0.396375
0.373971 0.797457 0.393698
0.521099 0.799392 0.391019
0.665333 0.801326 0.388339
0.807393 0.803260 0.385658
0.947715 0.805194 0.382975
1.000000 0.807127 0.380292
0.000000 0.920756 0.399676
0.052733 0.922671 0.397000
0.213561 0.924586 0.394323
0.365317 0.926501 0.391645
0.512645 0.928415 0.388965
0.657024 0.930330 0.386285
0.799197 0.932244 0.383602
0.939610 0.934157 0.380919
1.000000 0.936071 0.378234
0.000000 1.000000 0.397626
0.042745 1.000000 0.394949
0.204554 1.000000 0.392271
0.356648 1.000000 0.389592
0.504182 1.000000 0.386911
0.648708 1.000000 0.384229
0.790994 1.000000 0.381546
0.931501 1.000000 0.378861
1.000000 1.000000 0.376176
0.000000 0.000000 0.541720
0.103434 0.000000 0.539101
0.260420 0.000000 0.536481
0.410584 0.000000 0.533860
0.556906 0.000000 0.531238
0.700552 0.000000 0.528615
0.842150 0.000000 0.525991
0.982092 0.000000 0.523367
1.000000 0.000000 0.520741
0.000000 0.096496 0.539713
0.093942 0.098737 0.537093
0.251540 0.100975 0.534472
0.401987 0.103209 0.531851
0.548492 0.105440 0.529228
0.692273 0.107668 0.526604
0.833977 0.109892 0.523980
0.974007 0.112113 0.521355
1.000000 0.114332 0.518728
0.000000 0.241429 0.537706
0.084381 0.243532 0.535085
0.242638 0.245634 0.532463
0.393376 0.247735 0.529841
0.540069 0.249834 0.527218
0.683987 0.251932 0.524593
0.825799 0.254029 0.521968
0.965918 0.256124 0.519342
1.000000 0.258218 0.516715
0.000000 0.380094 0.535697
0.074744 0.382131 0.533076
0.233714 0.384168 0.530454
0.384753 0.386204 0.527831
0.531637 0.388239 0.525207
0.675694 0.390274 0.522582
0.817616 0.392307 0.519956
0.957824 0.394340 0.517329
1.000000 0.396372 0.514701
0.000000 0.515220 0.533689
0.065019 0.517214 0.531066
0.224765 0.519208 0.528444
0.376116 0.521202 0.525820
0.523195 0.523195 0.523195
0.667394 0.525187 0.520569
0.809426 0.527179 0.517943
0.949726 0.529171 0.515315
1.000000 0.531162 0.512687
0.000000 0.647879 0.531679
0.055191 0.649842 0.529056
0.215791 0.651804 0.526433
0.367465 0.653766 0.523808
0.514744 0.655728 0.521183
0.659087 0.657689 0.518556
0.801231 0.659650 0.515929
0.941622 0.661611 0.513301
1.000000 0.663571 0.510672
0.000000 0.778649 0.529669
0.045237 0.780587 0.527046
0.206792 0.782524 0.524422
0.358800 0.784462 0.521796
0.506283 0.786398 0.519170
0.650772 0.788335 0.516543
0.793030 0.790271 0.513915
0.933514 0.792207 0.511286
1.000000 0.794143 0.508656
0.000000 0.907892 0.527659
0.035127 0.909809 0.525035
0.197764 0.911726 0.522410
0.350121 0.913643 0.519784
0.497812 0.915559 0.517157
0.642450 0.917475 0.514529
0.784823 0.919391 0.511900
0.925400 0.921306 0.509271
1.000000 0.923222 0.506640
0.000000 1.000000 0.525648
0.024805 1.000000 0.523023
0.188708 1.000000 0.520398
0.341426 1.000000 0.517771
0.489331 1.000000 0.515143
0.634121 1.000000 0.512515
0.776610 1.000000 0.509885
0.917282 1.000000 0.507255
1.000000 1.000000 0.504623
0.000000 0.000000 0.667337
0.086760 0.000000 0.664756
0.244850 0.000000 0.662174
0.395514 0.000000 0.659591
0.542160 0.000000 0.657008
0.686044 0.000000 0.654424
0.827829 0.000000 0.651839
0.967926 0.000000 0.649254
1.000000 0.000000 0.646668
0.000000 0.081352 0.665359
0.077143 0.083619 0.662777
0.235931 0.085883 0.660195
0.386894 0.088142 0.657612
0.533730 0.090398 0.655028
0.677753 0.092649 0.652443
0.819647 0.094897 0.649858
0.959833 0.097141 0.647272
1.000000 0.099381 0.644685
0.000000 0.227279 0.663381
0.067441 0.229391 0.660798
0.226988 0.231501 0.658215
0.378261 0.233611 0.655632
0.525291 0.235718 0.653047
0.669454 0.237825 0.650462
0.811459 0.239930 0.647876
0.951736 0.242034 0.645290
1.000000 0.244137 0.642702
0.000000 0.366397 0.661402
0.057640 0.368440 0.658819
0.218021 0.370482 0.656235
0.369614 0.372523 0.653651
0.516842 0.374563 0.651066
0.661149 0.376603 0.648480
0.803265 0.378641 0.645894
0.943633 0.380679 0.643307
1.000000 0.382717 0.640719
0.000000 0.501816 0.659422
0.047720 0.503815 0.656839
0.209027 0.505812 0.654255
0.360952 0.507810 0.651670
0.508383 0.509806 0.649085
0.652836 0.511802 0.646498
0.795066 0.513798 0.643911
0.935526 0.515793 0.641324
1.000000 0.517787 0.638735
0.000000 0.634691 0.657443
0.037653 0.636657 0.654859
0.200007 0.638622 0.652274
0.352276 0.640587 0.649689
0.499915 0.642552 0.647103
0.644516 0.644516 0.644516
0.786860 0.646480 0.641928
0.927414 0.648443 0.639340
1.000000 0.650406 0.636751
0.000000 0.765632 0.655463
0.027391 0.767572 0.652878
0.190958 0.769512 0.650293
0.343585 0.771451 0.647707
0.491437 0.773390 0.645120
0.636188 0.775329 0.642533
0.778649 0.777268 0.639945
0.919297 0.779206 0.637356
1.000000 0.781144 0.634767
0.000000 0.895015 0.653482
0.016844 0.896934 0.650897
0.181879 0.898853 0.648311
0.334878 0.900771 0.645725
0.482948 0.902690 0.643138
0.627853 0.904608 0.640550
0.770431 0.906525 0.637961
0.911175 0.908443 0.635372
1.000000 0.910360 0.632782
0.000000 1.000000 0.651501
0.005766 1.000000 0.648916
0.172768 1.000000 0.646329
0.326156 1.000000 0.643742
0.474449 1.000000 0.641154
0.619510 1.000000 0.638566
0.762208 1.000000 0.635977
0.903048 1.000000 0.633387
1.000000 1.000000 0.630796
0.000000 0.000000 0.791310
0.069857 0.000000 0.788759
0.229209 0.000000 0.786208
0.380404 0.000000 0.783656
0.527386 0.000000 0.781104
0.671514 0.000000 0.778551
0.813492 0.000000 0.775998
0.953746 0.000000 0.773444
1.000000 0.000000 0.770889
0.000000 0.066006 0.789355
0.060083 0.068306 0.786804
0.220248 0.070602 0.784253
0.371761 0.072892 0.781700
0.518939 0.075177 0.779148
0.663211 0.077457 0.776594
0.805299 0.079733 0.774040
0.945644 0.082004 0.771486
1.000000 0.084270 0.768931
0.000000 0.213067 0.787400
0.050195 0.215188 0.784849
0.211262 0.217308 0.782297
0.363103 0.219426 0.779744
0.510483 0.221543 0.777191
0.654900 0.223659 0.774637
0.797101 0.225773 0.772083
0.937539 0.227886 0.769528
1.000000 0.229998 0.766972
0.000000 0.352664 0.785445
0.040167 0.354712 0.782893
0.202248 0.356760 0.780341
0.354430 0.358806 0.777788
0.502017 0.360852 0.775234
0.646581 0.362897 0.772680
0.788897 0.364941 0.770125
0.929428 0.366984 0.767569
1.000000 0.369027 0.765013
0.000000 0.488388 0.783489
0.029959 0.490390 0.780937
0.193206 0.492391 0.778384
0.345743 0.494392 0.775831
0.493542 0.496393 0.773276
0.638255 0.498393 0.770722
0.780687 0.500392 0.768167
0.921312 0.502391 0.765611
1.000000 0.504389 0.763054
0.000000 0.621485 0.781533
0.019496 0.623453 0.778981
0.184135 0.625421 0.776427
0.337040 0.627389 0.773873
0.485056 0.629357 0.771319
0.629922 0.631324 0.768764
0.772471 0.633290 0.766208
0.913191 0.635256 0.763652
1.000000 0.637222 0.761095
0.000000 0.752599 0.779577
0.008597 0.754542 0.777024
0.175032 0.756484 0.774470
0.328322 0.758426 0.771916
0.476559 0.760367 0.769361
0.621581 0.762308 0.766805
0.764249 0.764249 0.764249
0.905065 0.766189 0.761692
1.000000 0.768129 0.759135
0.000000 0.882125 0.777621
0.000000 0.884046 0.775067
0.165896 0.885967 0.772513
0.319588 0.887887 0.769958
0.468052 0.889808 0.767402
0.613232 0.891728 0.764846
0.756021 0.893647 0.762290
0.896934 0.895566 0.759732
1.000000 0.897486 0.757174
0.000000 1.000000 0.775664
0.000000 1.000000 0.773109
0.156724 1.000000 0.770555
0.310836 1.000000 0.767999
0.459534 1.000000 0.765444
0.604875 1.000000 0.762887
0.747786 1.000000 0.760330
0.888798 1.000000 0.757772
1.000000 1.000000 0.755214
0.000000 0.000000 0.913931
0.052660 0.000000 0.911406
0.213494 0.000000 0.908881
0.365253 0.000000 0.906355
0.512583 0.000000 0.903829
0.656963 0.000000 0.901302
0.799136 0.000000 0.898774
0.939550 0.000000 0.896246
1.000000 0.000000 0.893718
0.000000 0.050403 0.911996
0.042670 0.052747 0.909471
0.204487 0.055083 0.906945
0.356584 0.057413 0.904419
0.504119 0.059736 0.901892
0.648646 0.062052 0.899365
0.790933 0.064363 0.896837
0.931441 0.066667 0.894309
1.000000 0.068967 0.891780
0.000000 0.198788 0.910061
0.032512 0.200919 0.907535
0.195453 0.203049 0.905009
0.347900 0.205178 0.902483
0.495646 0.207305 0.899955
0.640322 0.209430 0.897428
0.782725 0.211554 0.894900
0.923326 0.213676 0.892371
1.000000 0.215797 0.889842
0.000000 0.338894 0.908126
0.022123 0.340948 0.905600
0.186389 0.343001 0.903073
0.339201 0.345053 0.900546
0.487162 0.347104 0.898018
0.631991 0.349155 0.895490
0.774510 0.351204 0.892962
0.915207 0.353253 0.890433
1.000000 0.355301 0.887903
0.000000 0.474933 0.906190
0.011363 0.476939 0.903663
0.177294 0.478945 0.901137
0.330487 0.480950 0.898609
0.478668 0.482954 0.896081
0.623651 0.484958 0.893553
0.766290 0.486961 0.891024
0.907082 0.488963 0.888494
1.000000 0.490965 0.885964
0.000000 0.608258 0.904254
0.000000 0.610230 0.901727
0.168166 0.612201 0.899200
0.321757 0.614172 0.896672
0.470164 0.616142 0.894144
0.615304 0.618112 0.891615
0.758063 0.620081 0.889085
0.898952 0.622050 0.886556
1.000000 0.624019 0.884025
0.000000 0.739551 0.902317
0.000000 0.741495 0.899790
0.159003 0.743440 0.897263
0.313009 0.745384 0.894734
0.461649 0.747328 0.892206
0.606949 0.749271 0.889676
0.749830 0.751215 0.887147
0.890817 0.753157 0.884617
1.000000 0.755100 0.882086
0.000000 0.869222 0.900381
0.000000 0.871145 0.897853
0.149804 0.873068 0.895325
0.304245 0.874990 0.892797
0.453123 0.876913 0.890267
0.598586 0.878834 0.887738
0.741591 0.880756 0.885208
0.882677 0.882677 0.882677
1.000000 0.884598 0.880146
0.000000 0.997548 0.898444
0.000000 0.999453 0.895916
0.140564 1.000000 0.893387
0.295463 1.000000 0.890858
0.444585 1.000000 0.888329
0.590215 1.000000 0.885799
0.733345 1.000000 0.883269
0.874532 1.000000 0.880738
1.000000 1.000000 0.878206
0.000000 0.000000 1.000000
0.035052 0.000000 1.000000
0.197697 0.000000 1.000000
0.350056 0.000000 1.000000
0.497749 0.000000 1.000000
0.642389 0.000000 1.000000
0.784762 0.000000 1.000000
0.925340 0.000000 1.000000
1.000000 0.000000 1.000000
0.000000 0.034448 1.000000
0.024728 0.036853 1.000000
0.188641 0.039248 1.000000
0.341361 0.041631 1.000000
0.489268 0.044006 1.000000
0.634059 0.046371 1.000000
0.776549 0.048728 1.000000
0.917222 0.051077 1.000000
1.000000 0.053419 1.000000
0.000000 0.184436 1.000000
0.014082 0.186579 1.000000
0.179554 0.188720 1.000000
0.332651 0.190859 1.000000
0.480777 0.192997 1.000000
0.625722 0.195133 1.000000
0.768330 0.197268 1.000000
0.909099 0.199400 1.000000
1.000000 0.201532 1.000000
0.000000 0.325085 1.000000
0.002739 0.327144 1.000000
0.170434 0.329203 1.000000
0.323925 0.331261 1.000000
0.472275 0.333318 1.000000
0.617376 0.335375 1.000000
0.760105 0.337430 1.000000
0.900970 0.339484 1.000000
1.000000 0.341538 1.000000
0.000000 0.461452 1.000000
0.000000 0.463462 1.000000
0.161281 0.465472 1.000000
0.315182 0.467481 1.000000
0.463763 0.469489 1.000000
0.609023 0.471496 1.000000
0.751874 0.473503 1.000000
0.892836 0.475510 1.000000
1.000000 0.477516 1.000000
0.000000 0.595012 1.000000
0.000000 0.596986 1.000000
0.152090 0.598960 1.000000
0.306422 0.600934 1.000000
0.455239 0.602908 1.000000
0.600662 0.604880 1.000000
0.743636 0.606853 1.000000
0.884698 0.608825 1.000000
1.000000 0.610796 1.000000
0.000000 0.726486 1.000000
0.000000 0.728433 1.000000
0.142861 0.730380 1.000000
0.297644 0.732327 1.000000
0.446705 0.734273 1.000000
0.592293 0.736219 1.000000
0.735392 0.738164 1.000000
0.876554 0.740109 1.000000
1.000000 0.742054 1.000000
0.000000 0.856306 1.000000
0.000000 0.858231 1.000000
0.133590 0.860155 1.000000
0.288848 0.862080 1.000000
0.438159 0.864004 1.000000
0.583916 0.865928 1.000000
0.727141 0.867852 1.000000
0.868404 0.869775 1.000000
1.000000 0.871698 1.000000
0.000000 0.984756 1.000000
0.000000 0.986663 1.000000
0.124273 0.988569 1.000000
0.280034 0.990475 1.000000
0.429601 0.992380 1.000000
0.575530 0.994286 1.000000
0.718884 0.996191 1.000000
0.860250 0.998095 1.000000
1.000000 1.000000 1.000000
