presets/film_stocks/Fuji_Eterna_500_Vivid.cube
# 独寻胶片模拟 -- Fuji Eterna 500 Vivid
# Fujifilm, ISO 500, 2007, negative
TITLE "Fuji Eterna 500 Vivid"
LUT_3D_SIZE 33
DOMAIN_MIN 0.0 0.0 0.0
DOMAIN_MAX 1.0 1.0 1.0
0.000000 0.000000 0.000000
0.046129 0.000837 0.000000
0.088167 0.001599 0.000000
0.128789 0.002336 0.000000
0.168517 0.003056 0.000000
0.207593 0.003765 0.000000
0.246158 0.004464 0.000000
0.284303 0.005156 0.000000
0.322092 0.005841 0.000000
0.359572 0.006521 0.000000
0.396780 0.007196 0.000000
0.433745 0.007866 0.000000
0.470490 0.008533 0.000000
0.507036 0.009196 0.000000
0.543398 0.009855 0.000000
0.579590 0.010511 0.000000
0.615625 0.011165 0.000000
0.651512 0.011816 0.000000
0.687262 0.012464 0.000000
0.722881 0.013110 0.000000
0.758379 0.013754 0.000000
0.793760 0.014396 0.000000
0.829031 0.015035 0.000000
0.864198 0.015673 0.000000
0.899264 0.016309 0.000000
0.934235 0.016943 0.000000
0.969115 0.017576 0.000000
1.000000 0.018207 0.000000
1.000000 0.018836 0.000000
1.000000 0.019464 0.000000
1.000000 0.020091 0.000000
1.000000 0.020716 0.000000
1.000000 0.021340 0.000000
0.000000 0.042605 0.000000
0.043621 0.043198 0.000000
0.085773 0.043791 0.000000
0.126458 0.044384 0.000000
0.166230 0.044975 0.000000
0.205340 0.045567 0.000000
0.243932 0.046157 0.000000
0.282099 0.046748 0.000000
0.319907 0.047337 0.000000
0.357404 0.047927 0.000000
0.394627 0.048515 0.000000
0.431605 0.049103 0.000000
0.468363 0.049691 0.000000
0.504919 0.050278 0.000000
0.541292 0.050865 0.000000
0.577493 0.051451 0.000000
0.613537 0.052037 0.000000
0.649432 0.052622 0.000000
0.685190 0.053207 0.000000
0.720817 0.053792 0.000000
0.756321 0.054376 0.000000
0.791709 0.054959 0.000000
0.826986 0.055542 0.000000
0.862159 0.056125 0.000000
0.897231 0.056707 0.000000
0.932207 0.057289 0.000000
0.967092 0.057870 0.000000
1.000000 0.058451 0.000000
1.000000 0.059032 0.000000
1.000000 0.059612 0.000000
1.000000 0.060192 0.000000
1.000000 0.060771 0.000000
1.000000 0.061350 0.000000
0.000000 0.081432 0.000000
0.041103 0.081999 0.000000
0.083374 0.082566 0.000000
0.124124 0.083133 0.000000
0.163941 0.083700 0.000000
0.203084 0.084266 0.000000
0.241703 0.084832 0.000000
0.279893 0.085398 0.000000
0.317721 0.085963 0.000000
0.355234 0.086528 0.000000
0.392473 0.087093 0.000000
0.429464 0.087658 0.000000
0.466234 0.088222 0.000000
0.502802 0.088786 0.000000
0.539185 0.089350 0.000000
0.575396 0.089914 0.000000
0.611448 0.090478 0.000000
0.647352 0.091041 0.000000
0.683117 0.091604 0.000000
0.718752 0.092166 0.000000
0.754263 0.092729 0.000000
0.789657 0.093291 0.000000
0.824941 0.093853 0.000000
0.860120 0.094415 0.000000
0.895197 0.094976 0.000000
0.930179 0.095538 0.000000
0.965069 0.096099 0.000000
0.999871 0.096659 0.000000
1.000000 0.097220 0.000000
1.000000 0.097780 0.000000
1.000000 0.098341 0.000000
1.000000 0.098900 0.000000
1.000000 0.099460 0.000000
0.000000 0.118950 0.000000
0.038574 0.119503 0.000000
0.080970 0.120055 0.000000
0.121787 0.120607 0.000000
0.161649 0.121159 0.000000
0.200827 0.121711 0.000000
0.239474 0.122263 0.000000
0.277687 0.122814 0.000000
0.315533 0.123366 0.000000
0.353064 0.123917 0.000000
0.390318 0.124468 0.000000
0.427323 0.125019 0.000000
0.464105 0.125569 0.000000
0.500684 0.126120 0.000000
0.537077 0.126670 0.000000
0.573298 0.127220 0.000000
0.609359 0.127770 0.000000
0.645272 0.128320 0.000000
0.681045 0.128869 0.000000
0.716687 0.129419 0.000000
0.752205 0.129968 0.000000
0.787606 0.130517 0.000000
0.822896 0.131066 0.000000
0.858080 0.131615 0.000000
0.893164 0.132164 0.000000
0.928151 0.132712 0.000000
0.963046 0.133260 0.000000
0.997853 0.133809 0.000000
1.000000 0.134357 0.000000
1.000000 0.134904 0.000000
1.000000 0.135452 0.000000
1.000000 0.136000 0.000000
1.000000 0.136547 0.000000
0.000000 0.155644 0.000000
0.036034 0.156186 0.000000
0.078562 0.156728 0.000000
0.119447 0.157270 0.000000
0.159356 0.157812 0.000000
0.198568 0.158354 0.000000
0.237243 0.158895 0.000000
0.275479 0.159437 0.000000
0.313345 0.159978 0.000000
0.350893 0.160519 0.000000
0.388162 0.161060 0.000000
0.425181 0.161601 0.000000
0.461976 0.162142 0.000000
0.498566 0.162683 0.000000
0.534969 0.163223 0.000000
0.571200 0.163764 0.000000
0.607270 0.164304 0.000000
0.643191 0.164844 0.000000
0.678972 0.165384 0.000000
0.714621 0.165924 0.000000
0.750146 0.166464 0.000000
0.785554 0.167004 0.000000
0.820850 0.167543 0.000000
0.856040 0.168083 0.000000
0.891129 0.168622 0.000000
0.926122 0.169161 0.000000
0.961023 0.169701 0.000000
0.995835 0.170240 0.000000
1.000000 0.170778 0.000000
1.000000 0.171317 0.000000
1.000000 0.171856 0.000000
1.000000 0.172394 0.000000
1.000000 0.172933 0.000000
0.000000 0.191735 0.000000
0.033481 0.192269 0.000000
0.076148 0.192804 0.000000
0.117104 0.193338 0.000000
0.157060 0.193872 0.000000
0.196308 0.194406 0.000000
0.235010 0.194940 0.000000
0.273269 0.195474 0.000000
0.311156 0.196007 0.000000
0.348721 0.196541 0.000000
0.386005 0.197074 0.000000
0.423038 0.197608 0.000000
0.459845 0.198141 0.000000
0.496447 0.198674 0.000000
0.532861 0.199207 0.000000
0.569101 0.199740 0.000000
0.605180 0.200273 0.000000
0.641109 0.200806 0.000000
0.676898 0.201339 0.000000
0.712555 0.201871 0.000000
0.748087 0.202404 0.000000
0.783501 0.202936 0.000000
0.818804 0.203468 0.000000
0.854000 0.204001 0.000000
0.889095 0.204533 0.000000
0.924093 0.205065 0.000000
0.958999 0.205597 0.000000
0.993816 0.206128 0.000000
1.000000 0.206660 0.000000
1.000000 0.207192 0.000000
1.000000 0.207723 0.000000
1.000000 0.208255 0.000000
1.000000 0.208786 0.000000
0.000000 0.227354 0.000000
0.030914 0.227882 0.000000
0.073728 0.228410 0.000000
0.114758 0.228938 0.000000
0.154761 0.229466 0.000000
0.194045 0.229993 0.000000
0.232776 0.230521 0.000000
0.271059 0.231049 0.000000
0.308966 0.231576 0.000000
0.346549 0.232104 0.000000
0.383848 0.232631 0.000000
0.420895 0.233158 0.000000
0.457714 0.233685 0.000000
0.494327 0.234212 0.000000
0.530752 0.234739 0.000000
0.567001 0.235266 0.000000
0.603090 0.235793 0.000000
0.639027 0.236320 0.000000
0.674824 0.236846 0.000000
0.710488 0.237373 0.000000
0.746027 0.237899 0.000000
0.781448 0.238426 0.000000
0.816757 0.238952 0.000000
0.851959 0.239478 0.000000
0.887060 0.240005 0.000000
0.922064 0.240531 0.000000
0.956975 0.241057 0.000000
0.991797 0.241583 0.000000
1.000000 0.242108 0.000000
1.000000 0.242634 0.000000
1.000000 0.243160 0.000000
1.000000 0.243686 0.000000
1.000000 0.244211 0.000000
0.000000 0.262585 0.000000
0.028333 0.263108 0.000000
0.071304 0.263630 0.000000
0.112408 0.264153 0.000000
0.152461 0.264675 0.000000
0.191781 0.265198 0.000000
0.230541 0.265720 0.000000
0.268847 0.266243 0.000000
0.306774 0.266765 0.000000
0.344375 0.267287 0.000000
0.381690 0.267809 0.000000
0.418750 0.268331 0.000000
0.455582 0.268853 0.000000
0.492207 0.269375 0.000000
0.528642 0.269897 0.000000
0.564901 0.270419 0.000000
0.600999 0.270941 0.000000
0.636945 0.271462 0.000000
0.672749 0.271984 0.000000
0.708421 0.272505 0.000000
0.743967 0.273027 0.000000
0.779395 0.273548 0.000000
0.814710 0.274070 0.000000
0.849918 0.274591 0.000000
0.885025 0.275112 0.000000
0.920034 0.275633 0.000000
0.954951 0.276154 0.000000
0.989778 0.276675 0.000000
1.000000 0.277196 0.000000
1.000000 0.277717 0.000000
1.000000 0.278237 0.000000
1.000000 0.278758 0.000000
1.000000 0.279279 0.000000
0.000000 0.297487 0.000000
0.025734 0.298005 0.000000
0.068873 0.298523 0.000000
0.110054 0.299041 0.000000
0.150157 0.299559 0.000000
0.189515 0.300077 0.000000
0.228304 0.300595 0.000000
0.266634 0.301113 0.000000
0.304582 0.301631 0.000000
0.342200 0.302149 0.000000
0.379530 0.302666 0.000000
0.416605 0.303184 0.000000
0.453450 0.303702 0.000000
0.490086 0.304219 0.000000
0.526531 0.304736 0.000000
0.562801 0.305254 0.000000
0.598907 0.305771 0.000000
0.634862 0.306288 0.000000
0.670674 0.306806 0.000000
0.706353 0.307323 0.000000
0.741907 0.307840 0.000000
0.777341 0.308357 0.000000
0.812663 0.308874 0.000000
0.847877 0.309391 0.000000
0.882990 0.309907 0.000000
0.918004 0.310424 0.000000
0.952926 0.310941 0.000000
0.987758 0.311458 0.000000
1.000000 0.311974 0.000000
1.000000 0.312491 0.000000
1.000000 0.313007 0.000000
1.000000 0.313524 0.000000
1.000000 0.314040 0.000000
0.000000 0.332104 0.000000
0.023117 0.332618 0.000000
0.066436 0.333132 0.000000
0.107698 0.333646 0.000000
0.147852 0.334160 0.000000
0.187247 0.334674 0.000000
0.226065 0.335188 0.000000
0.264420 0.335702 0.000000
0.302388 0.336216 0.000000
0.340024 0.336730 0.000000
0.377370 0.337244 0.000000
0.414459 0.337758 0.000000
0.451317 0.338271 0.000000
0.487965 0.338785 0.000000
0.524420 0.339298 0.000000
0.560700 0.339812 0.000000
0.596815 0.340325 0.000000
0.632778 0.340839 0.000000
0.668599 0.341352 0.000000
0.704285 0.341865 0.000000
0.739846 0.342379 0.000000
0.775287 0.342892 0.000000
0.810615 0.343405 0.000000
0.845836 0.343918 0.000000
0.880954 0.344431 0.000000
0.915974 0.344944 0.000000
0.950901 0.345457 0.000000
0.985738 0.345970 0.000000
1.000000 0.346483 0.000000
1.000000 0.346995 0.000000
1.000000 0.347508 0.000000
1.000000 0.348021 0.000000
1.000000 0.348533 0.000000
0.000000 0.366469 0.000000
0.020480 0.366980 0.000000
0.063993 0.367491 0.000000
0.105337 0.368001 0.000000
0.145544 0.368512 0.000000
0.184977 0.369023 0.000000
0.223825 0.369533 0.000000
0.262204 0.370044 0.000000
0.300193 0.370554 0.000000
0.337847 0.371064 0.000000
0.375209 0.371575 0.000000
0.412312 0.372085 0.000000
0.449183 0.372595 0.000000
0.485842 0.373105 0.000000
0.522309 0.373615 0.000000
0.558598 0.374125 0.000000
0.594723 0.374635 0.000000
0.630694 0.375145 0.000000
0.666523 0.375655 0.000000
0.702217 0.376165 0.000000
0.737785 0.376675 0.000000
0.773233 0.377185 0.000000
0.808567 0.377694 0.000000
0.843794 0.378204 0.000000
0.878918 0.378714 0.000000
0.913944 0.379223 0.000000
0.948876 0.379733 0.000000
0.983718 0.380242 0.000000
1.000000 0.380752 0.000000
1.000000 0.381261 0.000000
1.000000 0.381770 0.000000
1.000000 0.382280 0.000000
1.000000 0.382789 0.000000
0.000000 0.400611 0.000000
0.017818 0.401118 0.000000
0.061544 0.401626 0.000000
0.102973 0.402133 0.000000
0.143233 0.402641 0.000000
0.182705 0.403148 0.000000
0.221583 0.403655 0.000000
0.259988 0.404163 0.000000
0.297997 0.404670 0.000000
0.335670 0.405177 0.000000
0.373048 0.405684 0.000000
0.410165 0.406191 0.000000
0.447048 0.406698 0.000000
0.483719 0.407206 0.000000
0.520197 0.407713 0.000000
0.556496 0.408219 0.000000
0.592630 0.408726 0.000000
0.628610 0.409233 0.000000
0.664447 0.409740 0.000000
0.700148 0.410247 0.000000
0.735723 0.410754 0.000000
0.771178 0.411260 0.000000
0.806519 0.411767 0.000000
0.841751 0.412273 0.000000
0.876881 0.412780 0.000000
0.911913 0.413286 0.000000
0.946850 0.413793 0.000000
0.981698 0.414299 0.000000
1.000000 0.414806 0.000000
1.000000 0.415312 0.000000
1.000000 0.415818 0.000000
1.000000 0.416325 0.000000
1.000000 0.416831 0.000000
0.000000 0.434549 0.000000
0.015128 0.435054 0.000000
0.059087 0.435558 0.000000
0.100605 0.436063 0.000000
0.140919 0.436568 0.000000
0.180431 0.437072 0.000000
0.219340 0.437577 0.000000
0.257769 0.438081 0.000000
0.295800 0.438585 0.000000
0.333491 0.439090 0.000000
0.370885 0.439594 0.000000
0.408017 0.440098 0.000000
0.444913 0.440603 0.000000
0.481596 0.441107 0.000000
0.518084 0.441611 0.000000
0.554393 0.442115 0.000000
0.590536 0.442619 0.000000
0.626525 0.443123 0.000000
0.662370 0.443627 0.000000
0.698079 0.444131 0.000000
0.733661 0.444635 0.000000
0.769123 0.445139 0.000000
0.804470 0.445643 0.000000
0.839709 0.446147 0.000000
0.874844 0.446650 0.000000
0.909882 0.447154 0.000000
0.944824 0.447658 0.000000
0.979677 0.448161 0.000000
1.000000 0.448665 0.000000
1.000000 0.449169 0.000000
1.000000 0.449672 0.000000
1.000000 0.450176 0.000000
1.000000 0.450679 0.000000
0.000000 0.468303 0.000000
0.012403 0.468805 0.000000
0.056624 0.469307 0.000000
0.098233 0.469809 0.000000
0.138603 0.470311 0.000000
0.178155 0.470813 0.000000
0.217095 0.471315 0.000000
0.255550 0.471816 0.000000
0.293602 0.472318 0.000000
0.331311 0.472820 0.000000
0.368722 0.473322 0.000000
0.405868 0.473823 0.000000
0.442777 0.474325 0.000000
0.479472 0.474827 0.000000
0.515971 0.475328 0.000000
0.552290 0.475830 0.000000
0.588442 0.476331 0.000000
0.624440 0.476833 0.000000
0.660293 0.477334 0.000000
0.696010 0.477836 0.000000
0.731599 0.478337 0.000000
0.767067 0.478838 0.000000
0.802421 0.479339 0.000000
0.837666 0.479841 0.000000
0.872807 0.480342 0.000000
0.907850 0.480843 0.000000
0.942798 0.481344 0.000000
0.977656 0.481845 0.000000
1.000000 0.482346 0.000000
1.000000 0.482847 0.000000
1.000000 0.483348 0.000000
1.000000 0.483849 0.000000
1.000000 0.484350 0.000000
0.000000 0.501887 0.000000
0.009636 0.502387 0.000000
0.054153 0.502886 0.000000
0.095857 0.503386 0.000000
0.136285 0.503885 0.000000
0.175877 0.504385 0.000000
0.214849 0.504884 0.000000
0.253329 0.505384 0.000000
0.291403 0.505883 0.000000
0.329131 0.506382 0.000000
0.366557 0.506882 0.000000
0.403718 0.507381 0.000000
0.440640 0.507880 0.000000
0.477347 0.508379 0.000000
0.513857 0.508879 0.000000
0.550186 0.509378 0.000000
0.586348 0.509877 0.000000
0.622354 0.510376 0.000000
0.658215 0.510875 0.000000
0.693940 0.511374 0.000000
0.729536 0.511873 0.000000
0.765011 0.512372 0.000000
0.800371 0.512871 0.000000
0.835622 0.513370 0.000000
0.870770 0.513869 0.000000
0.905818 0.514367 0.000000
0.940772 0.514866 0.000000
0.975635 0.515365 0.000000
1.000000 0.515864 0.000000
1.000000 0.516362 0.000000
1.000000 0.516861 0.000000
1.000000 0.517359 0.000000
1.000000 0.517858 0.000000
0.000000 0.535314 0.000000
0.006811 0.535812 0.000000
0.051674 0.536309 0.000000
0.093477 0.536807 0.000000
0.133963 0.537304 0.000000
0.173597 0.537801 0.000000
0.212600 0.538298 0.000000
0.251107 0.538795 0.000000
0.289202 0.539293 0.000000
0.326949 0.539790 0.000000
0.364392 0.540287 0.000000
0.401567 0.540784 0.000000
0.438503 0.541281 0.000000
0.475221 0.541778 0.000000
0.511742 0.542275 0.000000
0.548081 0.542772 0.000000
0.584253 0.543269 0.000000
0.620268 0.543766 0.000000
0.656137 0.544262 0.000000
0.691869 0.544759 0.000000
0.727473 0.545256 0.000000
0.762955 0.545753 0.000000
0.798321 0.546249 0.000000
0.833579 0.546746 0.000000
0.868732 0.547243 0.000000
0.903786 0.547739 0.000000
0.938745 0.548236 0.000000
0.973613 0.548732 0.000000
1.000000 0.549229 0.000000
1.000000 0.549725 0.000000
1.000000 0.550222 0.000000
1.000000 0.550718 0.000000
1.000000 0.551215 0.000000
0.000000 0.568596 0.000000
0.003899 0.569092 0.000000
0.049187 0.569587 0.000000
0.091093 0.570082 0.000000
0.131639 0.570577 0.000000
0.171314 0.571072 0.000000
0.210351 0.571568 0.000000
0.248883 0.572063 0.000000
0.287001 0.572558 0.000000
0.324766 0.573053 0.000000
0.362226 0.573548 0.000000
0.399416 0.574043 0.000000
0.436364 0.574538 0.000000
0.473095 0.575033 0.000000
0.509627 0.575528 0.000000
0.545976 0.576022 0.000000
0.582157 0.576517 0.000000
0.618181 0.577012 0.000000
0.654058 0.577507 0.000000
0.689798 0.578002 0.000000
0.725409 0.578496 0.000000
0.760898 0.578991 0.000000
0.796271 0.579486 0.000000
0.831535 0.579980 0.000000
0.866694 0.580475 0.000000
0.901754 0.580969 0.000000
0.936718 0.581464 0.000000
0.971591 0.581958 0.000000
1.000000 0.582453 0.000000
1.000000 0.582947 0.000000
1.000000 0.583442 0.000000
1.000000 0.583936 0.000000
1.000000 0.584431 0.000000
0.000000 0.601742 0.000000
0.000799 0.602236 0.000000
0.046690 0.602729 0.000000
0.088704 0.603222 0.000000
0.129312 0.603715 0.000000
0.169030 0.604209 0.000000
0.208099 0.604702 0.000000
0.246658 0.605195 0.000000
0.284798 0.605688 0.000000
0.322582 0.606181 0.000000
0.360059 0.606674 0.000000
0.397263 0.607167 0.000000
0.434225 0.607660 0.000000
0.470968 0.608153 0.000000
0.507511 0.608646 0.000000
0.543871 0.609139 0.000000
0.580061 0.609632 0.000000
0.616094 0.610125 0.000000
0.651979 0.610618 0.000000
0.687727 0.611111 0.000000
0.723345 0.611603 0.000000
0.758841 0.612096 0.000000
0.794221 0.612589 0.000000
0.829490 0.613082 0.000000
0.864655 0.613574 0.000000
0.899721 0.614067 0.000000
0.934691 0.614560 0.000000
0.969569 0.615052 0.000000
1.000000 0.615545 0.000000
1.000000 0.616037 0.000000
1.000000 0.616530 0.000000
1.000000 0.617022 0.000000
1.000000 0.617515 0.000000
0.000000 0.634761 0.000000
0.000000 0.635252 0.000000
0.044185 0.635744 0.000000
0.086311 0.636235 0.000000
0.126982 0.636727 0.000000
0.166744 0.637218 0.000000
0.205846 0.637709 0.000000
0.244432 0.638201 0.000000
0.282594 0.638692 0.000000
0.320398 0.639183 0.000000
0.357891 0.639675 0.000000
0.395110 0.640166 0.000000
0.432086 0.640657 0.000000
0.468841 0.641148 0.000000
0.505395 0.641639 0.000000
0.541765 0.642130 0.000000
0.577964 0.642621 0.000000
0.614006 0.643112 0.000000
0.649900 0.643604 0.000000
0.685655 0.644095 0.000000
0.721281 0.644586 0.000000
0.756783 0.645076 0.000000
0.792170 0.645567 0.000000
0.827446 0.646058 0.000000
0.862617 0.646549 0.000000
0.897688 0.647040 0.000000
0.932663 0.647531 0.000000
0.967547 0.648022 0.000000
1.000000 0.648512 0.000000
1.000000 0.649003 0.000000
1.000000 0.649494 0.000000
1.000000 0.649985 0.000000
1.000000 0.650475 0.000000
0.000000 0.667660 0.000000
0.000000 0.668149 0.000000
0.041669 0.668639 0.000000
0.083913 0.669129 0.000000
0.124649 0.669618 0.000000
0.164455 0.670108 0.000000
0.203591 0.670598 0.000000
0.242204 0.671087 0.000000
0.280389 0.671577 0.000000
0.318212 0.672066 0.000000
0.355722 0.672556 0.000000
0.392956 0.673045 0.000000
0.429945 0.673535 0.000000
0.466713 0.674024 0.000000
0.503278 0.674514 0.000000
0.539658 0.675003 0.000000
0.575867 0.675493 0.000000
0.611917 0.675982 0.000000
0.647820 0.676471 0.000000
0.683583 0.676961 0.000000
0.719216 0.677450 0.000000
0.754725 0.677939 0.000000
0.790118 0.678428 0.000000
0.825401 0.678918 0.000000
0.860578 0.679407 0.000000
0.895654 0.679896 0.000000
0.930635 0.680385 0.000000
0.965524 0.680874 0.000000
1.000000 0.681363 0.000000
1.000000 0.681852 0.000000
1.000000 0.682341 0.000000
1.000000 0.682830 0.000000
1.000000 0.683319 0.000000
0.000000 0.700445 0.000000
0.000000 0.700933 0.000000
0.039143 0.701421 0.000000
0.081511 0.701909 0.000000
0.122312 0.702397 0.000000
0.162164 0.702886 0.000000
0.201334 0.703373 0.000000
0.239975 0.703861 0.000000
0.278182 0.704349 0.000000
0.316025 0.704837 0.000000
0.353552 0.705325 0.000000
0.390802 0.705813 0.000000
0.427804 0.706301 0.000000
0.464584 0.706789 0.000000
0.501160 0.707277 0.000000
0.537551 0.707764 0.000000
0.573769 0.708252 0.000000
0.609829 0.708740 0.000000
0.645739 0.709228 0.000000
0.681510 0.709715 0.000000
0.717150 0.710203 0.000000
0.752667 0.710691 0.000000
0.788067 0.711178 0.000000
0.823355 0.711666 0.000000
0.858538 0.712153 0.000000
0.893620 0.712641 0.000000
0.928607 0.713128 0.000000
0.963501 0.713616 0.000000
0.998306 0.714103 0.000000
1.000000 0.714591 0.000000
1.000000 0.715078 0.000000
1.000000 0.715566 0.000000
1.000000 0.716053 0.000000
0.000000 0.733124 0.000000
0.000000 0.733610 0.000000
0.036606 0.734097 0.000000
0.079103 0.734583 0.000000
0.119973 0.735070 0.000000
0.159871 0.735556 0.000000
0.199076 0.736043 0.000000
0.237744 0.736529 0.000000
0.275975 0.737015 0.000000
0.313837 0.737502 0.000000
0.351381 0.737988 0.000000
0.388646 0.738475 0.000000
0.425662 0.738961 0.000000
0.462454 0.739447 0.000000
0.499042 0.739933 0.000000
0.535443 0.740420 0.000000
0.571671 0.740906 0.000000
0.607739 0.741392 0.000000
0.643658 0.741878 0.000000
0.679437 0.742364 0.000000
0.715085 0.742850 0.000000
0.750608 0.743337 0.000000
0.786014 0.743823 0.000000
0.821309 0.744309 0.000000
0.856498 0.744795 0.000000
0.891586 0.745281 0.000000
0.926578 0.745767 0.000000
0.961477 0.746253 0.000000
0.996288 0.746739 0.000000
1.000000 0.747225 0.000000
1.000000 0.747711 0.000000
1.000000 0.748196 0.000000
1.000000 0.748682 0.000000
0.000000 0.765700 0.000000
0.000000 0.766186 0.000000
0.034055 0.766671 0.000000
0.076690 0.767156 0.000000
0.117631 0.767641 0.000000
0.157575 0.768126 0.000000
0.196816 0.768611 0.000000
0.235512 0.769096 0.000000
0.273766 0.769580 0.000000
0.311648 0.770065 0.000000
0.349209 0.770550 0.000000
0.386490 0.771035 0.000000
0.423520 0.771520 0.000000
0.460324 0.772005 0.000000
0.496923 0.772490 0.000000
0.533334 0.772974 0.000000
0.569572 0.773459 0.000000
0.605649 0.773944 0.000000
0.641577 0.774429 0.000000
0.677364 0.774913 0.000000
0.713019 0.775398 0.000000
0.748549 0.775883 0.000000
0.783962 0.776367 0.000000
0.819263 0.776852 0.000000
0.854458 0.777336 0.000000
0.889552 0.777821 0.000000
0.924549 0.778306 0.000000
0.959454 0.778790 0.000000
0.994269 0.779275 0.000000
1.000000 0.779759 0.000000
1.000000 0.780243 0.000000
1.000000 0.780728 0.000000
1.000000 0.781212 0.000000
0.000000 0.798181 0.000000
0.000000 0.798664 0.000000
0.031492 0.799148 0.000000
0.074272 0.799631 0.000000
0.115285 0.800115 0.000000
0.155278 0.800599 0.000000
0.194554 0.801082 0.000000
0.233278 0.801566 0.000000
0.271556 0.802049 0.000000
0.309458 0.802533 0.000000
0.347037 0.803016 0.000000
0.384332 0.803500 0.000000
0.421376 0.803983 0.000000
0.458193 0.804467 0.000000
0.494803 0.804950 0.000000
0.531225 0.805433 0.000000
0.567473 0.805917 0.000000
0.603559 0.806400 0.000000
0.639495 0.806883 0.000000
0.675290 0.807367 0.000000
0.710952 0.807850 0.000000
0.746490 0.808333 0.000000
0.781909 0.808816 0.000000
0.817217 0.809300 0.000000
0.852418 0.809783 0.000000
0.887517 0.810266 0.000000
0.922520 0.810749 0.000000
0.957430 0.811232 0.000000
0.992251 0.811716 0.000000
1.000000 0.812199 0.000000
1.000000 0.812682 0.000000
1.000000 0.813165 0.000000
1.000000 0.813648 0.000000
0.000000 0.830568 0.000000
0.000000 0.831051 0.000000
0.028914 0.831533 0.000000
0.071849 0.832015 0.000000
0.112936 0.832497 0.000000
0.152977 0.832980 0.000000
0.192290 0.833462 0.000000
0.231043 0.833944 0.000000
0.269344 0.834426 0.000000
0.307266 0.834908 0.000000
0.344863 0.835391 0.000000
0.382174 0.835873 0.000000
0.419232 0.836355 0.000000
0.456061 0.836837 0.000000
0.492683 0.837319 0.000000
0.529116 0.837801 0.000000
0.565373 0.838283 0.000000
0.601468 0.838765 0.000000
0.637412 0.839247 0.000000
0.673215 0.839729 0.000000
0.708885 0.840211 0.000000
0.744430 0.840693 0.000000
0.779856 0.841175 0.000000
0.815170 0.841657 0.000000
0.850377 0.842139 0.000000
0.885482 0.842620 0.000000
0.920490 0.843102 0.000000
0.955405 0.843584 0.000000
0.990231 0.844066 0.000000
1.000000 0.844548 0.000000
1.000000 0.845029 0.000000
1.000000 0.845511 0.000000
1.000000 0.845993 0.000000
0.000000 0.862868 0.000000
0.000000 0.863349 0.000000
0.026319 0.863830 0.000000
0.069419 0.864311 0.000000
0.110583 0.864792 0.000000
0.150675 0.865273 0.000000
0.190024 0.865754 0.000000
0.228806 0.866235 0.000000
0.267131 0.866716 0.000000
0.305074 0.867196 0.000000
0.342688 0.867677 0.000000
0.380015 0.868158 0.000000
0.417087 0.868639 0.000000
0.453929 0.869120 0.000000
0.490563 0.869601 0.000000
0.527005 0.870081 0.000000
0.563273 0.870562 0.000000
0.599377 0.871043 0.000000
0.635330 0.871524 0.000000
0.671140 0.872004 0.000000
0.706818 0.872485 0.000000
0.742369 0.872966 0.000000
0.777802 0.873446 0.000000
0.813123 0.873927 0.000000
0.848336 0.874408 0.000000
0.883447 0.874888 0.000000
0.918460 0.875369 0.000000
0.953381 0.875849 0.000000
0.988212 0.876330 0.000000
1.000000 0.876810 0.000000
1.000000 0.877291 0.000000
1.000000 0.877771 0.000000
1.000000 0.878252 0.000000
0.000000 0.895083 0.000000
0.000000 0.895563 0.000000
0.023707 0.896043 0.000000
0.066984 0.896522 0.000000
0.108227 0.897002 0.000000
0.148370 0.897482 0.000000
0.187756 0.897961 0.000000
0.226568 0.898441 0.000000
0.264917 0.898921 0.000000
0.302881 0.899401 0.000000
0.340513 0.899880 0.000000
0.377856 0.900360 0.000000
0.414941 0.900839 0.000000
0.451796 0.901319 0.000000
0.488441 0.901799 0.000000
0.524895 0.902278 0.000000
0.561172 0.902758 0.000000
0.597285 0.903237 0.000000
0.633246 0.903717 0.000000
0.669065 0.904196 0.000000
0.704750 0.904676 0.000000
0.740309 0.905155 0.000000
0.775748 0.905635 0.000000
0.811075 0.906114 0.000000
