presets/film_stocks/Fuji_Provia_100F.cube
# 独寻胶片模拟 -- Fuji Provia 100F
# Fujifilm, ISO 100, 2000, positive
TITLE "Fuji Provia 100F"
LUT_3D_SIZE 5
DOMAIN_MIN 0.0 0.0 0.0
DOMAIN_MAX 1.0 1.0 1.0
0.000000 0.000000 0.000000
0.317491 0.009188 0.000000
0.596205 0.017254 0.000000
0.861942 0.024944 0.000000
1.000000 0.032400 0.000000
0.000000 0.307182 0.000000
0.305601 0.313057 0.000000
0.585051 0.318921 0.000000
0.851196 0.324774 0.000000
1.000000 0.330616 0.000000
0.000000 0.576846 0.000000
0.293665 0.582365 0.000000
0.573877 0.587878 0.000000
0.840436 0.593386 0.000000
1.000000 0.598889 0.000000
0.000000 0.833955 0.000000
0.281680 0.839275 0.000000
0.562680 0.844592 0.000000
0.829663 0.849905 0.000000
1.000000 0.855214 0.000000
0.000000 1.000000 0.000000
0.269643 1.000000 0.000000
0.551462 1.000000 0.000000
0.818875 1.000000 0.000000
1.000000 1.000000 0.000000
0.000000 0.000000 0.295101
0.295555 0.000000 0.287637
0.575645 0.000000 0.280154
0.842139 0.000000 0.272650
1.000000 0.000000 0.265126
0.000000 0.277644 0.291053
0.283578 0.283578 0.283578
0.564452 0.289500 0.276084
0.831367 0.295409 0.268569
1.000000 0.301306 0.261033
0.000000 0.549182 0.286998
0.271550 0.554728 0.279513
0.553237 0.560268 0.272008
0.820582 0.565802 0.264482
1.000000 0.571332 0.256934
0.000000 0.807314 0.282938
0.259468 0.812651 0.275442
0.541999 0.817985 0.267926
0.809782 0.823315 0.260388
1.000000 0.828641 0.252829
0.000000 1.000000 0.278872
0.247330 1.000000 0.271365
0.530738 1.000000 0.263837
0.798968 1.000000 0.256288
1.000000 1.000000 0.248716
0.000000 0.000000 0.554160
0.273456 0.000000 0.547156
0.555012 0.000000 0.540143
0.822288 0.000000 0.533121
1.000000 0.000000 0.526090
0.000000 0.247788 0.550360
0.261383 0.253789 0.543351
0.543778 0.259776 0.536333
0.811491 0.265748 0.529306
1.000000 0.271708 0.522270
0.000000 0.521378 0.546557
0.249253 0.526952 0.539543
0.532521 0.532521 0.532521
0.800679 0.538083 0.525489
1.000000 0.543640 0.518447
0.000000 0.780585 0.542751
0.237065 0.785940 0.535733
0.521239 0.791291 0.528705
0.789853 0.796639 0.521668
1.000000 0.801983 0.514622
0.000000 1.000000 0.538943
0.224814 1.000000 0.531920
0.509933 1.000000 0.524887
0.779012 1.000000 0.517845
1.000000 1.000000 0.510793
0.000000 0.000000 0.801157
0.251175 0.000000 0.794409
0.534302 0.000000 0.787654
0.802390 0.000000 0.780893
1.000000 0.000000 0.774127
0.000000 0.217566 0.797495
0.238997 0.223645 0.790743
0.523025 0.229707 0.783985
0.791566 0.235752 0.777222
1.000000 0.241783 0.770452
0.000000 0.493424 0.793831
0.226755 0.499029 0.787076
0.511723 0.504628 0.780315
0.780727 0.510221 0.773549
1.000000 0.515807 0.766776
0.000000 0.753764 0.790166
0.214448 0.759138 0.783408
0.500396 0.764507 0.776643
0.769873 0.769873 0.769873
1.000000 0.775236 0.763097
0.000000 1.000000 0.786499
0.202069 1.000000 0.779737
0.489043 1.000000 0.772970
0.759004 1.000000 0.766197
1.000000 1.000000 0.759417
0.000000 0.000000 1.000000
0.228695 0.000000 1.000000
0.513512 0.000000 1.000000
0.782442 0.000000 1.000000
1.000000 0.000000 1.000000
0.000000 0.186918 1.000000
0.216399 0.193087 1.000000
0.502189 0.199237 1.000000
0.771591 0.205369 1.000000
1.000000 0.211482 1.000000
0.000000 0.465312 1.000000
0.204031 0.470949 1.000000
0.490840 0.476580 1.000000
0.760724 0.482205 1.000000
1.000000 0.487823 1.000000
0.000000 0.726847 1.000000
0.191589 0.732240 1.000000
0.479465 0.737629 1.000000
0.749842 0.743015 1.000000
1.000000 0.748396 1.000000
0.000000 0.979075 1.000000
0.179065 0.984311 1.000000
0.468064 0.989543 1.000000
0.738944 0.994773 1.000000
1.000000 1.000000 1.000000
