presets/film_stocks/Fujiflex_Crystal_Archive_Old_Version.cube
# 独寻胶片模拟 -- Fujiflex Crystal Archive Old Version
# Fujifilm, ISO 0, 0, negative
TITLE "Fujiflex Crystal Archive Old Version"
LUT_3D_SIZE 9
DOMAIN_MIN 0.0 0.0 0.0
DOMAIN_MAX 1.0 1.0 1.0
0.000000 0.000000 0.000000
0.250791 0.002226 0.000000
0.458224 0.004067 0.000000
0.651930 0.005786 0.000000
0.837227 0.007430 0.000000
1.000000 0.009022 0.000000
1.000000 0.010572 0.000000
1.000000 0.012088 0.000000
1.000000 0.013576 0.000000
0.000000 0.179686 0.000000
0.221066 0.180687 0.000000
0.431196 0.181688 0.000000
0.626333 0.182687 0.000000
0.812592 0.183686 0.000000
0.992595 0.184684 0.000000
1.000000 0.185681 0.000000
1.000000 0.186678 0.000000
1.000000 0.187673 0.000000
0.000000 0.328306 0.000000
0.190726 0.329221 0.000000
0.403912 0.330136 0.000000
0.600579 0.331050 0.000000
0.787844 0.331964 0.000000
0.968591 0.332877 0.000000
1.000000 0.333790 0.000000
1.000000 0.334703 0.000000
1.000000 0.335615 0.000000
0.000000 0.467092 0.000000
0.159640 0.467960 0.000000
0.376348 0.468827 0.000000
0.574658 0.469695 0.000000
0.762979 0.470562 0.000000
0.944497 0.471429 0.000000
1.000000 0.472295 0.000000
1.000000 0.473162 0.000000
1.000000 0.474028 0.000000
0.000000 0.599853 0.000000
0.127611 0.600689 0.000000
0.348477 0.601524 0.000000
0.548560 0.602360 0.000000
0.737992 0.603195 0.000000
0.920310 0.604030 0.000000
1.000000 0.604865 0.000000
1.000000 0.605700 0.000000
1.000000 0.606535 0.000000
0.000000 0.728306 0.000000
0.094311 0.729118 0.000000
0.320268 0.729930 0.000000
0.522275 0.730742 0.000000
0.712878 0.731553 0.000000
0.896028 0.732365 0.000000
1.000000 0.733176 0.000000
1.000000 0.733987 0.000000
1.000000 0.734798 0.000000
0.000000 0.853429 0.000000
0.059091 0.854222 0.000000
0.291680 0.855015 0.000000
0.495789 0.855807 0.000000
0.687630 0.856600 0.000000
0.871646 0.857392 0.000000
1.000000 0.858185 0.000000
1.000000 0.858977 0.000000
1.000000 0.859769 0.000000
0.000000 0.975848 0.000000
0.020020 0.976625 0.000000
0.262665 0.977402 0.000000
0.469090 0.978179 0.000000
0.662242 0.978955 0.000000
0.847162 0.979732 0.000000
1.000000 0.980509 0.000000
1.000000 0.981285 0.000000
1.000000 0.982062 0.000000
0.000000 1.000000 0.000000
0.000000 1.000000 0.000000
0.233159 1.000000 0.000000
0.442160 1.000000 0.000000
0.636707 1.000000 0.000000
0.822571 1.000000 0.000000
1.000000 1.000000 0.000000
1.000000 1.000000 0.000000
1.000000 1.000000 0.000000
0.000000 0.000000 0.167339
0.194921 0.000000 0.166121
0.407664 0.000000 0.164902
0.604116 0.000000 0.163682
0.791240 0.000000 0.162460
0.971883 0.000000 0.161237
1.000000 0.000000 0.160013
1.000000 0.000000 0.158787
1.000000 0.000000 0.157559
0.000000 0.162931 0.165167
0.163947 0.163947 0.163947
0.380140 0.164962 0.162726
0.578218 0.165977 0.161503
0.766392 0.166990 0.160279
0.947802 0.168002 0.159053
1.000000 0.169013 0.157826
1.000000 0.170024 0.156598
1.000000 0.171034 0.155368
0.000000 0.313056 0.162991
0.132063 0.313978 0.161769
0.352313 0.314899 0.160545
0.552145 0.315819 0.159320
0.741422 0.316740 0.158093
0.923628 0.317659 0.156865
1.000000 0.318579 0.155635
1.000000 0.319498 0.154404
1.000000 0.320417 0.153172
0.000000 0.452644 0.160811
0.098964 0.453516 0.159586
0.324152 0.454388 0.158360
0.525886 0.455259 0.157132
0.716325 0.456131 0.155903
0.899359 0.457002 0.154672
1.000000 0.457872 0.153440
1.000000 0.458743 0.152206
1.000000 0.459613 0.150971
0.000000 0.585946 0.158626
0.064070 0.586784 0.157399
0.295619 0.587623 0.156170
0.499429 0.588462 0.154939
0.691095 0.589300 0.153708
0.874991 0.590138 0.152474
1.000000 0.590976 0.151239
1.000000 0.591814 0.150003
1.000000 0.592651 0.148765
0.000000 0.714803 0.156437
0.025797 0.715617 0.155207
0.266666 0.716431 0.153975
0.472759 0.717245 0.152742
0.665727 0.718059 0.151508
0.850521 0.718873 0.150272
1.000000 0.719686 0.149034
1.000000 0.720500 0.147795
1.000000 0.721313 0.146554
0.000000 0.840246 0.154243
0.000000 0.841041 0.153010
0.237232 0.841835 0.151776
0.445862 0.842630 0.150540
0.640213 0.843424 0.149303
0.825945 0.844219 0.148064
1.000000 0.845013 0.146824
1.000000 0.845807 0.145582
1.000000 0.846601 0.144339
0.000000 0.962929 0.152044
0.000000 0.963708 0.150809
0.207238 0.964487 0.149572
0.418719 0.965265 0.148334
0.614545 0.966043 0.147094
0.801259 0.966822 0.145852
0.981600 0.967600 0.144609
1.000000 0.968378 0.143364
1.000000 0.969156 0.142118
0.000000 1.000000 0.149841
0.000000 1.000000 0.148603
0.176575 1.000000 0.147363
0.391310 1.000000 0.146122
0.588715 1.000000 0.144879
0.776458 1.000000 0.143635
0.957555 1.000000 0.142389
1.000000 1.000000 0.141141
1.000000 1.000000 0.139892
0.000000 0.000000 0.305747
0.136493 0.000000 0.304635
0.356143 0.000000 0.303522
0.555726 0.000000 0.302409
0.744849 0.000000 0.301295
0.926944 0.000000 0.300181
1.000000 0.000000 0.299065
1.000000 0.000000 0.297950
1.000000 0.000000 0.296833
0.000000 0.145914 0.303764
0.103585 0.146946 0.302651
0.328030 0.147978 0.301537
0.529494 0.149009 0.300423
0.719770 0.150039 0.299308
0.902688 0.151067 0.298192
1.000000 0.152095 0.297076
1.000000 0.153121 0.295959
1.000000 0.154147 0.294841
0.000000 0.297694 0.301779
0.068992 0.298622 0.300665
0.299550 0.299550 0.299550
0.503064 0.300478 0.298435
0.694559 0.301405 0.297318
0.878334 0.302332 0.296202
1.000000 0.303258 0.295084
1.000000 0.304184 0.293966
1.000000 0.305109 0.292847
0.000000 0.438128 0.299793
0.031385 0.439004 0.298677
0.270658 0.439880 0.297561
0.476425 0.440755 0.296444
0.669210 0.441631 0.295327
0.853879 0.442506 0.294209
1.000000 0.443381 0.293091
1.000000 0.444256 0.291971
1.000000 0.445130 0.290852
0.000000 0.571989 0.297804
0.000000 0.572831 0.296687
0.241294 0.573672 0.295570
0.449560 0.574514 0.294452
0.643716 0.575355 0.293334
0.829317 0.576196 0.292215
1.000000 0.577037 0.291095
1.000000 0.577878 0.289975
1.000000 0.578719 0.288854
0.000000 0.701261 0.295813
0.000000 0.702078 0.294695
0.211382 0.702894 0.293577
0.422452 0.703711 0.292458
0.618070 0.704527 0.291338
0.804647 0.705343 0.290218
0.984886 0.706159 0.289097
1.000000 0.706974 0.287976
1.000000 0.707790 0.286854
0.000000 0.827032 0.293820
0.000000 0.827829 0.292701
0.180819 0.828625 0.291582
0.395080 0.829422 0.290462
0.592263 0.830218 0.289341
0.779862 0.831014 0.288220
0.960853 0.831810 0.287097
1.000000 0.832606 0.285975
1.000000 0.833402 0.284851
0.000000 0.949985 0.291825
0.000000 0.950765 0.290705
0.149456 0.951545 0.289584
0.367421 0.952325 0.288463
0.566286 0.953105 0.287341
0.754958 0.953885 0.286219
0.936729 0.954665 0.285096
1.000000 0.955445 0.283972
1.000000 0.956224 0.282847
0.000000 1.000000 0.289828
0.000000 1.000000 0.288707
0.117063 1.000000 0.287585
0.339445 1.000000 0.286463
0.540129 1.000000 0.285340
0.729931 1.000000 0.284216
0.912512 1.000000 0.283092
1.000000 1.000000 0.281967
1.000000 1.000000 0.280841
0.000000 0.000000 0.434996
0.073862 0.000000 0.433941
0.303474 0.000000 0.432886
0.506696 0.000000 0.431831
0.698019 0.000000 0.430775
0.881675 0.000000 0.429719
1.000000 0.000000 0.428662
1.000000 0.000000 0.427605
1.000000 0.000000 0.426548
0.000000 0.128592 0.433116
0.036826 0.129645 0.432060
0.274641 0.130696 0.431004
0.480086 0.131746 0.429948
0.672690 0.132795 0.428892
0.857234 0.133842 0.427835
1.000000 0.134889 0.426777
1.000000 0.135934 0.425720
1.000000 0.136978 0.424661
0.000000 0.282211 0.431234
0.000000 0.283147 0.430178
0.245345 0.284083 0.429121
0.453253 0.285018 0.428064
0.647216 0.285952 0.427007
0.832687 0.286886 0.425949
1.000000 0.287820 0.424891
1.000000 0.288753 0.423833
1.000000 0.289685 0.422774
0.000000 0.423538 0.429351
0.000000 0.424419 0.428294
0.215514 0.425299 0.427237
0.426179 0.426179 0.426179
0.621591 0.427059 0.425121
0.808032 0.427939 0.424063
0.988170 0.428818 0.423004
1.000000 0.429697 0.421945
1.000000 0.430576 0.420885
0.000000 0.557981 0.427467
0.000000 0.558826 0.426409
0.185048 0.559671 0.425351
0.398845 0.560515 0.424293
0.595807 0.561360 0.423234
0.783263 0.562204 0.422175
0.964149 0.563048 0.421116
1.000000 0.563892 0.420056
1.000000 0.564736 0.418996
0.000000 0.687680 0.425581
0.000000 0.688499 0.424523
0.153805 0.689318 0.423464
0.371227 0.690137 0.422405
0.569854 0.690955 0.421346
0.758376 0.691774 0.420286
0.940039 0.692592 0.419226
1.000000 0.693410 0.418165
1.000000 0.694228 0.417104
0.000000 0.813786 0.423695
0.000000 0.814585 0.422636
0.121572 0.815383 0.421576
0.343296 0.816182 0.420517
0.543722 0.816980 0.419456
0.733366 0.817778 0.418396
0.915835 0.818576 0.417335
1.000000 0.819374 0.416274
1.000000 0.820171 0.415212
0.000000 0.937014 0.421807
0.000000 0.937796 0.420747
0.087982 0.938578 0.419687
0.315020 0.939359 0.418626
0.517401 0.940141 0.417566
0.708227 0.940922 0.416504
0.891534 0.941704 0.415443
1.000000 0.942485 0.414381
1.000000 0.943266 0.413318
0.000000 1.000000 0.419917
0.000000 1.000000 0.418857
0.052276 1.000000 0.417796
0.286357 1.000000 0.416735
0.490877 1.000000 0.415674
0.682953 1.000000 0.414612
0.867134 1.000000 0.413549
1.000000 1.000000 0.412486
1.000000 1.000000 0.411423
0.000000 0.000000 0.558635
0.000000 0.000000 0.557619
0.249387 0.000000 0.556603
0.456942 0.000000 0.555586
0.650713 0.000000 0.554570
0.836055 0.000000 0.553553
1.000000 0.000000 0.552535
1.000000 0.000000 0.551518
1.000000 0.000000 0.550500
0.000000 0.110912 0.556824
0.000000 0.111988 0.555807
0.219634 0.113062 0.554791
0.429902 0.114135 0.553774
0.625110 0.115207 0.552756
0.811415 0.116277 0.551739
0.991453 0.117345 0.550721
1.000000 0.118412 0.549703
1.000000 0.119478 0.548685
0.000000 0.266600 0.555011
0.000000 0.267544 0.553995
0.189262 0.268488 0.552978
0.402605 0.269431 0.551960
0.599348 0.270373 0.550942
0.786662 0.271315 0.549925
0.967444 0.272256 0.548906
1.000000 0.273197 0.547888
1.000000 0.274138 0.546869
0.000000 0.408873 0.553199
0.000000 0.409758 0.552181
0.158137 0.410643 0.551164
0.375027 0.411528 0.550146
0.573418 0.412413 0.549128
0.761791 0.413297 0.548109
0.943346 0.414181 0.547090
1.000000 0.415064 0.546071
1.000000 0.415948 0.545052
0.000000 0.543920 0.551385
0.000000 0.544768 0.550367
0.126056 0.545616 0.549349
0.347141 0.546464 0.548330
0.547312 0.547312 0.547312
0.736798 0.548159 0.546293
0.919155 0.549007 0.545274
1.000000 0.549854 0.544254
1.000000 0.550700 0.543234
0.000000 0.674059 0.549570
0.000000 0.674880 0.548552
0.092683 0.675702 0.547533
0.318914 0.676523 0.546514
0.521017 0.677344 0.545495
0.711677 0.678165 0.544476
0.894868 0.678985 0.543456
1.000000 0.679806 0.542436
1.000000 0.680626 0.541415
0.000000 0.800508 0.547755
0.000000 0.801309 0.546736
0.057343 0.802109 0.545717
0.290307 0.802909 0.544697
0.494522 0.803710 0.543677
0.686423 0.804510 0.542657
0.870482 0.805310 0.541637
1.000000 0.806109 0.540617
1.000000 0.806909 0.539596
0.000000 0.924016 0.545938
0.000000 0.924800 0.544919
0.017952 0.925583 0.543899
0.261270 0.926366 0.542879
0.467812 0.927150 0.541859
0.661028 0.927933 0.540838
0.845992 0.928716 0.539818
1.000000 0.929498 0.538797
1.000000 0.930281 0.537775
0.000000 1.000000 0.544121
0.000000 1.000000 0.543101
0.000000 1.000000 0.542081
0.231739 1.000000 0.541060
0.440871 1.000000 0.540039
0.635486 1.000000 0.539018
0.821396 1.000000 0.537997
1.000000 1.000000 0.536976
1.000000 1.000000 0.535954
0.000000 0.000000 0.678262
0.000000 0.000000 0.677275
0.193463 0.000000 0.676288
0.406359 0.000000 0.675301
0.602885 0.000000 0.674314
0.790059 0.000000 0.673326
0.970737 0.000000 0.672339
1.000000 0.000000 0.671351
1.000000 0.000000 0.670362
0.000000 0.092796 0.676503
0.000000 0.093901 0.675516
0.162450 0.095004 0.674528
0.378821 0.096105 0.673541
0.576979 0.097205 0.672553
0.765204 0.098302 0.671565
0.946652 0.099398 0.670577
1.000000 0.100492 0.669589
1.000000 0.101584 0.668600
0.000000 0.250851 0.674743
0.000000 0.251804 0.673756
0.130516 0.252756 0.672768
0.350979 0.253707 0.671780
0.550898 0.254658 0.670792
0.740228 0.255608 0.669804
0.922473 0.256558 0.668815
1.000000 0.257507 0.667826
1.000000 0.258456 0.666837
0.000000 0.394129 0.672983
0.000000 0.395019 0.671995
0.097348 0.395909 0.671007
0.322801 0.396798 0.670018
0.524630 0.397688 0.669030
0.715125 0.398577 0.668041
0.898200 0.399465 0.667052
1.000000 0.400354 0.666063
1.000000 0.401242 0.665074
0.000000 0.529804 0.671221
0.000000 0.530656 0.670233
0.062344 0.531507 0.669245
0.294249 0.532358 0.668256
0.498163 0.533209 0.667267
0.689890 0.534060 0.666278
0.873827 0.534911 0.665289
1.000000 0.535761 0.664299
1.000000 0.536611 0.663310
0.000000 0.660396 0.669460
0.000000 0.661220 0.668471
0.023811 0.662044 0.667482
0.265274 0.662868 0.666493
0.471483 0.663691 0.665504
0.664514 0.664514 0.664514
0.849352 0.665338 0.663525
1.000000 0.666161 0.662535
1.000000 0.666983 0.661545
0.000000 0.787197 0.667697
0.000000 0.787999 0.666708
0.000000 0.788802 0.665719
0.235816 0.789604 0.664729
0.444574 0.790406 0.663740
0.638993 0.791208 0.662750
0.824771 0.792010 0.661760
1.000000 0.792812 0.660769
1.000000 0.793614 0.659779
0.000000 0.910991 0.665934
0.000000 0.911776 0.664944
0.000000 0.912561 0.663955
0.205792 0.913346 0.662965
0.417419 0.914131 0.661975
0.613318 0.914916 0.660985
0.800080 0.915700 0.659994
0.980456 0.916485 0.659003
1.000000 0.917269 0.658012
0.000000 1.000000 0.664170
0.000000 1.000000 0.663180
0.000000 1.000000 0.662190
0.175095 1.000000 0.661200
0.389996 1.000000 0.660209
0.587480 1.000000 0.659219
0.775273 1.000000 0.658228
0.956406 1.000000 0.657237
1.000000 1.000000 0.656245
0.000000 0.000000 0.794787
0.000000 0.000000 0.793823
0.134953 0.000000 0.792860
0.354811 0.000000 0.791896
0.554480 0.000000 0.790932
0.743656 0.000000 0.789968
0.925790 0.000000 0.789003
1.000000 0.000000 0.788039
1.000000 0.000000 0.787074
0.000000 0.074129 0.793069
0.000000 0.075272 0.792105
0.101981 0.076412 0.791141
0.326681 0.077549 0.790177
0.528239 0.078684 0.789213
0.718571 0.079817 0.788249
0.901530 0.080947 0.787284
1.000000 0.082075 0.786319
1.000000 0.083200 0.785354
0.000000 0.234952 0.791351
0.000000 0.235914 0.790387
0.067285 0.236875 0.789423
0.298183 0.237836 0.788458
0.501799 0.238796 0.787493
0.693354 0.239756 0.786529
0.877171 0.240715 0.785564
1.000000 0.241673 0.784599
1.000000 0.242631 0.783633
0.000000 0.379301 0.789632
0.000000 0.380196 0.788668
0.029458 0.381091 0.787703
0.269269 0.381986 0.786738
0.475150 0.382880 0.785773
0.667998 0.383774 0.784808
0.852710 0.384668 0.783843
1.000000 0.385562 0.782878
1.000000 0.386455 0.781912
0.000000 0.515632 0.787913
0.000000 0.516487 0.786948
0.000000 0.517342 0.785983
0.239881 0.518196 0.785018
0.448274 0.519051 0.784053
0.642497 0.519905 0.783087
0.828144 0.520759 0.782122
1.000000 0.521613 0.781156
1.000000 0.522467 0.780190
0.000000 0.646691 0.786193
0.000000 0.647517 0.785228
0.000000 0.648344 0.784263
0.209941 0.649170 0.783297
0.421153 0.649996 0.782332
0.616843 0.650822 0.781366
0.803468 0.651648 0.780400
0.983742 0.652473 0.779434
1.000000 0.653299 0.778467
0.000000 0.773852 0.784472
0.000000 0.774656 0.783507
0.000000 0.775461 0.782541
0.179344 0.776265 0.781576
0.393769 0.777069 0.780610
0.591028 0.777874 0.779644
0.778677 0.778677 0.778677
0.959705 0.779481 0.777711
1.000000 0.780285 0.776744
0.000000 0.897937 0.782751
0.000000 0.898724 0.781786
0.000000 0.899511 0.780820
0.147937 0.900298 0.779854
0.366095 0.901084 0.778887
0.565043 0.901871 0.777921
0.753768 0.902657 0.776955
0.935577 0.903443 0.775988
1.000000 0.904229 0.775021
0.000000 1.000000 0.781030
0.000000 1.000000 0.780064
0.000000 1.000000 0.779097
0.115488 1.000000 0.778131
0.338103 1.000000 0.777165
0.538878 1.000000 0.776198
0.728735 1.000000 0.775231
0.911356 1.000000 0.774264
1.000000 1.000000 0.773297
0.000000 0.000000 0.908794
0.000000 0.000000 0.907849
0.072172 0.000000 0.906905
0.302109 0.000000 0.905960
0.505432 0.000000 0.905016
0.696815 0.000000 0.904071
0.880513 0.000000 0.903126
1.000000 0.000000 0.902181
1.000000 0.000000 0.901235
0.000000 0.054719 0.907110
0.000000 0.055914 0.906166
0.034947 0.057105 0.905221
0.273255 0.058293 0.904276
0.478812 0.059477 0.903331
0.671479 0.060658 0.902386
0.856066 0.061835 0.901441
1.000000 0.063009 0.900495
1.000000 0.064180 0.899550
0.000000 0.218889 0.905426
0.000000 0.219862 0.904481
0.000000 0.220833 0.903537
0.243936 0.221804 0.902591
0.451968 0.222774 0.901646
0.645998 0.223744 0.900701
0.831515 0.224713 0.899755
1.000000 0.225681 0.898810
1.000000 0.226649 0.897864
0.000000 0.364386 0.903742
0.000000 0.365286 0.902797
0.000000 0.366187 0.901852
0.214077 0.367087 0.900906
0.424883 0.367986 0.899961
0.620366 0.368886 0.899015
0.806854 0.369785 0.898069
0.987027 0.370684 0.897123
1.000000 0.371582 0.896177
0.000000 0.501401 0.902057
0.000000 0.502260 0.901112
0.000000 0.503118 0.900166
0.183578 0.503976 0.899221
0.397535 0.504834 0.898275
0.594574 0.505692 0.897329
0.782079 0.506550 0.896383
0.963002 0.507407 0.895437
1.000000 0.508264 0.894490
0.000000 0.632942 0.900372
0.000000 0.633771 0.899426
0.000000 0.634600 0.898480
0.152294 0.635429 0.897534
0.369903 0.636258 0.896588
0.568612 0.637086 0.895642
0.757187 0.637915 0.894696
0.938887 0.638743 0.893749
1.000000 0.639571 0.892803
0.000000 0.760472 0.898686
0.000000 0.761279 0.897740
0.000000 0.762085 0.896794
0.120006 0.762892 0.895848
0.341956 0.763698 0.894901
0.542472 0.764504 0.893955
0.732170 0.765310 0.893008
0.914679 0.766116 0.892062
1.000000 0.766922 0.891115
0.000000 0.884856 0.897000
0.000000 0.885644 0.896053
0.000000 0.886433 0.895107
0.086337 0.887221 0.894161
0.313663 0.888009 0.893214
0.516141 0.888797 0.892267
0.707025 0.889586 0.891321
0.890373 0.890373 0.890373
1.000000 0.891161 0.889426
0.000000 1.000000 0.895313
0.000000 1.000000 0.894366
0.000000 1.000000 0.893420
0.050495 1.000000 0.892473
0.284981 1.000000 0.891526
0.489607 1.000000 0.890579
0.681745 1.000000 0.889632
0.865969 1.000000 0.888685
1.000000 1.000000 0.887737
0.000000 0.000000 1.000000
0.000000 0.000000 1.000000
0.000000 0.000000 1.000000
0.247982 0.000000 1.000000
0.455658 0.000000 1.000000
0.649496 0.000000 1.000000
0.834883 0.000000 1.000000
1.000000 0.000000 1.000000
1.000000 0.000000 1.000000
0.000000 0.034183 1.000000
0.000000 0.035465 1.000000
0.000000 0.036739 1.000000
0.218202 0.038007 1.000000
0.428607 0.039268 1.000000
0.623885 0.040524 1.000000
0.810238 0.041773 1.000000
0.990311 0.043017 1.000000
1.000000 0.044256 1.000000
0.000000 0.202648 1.000000
0.000000 0.203632 1.000000
0.000000 0.204614 1.000000
0.187797 0.205596 1.000000
0.401297 0.206578 1.000000
0.598116 0.207558 1.000000
0.785479 0.208538 1.000000
0.966298 0.209517 1.000000
1.000000 0.210496 1.000000
0.000000 0.349378 1.000000
0.000000 0.350285 1.000000
0.000000 0.351191 1.000000
0.156631 0.352096 1.000000
0.373705 0.353002 1.000000
0.572178 0.353907 1.000000
0.760603 0.354811 1.000000
0.942195 0.355716 1.000000
1.000000 0.356620 1.000000
0.000000 0.487109 1.000000
0.000000 0.487971 1.000000
0.000000 0.488834 1.000000
0.124498 0.489695 1.000000
0.345803 0.490557 1.000000
0.546063 0.491419 1.000000
0.735604 0.492280 1.000000
0.917999 0.493141 1.000000
1.000000 0.494002 1.000000
0.000000 0.619148 1.000000
0.000000 0.619980 1.000000
0.000000 0.620811 1.000000
0.091051 0.621643 1.000000
0.317560 0.622475 1.000000
0.519759 0.623306 1.000000
0.710477 0.624137 1.000000
0.893708 0.624968 1.000000
1.000000 0.625799 1.000000
0.000000 0.747057 1.000000
0.000000 0.747866 1.000000
0.000000 0.748674 1.000000
0.055588 0.749483 1.000000
0.288933 0.750292 1.000000
0.493254 0.751100 1.000000
0.685216 0.751908 1.000000
0.869317 0.752716 1.000000
1.000000 0.753524 1.000000
0.000000 0.871745 1.000000
0.000000 0.872535 1.000000
0.000000 0.873325 1.000000
0.015848 0.874115 1.000000
0.259874 0.874905 1.000000
0.466533 0.875695 1.000000
0.659814 0.876485 1.000000
0.844823 0.877275 1.000000
1.000000 0.878064 1.000000
0.000000 0.993803 1.000000
0.000000 0.994578 1.000000
0.000000 0.995353 1.000000
0.000000 0.996127 1.000000
0.230318 0.996902 1.000000
0.439580 0.997677 1.000000
0.634265 0.998451 1.000000
0.820221 0.999226 1.000000
1.000000 1.000000 1.000000
