presets/film_stocks/Fuji_Crystal_Archive_Pro_PDII.cube
# 独寻胶片模拟 -- Fuji Crystal Archive Pro PDII
# Fujifilm, ISO 0, 2003, negative
TITLE "Fuji Crystal Archive Pro PDII"
LUT_3D_SIZE 9
DOMAIN_MIN 0.0 0.0 0.0
DOMAIN_MAX 1.0 1.0 1.0
0.000000 0.000000 0.000000
0.332809 0.005210 0.000000
0.554040 0.008674 0.000000
0.746483 0.011686 0.000000
0.922331 0.014439 0.000000
1.000000 0.017014 0.000000
1.000000 0.019455 0.000000
1.000000 0.021790 0.000000
1.000000 0.024038 0.000000
0.000000 0.234548 0.000000
0.294438 0.235520 0.000000
0.522453 0.236491 0.000000
0.718211 0.237460 0.000000
0.896177 0.238428 0.000000
1.000000 0.239394 0.000000
1.000000 0.240360 0.000000
1.000000 0.241323 0.000000
1.000000 0.242286 0.000000
0.000000 0.390460 0.000000
0.254168 0.391270 0.000000
0.490161 0.392078 0.000000
0.689532 0.392887 0.000000
0.869746 0.393695 0.000000
1.000000 0.394502 0.000000
1.000000 0.395308 0.000000
1.000000 0.396114 0.000000
1.000000 0.396920 0.000000
0.000000 0.526084 0.000000
0.211443 0.526812 0.000000
0.457085 0.527539 0.000000
0.660417 0.528265 0.000000
0.843022 0.528991 0.000000
1.000000 0.529717 0.000000
1.000000 0.530443 0.000000
1.000000 0.531168 0.000000
1.000000 0.531892 0.000000
0.000000 0.650013 0.000000
0.165323 0.650687 0.000000
0.423123 0.651361 0.000000
0.630832 0.652034 0.000000
0.815990 0.652708 0.000000
0.986996 0.653380 0.000000
1.000000 0.654053 0.000000
1.000000 0.654726 0.000000
1.000000 0.655398 0.000000
0.000000 0.765913 0.000000
0.113914 0.766548 0.000000
0.388148 0.767184 0.000000
0.600739 0.767818 0.000000
0.788631 0.768453 0.000000
0.961484 0.769088 0.000000
1.000000 0.769722 0.000000
1.000000 0.770357 0.000000
1.000000 0.770991 0.000000
0.000000 0.875792 0.000000
0.051582 0.876397 0.000000
0.351998 0.877003 0.000000
0.570092 0.877608 0.000000
0.760926 0.878213 0.000000
0.935727 0.878818 0.000000
1.000000 0.879422 0.000000
1.000000 0.880027 0.000000
1.000000 0.880631 0.000000
0.000000 0.980904 0.000000
0.000000 0.981485 0.000000
0.314455 0.982066 0.000000
0.538841 0.982647 0.000000
0.732853 0.983228 0.000000
0.909711 0.983809 0.000000
1.000000 0.984390 0.000000
1.000000 0.984970 0.000000
1.000000 0.985550 0.000000
0.000000 1.000000 0.000000
0.000000 1.000000 0.000000
0.275220 1.000000 0.000000
0.506922 1.000000 0.000000
0.704388 1.000000 0.000000
0.883425 1.000000 0.000000
1.000000 1.000000 0.000000
1.000000 1.000000 0.000000
1.000000 1.000000 0.000000
0.000000 0.000000 0.220339
0.259141 0.000000 0.219156
0.494096 0.000000 0.217971
0.693013 0.000000 0.216783
0.872949 0.000000 0.215592
1.000000 0.000000 0.214400
1.000000 0.000000 0.213205
1.000000 0.000000 0.212007
1.000000 0.000000 0.210808
0.000000 0.215750 0.217940
0.216752 0.216752 0.216752
0.461119 0.217752 0.215562
0.663952 0.218751 0.214369
0.846261 0.219748 0.213174
1.000000 0.220743 0.211977
1.000000 0.221737 0.210777
1.000000 0.222729 0.209574
1.000000 0.223719 0.208370
0.000000 0.374931 0.215531
0.171114 0.375753 0.214338
0.427269 0.376574 0.213143
0.634426 0.377394 0.211946
0.819267 0.378213 0.210746
0.990056 0.379032 0.209543
1.000000 0.379850 0.208339
1.000000 0.380668 0.207131
1.000000 0.381485 0.205921
0.000000 0.512170 0.213113
0.120508 0.512904 0.211915
0.392424 0.513638 0.210715
0.604396 0.514372 0.209512
0.791949 0.515105 0.208307
0.964574 0.515838 0.207100
1.000000 0.516570 0.205890
1.000000 0.517302 0.204677
1.000000 0.518034 0.203462
0.000000 0.637135 0.210684
0.060193 0.637813 0.209482
0.356426 0.638492 0.208276
0.573819 0.639170 0.207069
0.764287 0.639849 0.205859
0.938846 0.640526 0.204646
1.000000 0.641204 0.203431
1.000000 0.641881 0.202213
1.000000 0.642558 0.200992
0.000000 0.753782 0.208245
0.000000 0.754421 0.207038
0.319066 0.755060 0.205828
0.542644 0.755698 0.204615
0.736259 0.756337 0.203400
0.912863 0.756975 0.202182
1.000000 0.757613 0.200961
1.000000 0.758251 0.199738
1.000000 0.758889 0.198512
0.000000 0.864238 0.205796
0.000000 0.864846 0.204584
0.280055 0.865455 0.203368
0.510809 0.866063 0.202150
0.707843 0.866670 0.200930
0.886610 0.867278 0.199706
1.000000 0.867886 0.198480
1.000000 0.868493 0.197251
1.000000 0.869100 0.196020
0.000000 0.969816 0.203337
0.000000 0.970400 0.202119
0.238972 0.970983 0.200898
0.478243 0.971566 0.199675
0.679009 0.972150 0.198449
0.860074 0.972733 0.197220
1.000000 0.973316 0.195988
1.000000 0.973899 0.194754
1.000000 0.974481 0.193517
0.000000 1.000000 0.200867
0.000000 1.000000 0.199643
0.195154 1.000000 0.198417
0.444858 1.000000 0.197188
0.649727 1.000000 0.195957
0.833240 1.000000 0.194722
1.000000 1.000000 0.193485
1.000000 1.000000 0.192245
1.000000 1.000000 0.191002
0.000000 0.000000 0.366807
0.176834 0.000000 0.365823
0.431402 0.000000 0.364837
0.638013 0.000000 0.363851
0.822539 0.000000 0.362864
0.993113 0.000000 0.361875
1.000000 0.000000 0.360886
1.000000 0.000000 0.359896
1.000000 0.000000 0.358905
0.000000 0.196343 0.364812
0.126975 0.197379 0.363825
0.396684 0.198414 0.362838
0.608046 0.199446 0.361850
0.795261 0.200476 0.360861
0.967660 0.201505 0.359870
1.000000 0.202532 0.358879
1.000000 0.203557 0.357887
1.000000 0.204580 0.356894
0.000000 0.359167 0.362813
0.068381 0.360002 0.361824
0.360835 0.360835 0.360835
0.577537 0.361668 0.359845
0.767642 0.362500 0.358854
0.941962 0.363332 0.357861
1.000000 0.364162 0.356868
1.000000 0.364993 0.355874
1.000000 0.365822 0.354879
0.000000 0.498118 0.360810
0.000000 0.498860 0.359819
0.323652 0.499601 0.358828
0.546437 0.500342 0.357836
0.739660 0.501083 0.356843
0.916010 0.501823 0.355848
1.000000 0.502563 0.354853
1.000000 0.503302 0.353857
1.000000 0.504041 0.352860
0.000000 0.624162 0.358803
0.000000 0.624846 0.357810
0.284859 0.625529 0.356817
0.514686 0.626213 0.355823
0.711291 0.626896 0.354828
0.889791 0.627579 0.353831
1.000000 0.628261 0.352834
1.000000 0.628943 0.351836
1.000000 0.629625 0.350836
0.000000 0.741580 0.356792
0.000000 0.742223 0.355797
0.244055 0.742866 0.354802
0.482212 0.743508 0.353806
0.682509 0.744150 0.352808
0.863290 0.744792 0.351810
1.000000 0.745434 0.350811
1.000000 0.746076 0.349810
1.000000 0.746717 0.348809
0.000000 0.852628 0.354776
0.000000 0.853240 0.353780
0.200615 0.853851 0.352783
0.448931 0.854462 0.351784
0.653283 0.855073 0.350785
0.836493 0.855683 0.349785
1.000000 0.856294 0.348783
1.000000 0.856904 0.347781
1.000000 0.857514 0.346777
0.000000 0.958682 0.352757
0.000000 0.959268 0.351759
0.153446 0.959854 0.350759
0.414736 0.960440 0.349759
0.623579 0.961025 0.348757
0.809383 0.961611 0.347755
0.980828 0.962196 0.346751
1.000000 0.962782 0.345747
1.000000 0.963367 0.344741
0.000000 1.000000 0.350733
0.000000 1.000000 0.349733
0.100206 1.000000 0.348732
0.379492 1.000000 0.347729
0.593356 1.000000 0.346725
0.781942 1.000000 0.345721
0.955258 1.000000 0.344715
1.000000 1.000000 0.343709
1.000000 1.000000 0.342701
0.000000 0.000000 0.494216
0.076228 0.000000 0.493331
0.365225 0.000000 0.492447
0.581247 0.000000 0.491562
0.770991 0.000000 0.490676
0.945075 0.000000 0.489789
1.000000 0.000000 0.488902
1.000000 0.000000 0.488015
1.000000 0.000000 0.487127
0.000000 0.176217 0.492424
0.000000 0.177295 0.491539
0.328216 0.178370 0.490653
0.550221 0.179442 0.489767
0.743054 0.180513 0.488880
0.919154 0.181581 0.487992
1.000000 0.182646 0.487104
1.000000 0.183710 0.486215
1.000000 0.184771 0.485326
0.000000 0.343150 0.490630
0.000000 0.343998 0.489744
0.289635 0.344846 0.488857
0.518552 0.345692 0.487969
0.714734 0.346538 0.487081
0.892967 0.347383 0.486192
1.000000 0.348227 0.485303
1.000000 0.349071 0.484413
1.000000 0.349914 0.483523
0.000000 0.483922 0.488834
0.000000 0.484672 0.487946
0.249100 0.485421 0.487058
0.486169 0.486169 0.486169
0.686003 0.486918 0.485280
0.866501 0.487665 0.484390
1.000000 0.488413 0.483500
1.000000 0.489160 0.482609
1.000000 0.489906 0.481717
0.000000 0.611091 0.487035
0.000000 0.611780 0.486147
0.206023 0.612469 0.485257
0.452991 0.613158 0.484367
0.656833 0.613846 0.483477
0.839741 0.614534 0.482586
1.000000 0.615222 0.481694
1.000000 0.615909 0.480802
1.000000 0.616596 0.479909
0.000000 0.729306 0.485234
0.000000 0.729953 0.484344
0.159390 0.730599 0.483454
0.418912 0.731245 0.482563
0.627188 0.731891 0.481671
0.812670 0.732537 0.480779
0.983896 0.733183 0.479886
1.000000 0.733828 0.478992
1.000000 0.734473 0.478098
0.000000 0.840961 0.483431
0.000000 0.841576 0.482540
0.107099 0.842190 0.481648
0.383804 0.842804 0.480756
0.597030 0.843418 0.479863
0.785270 0.844031 0.478969
0.958355 0.844645 0.478075
1.000000 0.845258 0.477180
1.000000 0.845872 0.476285
0.000000 0.947501 0.481625
0.000000 0.948090 0.480733
0.042303 0.948678 0.479840
0.347496 0.949267 0.478946
0.566313 0.949855 0.478052
0.757521 0.950443 0.477157
0.932566 0.951031 0.476262
1.000000 0.951618 0.475366
1.000000 0.952206 0.474470
0.000000 1.000000 0.479817
0.000000 1.000000 0.478923
0.000000 1.000000 0.478029
0.309766 1.000000 0.477134
0.534983 1.000000 0.476239
0.729402 1.000000 0.475343
0.906518 1.000000 0.474446
1.000000 1.000000 0.473549
1.000000 1.000000 0.472652
0.000000 0.000000 0.610637
0.000000 0.000000 0.609818
0.294382 0.000000 0.608998
0.522407 0.000000 0.608178
0.718170 0.000000 0.607358
0.896140 0.000000 0.606537
1.000000 0.000000 0.605716
1.000000 0.000000 0.604894
1.000000 0.000000 0.604072
0.000000 0.155226 0.608977
0.000000 0.156353 0.608157
0.254109 0.157478 0.607337
0.490115 0.158599 0.606516
0.689491 0.159718 0.605695
0.869708 0.160834 0.604873
1.000000 0.161947 0.604051
1.000000 0.163057 0.603229
1.000000 0.164165 0.602406
0.000000 0.326859 0.607316
0.000000 0.327722 0.606495
0.211381 0.328584 0.605674
0.457038 0.329446 0.604852
0.660375 0.330306 0.604030
0.842984 0.331166 0.603208
1.000000 0.332025 0.602385
1.000000 0.332883 0.601562
1.000000 0.333741 0.600738
0.000000 0.469575 0.605652
0.000000 0.470332 0.604831
0.165255 0.471090 0.604009
0.423074 0.471846 0.603186
0.630790 0.472603 0.602364
0.815951 0.473359 0.601540
0.986960 0.474114 0.600717
1.000000 0.474869 0.599893
1.000000 0.475624 0.599068
0.000000 0.597919 0.603988
0.000000 0.598614 0.603165
0.113836 0.599308 0.602342
0.388097 0.600002 0.601519
0.600696 0.600696 0.600696
0.788592 0.601389 0.599871
0.961448 0.602082 0.599047
1.000000 0.602775 0.598222
1.000000 0.603467 0.597397
0.000000 0.716957 0.602321
0.000000 0.717607 0.601498
0.051478 0.718258 0.600674
0.351945 0.718908 0.599850
0.570048 0.719558 0.599026
0.760887 0.720208 0.598201
0.935690 0.720857 0.597376
1.000000 0.721507 0.596550
1.000000 0.722156 0.595724
0.000000 0.829236 0.600653
0.000000 0.829853 0.599829
0.000000 0.830471 0.599005
0.314401 0.831088 0.598180
0.538796 0.831705 0.597354
0.732813 0.832321 0.596529
0.909674 0.832938 0.595703
1.000000 0.833555 0.594876
1.000000 0.834171 0.594049
0.000000 0.936273 0.598983
0.000000 0.936864 0.598158
0.000000 0.937455 0.597333
0.275163 0.938046 0.596507
0.506876 0.938636 0.595681
0.704347 0.939227 0.594855
0.883387 0.939817 0.594028
1.000000 0.940408 0.593200
1.000000 0.940998 0.592373
0.000000 1.000000 0.597312
0.000000 1.000000 0.596486
0.000000 1.000000 0.595660
0.233789 1.000000 0.594834
0.474215 1.000000 0.594007
0.675461 1.000000 0.593179
0.856816 1.000000 0.592351
1.000000 1.000000 0.591523
1.000000 1.000000 0.590694
0.000000 0.000000 0.719516
0.000000 0.000000 0.718744
0.216690 0.000000 0.717971
0.461072 0.000000 0.717199
0.663911 0.000000 0.716426
0.846223 0.000000 0.715652
1.000000 0.000000 0.714879
1.000000 0.000000 0.714105
1.000000 0.000000 0.713330
0.000000 0.133154 0.717952
0.000000 0.134345 0.717179
0.171046 0.135532 0.716406
0.427221 0.136716 0.715632
0.634384 0.137896 0.714859
0.819228 0.139072 0.714085
0.990020 0.140244 0.713310
1.000000 0.141414 0.712536
1.000000 0.142579 0.711761
0.000000 0.310270 0.716386
0.000000 0.311150 0.715612
0.120432 0.312028 0.714839
0.392374 0.312906 0.714065
0.604353 0.313782 0.713290
0.791910 0.314658 0.712516
0.964537 0.315533 0.711741
1.000000 0.316407 0.710966
1.000000 0.317280 0.710190
0.000000 0.455068 0.714819
0.000000 0.455834 0.714045
0.060095 0.456600 0.713271
0.356374 0.457365 0.712496
0.573775 0.458130 0.711721
0.764247 0.458894 0.710946
0.938810 0.459658 0.710170
1.000000 0.460422 0.709394
1.000000 0.461185 0.708618
0.000000 0.584642 0.713251
0.000000 0.585342 0.712476
0.000000 0.586042 0.711701
0.319012 0.586741 0.710926
0.542599 0.587441 0.710150
0.736219 0.588140 0.709375
0.912826 0.588838 0.708598
1.000000 0.589537 0.707822
1.000000 0.590235 0.707045
0.000000 0.704530 0.711681
0.000000 0.705185 0.710906
0.000000 0.705840 0.710130
0.279998 0.706494 0.709355
0.510764 0.707148 0.708578
0.707802 0.707802 0.707802
0.886572 0.708456 0.707025
1.000000 0.709109 0.706248
1.000000 0.709762 0.705471
0.000000 0.817450 0.710110
0.000000 0.818071 0.709335
0.000000 0.818691 0.708558
0.238912 0.819312 0.707782
0.478197 0.819932 0.707005
0.678968 0.820552 0.706228
0.860036 0.821172 0.705451
1.000000 0.821791 0.704673
1.000000 0.822411 0.703895
0.000000 0.924996 0.708538
0.000000 0.925589 0.707762
0.000000 0.926183 0.706985
0.195089 0.926776 0.706208
0.444810 0.927370 0.705431
0.649685 0.927963 0.704653
0.833202 0.928556 0.703875
1.000000 0.929148 0.703097
1.000000 0.929741 0.702318
0.000000 1.000000 0.706965
0.000000 1.000000 0.706188
0.000000 1.000000 0.705411
0.147347 1.000000 0.704633
0.410495 1.000000 0.703855
0.619920 1.000000 0.703077
0.806053 1.000000 0.702298
0.977721 1.000000 0.701519
1.000000 1.000000 0.700740
0.000000 0.000000 0.822739
0.000000 0.000000 0.822003
0.126900 0.000000 0.821267
0.396634 0.000000 0.820531
0.608003 0.000000 0.819794
0.795222 0.000000 0.819058
0.967623 0.000000 0.818321
1.000000 0.000000 0.817583
1.000000 0.000000 0.816846
0.000000 0.109670 0.821248
0.000000 0.110946 0.820512
0.068286 0.112218 0.819775
0.360783 0.113484 0.819039
0.577494 0.114745 0.818302
0.767602 0.116001 0.817565
0.941926 0.117252 0.816827
1.000000 0.118499 0.816089
1.000000 0.119740 0.815351
0.000000 0.293356 0.819756
0.000000 0.294253 0.819020
0.000000 0.295149 0.818283
0.323599 0.296044 0.817546
0.546393 0.296939 0.816808
0.739620 0.297832 0.816070
0.915973 0.298724 0.815332
1.000000 0.299616 0.814594
1.000000 0.300506 0.813856
0.000000 0.440392 0.818264
0.000000 0.441168 0.817527
0.000000 0.441942 0.816789
0.284803 0.442717 0.816051
0.514640 0.443490 0.815313
0.711251 0.444264 0.814575
0.889753 0.445037 0.813837
1.000000 0.445809 0.813098
1.000000 0.446581 0.812359
0.000000 0.571255 0.816770
0.000000 0.571961 0.816032
0.000000 0.572667 0.815295
0.243995 0.573372 0.814556
0.482166 0.574077 0.813818
0.682468 0.574782 0.813079
0.863252 0.575486 0.812340
1.000000 0.576191 0.811601
1.000000 0.576894 0.810862
0.000000 0.692025 0.815276
0.000000 0.692684 0.814537
0.000000 0.693343 0.813799
0.200551 0.694001 0.813060
0.448883 0.694659 0.812321
0.653242 0.695317 0.811582
0.836454 0.695975 0.810843
1.000000 0.696633 0.810103
1.000000 0.697290 0.809363
0.000000 0.805603 0.813780
0.000000 0.806227 0.813041
0.000000 0.806851 0.812302
0.153376 0.807475 0.811563
0.414687 0.808098 0.810824
0.623537 0.808721 0.810084
0.809344 0.809344 0.809344
0.980792 0.809967 0.808604
1.000000 0.810590 0.807864
0.000000 0.913669 0.812283
0.000000 0.914265 0.811544
0.000000 0.914861 0.810805
0.100124 0.915457 0.810065
0.379442 0.916053 0.809325
0.593313 0.916649 0.808585
0.781903 0.917245 0.807845
0.955222 0.917840 0.807104
1.000000 0.918435 0.806363
0.000000 1.000000 0.810786
0.000000 1.000000 0.810046
0.000000 1.000000 0.809306
0.032217 1.000000 0.808566
0.342974 1.000000 0.807826
0.562524 1.000000 0.807085
0.754110 1.000000 0.806344
0.929402 1.000000 0.805603
1.000000 1.000000 0.804862
0.000000 0.000000 0.921484
0.000000 0.000000 0.920777
0.000000 0.000000 0.920071
0.328162 0.000000 0.919364
0.550177 0.000000 0.918657
0.743014 0.000000 0.917950
0.919117 0.000000 0.917243
1.000000 0.000000 0.916535
1.000000 0.000000 0.915827
0.000000 0.084194 0.920052
0.000000 0.085597 0.919346
0.000000 0.086992 0.918639
0.289579 0.088378 0.917932
0.518506 0.089757 0.917224
0.714693 0.091128 0.916517
0.892930 0.092492 0.915809
1.000000 0.093849 0.915101
1.000000 0.095198 0.914393
0.000000 0.276082 0.918621
0.000000 0.276999 0.917914
0.000000 0.277915 0.917206
0.249041 0.278830 0.916499
0.486123 0.279743 0.915791
0.685962 0.280656 0.915083
0.866463 0.281568 0.914375
1.000000 0.282478 0.913667
1.000000 0.283388 0.912958
0.000000 0.425538 0.917188
0.000000 0.426323 0.916480
0.000000 0.427108 0.915773
0.205960 0.427892 0.915065
0.452943 0.428675 0.914357
0.656791 0.429458 0.913648
0.839703 0.430240 0.912940
1.000000 0.431022 0.912231
1.000000 0.431803 0.911522
0.000000 0.557754 0.915755
0.000000 0.558466 0.915047
0.000000 0.559178 0.914339
0.159321 0.559890 0.913630
0.418863 0.560601 0.912922
0.627146 0.561312 0.912213
0.812631 0.562022 0.911504
0.983860 0.562732 0.910795
1.000000 0.563442 0.910086
0.000000 0.679437 0.914320
0.000000 0.680101 0.913612
0.000000 0.680764 0.912903
0.107019 0.681427 0.912195
0.383753 0.682089 0.911486
0.596987 0.682752 0.910777
0.785231 0.683414 0.910067
0.958318 0.684076 0.909358
1.000000 0.684737 0.908648
0.000000 0.793693 0.912885
0.000000 0.794321 0.912177
0.000000 0.794948 0.911468
0.042192 0.795575 0.910758
0.347444 0.796201 0.910049
0.566269 0.796828 0.909340
0.757482 0.797454 0.908630
0.932530 0.798080 0.907920
1.000000 0.798706 0.907210
0.000000 0.902291 0.911449
0.000000 0.902890 0.910740
0.000000 0.903489 0.910031
0.000000 0.904088 0.909321
0.309711 0.904687 0.908612
0.534938 0.905285 0.907902
0.729362 0.905883 0.907192
0.906481 0.906481 0.906481
1.000000 0.907079 0.905771
0.000000 1.000000 0.910013
0.000000 1.000000 0.909303
0.000000 1.000000 0.908593
0.000000 1.000000 0.907883
0.270240 1.000000 0.907173
0.502932 1.000000 0.906463
0.700846 1.000000 0.905753
0.880161 1.000000 0.905042
1.000000 1.000000 0.904331
0.000000 0.000000 1.000000
0.000000 0.000000 1.000000
0.000000 0.000000 1.000000
0.254051 0.000000 1.000000
0.490069 0.000000 1.000000
0.689450 0.000000 1.000000
0.869671 0.000000 1.000000
1.000000 0.000000 1.000000
1.000000 0.000000 1.000000
0.000000 0.055502 1.000000
0.000000 0.057128 1.000000
0.000000 0.058738 1.000000
0.211318 0.060332 1.000000
0.456990 0.061911 1.000000
0.660334 0.063475 1.000000
0.842946 0.065026 1.000000
1.000000 0.066563 1.000000
1.000000 0.068088 1.000000
0.000000 0.258410 1.000000
0.000000 0.259349 1.000000
0.000000 0.260287 1.000000
0.165186 0.261223 1.000000
0.423025 0.262159 1.000000
0.630747 0.263093 1.000000
0.815913 0.264026 1.000000
0.986924 0.264958 1.000000
1.000000 0.265888 1.000000
0.000000 0.410495 1.000000
0.000000 0.411291 1.000000
0.000000 0.412085 1.000000
0.113757 0.412879 1.000000
0.388047 0.413673 1.000000
0.600653 0.414466 1.000000
0.788553 0.415258 1.000000
0.961412 0.416050 1.000000
1.000000 0.416841 1.000000
0.000000 0.544135 1.000000
0.000000 0.544853 1.000000
0.000000 0.545571 1.000000
0.051373 0.546289 1.000000
0.351893 0.547007 1.000000
0.570005 0.547724 1.000000
0.760847 0.548441 1.000000
0.935653 0.549157 1.000000
1.000000 0.549873 1.000000
0.000000 0.666765 1.000000
0.000000 0.667433 1.000000
0.000000 0.668101 1.000000
0.000000 0.668768 1.000000
0.314347 0.669435 1.000000
0.538751 0.670102 1.000000
0.732773 0.670769 1.000000
0.909637 0.671435 1.000000
1.000000 0.672101 1.000000
0.000000 0.781719 1.000000
0.000000 0.782349 1.000000
0.000000 0.782980 1.000000
0.000000 0.783610 1.000000
0.275106 0.784240 1.000000
0.506831 0.784870 1.000000
0.704307 0.785500 1.000000
0.883350 0.786130 1.000000
1.000000 0.786759 1.000000
0.000000 0.890862 1.000000
0.000000 0.891464 1.000000
0.000000 0.892065 1.000000
0.000000 0.892667 1.000000
0.233728 0.893268 1.000000
0.474169 0.893869 1.000000
0.675419 0.894470 1.000000
0.856778 0.895071 1.000000
1.000000 0.895672 1.000000
0.000000 0.995378 1.000000
0.000000 0.995956 1.000000
0.000000 0.996534 1.000000
0.000000 0.997112 1.000000
0.189506 0.997690 1.000000
0.440675 0.998268 1.000000
0.646080 0.998845 1.000000
0.829906 0.999423 1.000000
1.000000 1.000000 1.000000
