presets/film_stocks/Fuji_Crystal_Archive_DPII.cube
# 独寻胶片模拟 -- Fuji Crystal Archive DPII
# Fujifilm, ISO 0, 2006, negative
TITLE "Fuji Crystal Archive DPII"
LUT_3D_SIZE 5
DOMAIN_MIN 0.0 0.0 0.0
DOMAIN_MAX 1.0 1.0 1.0
0.000000 0.000000 0.000000
0.225330 0.000000 0.004634
0.420743 0.000000 0.008652
0.606258 0.000000 0.012467
0.785625 0.000000 0.016155
0.028648 0.323342 0.000000
0.245801 0.320852 0.000000
0.439901 0.318360 0.003197
0.624676 0.315866 0.007325
0.803533 0.313369 0.011196
0.053493 0.603755 0.000000
0.266086 0.601430 0.000000
0.458967 0.599105 0.000000
0.643035 0.596779 0.001683
0.821396 0.594452 0.005970
0.077079 0.869964 0.000000
0.286201 0.867731 0.000000
0.477946 0.865498 0.000000
0.661336 0.863265 0.000000
0.839218 0.861030 0.000000
0.099884 1.000000 0.000000
0.306163 1.000000 0.000000
0.496843 1.000000 0.000000
0.679582 1.000000 0.000000
0.856998 1.000000 0.000000
0.054232 0.000000 0.287711
0.266705 0.000000 0.290361
0.459551 0.000000 0.293007
0.643597 0.000000 0.295651
0.821944 0.000000 0.298293
0.077789 0.289337 0.284163
0.286816 0.286816 0.286816
0.478527 0.284293 0.289466
0.661897 0.281767 0.292114
0.839764 0.279239 0.294759
0.100574 0.572104 0.280610
0.306773 0.569766 0.283267
0.497422 0.567427 0.285921
0.680140 0.565087 0.288572
0.857542 0.562745 0.291221
0.122799 0.839590 0.277052
0.326588 0.837348 0.279713
0.516238 0.835107 0.282370
0.698331 0.832864 0.285025
0.875281 0.830621 0.287677
0.144587 1.000000 0.273490
0.346272 1.000000 0.276154
0.534978 1.000000 0.278815
0.716469 1.000000 0.281473
0.892979 1.000000 0.284129
0.101263 0.000000 0.537223
0.307383 0.000000 0.539698
0.498000 0.000000 0.542170
0.680699 0.000000 0.544642
0.858087 0.000000 0.547113
0.123473 0.254885 0.533912
0.327194 0.252329 0.536388
0.516814 0.249770 0.538862
0.698888 0.247208 0.541336
0.875824 0.244643 0.543808
0.145250 0.540259 0.530598
0.346874 0.537906 0.533076
0.535552 0.535552 0.535552
0.717024 0.533197 0.538027
0.893522 0.530841 0.540501
0.166672 0.809094 0.527283
0.366431 0.806844 0.529762
0.554219 0.804593 0.532240
0.735111 0.802341 0.534716
0.911181 0.800088 0.537192
0.187794 1.000000 0.523964
0.385874 1.000000 0.526445
0.572816 1.000000 0.528925
0.753148 1.000000 0.531403
0.928802 1.000000 0.533880
0.145912 0.000000 0.774098
0.347475 0.000000 0.776474
0.536126 0.000000 0.778851
0.717580 0.000000 0.781226
0.894064 0.000000 0.783600
0.167324 0.219911 0.770917
0.367029 0.217313 0.773295
0.554790 0.214711 0.775672
0.735665 0.212106 0.778048
0.911722 0.209497 0.780424
0.188438 0.508206 0.767735
0.386469 0.505838 0.770114
0.573386 0.503468 0.772492
0.753701 0.501096 0.774870
0.929342 0.498724 0.777246
0.209294 0.778472 0.764551
0.405802 0.776212 0.766932
0.591915 0.773951 0.769311
0.771689 0.771689 0.771689
0.946926 0.769427 0.774067
0.229923 1.000000 0.761367
0.425034 1.000000 0.763748
0.610381 1.000000 0.766128
0.789632 1.000000 0.768508
0.964473 1.000000 0.770887
0.189081 0.000000 1.000000
0.387064 0.000000 1.000000
0.573955 0.000000 1.000000
0.754253 0.000000 1.000000
0.929882 0.000000 1.000000
0.209930 0.184312 1.000000
0.406394 0.181662 1.000000
0.592483 0.179008 1.000000
0.772241 0.176350 1.000000
0.947464 0.173687 1.000000
0.230553 0.475929 0.996937
0.425623 0.473543 0.999249
0.610947 0.471156 1.000000
0.790182 0.468768 1.000000
0.965011 0.466378 1.000000
0.250975 0.747716 0.993844
0.444757 0.745446 0.996157
0.629350 0.743175 0.998469
0.808078 0.740904 1.000000
0.982523 0.738631 1.000000
0.271215 1.000000 0.990750
0.463800 1.000000 0.993064
0.647693 1.000000 0.995376
0.825931 1.000000 0.997688
1.000000 1.000000 1.000000
