presets/film_stocks/Fuji_Provia_100F.cube
# 独寻胶片模拟 -- Fuji Provia 100F
# Fujifilm, ISO 100, 2000, positive
TITLE "Fuji Provia 100F"
LUT_3D_SIZE 33
DOMAIN_MIN 0.0 0.0 0.0
DOMAIN_MAX 1.0 1.0 1.0
0.000000 0.000000 0.000000
0.047945 0.001387 0.000000
0.090034 0.002605 0.000000
0.130163 0.003767 0.000000
0.169071 0.004893 0.000000
0.207094 0.005993 0.000000
0.244428 0.007073 0.000000
0.281198 0.008138 0.000000
0.317491 0.009188 0.000000
0.353373 0.010226 0.000000
0.388894 0.011254 0.000000
0.424093 0.012273 0.000000
0.459002 0.013283 0.000000
0.493647 0.014286 0.000000
0.528050 0.015281 0.000000
0.562231 0.016270 0.000000
0.596205 0.017254 0.000000
0.629986 0.018231 0.000000
0.663587 0.019203 0.000000
0.697018 0.020171 0.000000
0.730290 0.021134 0.000000
0.763411 0.022092 0.000000
0.796389 0.023047 0.000000
0.829230 0.023997 0.000000
0.861942 0.024944 0.000000
0.894531 0.025887 0.000000
0.927001 0.026826 0.000000
0.959358 0.027763 0.000000
0.991606 0.028696 0.000000
1.000000 0.029626 0.000000
1.000000 0.030553 0.000000
1.000000 0.031478 0.000000
1.000000 0.032400 0.000000
0.000000 0.046388 0.000000
0.046149 0.047275 0.000000
0.088349 0.048161 0.000000
0.128540 0.049044 0.000000
0.167490 0.049927 0.000000
0.205545 0.050807 0.000000
0.242905 0.051687 0.000000
0.279696 0.052564 0.000000
0.316007 0.053441 0.000000
0.351906 0.054315 0.000000
0.387440 0.055189 0.000000
0.422652 0.056061 0.000000
0.457572 0.056932 0.000000
0.492227 0.057801 0.000000
0.526640 0.058669 0.000000
0.560830 0.059536 0.000000
0.594812 0.060401 0.000000
0.628600 0.061265 0.000000
0.662208 0.062128 0.000000
0.695647 0.062990 0.000000
0.728925 0.063851 0.000000
0.762052 0.064710 0.000000
0.795035 0.065569 0.000000
0.827882 0.066426 0.000000
0.860600 0.067282 0.000000
0.893193 0.068137 0.000000
0.925668 0.068991 0.000000
0.958029 0.069844 0.000000
0.990282 0.070696 0.000000
1.000000 0.071547 0.000000
1.000000 0.072397 0.000000
1.000000 0.073245 0.000000
1.000000 0.074093 0.000000
0.000000 0.087110 0.000000
0.044347 0.087944 0.000000
0.086662 0.088776 0.000000
0.126915 0.089608 0.000000
0.165908 0.090439 0.000000
0.203996 0.091269 0.000000
0.241381 0.092099 0.000000
0.278193 0.092928 0.000000
0.314523 0.093756 0.000000
0.350437 0.094583 0.000000
0.385986 0.095409 0.000000
0.421210 0.096235 0.000000
0.456142 0.097060 0.000000
0.490807 0.097885 0.000000
0.525230 0.098709 0.000000
0.559428 0.099532 0.000000
0.593418 0.100354 0.000000
0.627215 0.101176 0.000000
0.660830 0.101997 0.000000
0.694275 0.102817 0.000000
0.727560 0.103637 0.000000
0.760693 0.104456 0.000000
0.793682 0.105275 0.000000
0.826535 0.106092 0.000000
0.859257 0.106910 0.000000
0.891855 0.107726 0.000000
0.924335 0.108542 0.000000
0.956701 0.109357 0.000000
0.988958 0.110172 0.000000
1.000000 0.110986 0.000000
1.000000 0.111800 0.000000
1.000000 0.112613 0.000000
1.000000 0.113425 0.000000
0.000000 0.125937 0.000000
0.042537 0.126740 0.000000
0.084971 0.127543 0.000000
0.125288 0.128345 0.000000
0.164324 0.129147 0.000000
0.202444 0.129948 0.000000
0.239855 0.130749 0.000000
0.276689 0.131549 0.000000
0.313038 0.132349 0.000000
0.348968 0.133149 0.000000
0.384531 0.133948 0.000000
0.419768 0.134746 0.000000
0.454711 0.135544 0.000000
0.489387 0.136341 0.000000
0.523819 0.137138 0.000000
0.558026 0.137935 0.000000
0.592025 0.138731 0.000000
0.625829 0.139527 0.000000
0.659451 0.140322 0.000000
0.692903 0.141117 0.000000
0.726194 0.141911 0.000000
0.759333 0.142705 0.000000
0.792328 0.143498 0.000000
0.825186 0.144291 0.000000
0.857914 0.145084 0.000000
0.890517 0.145876 0.000000
0.923002 0.146667 0.000000
0.955372 0.147458 0.000000
0.987633 0.148249 0.000000
1.000000 0.149040 0.000000
1.000000 0.149830 0.000000
1.000000 0.150619 0.000000
1.000000 0.151408 0.000000
0.000000 0.163581 0.000000
0.040719 0.164364 0.000000
0.083277 0.165146 0.000000
0.123659 0.165928 0.000000
0.162739 0.166709 0.000000
0.200892 0.167491 0.000000
0.238329 0.168271 0.000000
0.275185 0.169052 0.000000
0.311552 0.169832 0.000000
0.347498 0.170612 0.000000
0.383075 0.171391 0.000000
0.418325 0.172170 0.000000
0.453279 0.172949 0.000000
0.487966 0.173727 0.000000
0.522408 0.174505 0.000000
0.556624 0.175283 0.000000
0.590631 0.176060 0.000000
0.624442 0.176837 0.000000
0.658072 0.177614 0.000000
0.691531 0.178390 0.000000
0.724828 0.179166 0.000000
0.757973 0.179941 0.000000
0.790974 0.180717 0.000000
0.823838 0.181491 0.000000
0.856571 0.182266 0.000000
0.889179 0.183040 0.000000
0.921669 0.183814 0.000000
0.954044 0.184588 0.000000
0.986309 0.185361 0.000000
1.000000 0.186134 0.000000
1.000000 0.186907 0.000000
1.000000 0.187679 0.000000
1.000000 0.188451 0.000000
0.000000 0.200370 0.000000
0.038893 0.201137 0.000000
0.081579 0.201904 0.000000
0.122028 0.202670 0.000000
0.161152 0.203436 0.000000
0.199339 0.204202 0.000000
0.236802 0.204968 0.000000
0.273680 0.205733 0.000000
0.310065 0.206498 0.000000
0.346028 0.207262 0.000000
0.381619 0.208027 0.000000
0.416882 0.208791 0.000000
0.451848 0.209555 0.000000
0.486545 0.210318 0.000000
0.520996 0.211082 0.000000
0.555221 0.211845 0.000000
0.589236 0.212607 0.000000
0.623056 0.213370 0.000000
0.656693 0.214132 0.000000
0.690158 0.214894 0.000000
0.723462 0.215656 0.000000
0.756614 0.216417 0.000000
0.789620 0.217178 0.000000
0.822489 0.217939 0.000000
0.855228 0.218699 0.000000
0.887841 0.219460 0.000000
0.920335 0.220220 0.000000
0.952715 0.220980 0.000000
0.984985 0.221739 0.000000
1.000000 0.222498 0.000000
1.000000 0.223257 0.000000
1.000000 0.224016 0.000000
1.000000 0.224775 0.000000
0.000000 0.236492 0.000000
0.037059 0.237246 0.000000
0.079878 0.238000 0.000000
0.120395 0.238754 0.000000
0.159564 0.239508 0.000000
0.197784 0.240261 0.000000
0.235274 0.241014 0.000000
0.272174 0.241767 0.000000
0.308578 0.242520 0.000000
0.344557 0.243273 0.000000
0.380163 0.244025 0.000000
0.415438 0.244777 0.000000
0.450415 0.245529 0.000000
0.485123 0.246280 0.000000
0.519584 0.247032 0.000000
0.553818 0.247783 0.000000
0.587842 0.248534 0.000000
0.621669 0.249284 0.000000
0.655313 0.250035 0.000000
0.688786 0.250785 0.000000
0.722096 0.251535 0.000000
0.755253 0.252285 0.000000
0.788266 0.253034 0.000000
0.821140 0.253784 0.000000
0.853884 0.254533 0.000000
0.886502 0.255282 0.000000
0.919001 0.256030 0.000000
0.951385 0.256779 0.000000
0.983660 0.257527 0.000000
1.000000 0.258275 0.000000
1.000000 0.259023 0.000000
1.000000 0.259770 0.000000
1.000000 0.260518 0.000000
0.000000 0.272067 0.000000
0.035215 0.272811 0.000000
0.078173 0.273555 0.000000
0.118759 0.274298 0.000000
0.157974 0.275042 0.000000
0.196228 0.275785 0.000000
0.233745 0.276528 0.000000
0.270667 0.277270 0.000000
0.307090 0.278013 0.000000
0.343085 0.278755 0.000000
0.378705 0.279497 0.000000
0.413993 0.280239 0.000000
0.448983 0.280981 0.000000
0.483701 0.281723 0.000000
0.518172 0.282464 0.000000
0.552415 0.283205 0.000000
0.586447 0.283946 0.000000
0.620282 0.284687 0.000000
0.653933 0.285427 0.000000
0.687413 0.286168 0.000000
0.720729 0.286908 0.000000
0.753893 0.287648 0.000000
0.786911 0.288388 0.000000
0.819791 0.289127 0.000000
0.852540 0.289867 0.000000
0.885164 0.290606 0.000000
0.917667 0.291345 0.000000
0.950056 0.292084 0.000000
0.982335 0.292822 0.000000
1.000000 0.293561 0.000000
1.000000 0.294299 0.000000
1.000000 0.295037 0.000000
1.000000 0.295775 0.000000
0.000000 0.307182 0.000000
0.033362 0.307917 0.000000
0.076465 0.308652 0.000000
0.117121 0.309387 0.000000
0.156383 0.310121 0.000000
0.194671 0.310855 0.000000
0.232215 0.311589 0.000000
0.269159 0.312323 0.000000
0.305601 0.313057 0.000000
0.341613 0.313791 0.000000
0.377248 0.314524 0.000000
0.412549 0.315257 0.000000
0.447550 0.315990 0.000000
0.482279 0.316723 0.000000
0.516759 0.317456 0.000000
0.551011 0.318188 0.000000
0.585051 0.318921 0.000000
0.618894 0.319653 0.000000
0.652553 0.320385 0.000000
0.686039 0.321117 0.000000
0.719363 0.321849 0.000000
0.752532 0.322580 0.000000
0.785556 0.323312 0.000000
0.818442 0.324043 0.000000
0.851196 0.324774 0.000000
0.883825 0.325505 0.000000
0.916333 0.326235 0.000000
0.948727 0.326966 0.000000
0.981010 0.327696 0.000000
1.000000 0.328427 0.000000
1.000000 0.329157 0.000000
1.000000 0.329887 0.000000
1.000000 0.330616 0.000000
0.000000 0.341900 0.000000
0.031499 0.342627 0.000000
0.074753 0.343354 0.000000
0.115481 0.344081 0.000000
0.154789 0.344807 0.000000
0.193112 0.345534 0.000000
0.230684 0.346260 0.000000
0.267651 0.346986 0.000000
0.304112 0.347712 0.000000
0.340140 0.348438 0.000000
0.375789 0.349164 0.000000
0.411103 0.349890 0.000000
0.446116 0.350615 0.000000
0.480856 0.351340 0.000000
0.515346 0.352066 0.000000
0.549607 0.352791 0.000000
0.583656 0.353515 0.000000
0.617507 0.354240 0.000000
0.651173 0.354965 0.000000
0.684666 0.355689 0.000000
0.717996 0.356413 0.000000
0.751171 0.357138 0.000000
0.784201 0.357862 0.000000
0.817093 0.358585 0.000000
0.849852 0.359309 0.000000
0.882485 0.360033 0.000000
0.914999 0.360756 0.000000
0.947397 0.361479 0.000000
0.979685 0.362202 0.000000
1.000000 0.362925 0.000000
1.000000 0.363648 0.000000
1.000000 0.364371 0.000000
1.000000 0.365093 0.000000
0.000000 0.376267 0.000000
0.029624 0.376987 0.000000
0.073036 0.377707 0.000000
0.113839 0.378427 0.000000
0.153195 0.379147 0.000000
0.191553 0.379867 0.000000
0.229152 0.380586 0.000000
0.266141 0.381306 0.000000
0.302622 0.382025 0.000000
0.338666 0.382744 0.000000
0.374330 0.383463 0.000000
0.409657 0.384182 0.000000
0.444682 0.384901 0.000000
0.479433 0.385619 0.000000
0.513933 0.386338 0.000000
0.548203 0.387056 0.000000
0.582260 0.387774 0.000000
0.616118 0.388492 0.000000
0.649792 0.389210 0.000000
0.683292 0.389928 0.000000
0.716628 0.390646 0.000000
0.749810 0.391363 0.000000
0.782846 0.392081 0.000000
0.815743 0.392798 0.000000
0.848507 0.393515 0.000000
0.881146 0.394232 0.000000
0.913664 0.394949 0.000000
0.946067 0.395665 0.000000
0.978359 0.396382 0.000000
1.000000 0.397099 0.000000
1.000000 0.397815 0.000000
1.000000 0.398531 0.000000
1.000000 0.399247 0.000000
0.000000 0.410323 0.000000
0.027737 0.411037 0.000000
0.071316 0.411751 0.000000
0.112194 0.412465 0.000000
0.151598 0.413178 0.000000
0.189992 0.413892 0.000000
0.227619 0.414605 0.000000
0.264631 0.415319 0.000000
0.301131 0.416032 0.000000
0.337192 0.416745 0.000000
0.372871 0.417458 0.000000
0.408211 0.418170 0.000000
0.443247 0.418883 0.000000
0.478009 0.419596 0.000000
0.512519 0.420308 0.000000
0.546798 0.421020 0.000000
0.580863 0.421732 0.000000
0.614730 0.422445 0.000000
0.648411 0.423156 0.000000
0.681918 0.423868 0.000000
0.715261 0.424580 0.000000
0.748449 0.425292 0.000000
0.781490 0.426003 0.000000
0.814393 0.426714 0.000000
0.847163 0.427426 0.000000
0.879807 0.428137 0.000000
0.912329 0.428848 0.000000
0.944737 0.429558 0.000000
0.977033 0.430269 0.000000
1.000000 0.430980 0.000000
1.000000 0.431690 0.000000
1.000000 0.432401 0.000000
1.000000 0.433111 0.000000
0.000000 0.444098 0.000000
0.025838 0.444807 0.000000
0.069592 0.445515 0.000000
0.110547 0.446223 0.000000
0.150000 0.446931 0.000000
0.188429 0.447639 0.000000
0.226085 0.448347 0.000000
0.263120 0.449055 0.000000
0.299639 0.449762 0.000000
0.335717 0.450470 0.000000
0.371411 0.451177 0.000000
0.406764 0.451884 0.000000
0.441812 0.452592 0.000000
0.476585 0.453299 0.000000
0.511105 0.454006 0.000000
0.545393 0.454712 0.000000
0.579467 0.455419 0.000000
0.613341 0.456126 0.000000
0.647030 0.456832 0.000000
0.680543 0.457539 0.000000
0.713893 0.458245 0.000000
0.747087 0.458951 0.000000
0.780135 0.459657 0.000000
0.813043 0.460363 0.000000
0.845818 0.461069 0.000000
0.878467 0.461775 0.000000
0.910995 0.462480 0.000000
0.943407 0.463186 0.000000
0.975708 0.463891 0.000000
1.000000 0.464597 0.000000
1.000000 0.465302 0.000000
1.000000 0.466007 0.000000
1.000000 0.466712 0.000000
0.000000 0.477618 0.000000
0.023924 0.478322 0.000000
0.067863 0.479025 0.000000
0.108897 0.479728 0.000000
0.148400 0.480431 0.000000
0.186866 0.481134 0.000000
0.224549 0.481836 0.000000
0.261608 0.482539 0.000000
0.298146 0.483242 0.000000
0.334242 0.483944 0.000000
0.369950 0.484646 0.000000
0.405317 0.485349 0.000000
0.440377 0.486051 0.000000
0.475160 0.486753 0.000000
0.509690 0.487455 0.000000
0.543987 0.488157 0.000000
0.578070 0.488858 0.000000
0.611952 0.489560 0.000000
0.645648 0.490261 0.000000
0.679169 0.490963 0.000000
0.712525 0.491664 0.000000
0.745725 0.492365 0.000000
0.778779 0.493066 0.000000
0.811692 0.493767 0.000000
0.844473 0.494468 0.000000
0.877127 0.495169 0.000000
0.909659 0.495870 0.000000
0.942076 0.496571 0.000000
0.974382 0.497271 0.000000
1.000000 0.497972 0.000000
1.000000 0.498672 0.000000
1.000000 0.499372 0.000000
1.000000 0.500072 0.000000
0.000000 0.510905 0.000000
0.021995 0.511603 0.000000
0.066130 0.512302 0.000000
0.107245 0.513000 0.000000
0.146799 0.513698 0.000000
0.185301 0.514396 0.000000
0.223013 0.515095 0.000000
0.260095 0.515792 0.000000
0.296653 0.516490 0.000000
0.332765 0.517188 0.000000
0.368489 0.517886 0.000000
0.403869 0.518583 0.000000
0.438941 0.519281 0.000000
0.473735 0.519978 0.000000
0.508275 0.520676 0.000000
0.542582 0.521373 0.000000
0.576672 0.522070 0.000000
0.610563 0.522767 0.000000
0.644266 0.523464 0.000000
0.677794 0.524161 0.000000
0.711156 0.524858 0.000000
0.744363 0.525554 0.000000
0.777422 0.526251 0.000000
0.810342 0.526947 0.000000
0.843128 0.527644 0.000000
0.875787 0.528340 0.000000
0.908324 0.529036 0.000000
0.940746 0.529732 0.000000
0.973056 0.530428 0.000000
1.000000 0.531124 0.000000
1.000000 0.531820 0.000000
1.000000 0.532516 0.000000
1.000000 0.533211 0.000000
0.000000 0.543975 0.000000
0.020049 0.544670 0.000000
0.064392 0.545364 0.000000
0.105590 0.546058 0.000000
0.145196 0.546752 0.000000
0.183735 0.547445 0.000000
0.221476 0.548139 0.000000
0.258581 0.548833 0.000000
0.295159 0.549526 0.000000
0.331289 0.550220 0.000000
0.367027 0.550913 0.000000
0.402420 0.551606 0.000000
0.437505 0.552300 0.000000
0.472310 0.552993 0.000000
0.506860 0.553686 0.000000
0.541175 0.554379 0.000000
0.575275 0.555072 0.000000
0.609173 0.555764 0.000000
0.642884 0.556457 0.000000
0.676419 0.557150 0.000000
0.709788 0.557842 0.000000
0.743001 0.558535 0.000000
0.776066 0.559227 0.000000
0.808991 0.559919 0.000000
0.841782 0.560611 0.000000
0.874446 0.561303 0.000000
0.906989 0.561995 0.000000
0.939415 0.562687 0.000000
0.971729 0.563379 0.000000
1.000000 0.564071 0.000000
1.000000 0.564763 0.000000
1.000000 0.565454 0.000000
1.000000 0.566146 0.000000
0.000000 0.576846 0.000000
0.018083 0.577536 0.000000
0.062650 0.578226 0.000000
0.103932 0.578916 0.000000
0.143591 0.579606 0.000000
0.182167 0.580296 0.000000
0.219938 0.580985 0.000000
0.257067 0.581675 0.000000
0.293665 0.582365 0.000000
0.329811 0.583054 0.000000
0.365565 0.583743 0.000000
0.400972 0.584433 0.000000
0.436068 0.585122 0.000000
0.470884 0.585811 0.000000
0.505444 0.586500 0.000000
0.539769 0.587189 0.000000
0.573877 0.587878 0.000000
0.607783 0.588567 0.000000
0.641501 0.589256 0.000000
0.675043 0.589944 0.000000
0.708419 0.590633 0.000000
0.741638 0.591321 0.000000
0.774709 0.592010 0.000000
0.807640 0.592698 0.000000
0.840436 0.593386 0.000000
0.873106 0.594074 0.000000
0.905653 0.594762 0.000000
0.938084 0.595450 0.000000
0.970403 0.596138 0.000000
1.000000 0.596826 0.000000
1.000000 0.597514 0.000000
1.000000 0.598202 0.000000
1.000000 0.598889 0.000000
0.000000 0.609530 0.000000
0.016096 0.610217 0.000000
0.060902 0.610903 0.000000
0.102272 0.611589 0.000000
0.141984 0.612275 0.000000
0.180599 0.612961 0.000000
0.218398 0.613647 0.000000
0.255551 0.614333 0.000000
0.292169 0.615019 0.000000
0.328333 0.615704 0.000000
0.364102 0.616390 0.000000
0.399522 0.617076 0.000000
0.434631 0.617761 0.000000
0.469457 0.618446 0.000000
0.504027 0.619132 0.000000
0.538362 0.619817 0.000000
0.572478 0.620502 0.000000
0.606393 0.621187 0.000000
0.640118 0.621872 0.000000
0.673667 0.622557 0.000000
0.707050 0.623242 0.000000
0.740275 0.623927 0.000000
0.773352 0.624612 0.000000
0.806288 0.625296 0.000000
0.839090 0.625981 0.000000
0.871765 0.626665 0.000000
0.904317 0.627350 0.000000
0.936752 0.628034 0.000000
0.969076 0.628718 0.000000
1.000000 0.629403 0.000000
1.000000 0.630087 0.000000
1.000000 0.630771 0.000000
1.000000 0.631455 0.000000
0.000000 0.642040 0.000000
0.014085 0.642723 0.000000
0.059150 0.643406 0.000000
0.100610 0.644088 0.000000
0.140375 0.644771 0.000000
0.179028 0.645453 0.000000
0.216858 0.646136 0.000000
0.254035 0.646818 0.000000
0.290673 0.647500 0.000000
0.326854 0.648182 0.000000
0.362638 0.648865 0.000000
0.398072 0.649547 0.000000
0.433193 0.650229 0.000000
0.468031 0.650910 0.000000
0.502611 0.651592 0.000000
0.536955 0.652274 0.000000
0.571080 0.652956 0.000000
0.605002 0.653637 0.000000
0.638735 0.654319 0.000000
0.672291 0.655000 0.000000
0.705680 0.655682 0.000000
0.738912 0.656363 0.000000
0.771995 0.657044 0.000000
0.804937 0.657726 0.000000
0.837744 0.658407 0.000000
0.870424 0.659088 0.000000
0.902981 0.659769 0.000000
0.935421 0.660450 0.000000
0.967749 0.661131 0.000000
0.999969 0.661811 0.000000
1.000000 0.662492 0.000000
1.000000 0.663173 0.000000
1.000000 0.663853 0.000000
0.000000 0.674386 0.000000
0.012043 0.675066 0.000000
0.057393 0.675745 0.000000
0.098944 0.676424 0.000000
0.138765 0.677103 0.000000
0.177457 0.677783 0.000000
0.215316 0.678462 0.000000
0.252517 0.679141 0.000000
0.289176 0.679820 0.000000
0.325375 0.680498 0.000000
0.361174 0.681177 0.000000
0.396622 0.681856 0.000000
0.431754 0.682535 0.000000
0.466603 0.683213 0.000000
0.501194 0.683892 0.000000
0.535547 0.684570 0.000000
0.569681 0.685249 0.000000
0.603611 0.685927 0.000000
0.637352 0.686605 0.000000
0.670915 0.687284 0.000000
0.704311 0.687962 0.000000
0.737549 0.688640 0.000000
0.770638 0.689318 0.000000
0.803585 0.689996 0.000000
0.836398 0.690674 0.000000
0.869082 0.691351 0.000000
0.901645 0.692029 0.000000
0.934089 0.692707 0.000000
0.966422 0.693384 0.000000
0.998647 0.694062 0.000000
1.000000 0.694739 0.000000
1.000000 0.695417 0.000000
1.000000 0.696094 0.000000
0.000000 0.706578 0.000000
0.009967 0.707254 0.000000
0.055630 0.707930 0.000000
0.097276 0.708606 0.000000
0.137152 0.709282 0.000000
0.175884 0.709958 0.000000
0.213773 0.710634 0.000000
0.250999 0.711310 0.000000
0.287678 0.711986 0.000000
0.323895 0.712662 0.000000
0.359709 0.713337 0.000000
0.395170 0.714013 0.000000
0.430316 0.714689 0.000000
0.465176 0.715364 0.000000
0.499776 0.716039 0.000000
0.534139 0.716715 0.000000
0.568281 0.717390 0.000000
0.602220 0.718065 0.000000
0.635968 0.718741 0.000000
0.669538 0.719416 0.000000
0.702941 0.720091 0.000000
0.736185 0.720766 0.000000
0.769280 0.721441 0.000000
0.802233 0.722115 0.000000
0.835051 0.722790 0.000000
0.867741 0.723465 0.000000
0.900308 0.724140 0.000000
0.932758 0.724814 0.000000
0.965095 0.725489 0.000000
0.997324 0.726163 0.000000
1.000000 0.726838 0.000000
1.000000 0.727512 0.000000
1.000000 0.728186 0.000000
0.000000 0.738623 0.000000
0.007846 0.739296 0.000000
0.053861 0.739970 0.000000
0.095605 0.740643 0.000000
0.135538 0.741316 0.000000
0.174309 0.741989 0.000000
0.212229 0.742662 0.000000
0.249480 0.743335 0.000000
0.286180 0.744008 0.000000
0.322414 0.744680 0.000000
0.358244 0.745353 0.000000
0.393719 0.746026 0.000000
0.428876 0.746698 0.000000
0.463748 0.747371 0.000000
0.498359 0.748043 0.000000
0.532730 0.748716 0.000000
0.566882 0.749388 0.000000
0.600828 0.750060 0.000000
0.634584 0.750733 0.000000
0.668161 0.751405 0.000000
0.701570 0.752077 0.000000
0.734821 0.752749 0.000000
0.767922 0.753421 0.000000
0.800881 0.754093 0.000000
0.833705 0.754765 0.000000
0.866399 0.755437 0.000000
0.898971 0.756108 0.000000
0.931426 0.756780 0.000000
0.963767 0.757452 0.000000
0.996001 0.758123 0.000000
1.000000 0.758795 0.000000
1.000000 0.759466 0.000000
1.000000 0.760138 0.000000
0.000000 0.770530 0.000000
0.005665 0.771201 0.000000
0.052087 0.771871 0.000000
0.093931 0.772541 0.000000
0.133922 0.773211 0.000000
0.172734 0.773882 0.000000
0.210684 0.774552 0.000000
0.247960 0.775222 0.000000
0.284681 0.775892 0.000000
0.320932 0.776562 0.000000
0.356778 0.777232 0.000000
0.392267 0.777902 0.000000
0.427437 0.778571 0.000000
0.462319 0.779241 0.000000
0.496940 0.779911 0.000000
0.531322 0.780580 0.000000
0.565482 0.781250 0.000000
0.599436 0.781920 0.000000
0.633200 0.782589 0.000000
0.666784 0.783258 0.000000
0.700200 0.783928 0.000000
0.733457 0.784597 0.000000
0.766564 0.785266 0.000000
0.799528 0.785935 0.000000
0.832357 0.786604 0.000000
0.865058 0.787274 0.000000
0.897634 0.787943 0.000000
0.930094 0.788611 0.000000
0.962440 0.789280 0.000000
0.994677 0.789949 0.000000
1.000000 0.790618 0.000000
1.000000 0.791287 0.000000
1.000000 0.791955 0.000000
0.000000 0.802305 0.000000
0.003394 0.802973 0.000000
0.050306 0.803641 0.000000
0.092254 0.804308 0.000000
0.132304 0.804976 0.000000
0.171156 0.805644 0.000000
0.209138 0.806311 0.000000
0.246439 0.806978 0.000000
0.283180 0.807646 0.000000
0.319450 0.808313 0.000000
0.355312 0.808980 0.000000
0.390814 0.809647 0.000000
0.425996 0.810315 0.000000
0.460890 0.810982 0.000000
0.495522 0.811649 0.000000
0.529912 0.812316 0.000000
0.564081 0.812982 0.000000
0.598044 0.813649 0.000000
0.631815 0.814316 0.000000
0.665407 0.814983 0.000000
0.698829 0.815650 0.000000
0.732093 0.816316 0.000000
0.765206 0.816983 0.000000
0.798176 0.817649 0.000000
0.831010 0.818316 0.000000
0.863716 0.818982 0.000000
0.896297 0.819649 0.000000
0.928761 0.820315 0.000000
0.961112 0.820981 0.000000
0.993354 0.821647 0.000000
1.000000 0.822313 0.000000
1.000000 0.822979 0.000000
1.000000 0.823646 0.000000
0.000000 0.833955 0.000000
0.000938 0.834621 0.000000
0.048520 0.835286 0.000000
0.090574 0.835951 0.000000
0.130683 0.836616 0.000000
0.169578 0.837281 0.000000
0.207591 0.837946 0.000000
0.244917 0.838610 0.000000
0.281680 0.839275 0.000000
0.317967 0.839940 0.000000
0.353845 0.840605 0.000000
0.389361 0.841269 0.000000
0.424556 0.841934 0.000000
0.459461 0.842598 0.000000
0.494103 0.843263 0.000000
0.528503 0.843927 0.000000
0.562680 0.844592 0.000000
0.596652 0.845256 0.000000
0.630430 0.845920 0.000000
0.664029 0.846584 0.000000
0.697458 0.847248 0.000000
0.730728 0.847913 0.000000
0.763847 0.848577 0.000000
0.796823 0.849241 0.000000
0.829663 0.849905 0.000000
0.862373 0.850568 0.000000
0.894960 0.851232 0.000000
0.927429 0.851896 0.000000
0.959784 0.852560 0.000000
0.992030 0.853223 0.000000
1.000000 0.853887 0.000000
1.000000 0.854551 0.000000
1.000000 0.855214 0.000000
0.000000 0.865486 0.000000
0.000000 0.866148 0.000000
0.046726 0.866811 0.000000
0.088890 0.867474 0.000000
0.129061 0.868136 0.000000
0.167997 0.868799 0.000000
0.206043 0.869461 0.000000
0.243394 0.870123 0.000000
0.280178 0.870786 0.000000
0.316484 0.871448 0.000000
0.352377 0.872110 0.000000
0.387907 0.872773 0.000000
0.423115 0.873435 0.000000
0.458031 0.874097 0.000000
0.492683 0.874759 0.000000
0.527093 0.875421 0.000000
0.561279 0.876083 0.000000
0.595259 0.876745 0.000000
0.629045 0.877406 0.000000
0.662651 0.878068 0.000000
0.696087 0.878730 0.000000
0.729363 0.879392 0.000000
0.762488 0.880053 0.000000
0.795470 0.880715 0.000000
0.828315 0.881376 0.000000
0.861031 0.882038 0.000000
0.893623 0.882699 0.000000
0.926096 0.883361 0.000000
0.958456 0.884022 0.000000
0.990707 0.884683 0.000000
1.000000 0.885345 0.000000
1.000000 0.886006 0.000000
1.000000 0.886667 0.000000
0.000000 0.896902 0.000000
0.000000 0.897562 0.000000
0.044926 0.898222 0.000000
0.087204 0.898882 0.000000
0.127437 0.899543 0.000000
0.166416 0.900203 0.000000
0.204493 0.900863 0.000000
0.241870 0.901523 0.000000
0.278675 0.902183 0.000000
0.314999 0.902843 0.000000
0.350908 0.903503 0.000000
0.386453 0.904162 0.000000
0.421673 0.904822 0.000000
0.456601 0.905482 0.000000
0.491263 0.906142 0.000000
0.525683 0.906801 0.000000
0.559878 0.907461 0.000000
0.593865 0.908121 0.000000
0.627659 0.908780 0.000000
0.661272 0.909440 0.000000
0.694715 0.910099 0.000000
0.727998 0.910758 0.000000
0.761129 0.911418 0.000000
0.794116 0.912077 0.000000
0.826967 0.912736 0.000000
