presets/film_stocks/Fuji_FP-100C.cube
# 独寻胶片模拟 -- Fuji FP-100C
# Fujifilm, ISO 128, 2002, positive
TITLE "Fuji FP-100C"
LUT_3D_SIZE 5
DOMAIN_MIN 0.0 0.0 0.0
DOMAIN_MAX 1.0 1.0 1.0
0.000000 0.000000 0.000000
0.373083 0.020647 0.000000
0.635869 0.035190 0.000000
0.868605 0.048071 0.000000
1.000000 0.059977 0.000000
0.000000 0.365605 0.000000
0.362619 0.372293 0.000000
0.626970 0.378945 0.000000
0.860507 0.385562 0.000000
1.000000 0.392146 0.000000
0.000000 0.623123 0.000000
0.352063 0.628830 0.000000
0.618034 0.634522 0.000000
0.852386 0.640198 0.000000
1.000000 0.645859 0.000000
0.000000 0.851194 0.000000
0.341411 0.856394 0.000000
0.609058 0.861584 0.000000
0.844242 0.866765 0.000000
1.000000 0.871936 0.000000
0.000000 1.000000 0.000000
0.330659 1.000000 0.000000
0.600043 1.000000 0.000000
0.836074 1.000000 0.000000
1.000000 1.000000 0.000000
0.000000 0.000000 0.357944
0.354878 0.000000 0.348706
0.620413 0.000000 0.339394
0.854547 0.000000 0.330004
1.000000 0.000000 0.320534
0.000000 0.337403 0.353526
0.344252 0.344252 0.344252
0.611448 0.351061 0.334904
0.846409 0.357829 0.325476
1.000000 0.364560 0.315966
0.000000 0.599235 0.349090
0.333527 0.605009 0.339781
0.602443 0.610766 0.330395
0.838247 0.616507 0.320928
1.000000 0.622233 0.311377
0.000000 0.829482 0.344638
0.322698 0.834722 0.335293
0.593398 0.839952 0.325868
0.830062 0.845173 0.316361
1.000000 0.850383 0.306768
0.000000 1.000000 0.340169
0.311758 1.000000 0.330786
0.584311 1.000000 0.321322
0.821852 1.000000 0.311775
1.000000 1.000000 0.302138
0.000000 0.000000 0.610066
0.336388 0.000000 0.602209
0.604840 0.000000 0.594321
0.840419 0.000000 0.586401
1.000000 0.000000 0.578450
0.000000 0.308475 0.606304
0.325587 0.315508 0.598432
0.595806 0.322494 0.590529
0.832240 0.329435 0.582594
1.000000 0.336333 0.574627
0.000000 0.575057 0.602535
0.314677 0.580903 0.594648
0.586730 0.586730 0.586730
0.824037 0.592541 0.578780
1.000000 0.598334 0.570797
0.000000 0.807599 0.598759
0.303652 0.812881 0.590857
0.577612 0.818152 0.582924
0.815809 0.823414 0.574958
1.000000 0.828665 0.566959
0.000000 1.000000 0.594976
0.292506 1.000000 0.587059
0.568451 1.000000 0.579110
0.807556 1.000000 0.571128
1.000000 1.000000 0.563113
0.000000 0.000000 0.833358
0.317588 0.000000 0.826207
0.589147 0.000000 0.819038
0.826220 0.000000 0.811850
1.000000 0.000000 0.804643
0.000000 0.278707 0.829933
0.306594 0.285954 0.822774
0.580040 0.293147 0.815595
0.817999 0.300286 0.808398
1.000000 0.307375 0.801182
0.000000 0.550571 0.826504
0.295481 0.556492 0.819336
0.570890 0.562395 0.812148
0.809752 0.568279 0.804942
1.000000 0.574145 0.797716
0.000000 0.785536 0.823071
0.284241 0.790862 0.815893
0.561696 0.796177 0.808697
0.801481 0.801481 0.801481
1.000000 0.806775 0.794246
0.000000 1.000000 0.819633
0.272866 1.000000 0.812447
0.552457 1.000000 0.805241
0.793184 1.000000 0.798016
1.000000 1.000000 0.790771
0.000000 0.000000 1.000000
0.298447 0.000000 1.000000
0.573327 0.000000 1.000000
0.811947 0.000000 1.000000
1.000000 0.000000 1.000000
0.000000 0.247951 1.000000
0.287242 0.255452 1.000000
0.564145 0.262888 1.000000
0.803682 0.270260 1.000000
1.000000 0.277573 1.000000
0.000000 0.525753 1.000000
0.275904 0.531756 1.000000
0.554917 0.537740 1.000000
0.795392 0.543703 1.000000
1.000000 0.549647 1.000000
0.000000 0.763285 1.000000
0.264424 0.768657 1.000000
0.545644 0.774017 1.000000
0.787076 0.779367 1.000000
1.000000 0.784705 1.000000
0.000000 0.980105 1.000000
0.252792 0.985090 1.000000
0.536323 0.990068 1.000000
0.778733 0.995037 1.000000
1.000000 1.000000 1.000000
