presets/film_stocks/Fuji_Pro_400H.cube
# 独寻胶片模拟 -- Fuji Pro 400H
# Fujifilm, ISO 400, 2004, negative
TITLE "Fuji Pro 400H"
LUT_3D_SIZE 33
DOMAIN_MIN 0.0 0.0 0.0
DOMAIN_MAX 1.0 1.0 1.0
0.000000 0.000000 0.000000
0.047908 0.000957 0.000000
0.090487 0.001807 0.000000
0.131261 0.002622 0.000000
0.170906 0.003413 0.000000
0.209733 0.004189 0.000000
0.247919 0.004951 0.000000
0.285581 0.005704 0.000000
0.322799 0.006447 0.000000
0.359635 0.007183 0.000000
0.396133 0.007912 0.000000
0.432330 0.008635 0.000000
0.468257 0.009352 0.000000
0.503937 0.010065 0.000000
0.539390 0.010773 0.000000
0.574635 0.011477 0.000000
0.609687 0.012177 0.000000
0.644558 0.012873 0.000000
0.679260 0.013566 0.000000
0.713802 0.014256 0.000000
0.748195 0.014943 0.000000
0.782447 0.015627 0.000000
0.816564 0.016309 0.000000
0.850553 0.016987 0.000000
0.884420 0.017664 0.000000
0.918171 0.018338 0.000000
0.951810 0.019010 0.000000
0.985343 0.019679 0.000000
1.000000 0.020347 0.000000
1.000000 0.021013 0.000000
1.000000 0.021677 0.000000
1.000000 0.022339 0.000000
1.000000 0.022999 0.000000
0.000000 0.044504 0.000000
0.045402 0.045125 0.000000
0.088122 0.045745 0.000000
0.128975 0.046364 0.000000
0.168675 0.046983 0.000000
0.207542 0.047601 0.000000
0.245761 0.048218 0.000000
0.283451 0.048835 0.000000
0.320693 0.049451 0.000000
0.357548 0.050066 0.000000
0.394065 0.050680 0.000000
0.430278 0.051294 0.000000
0.466220 0.051907 0.000000
0.501913 0.052520 0.000000
0.537379 0.053131 0.000000
0.572636 0.053743 0.000000
0.607698 0.054353 0.000000
0.642578 0.054963 0.000000
0.677290 0.055572 0.000000
0.711841 0.056181 0.000000
0.746243 0.056789 0.000000
0.780502 0.057397 0.000000
0.814626 0.058004 0.000000
0.848622 0.058610 0.000000
0.882496 0.059216 0.000000
0.916253 0.059821 0.000000
0.949899 0.060426 0.000000
0.983438 0.061030 0.000000
1.000000 0.061634 0.000000
1.000000 0.062237 0.000000
1.000000 0.062840 0.000000
1.000000 0.063442 0.000000
1.000000 0.064043 0.000000
0.000000 0.084056 0.000000
0.042882 0.084643 0.000000
0.085752 0.085229 0.000000
0.126686 0.085815 0.000000
0.166441 0.086401 0.000000
0.205350 0.086986 0.000000
0.243602 0.087571 0.000000
0.281319 0.088155 0.000000
0.318585 0.088739 0.000000
0.355461 0.089323 0.000000
0.391996 0.089906 0.000000
0.428226 0.090489 0.000000
0.464182 0.091072 0.000000
0.499889 0.091655 0.000000
0.535367 0.092237 0.000000
0.570635 0.092818 0.000000
0.605708 0.093400 0.000000
0.640599 0.093981 0.000000
0.675319 0.094562 0.000000
0.709880 0.095142 0.000000
0.744289 0.095722 0.000000
0.778556 0.096302 0.000000
0.812688 0.096881 0.000000
0.846691 0.097461 0.000000
0.880572 0.098039 0.000000
0.914336 0.098618 0.000000
0.947988 0.099196 0.000000
0.981532 0.099774 0.000000
1.000000 0.100352 0.000000
1.000000 0.100929 0.000000
1.000000 0.101506 0.000000
1.000000 0.102083 0.000000
1.000000 0.102659 0.000000
0.000000 0.121933 0.000000
0.040350 0.122501 0.000000
0.083376 0.123068 0.000000
0.124393 0.123635 0.000000
0.164204 0.124201 0.000000
0.203155 0.124768 0.000000
0.241441 0.125334 0.000000
0.279186 0.125900 0.000000
0.316475 0.126466 0.000000
0.353373 0.127031 0.000000
0.389925 0.127596 0.000000
0.426172 0.128161 0.000000
0.462143 0.128726 0.000000
0.497863 0.129291 0.000000
0.533354 0.129855 0.000000
0.568634 0.130419 0.000000
0.603717 0.130983 0.000000
0.638618 0.131547 0.000000
0.673348 0.132110 0.000000
0.707918 0.132674 0.000000
0.742336 0.133237 0.000000
0.776611 0.133800 0.000000
0.810750 0.134362 0.000000
0.844760 0.134925 0.000000
0.878648 0.135487 0.000000
0.912418 0.136049 0.000000
0.946076 0.136611 0.000000
0.979627 0.137172 0.000000
1.000000 0.137734 0.000000
1.000000 0.138295 0.000000
1.000000 0.138856 0.000000
1.000000 0.139416 0.000000
1.000000 0.139977 0.000000
0.000000 0.158762 0.000000
0.037803 0.159316 0.000000
0.080994 0.159870 0.000000
0.122097 0.160423 0.000000
0.161964 0.160977 0.000000
0.200958 0.161530 0.000000
0.239278 0.162083 0.000000
0.277051 0.162636 0.000000
0.314365 0.163189 0.000000
0.351283 0.163742 0.000000
0.387854 0.164294 0.000000
0.424118 0.164847 0.000000
0.460103 0.165399 0.000000
0.495837 0.165951 0.000000
0.531341 0.166503 0.000000
0.566632 0.167055 0.000000
0.601726 0.167606 0.000000
0.636637 0.168157 0.000000
0.671377 0.168709 0.000000
0.705955 0.169260 0.000000
0.740381 0.169811 0.000000
0.774664 0.170361 0.000000
0.808811 0.170912 0.000000
0.842829 0.171462 0.000000
0.876723 0.172012 0.000000
0.910500 0.172562 0.000000
0.944164 0.173112 0.000000
0.977721 0.173662 0.000000
1.000000 0.174212 0.000000
1.000000 0.174761 0.000000
1.000000 0.175310 0.000000
1.000000 0.175860 0.000000
1.000000 0.176409 0.000000
0.000000 0.194829 0.000000
0.035241 0.195373 0.000000
0.078606 0.195917 0.000000
0.119796 0.196461 0.000000
0.159722 0.197004 0.000000
0.198759 0.197548 0.000000
0.237114 0.198091 0.000000
0.274915 0.198634 0.000000
0.312253 0.199177 0.000000
0.349192 0.199720 0.000000
0.385782 0.200263 0.000000
0.422062 0.200805 0.000000
0.458063 0.201348 0.000000
0.493811 0.201890 0.000000
0.529327 0.202432 0.000000
0.564630 0.202974 0.000000
0.599735 0.203516 0.000000
0.634656 0.204058 0.000000
0.669405 0.204600 0.000000
0.703992 0.205141 0.000000
0.738427 0.205683 0.000000
0.772717 0.206224 0.000000
0.806872 0.206765 0.000000
0.840897 0.207306 0.000000
0.874798 0.207847 0.000000
0.908581 0.208388 0.000000
0.942252 0.208929 0.000000
0.975814 0.209469 0.000000
1.000000 0.210010 0.000000
1.000000 0.210550 0.000000
1.000000 0.211090 0.000000
1.000000 0.211630 0.000000
1.000000 0.212170 0.000000
0.000000 0.230302 0.000000
0.032661 0.230838 0.000000
0.076211 0.231373 0.000000
0.117491 0.231909 0.000000
0.157477 0.232444 0.000000
0.196558 0.232980 0.000000
0.234948 0.233515 0.000000
0.272778 0.234050 0.000000
0.310140 0.234585 0.000000
0.347101 0.235120 0.000000
0.383709 0.235655 0.000000
0.420006 0.236190 0.000000
0.456022 0.236724 0.000000
0.491783 0.237259 0.000000
0.527312 0.237793 0.000000
0.562627 0.238328 0.000000
0.597743 0.238862 0.000000
0.632674 0.239396 0.000000
0.667432 0.239930 0.000000
0.702028 0.240464 0.000000
0.736471 0.240998 0.000000
0.770770 0.241531 0.000000
0.804932 0.242065 0.000000
0.838964 0.242598 0.000000
0.872872 0.243132 0.000000
0.906662 0.243665 0.000000
0.940339 0.244198 0.000000
0.973908 0.244731 0.000000
1.000000 0.245264 0.000000
1.000000 0.245797 0.000000
1.000000 0.246329 0.000000
1.000000 0.246862 0.000000
1.000000 0.247394 0.000000
0.000000 0.265287 0.000000
0.030063 0.265816 0.000000
0.073809 0.266345 0.000000
0.115183 0.266874 0.000000
0.155229 0.267403 0.000000
0.194355 0.267932 0.000000
0.232780 0.268460 0.000000
0.270639 0.268989 0.000000
0.308026 0.269517 0.000000
0.345008 0.270045 0.000000
0.381635 0.270574 0.000000
0.417949 0.271102 0.000000
0.453980 0.271630 0.000000
0.489755 0.272158 0.000000
0.525297 0.272686 0.000000
0.560623 0.273213 0.000000
0.595750 0.273741 0.000000
0.630691 0.274269 0.000000
0.665459 0.274796 0.000000
0.700064 0.275323 0.000000
0.734516 0.275851 0.000000
0.768823 0.276378 0.000000
0.802992 0.276905 0.000000
0.837031 0.277432 0.000000
0.870946 0.277959 0.000000
0.904743 0.278486 0.000000
0.938426 0.279013 0.000000
0.972001 0.279539 0.000000
1.000000 0.280066 0.000000
1.000000 0.280592 0.000000
1.000000 0.281119 0.000000
1.000000 0.281645 0.000000
1.000000 0.282171 0.000000
0.000000 0.299861 0.000000
0.027445 0.300384 0.000000
0.071400 0.300907 0.000000
0.112870 0.301431 0.000000
0.152978 0.301954 0.000000
0.192149 0.302476 0.000000
0.230610 0.302999 0.000000
0.268498 0.303522 0.000000
0.305910 0.304045 0.000000
0.342913 0.304567 0.000000
0.379560 0.305090 0.000000
0.415890 0.305612 0.000000
0.451937 0.306135 0.000000
0.487726 0.306657 0.000000
0.523281 0.307179 0.000000
0.558619 0.307701 0.000000
0.593757 0.308224 0.000000
0.628708 0.308746 0.000000
0.663485 0.309267 0.000000
0.698100 0.309789 0.000000
0.732560 0.310311 0.000000
0.766875 0.310833 0.000000
0.801052 0.311354 0.000000
0.835098 0.311876 0.000000
0.869020 0.312397 0.000000
0.902823 0.312919 0.000000
0.936513 0.313440 0.000000
0.970093 0.313961 0.000000
1.000000 0.314482 0.000000
1.000000 0.315003 0.000000
1.000000 0.315524 0.000000
1.000000 0.316045 0.000000
1.000000 0.316566 0.000000
0.000000 0.334079 0.000000
0.024804 0.334597 0.000000
0.068984 0.335115 0.000000
0.110553 0.335633 0.000000
0.150724 0.336151 0.000000
0.189942 0.336669 0.000000
0.228438 0.337187 0.000000
0.266356 0.337705 0.000000
0.303793 0.338222 0.000000
0.340818 0.338740 0.000000
0.377484 0.339258 0.000000
0.413831 0.339775 0.000000
0.449893 0.340293 0.000000
0.485697 0.340810 0.000000
0.521264 0.341327 0.000000
0.556614 0.341844 0.000000
0.591763 0.342362 0.000000
0.626724 0.342879 0.000000
0.661511 0.343396 0.000000
0.696134 0.343913 0.000000
0.730603 0.344429 0.000000
0.764926 0.344946 0.000000
0.799111 0.345463 0.000000
0.833165 0.345980 0.000000
0.867093 0.346496 0.000000
0.900903 0.347013 0.000000
0.934599 0.347529 0.000000
0.968186 0.348045 0.000000
1.000000 0.348562 0.000000
1.000000 0.349078 0.000000
1.000000 0.349594 0.000000
1.000000 0.350110 0.000000
1.000000 0.350626 0.000000
0.000000 0.367983 0.000000
0.022138 0.368497 0.000000
0.066561 0.369011 0.000000
0.108231 0.369524 0.000000
0.148467 0.370038 0.000000
0.187731 0.370551 0.000000
0.226264 0.371065 0.000000
0.264213 0.371578 0.000000
0.301675 0.372091 0.000000
0.338722 0.372605 0.000000
0.375407 0.373118 0.000000
0.411771 0.373631 0.000000
0.447849 0.374144 0.000000
0.483666 0.374657 0.000000
0.519246 0.375170 0.000000
0.554608 0.375683 0.000000
0.589768 0.376195 0.000000
0.624740 0.376708 0.000000
0.659537 0.377221 0.000000
0.694169 0.377733 0.000000
0.728646 0.378246 0.000000
0.762977 0.378758 0.000000
0.797170 0.379271 0.000000
0.831231 0.379783 0.000000
0.865166 0.380295 0.000000
0.898983 0.380807 0.000000
0.932685 0.381320 0.000000
0.966278 0.381832 0.000000
0.999766 0.382344 0.000000
1.000000 0.382856 0.000000
1.000000 0.383368 0.000000
1.000000 0.383879 0.000000
1.000000 0.384391 0.000000
0.000000 0.401609 0.000000
0.019442 0.402118 0.000000
0.064129 0.402628 0.000000
0.105905 0.403138 0.000000
0.146207 0.403647 0.000000
0.185519 0.404157 0.000000
0.224089 0.404666 0.000000
0.262068 0.405175 0.000000
0.299555 0.405685 0.000000
0.336624 0.406194 0.000000
0.373329 0.406703 0.000000
0.409711 0.407212 0.000000
0.445804 0.407721 0.000000
0.481635 0.408230 0.000000
0.517228 0.408739 0.000000
0.552602 0.409248 0.000000
0.587773 0.409757 0.000000
0.622755 0.410266 0.000000
0.657562 0.410775 0.000000
0.692203 0.411283 0.000000
0.726689 0.411792 0.000000
0.761028 0.412300 0.000000
0.795228 0.412809 0.000000
0.829296 0.413317 0.000000
0.863239 0.413826 0.000000
0.897062 0.414334 0.000000
0.930770 0.414842 0.000000
0.964369 0.415351 0.000000
0.997863 0.415859 0.000000
1.000000 0.416367 0.000000
1.000000 0.416875 0.000000
1.000000 0.417383 0.000000
1.000000 0.417891 0.000000
0.000000 0.434982 0.000000
0.016712 0.435488 0.000000
0.061689 0.435994 0.000000
0.103574 0.436500 0.000000
0.143943 0.437006 0.000000
0.183304 0.437512 0.000000
0.221912 0.438018 0.000000
0.259921 0.438524 0.000000
0.297434 0.439029 0.000000
0.334526 0.439535 0.000000
0.371249 0.440040 0.000000
0.407649 0.440546 0.000000
0.443757 0.441051 0.000000
0.479603 0.441557 0.000000
0.515209 0.442062 0.000000
0.550595 0.442568 0.000000
0.585777 0.443073 0.000000
0.620770 0.443578 0.000000
0.655586 0.444083 0.000000
0.690236 0.444588 0.000000
0.724731 0.445093 0.000000
0.759078 0.445598 0.000000
0.793286 0.446103 0.000000
0.827361 0.446608 0.000000
0.861311 0.447113 0.000000
0.895141 0.447618 0.000000
0.928856 0.448123 0.000000
0.962461 0.448627 0.000000
0.995961 0.449132 0.000000
1.000000 0.449637 0.000000
1.000000 0.450141 0.000000
1.000000 0.450646 0.000000
1.000000 0.451150 0.000000
0.000000 0.468127 0.000000
0.013941 0.468629 0.000000
0.059240 0.469132 0.000000
0.101239 0.469635 0.000000
0.141677 0.470137 0.000000
0.181087 0.470640 0.000000
0.219732 0.471142 0.000000
0.257772 0.471645 0.000000
0.295312 0.472147 0.000000
0.332426 0.472649 0.000000
0.369169 0.473152 0.000000
0.405586 0.473654 0.000000
0.441710 0.474156 0.000000
0.477570 0.474658 0.000000
0.513189 0.475160 0.000000
0.548587 0.475662 0.000000
0.583781 0.476164 0.000000
0.618784 0.476666 0.000000
0.653610 0.477168 0.000000
0.688269 0.477670 0.000000
0.722772 0.478172 0.000000
0.757128 0.478674 0.000000
0.791343 0.479175 0.000000
0.825426 0.479677 0.000000
0.859383 0.480179 0.000000
0.893219 0.480680 0.000000
0.926940 0.481182 0.000000
0.960552 0.481683 0.000000
0.994057 0.482185 0.000000
1.000000 0.482686 0.000000
1.000000 0.483188 0.000000
1.000000 0.483689 0.000000
1.000000 0.484190 0.000000
0.000000 0.501061 0.000000
0.011119 0.501561 0.000000
0.056782 0.502060 0.000000
0.098899 0.502560 0.000000
0.139407 0.503059 0.000000
0.178867 0.503559 0.000000
0.217551 0.504058 0.000000
0.255623 0.504558 0.000000
0.293188 0.505057 0.000000
0.330325 0.505556 0.000000
0.367088 0.506056 0.000000
0.403522 0.506555 0.000000
0.439662 0.507054 0.000000
0.475537 0.507553 0.000000
0.511169 0.508052 0.000000
0.546579 0.508551 0.000000
0.581784 0.509050 0.000000
0.616797 0.509549 0.000000
0.651633 0.510048 0.000000
0.686301 0.510547 0.000000
0.720813 0.511046 0.000000
0.755177 0.511545 0.000000
0.789400 0.512043 0.000000
0.823490 0.512542 0.000000
0.857454 0.513041 0.000000
0.891297 0.513539 0.000000
0.925025 0.514038 0.000000
0.958642 0.514536 0.000000
0.992154 0.515035 0.000000
1.000000 0.515533 0.000000
1.000000 0.516032 0.000000
1.000000 0.516530 0.000000
1.000000 0.517028 0.000000
0.000000 0.533801 0.000000
0.008230 0.534298 0.000000
0.054315 0.534795 0.000000
0.096554 0.535292 0.000000
0.137134 0.535789 0.000000
0.176644 0.536285 0.000000
0.215368 0.536782 0.000000
0.253471 0.537278 0.000000
0.291063 0.537775 0.000000
0.328222 0.538271 0.000000
0.365005 0.538768 0.000000
0.401458 0.539264 0.000000
0.437614 0.539761 0.000000
0.473503 0.540257 0.000000
0.509148 0.540753 0.000000
0.544570 0.541249 0.000000
0.579786 0.541746 0.000000
0.614810 0.542242 0.000000
0.649655 0.542738 0.000000
0.684333 0.543234 0.000000
0.718854 0.543730 0.000000
0.753226 0.544226 0.000000
0.787457 0.544722 0.000000
0.821554 0.545218 0.000000
0.855525 0.545714 0.000000
0.889375 0.546210 0.000000
0.923109 0.546705 0.000000
0.956733 0.547201 0.000000
0.990250 0.547697 0.000000
1.000000 0.548193 0.000000
1.000000 0.548688 0.000000
1.000000 0.549184 0.000000
1.000000 0.549679 0.000000
0.000000 0.566362 0.000000
0.005245 0.566856 0.000000
0.051837 0.567350 0.000000
0.094203 0.567845 0.000000
0.134858 0.568339 0.000000
0.174420 0.568833 0.000000
0.213183 0.569327 0.000000
0.251318 0.569821 0.000000
0.288937 0.570315 0.000000
0.326119 0.570808 0.000000
0.362922 0.571302 0.000000
0.399392 0.571796 0.000000
0.435564 0.572290 0.000000
0.471467 0.572783 0.000000
0.507126 0.573277 0.000000
0.542561 0.573771 0.000000
0.577788 0.574264 0.000000
0.612822 0.574758 0.000000
0.647678 0.575252 0.000000
0.682365 0.575745 0.000000
0.716894 0.576238 0.000000
0.751274 0.576732 0.000000
0.785513 0.577225 0.000000
0.819618 0.577719 0.000000
0.853596 0.578212 0.000000
0.887452 0.578705 0.000000
0.921193 0.579198 0.000000
0.954823 0.579692 0.000000
0.988346 0.580185 0.000000
1.000000 0.580678 0.000000
1.000000 0.581171 0.000000
1.000000 0.581664 0.000000
1.000000 0.582157 0.000000
0.000000 0.598755 0.000000
0.002085 0.599247 0.000000
0.049349 0.599738 0.000000
0.091848 0.600230 0.000000
0.132578 0.600722 0.000000
0.172192 0.601213 0.000000
0.210995 0.601705 0.000000
0.249163 0.602196 0.000000
0.286809 0.602688 0.000000
0.324014 0.603179 0.000000
0.360837 0.603671 0.000000
0.397325 0.604162 0.000000
0.433514 0.604653 0.000000
0.469432 0.605145 0.000000
0.505104 0.605636 0.000000
0.540550 0.606127 0.000000
0.575789 0.606618 0.000000
0.610834 0.607109 0.000000
0.645699 0.607600 0.000000
0.680396 0.608092 0.000000
0.714933 0.608583 0.000000
0.749322 0.609074 0.000000
0.783569 0.609565 0.000000
0.817681 0.610055 0.000000
0.851666 0.610546 0.000000
0.885529 0.611037 0.000000
0.919276 0.611528 0.000000
0.952912 0.612019 0.000000
0.986442 0.612510 0.000000
1.000000 0.613000 0.000000
1.000000 0.613491 0.000000
1.000000 0.613982 0.000000
1.000000 0.614472 0.000000
0.000000 0.630991 0.000000
0.000000 0.631480 0.000000
0.046849 0.631970 0.000000
0.089487 0.632459 0.000000
0.130294 0.632948 0.000000
0.169962 0.633438 0.000000
0.208806 0.633927 0.000000
0.247006 0.634416 0.000000
0.284680 0.634905 0.000000
0.321908 0.635394 0.000000
0.358752 0.635883 0.000000
0.395258 0.636372 0.000000
0.431462 0.636862 0.000000
0.467395 0.637351 0.000000
0.503080 0.637839 0.000000
0.538539 0.638328 0.000000
0.573789 0.638817 0.000000
0.608845 0.639306 0.000000
0.643720 0.639795 0.000000
0.678426 0.640284 0.000000
0.712973 0.640773 0.000000
0.747369 0.641261 0.000000
0.781624 0.641750 0.000000
0.815744 0.642239 0.000000
0.849736 0.642727 0.000000
0.883606 0.643216 0.000000
0.917359 0.643704 0.000000
0.951001 0.644193 0.000000
0.984537 0.644681 0.000000
1.000000 0.645170 0.000000
1.000000 0.645658 0.000000
1.000000 0.646147 0.000000
1.000000 0.646635 0.000000
0.000000 0.663079 0.000000
0.000000 0.663566 0.000000
0.044337 0.664054 0.000000
0.087120 0.664541 0.000000
0.128007 0.665028 0.000000
0.167730 0.665515 0.000000
0.206615 0.666002 0.000000
0.244848 0.666489 0.000000
0.282549 0.666976 0.000000
0.319801 0.667463 0.000000
0.356665 0.667950 0.000000
0.393189 0.668437 0.000000
0.429410 0.668924 0.000000
0.465357 0.669411 0.000000
0.501056 0.669897 0.000000
0.536528 0.670384 0.000000
0.571789 0.670871 0.000000
0.606856 0.671358 0.000000
0.641741 0.671844 0.000000
0.676456 0.672331 0.000000
0.711011 0.672818 0.000000
0.745416 0.673304 0.000000
0.779679 0.673791 0.000000
0.813806 0.674277 0.000000
0.847805 0.674764 0.000000
0.881682 0.675250 0.000000
0.915442 0.675737 0.000000
0.949090 0.676223 0.000000
0.982632 0.676709 0.000000
1.000000 0.677196 0.000000
1.000000 0.677682 0.000000
1.000000 0.678168 0.000000
1.000000 0.678655 0.000000
0.000000 0.695028 0.000000
0.000000 0.695513 0.000000
0.041813 0.695999 0.000000
0.084748 0.696484 0.000000
0.125716 0.696969 0.000000
0.165495 0.697454 0.000000
0.204421 0.697939 0.000000
0.242688 0.698424 0.000000
0.280417 0.698909 0.000000
0.317692 0.699394 0.000000
0.354577 0.699879 0.000000
0.391120 0.700363 0.000000
0.427357 0.700848 0.000000
0.463319 0.701333 0.000000
0.499032 0.701818 0.000000
0.534515 0.702303 0.000000
0.569788 0.702787 0.000000
0.604866 0.703272 0.000000
0.639761 0.703757 0.000000
0.674485 0.704241 0.000000
0.709049 0.704726 0.000000
0.743463 0.705210 0.000000
0.777733 0.705695 0.000000
0.811868 0.706179 0.000000
0.845874 0.706664 0.000000
0.879758 0.707148 0.000000
0.913524 0.707633 0.000000
0.947179 0.708117 0.000000
0.980726 0.708601 0.000000
1.000000 0.709086 0.000000
1.000000 0.709570 0.000000
1.000000 0.710054 0.000000
1.000000 0.710539 0.000000
0.000000 0.726846 0.000000
0.000000 0.727329 0.000000
0.039274 0.727812 0.000000
0.082369 0.728295 0.000000
0.123422 0.728778 0.000000
0.163257 0.729261 0.000000
0.202226 0.729744 0.000000
0.240526 0.730228 0.000000
0.278283 0.730711 0.000000
0.315582 0.731194 0.000000
0.352488 0.731676 0.000000
0.389049 0.732159 0.000000
0.425303 0.732642 0.000000
0.461280 0.733125 0.000000
0.497006 0.733608 0.000000
0.532502 0.734091 0.000000
0.567787 0.734574 0.000000
0.602875 0.735056 0.000000
0.637780 0.735539 0.000000
0.672514 0.736022 0.000000
0.707087 0.736505 0.000000
0.741509 0.736987 0.000000
0.775787 0.737470 0.000000
0.809929 0.737952 0.000000
0.843943 0.738435 0.000000
0.877833 0.738917 0.000000
0.911606 0.739400 0.000000
0.945267 0.739882 0.000000
0.978820 0.740365 0.000000
1.000000 0.740847 0.000000
1.000000 0.741330 0.000000
1.000000 0.741812 0.000000
1.000000 0.742294 0.000000
0.000000 0.758538 0.000000
0.000000 0.759019 0.000000
0.036721 0.759501 0.000000
0.079984 0.759982 0.000000
0.121123 0.760463 0.000000
0.161016 0.760945 0.000000
0.200028 0.761426 0.000000
0.238363 0.761907 0.000000
0.276148 0.762388 0.000000
0.313471 0.762869 0.000000
0.350398 0.763351 0.000000
0.386978 0.763832 0.000000
0.423248 0.764313 0.000000
0.459240 0.764794 0.000000
0.494980 0.765275 0.000000
0.530489 0.765756 0.000000
0.565785 0.766237 0.000000
0.600884 0.766718 0.000000
0.635799 0.767198 0.000000
0.670542 0.767679 0.000000
0.705124 0.768160 0.000000
0.739554 0.768641 0.000000
0.773840 0.769122 0.000000
0.807991 0.769603 0.000000
0.842011 0.770083 0.000000
0.875908 0.770564 0.000000
0.909688 0.771045 0.000000
0.943355 0.771525 0.000000
0.976914 0.772006 0.000000
1.000000 0.772487 0.000000
1.000000 0.772967 0.000000
1.000000 0.773448 0.000000
1.000000 0.773928 0.000000
0.000000 0.790112 0.000000
0.000000 0.790591 0.000000
0.034151 0.791071 0.000000
0.077593 0.791551 0.000000
0.118821 0.792030 0.000000
0.158772 0.792510 0.000000
0.197828 0.792989 0.000000
0.236198 0.793468 0.000000
0.274011 0.793948 0.000000
0.311359 0.794427 0.000000
0.348307 0.794907 0.000000
0.384905 0.795386 0.000000
0.421192 0.795865 0.000000
0.457199 0.796345 0.000000
0.492953 0.796824 0.000000
0.528475 0.797303 0.000000
0.563782 0.797782 0.000000
0.598892 0.798261 0.000000
0.633817 0.798741 0.000000
0.668570 0.799220 0.000000
0.703161 0.799699 0.000000
0.737599 0.800178 0.000000
0.771894 0.800657 0.000000
0.806051 0.801136 0.000000
0.840079 0.801615 0.000000
0.873983 0.802094 0.000000
0.907769 0.802573 0.000000
0.941442 0.803052 0.000000
0.975008 0.803531 0.000000
1.000000 0.804010 0.000000
1.000000 0.804489 0.000000
1.000000 0.804967 0.000000
1.000000 0.805446 0.000000
0.000000 0.821572 0.000000
0.000000 0.822050 0.000000
0.031564 0.822528 0.000000
0.075195 0.823006 0.000000
0.116515 0.823484 0.000000
0.156526 0.823962 0.000000
0.195626 0.824439 0.000000
0.234030 0.824917 0.000000
0.271873 0.825395 0.000000
0.309246 0.825873 0.000000
0.346215 0.826350 0.000000
0.382832 0.826828 0.000000
0.419135 0.827306 0.000000
0.455158 0.827783 0.000000
0.490925 0.828261 0.000000
0.526459 0.828739 0.000000
0.561779 0.829216 0.000000
0.596899 0.829694 0.000000
0.631835 0.830171 0.000000
0.666597 0.830649 0.000000
0.701197 0.831126 0.000000
0.735644 0.831603 0.000000
0.769946 0.832081 0.000000
0.804111 0.832558 0.000000
0.838146 0.833036 0.000000
0.872057 0.833513 0.000000
0.905850 0.833990 0.000000
0.939530 0.834467 0.000000
0.973101 0.834945 0.000000
1.000000 0.835422 0.000000
1.000000 0.835899 0.000000
1.000000 0.836376 0.000000
1.000000 0.836853 0.000000
0.000000 0.852925 0.000000
0.000000 0.853401 0.000000
0.028958 0.853877 0.000000
0.072791 0.854354 0.000000
0.114204 0.854830 0.000000
0.154277 0.855306 0.000000
0.193422 0.855782 0.000000
0.231862 0.856258 0.000000
0.269733 0.856735 0.000000
0.307131 0.857211 0.000000
0.344122 0.857687 0.000000
0.380757 0.858163 0.000000
0.417078 0.858639 0.000000
0.453116 0.859115 0.000000
0.488897 0.859591 0.000000
0.524444 0.860067 0.000000
0.559775 0.860543 0.000000
0.594906 0.861019 0.000000
0.629852 0.861495 0.000000
0.664624 0.861971 0.000000
0.699233 0.862446 0.000000
0.733688 0.862922 0.000000
0.767998 0.863398 0.000000
0.802171 0.863874 0.000000
0.836213 0.864350 0.000000
0.870131 0.864825 0.000000
0.903931 0.865301 0.000000
0.937616 0.865777 0.000000
0.971194 0.866253 0.000000
1.000000 0.866728 0.000000
1.000000 0.867204 0.000000
1.000000 0.867679 0.000000
1.000000 0.868155 0.000000
0.000000 0.884174 0.000000
0.000000 0.884649 0.000000
0.026331 0.885123 0.000000
0.070379 0.885598 0.000000
0.111890 0.886073 0.000000
0.152024 0.886547 0.000000
0.191215 0.887022 0.000000
0.229691 0.887497 0.000000
0.267592 0.887971 0.000000
0.305015 0.888446 0.000000
0.342027 0.888921 0.000000
0.378682 0.889395 0.000000
0.415019 0.889870 0.000000
0.451072 0.890344 0.000000
0.486868 0.890819 0.000000
0.522427 0.891293 0.000000
0.557770 0.891767 0.000000
0.592913 0.892242 0.000000
0.627869 0.892716 0.000000
0.662650 0.893191 0.000000
0.697268 0.893665 0.000000
0.731732 0.894139 0.000000
0.766050 0.894614 0.000000
0.800231 0.895088 0.000000
0.834280 0.895562 0.000000
