presets/film_stocks/Fuji_Superia_Reala.cube
# 独寻胶片模拟 -- Fuji Superia Reala
# Fujifilm, ISO 100, 1998, negative
TITLE "Fuji Superia Reala"
LUT_3D_SIZE 33
DOMAIN_MIN 0.0 0.0 0.0
DOMAIN_MAX 1.0 1.0 1.0
0.000000 0.000000 0.000000
0.059681 0.002297 0.000000
0.106858 0.004112 0.000000
0.150239 0.005781 0.000000
0.191325 0.007362 0.000000
0.230786 0.008881 0.000000
0.268997 0.010351 0.000000
0.306200 0.011783 0.000000
0.342561 0.013182 0.000000
0.378202 0.014553 0.000000
0.413214 0.015901 0.000000
0.447671 0.017227 0.000000
0.481631 0.018533 0.000000
0.515141 0.019823 0.000000
0.548241 0.021097 0.000000
0.580966 0.022356 0.000000
0.613345 0.023602 0.000000
0.645401 0.024835 0.000000
0.677158 0.026057 0.000000
0.708634 0.027269 0.000000
0.739846 0.028470 0.000000
0.770811 0.029661 0.000000
0.801540 0.030844 0.000000
0.832048 0.032018 0.000000
0.862344 0.033183 0.000000
0.892439 0.034341 0.000000
0.922343 0.035492 0.000000
0.952063 0.036636 0.000000
0.981608 0.037773 0.000000
1.000000 0.038903 0.000000
1.000000 0.040027 0.000000
1.000000 0.041146 0.000000
1.000000 0.042258 0.000000
0.000000 0.057821 0.000000
0.057657 0.058865 0.000000
0.105048 0.059905 0.000000
0.148543 0.060942 0.000000
0.189706 0.061976 0.000000
0.229224 0.063006 0.000000
0.267480 0.064033 0.000000
0.304720 0.065057 0.000000
0.341113 0.066078 0.000000
0.376780 0.067096 0.000000
0.411817 0.068110 0.000000
0.446295 0.069123 0.000000
0.480273 0.070132 0.000000
0.513801 0.071138 0.000000
0.546917 0.072142 0.000000
0.579657 0.073143 0.000000
0.612048 0.074142 0.000000
0.644117 0.075138 0.000000
0.675886 0.076131 0.000000
0.707373 0.077123 0.000000
0.738595 0.078111 0.000000
0.769569 0.079097 0.000000
0.800308 0.080081 0.000000
0.830824 0.081063 0.000000
0.861129 0.082043 0.000000
0.891232 0.083020 0.000000
0.921143 0.083995 0.000000
0.950871 0.084968 0.000000
0.980423 0.085938 0.000000
1.000000 0.086907 0.000000
1.000000 0.087874 0.000000
1.000000 0.088838 0.000000
1.000000 0.089801 0.000000
0.000000 0.103527 0.000000
0.055619 0.104462 0.000000
0.103233 0.105396 0.000000
0.146845 0.106328 0.000000
0.188085 0.107258 0.000000
0.227660 0.108187 0.000000
0.265962 0.109115 0.000000
0.303239 0.110041 0.000000
0.339663 0.110965 0.000000
0.375358 0.111888 0.000000
0.410418 0.112810 0.000000
0.444917 0.113730 0.000000
0.478915 0.114649 0.000000
0.512460 0.115566 0.000000
0.545592 0.116482 0.000000
0.578346 0.117397 0.000000
0.610751 0.118310 0.000000
0.642833 0.119222 0.000000
0.674613 0.120132 0.000000
0.706111 0.121042 0.000000
0.737344 0.121950 0.000000
0.768328 0.122856 0.000000
0.799076 0.123762 0.000000
0.829600 0.124666 0.000000
0.859913 0.125569 0.000000
0.890024 0.126470 0.000000
0.919943 0.127371 0.000000
0.949678 0.128270 0.000000
0.979237 0.129168 0.000000
1.000000 0.130065 0.000000
1.000000 0.130961 0.000000
1.000000 0.131855 0.000000
1.000000 0.132749 0.000000
0.000000 0.145556 0.000000
0.053566 0.146433 0.000000
0.101411 0.147309 0.000000
0.145142 0.148183 0.000000
0.186461 0.149057 0.000000
0.226095 0.149930 0.000000
0.264442 0.150802 0.000000
0.301757 0.151673 0.000000
0.338212 0.152543 0.000000
0.373935 0.153412 0.000000
0.409019 0.154280 0.000000
0.443539 0.155147 0.000000
0.477556 0.156014 0.000000
0.511118 0.156879 0.000000
0.544266 0.157744 0.000000
0.577035 0.158607 0.000000
0.609454 0.159470 0.000000
0.641548 0.160332 0.000000
0.673340 0.161193 0.000000
0.704849 0.162053 0.000000
0.736092 0.162912 0.000000
0.767086 0.163770 0.000000
0.797843 0.164628 0.000000
0.828376 0.165484 0.000000
0.858698 0.166340 0.000000
0.888817 0.167195 0.000000
0.918743 0.168049 0.000000
0.948485 0.168902 0.000000
0.978051 0.169755 0.000000
1.000000 0.170606 0.000000
1.000000 0.171457 0.000000
1.000000 0.172307 0.000000
1.000000 0.173157 0.000000
0.000000 0.185362 0.000000
0.051499 0.186199 0.000000
0.099584 0.187036 0.000000
0.143436 0.187872 0.000000
0.184835 0.188708 0.000000
0.224527 0.189543 0.000000
0.262920 0.190377 0.000000
0.300273 0.191210 0.000000
0.336760 0.192043 0.000000
0.372510 0.192875 0.000000
0.407618 0.193706 0.000000
0.442160 0.194537 0.000000
0.476196 0.195367 0.000000
0.509776 0.196196 0.000000
0.542940 0.197024 0.000000
0.575724 0.197852 0.000000
0.608156 0.198680 0.000000
0.640263 0.199506 0.000000
0.672066 0.200332 0.000000
0.703586 0.201158 0.000000
0.734840 0.201982 0.000000
0.765843 0.202806 0.000000
0.796610 0.203630 0.000000
0.827152 0.204453 0.000000
0.857482 0.205275 0.000000
0.887608 0.206096 0.000000
0.917542 0.206917 0.000000
0.947292 0.207738 0.000000
0.976865 0.208557 0.000000
1.000000 0.209376 0.000000
1.000000 0.210195 0.000000
1.000000 0.211013 0.000000
1.000000 0.211830 0.000000
0.000000 0.223592 0.000000
0.049415 0.224401 0.000000
0.097749 0.225209 0.000000
0.141726 0.226016 0.000000
0.183206 0.226823 0.000000
0.222957 0.227629 0.000000
0.261397 0.228434 0.000000
0.298788 0.229239 0.000000
0.335307 0.230044 0.000000
0.371085 0.230848 0.000000
0.406217 0.231651 0.000000
0.440781 0.232454 0.000000
0.474836 0.233257 0.000000
0.508433 0.234058 0.000000
0.541613 0.234860 0.000000
0.574411 0.235661 0.000000
0.606857 0.236461 0.000000
0.638977 0.237261 0.000000
0.670792 0.238060 0.000000
0.702323 0.238859 0.000000
0.733587 0.239657 0.000000
0.764600 0.240455 0.000000
0.795376 0.241252 0.000000
0.825927 0.242049 0.000000
0.856265 0.242845 0.000000
0.886400 0.243641 0.000000
0.916342 0.244436 0.000000
0.946098 0.245231 0.000000
0.975678 0.246025 0.000000
1.000000 0.246819 0.000000
1.000000 0.247613 0.000000
1.000000 0.248405 0.000000
1.000000 0.249198 0.000000
0.000000 0.260613 0.000000
0.047315 0.261398 0.000000
0.095909 0.262183 0.000000
0.140011 0.262967 0.000000
0.181574 0.263751 0.000000
0.221385 0.264534 0.000000
0.259872 0.265317 0.000000
0.297301 0.266100 0.000000
0.333853 0.266882 0.000000
0.369658 0.267664 0.000000
0.404815 0.268445 0.000000
0.439400 0.269226 0.000000
0.473475 0.270006 0.000000
0.507090 0.270786 0.000000
0.540286 0.271566 0.000000
0.573099 0.272345 0.000000
0.605558 0.273123 0.000000
0.637690 0.273902 0.000000
0.669518 0.274679 0.000000
0.701060 0.275457 0.000000
0.732334 0.276234 0.000000
0.763357 0.277010 0.000000
0.794142 0.277786 0.000000
0.824702 0.278562 0.000000
0.855048 0.279337 0.000000
0.885191 0.280112 0.000000
0.915140 0.280887 0.000000
0.944904 0.281661 0.000000
0.974491 0.282435 0.000000
1.000000 0.283208 0.000000
1.000000 0.283981 0.000000
1.000000 0.284753 0.000000
1.000000 0.285526 0.000000
0.000000 0.296656 0.000000
0.045197 0.297423 0.000000
0.094061 0.298188 0.000000
0.138293 0.298954 0.000000
0.179939 0.299719 0.000000
0.219811 0.300483 0.000000
0.258345 0.301248 0.000000
0.295813 0.302012 0.000000
0.332397 0.302775 0.000000
0.368231 0.303538 0.000000
0.403412 0.304301 0.000000
0.438019 0.305064 0.000000
0.472113 0.305826 0.000000
0.505745 0.306587 0.000000
0.538958 0.307349 0.000000
0.571786 0.308110 0.000000
0.604259 0.308870 0.000000
0.636404 0.309631 0.000000
0.668243 0.310391 0.000000
0.699796 0.311150 0.000000
0.731081 0.311909 0.000000
0.762114 0.312668 0.000000
0.792908 0.313427 0.000000
0.823477 0.314185 0.000000
0.853831 0.314943 0.000000
0.883982 0.315700 0.000000
0.913939 0.316457 0.000000
0.943710 0.317214 0.000000
0.973304 0.317971 0.000000
1.000000 0.318727 0.000000
1.000000 0.319483 0.000000
1.000000 0.320238 0.000000
1.000000 0.320993 0.000000
0.000000 0.331884 0.000000
0.043060 0.332634 0.000000
0.092207 0.333384 0.000000
0.136571 0.334133 0.000000
0.178301 0.334882 0.000000
0.218235 0.335631 0.000000
0.256817 0.336379 0.000000
0.294324 0.337127 0.000000
0.330941 0.337875 0.000000
0.366802 0.338623 0.000000
0.402008 0.339370 0.000000
0.436636 0.340117 0.000000
0.470750 0.340863 0.000000
0.504401 0.341609 0.000000
0.537629 0.342355 0.000000
0.570472 0.343101 0.000000
0.602959 0.343846 0.000000
0.635116 0.344591 0.000000
0.666967 0.345336 0.000000
0.698532 0.346080 0.000000
0.729827 0.346824 0.000000
0.760870 0.347568 0.000000
0.791673 0.348311 0.000000
0.822251 0.349054 0.000000
0.852614 0.349797 0.000000
0.882773 0.350540 0.000000
0.912737 0.351282 0.000000
0.942516 0.352024 0.000000
0.972117 0.352766 0.000000
1.000000 0.353507 0.000000
1.000000 0.354248 0.000000
1.000000 0.354989 0.000000
1.000000 0.355729 0.000000
0.000000 0.366414 0.000000
0.040903 0.367150 0.000000
0.090346 0.367886 0.000000
0.134845 0.368621 0.000000
0.176661 0.369356 0.000000
0.216656 0.370091 0.000000
0.255287 0.370826 0.000000
0.292833 0.371560 0.000000
0.329483 0.372294 0.000000
0.365372 0.373028 0.000000
0.400603 0.373762 0.000000
0.435253 0.374495 0.000000
0.469387 0.375228 0.000000
0.503055 0.375961 0.000000
0.536300 0.376693 0.000000
0.569157 0.377425 0.000000
0.601658 0.378157 0.000000
0.633828 0.378889 0.000000
0.665691 0.379620 0.000000
0.697267 0.380351 0.000000
0.728573 0.381082 0.000000
0.759625 0.381813 0.000000
0.790439 0.382543 0.000000
0.821025 0.383273 0.000000
0.851396 0.384003 0.000000
0.881563 0.384732 0.000000
0.911535 0.385462 0.000000
0.941321 0.386191 0.000000
0.970929 0.386919 0.000000
1.000000 0.387648 0.000000
1.000000 0.388376 0.000000
1.000000 0.389104 0.000000
1.000000 0.389832 0.000000
0.000000 0.400335 0.000000
0.038723 0.401059 0.000000
0.088477 0.401782 0.000000
0.133114 0.402506 0.000000
0.175017 0.403229 0.000000
0.215075 0.403951 0.000000
0.253755 0.404674 0.000000
0.291340 0.405396 0.000000
0.328024 0.406118 0.000000
0.363941 0.406840 0.000000
0.399197 0.407562 0.000000
0.433870 0.408283 0.000000
0.468023 0.409004 0.000000
0.501709 0.409725 0.000000
0.534970 0.410445 0.000000
0.567842 0.411166 0.000000
0.600357 0.411886 0.000000
0.632540 0.412606 0.000000
0.664415 0.413325 0.000000
0.696002 0.414045 0.000000
0.727318 0.414764 0.000000
0.758381 0.415483 0.000000
0.789203 0.416202 0.000000
0.819799 0.416920 0.000000
0.850178 0.417638 0.000000
0.880353 0.418356 0.000000
0.910333 0.419074 0.000000
0.940126 0.419792 0.000000
0.969741 0.420509 0.000000
0.999185 0.421226 0.000000
1.000000 0.421943 0.000000
1.000000 0.422659 0.000000
1.000000 0.423376 0.000000
0.000000 0.433718 0.000000
0.036520 0.434431 0.000000
0.086600 0.435143 0.000000
0.131379 0.435856 0.000000
0.173371 0.436568 0.000000
0.213493 0.437280 0.000000
0.252221 0.437992 0.000000
0.289847 0.438703 0.000000
0.326563 0.439415 0.000000
0.362510 0.440126 0.000000
0.397790 0.440836 0.000000
0.432485 0.441547 0.000000
0.466658 0.442258 0.000000
0.500362 0.442968 0.000000
0.533639 0.443678 0.000000
0.566527 0.444388 0.000000
0.599055 0.445097 0.000000
0.631251 0.445807 0.000000
0.663138 0.446516 0.000000
0.694736 0.447225 0.000000
0.726063 0.447933 0.000000
0.757136 0.448642 0.000000
0.787967 0.449350 0.000000
0.818572 0.450058 0.000000
0.848960 0.450766 0.000000
0.879143 0.451474 0.000000
0.909130 0.452181 0.000000
0.938931 0.452888 0.000000
0.968553 0.453595 0.000000
0.998003 0.454302 0.000000
1.000000 0.455009 0.000000
1.000000 0.455715 0.000000
1.000000 0.456421 0.000000
0.000000 0.466619 0.000000
0.034292 0.467322 0.000000
0.084716 0.468025 0.000000
0.129640 0.468727 0.000000
0.171721 0.469430 0.000000
0.211908 0.470132 0.000000
0.250686 0.470834 0.000000
0.288351 0.471536 0.000000
0.325101 0.472238 0.000000
0.361077 0.472939 0.000000
0.396382 0.473640 0.000000
0.431099 0.474341 0.000000
0.465293 0.475042 0.000000
0.499014 0.475743 0.000000
0.532308 0.476443 0.000000
0.565211 0.477144 0.000000
0.597753 0.477844 0.000000
0.629962 0.478543 0.000000
0.661861 0.479243 0.000000
0.693470 0.479943 0.000000
0.724808 0.480642 0.000000
0.755890 0.481341 0.000000
0.786731 0.482040 0.000000
0.817345 0.482739 0.000000
0.847741 0.483437 0.000000
0.877932 0.484135 0.000000
0.907927 0.484834 0.000000
0.937735 0.485531 0.000000
0.967364 0.486229 0.000000
0.996822 0.486927 0.000000
1.000000 0.487624 0.000000
1.000000 0.488321 0.000000
1.000000 0.489018 0.000000
0.000000 0.499085 0.000000
0.032036 0.499779 0.000000
0.082824 0.500473 0.000000
0.127897 0.501167 0.000000
0.170069 0.501860 0.000000
0.210320 0.502553 0.000000
0.249149 0.503247 0.000000
0.286855 0.503940 0.000000
0.323639 0.504632 0.000000
0.359643 0.505325 0.000000
0.394974 0.506018 0.000000
0.429713 0.506710 0.000000
0.463926 0.507402 0.000000
0.497666 0.508094 0.000000
0.530976 0.508786 0.000000
0.563894 0.509477 0.000000
0.596450 0.510169 0.000000
0.628672 0.510860 0.000000
0.660583 0.511551 0.000000
0.692204 0.512242 0.000000
0.723552 0.512932 0.000000
0.754644 0.513623 0.000000
0.785495 0.514313 0.000000
0.816117 0.515003 0.000000
0.846522 0.515693 0.000000
0.876721 0.516383 0.000000
0.906724 0.517073 0.000000
0.936539 0.517762 0.000000
0.966175 0.518452 0.000000
0.995640 0.519141 0.000000
1.000000 0.519830 0.000000
1.000000 0.520518 0.000000
1.000000 0.521207 0.000000
0.000000 0.531154 0.000000
0.029749 0.531840 0.000000
0.080924 0.532525 0.000000
0.126148 0.533211 0.000000
0.168414 0.533897 0.000000
0.208731 0.534582 0.000000
0.247610 0.535267 0.000000
0.285356 0.535952 0.000000
0.322174 0.536637 0.000000
0.358208 0.537321 0.000000
0.393564 0.538006 0.000000
0.428326 0.538690 0.000000
0.462559 0.539374 0.000000
0.496317 0.540058 0.000000
0.529644 0.540742 0.000000
0.562577 0.541425 0.000000
0.595147 0.542109 0.000000
0.627382 0.542792 0.000000
0.659305 0.543475 0.000000
0.690937 0.544158 0.000000
0.722296 0.544841 0.000000
0.753398 0.545524 0.000000
0.784258 0.546206 0.000000
0.814889 0.546889 0.000000
0.845303 0.547571 0.000000
0.875510 0.548253 0.000000
0.905521 0.548935 0.000000
0.935343 0.549616 0.000000
0.964986 0.550298 0.000000
0.994457 0.550979 0.000000
1.000000 0.551660 0.000000
1.000000 0.552341 0.000000
1.000000 0.553022 0.000000
0.000000 0.562859 0.000000
0.027428 0.563537 0.000000
0.079015 0.564215 0.000000
0.124396 0.564894 0.000000
0.166755 0.565572 0.000000
0.207139 0.566249 0.000000
0.246069 0.566927 0.000000
0.283857 0.567605 0.000000
0.320709 0.568282 0.000000
0.356772 0.568959 0.000000
0.392153 0.569636 0.000000
0.426938 0.570313 0.000000
0.461191 0.570990 0.000000
0.494967 0.571666 0.000000
0.528311 0.572343 0.000000
0.561259 0.573019 0.000000
0.593843 0.573695 0.000000
0.626091 0.574371 0.000000
0.658026 0.575047 0.000000
0.689669 0.575723 0.000000
0.721039 0.576398 0.000000
0.752151 0.577074 0.000000
0.783021 0.577749 0.000000
0.813661 0.578424 0.000000
0.844083 0.579099 0.000000
0.874299 0.579774 0.000000
0.904317 0.580448 0.000000
0.934147 0.581123 0.000000
0.963797 0.581797 0.000000
0.993275 0.582471 0.000000
1.000000 0.583145 0.000000
1.000000 0.583819 0.000000
1.000000 0.584493 0.000000
0.000000 0.594228 0.000000
0.025069 0.594899 0.000000
0.077098 0.595571 0.000000
0.122638 0.596242 0.000000
0.165094 0.596913 0.000000
0.205545 0.597584 0.000000
0.244526 0.598255 0.000000
0.282355 0.598925 0.000000
0.319242 0.599596 0.000000
0.355334 0.600266 0.000000
0.390742 0.600936 0.000000
0.425549 0.601606 0.000000
0.459822 0.602276 0.000000
0.493617 0.602946 0.000000
0.526977 0.603616 0.000000
0.559940 0.604285 0.000000
0.592539 0.604954 0.000000
0.624799 0.605624 0.000000
0.656747 0.606293 0.000000
0.688401 0.606962 0.000000
0.719782 0.607631 0.000000
0.750904 0.608299 0.000000
0.781783 0.608968 0.000000
0.812432 0.609636 0.000000
0.842863 0.610304 0.000000
0.873087 0.610972 0.000000
0.903113 0.611640 0.000000
0.932950 0.612308 0.000000
0.962607 0.612976 0.000000
0.992092 0.613643 0.000000
1.000000 0.614311 0.000000
1.000000 0.614978 0.000000
1.000000 0.615645 0.000000
0.000000 0.625285 0.000000
0.022667 0.625950 0.000000
0.075171 0.626615 0.000000
0.120876 0.627280 0.000000
0.163429 0.627944 0.000000
0.203948 0.628609 0.000000
0.242981 0.629273 0.000000
0.280853 0.629938 0.000000
0.317774 0.630602 0.000000
0.353896 0.631266 0.000000
0.389329 0.631929 0.000000
0.424159 0.632593 0.000000
0.458453 0.633257 0.000000
0.492266 0.633920 0.000000
0.525643 0.634583 0.000000
0.558621 0.635247 0.000000
0.591234 0.635910 0.000000
0.623508 0.636572 0.000000
0.655467 0.637235 0.000000
0.687133 0.637898 0.000000
0.718524 0.638560 0.000000
0.749657 0.639223 0.000000
0.780545 0.639885 0.000000
0.811204 0.640547 0.000000
0.841643 0.641209 0.000000
0.871875 0.641871 0.000000
0.901908 0.642533 0.000000
0.931753 0.643194 0.000000
0.961417 0.643856 0.000000
0.990909 0.644517 0.000000
1.000000 0.645178 0.000000
1.000000 0.645839 0.000000
1.000000 0.646500 0.000000
0.000000 0.656052 0.000000
0.020215 0.656711 0.000000
0.073235 0.657370 0.000000
0.119109 0.658029 0.000000
0.161761 0.658687 0.000000
0.202349 0.659346 0.000000
0.241435 0.660004 0.000000
0.279348 0.660662 0.000000
0.316305 0.661320 0.000000
0.352457 0.661978 0.000000
0.387916 0.662636 0.000000
0.422768 0.663294 0.000000
0.457083 0.663952 0.000000
0.490914 0.664609 0.000000
0.524307 0.665266 0.000000
0.557301 0.665924 0.000000
0.589928 0.666581 0.000000
0.622215 0.667238 0.000000
0.654187 0.667895 0.000000
0.685864 0.668551 0.000000
0.717266 0.669208 0.000000
0.748409 0.669865 0.000000
0.779307 0.670521 0.000000
0.809974 0.671177 0.000000
0.840422 0.671833 0.000000
0.870662 0.672489 0.000000
0.900704 0.673145 0.000000
0.930556 0.673801 0.000000
0.960227 0.674457 0.000000
0.989725 0.675112 0.000000
1.000000 0.675768 0.000000
1.000000 0.676423 0.000000
1.000000 0.677078 0.000000
0.000000 0.686547 0.000000
0.017706 0.687200 0.000000
0.071289 0.687854 0.000000
0.117336 0.688507 0.000000
0.160089 0.689160 0.000000
0.200748 0.689812 0.000000
0.239887 0.690465 0.000000
0.277843 0.691118 0.000000
0.314834 0.691770 0.000000
0.351016 0.692423 0.000000
0.386501 0.693075 0.000000
0.421377 0.693727 0.000000
0.455712 0.694379 0.000000
0.489561 0.695031 0.000000
0.522972 0.695683 0.000000
0.555981 0.696335 0.000000
0.588622 0.696986 0.000000
0.620922 0.697638 0.000000
0.652906 0.698289 0.000000
0.684595 0.698940 0.000000
0.716008 0.699591 0.000000
0.747161 0.700242 0.000000
0.778068 0.700893 0.000000
0.808745 0.701544 0.000000
0.839201 0.702195 0.000000
0.869449 0.702845 0.000000
0.899499 0.703496 0.000000
0.929358 0.704146 0.000000
0.959037 0.704796 0.000000
0.988542 0.705446 0.000000
1.000000 0.706096 0.000000
1.000000 0.706746 0.000000
1.000000 0.707396 0.000000
0.000000 0.716787 0.000000
0.015127 0.717435 0.000000
0.069333 0.718083 0.000000
0.115559 0.718730 0.000000
0.158415 0.719378 0.000000
0.199144 0.720026 0.000000
0.238337 0.720673 0.000000
0.276335 0.721320 0.000000
0.313362 0.721968 0.000000
0.349574 0.722615 0.000000
0.385086 0.723262 0.000000
0.419984 0.723909 0.000000
0.454340 0.724555 0.000000
0.488208 0.725202 0.000000
0.521635 0.725849 0.000000
0.554660 0.726495 0.000000
0.587315 0.727141 0.000000
0.619629 0.727788 0.000000
0.651625 0.728434 0.000000
0.683326 0.729080 0.000000
0.714749 0.729726 0.000000
0.745912 0.730372 0.000000
0.776829 0.731017 0.000000
0.807515 0.731663 0.000000
0.837980 0.732308 0.000000
0.868236 0.732954 0.000000
0.898293 0.733599 0.000000
0.928160 0.734244 0.000000
0.957846 0.734889 0.000000
0.987358 0.735534 0.000000
1.000000 0.736179 0.000000
1.000000 0.736824 0.000000
1.000000 0.737468 0.000000
0.000000 0.746786 0.000000
0.012461 0.747429 0.000000
0.067366 0.748072 0.000000
0.113777 0.748714 0.000000
0.156737 0.749357 0.000000
0.197538 0.750000 0.000000
0.236784 0.750642 0.000000
0.274826 0.751284 0.000000
0.311889 0.751927 0.000000
0.348131 0.752569 0.000000
0.383669 0.753211 0.000000
0.418591 0.753853 0.000000
0.452967 0.754495 0.000000
0.486854 0.755136 0.000000
0.520299 0.755778 0.000000
0.553339 0.756420 0.000000
0.586008 0.757061 0.000000
0.618335 0.757702 0.000000
0.650344 0.758343 0.000000
0.682056 0.758985 0.000000
0.713490 0.759626 0.000000
0.744663 0.760266 0.000000
0.775590 0.760907 0.000000
0.806284 0.761548 0.000000
0.836758 0.762189 0.000000
0.867023 0.762829 0.000000
0.897088 0.763469 0.000000
0.926962 0.764110 0.000000
0.956655 0.764750 0.000000
0.986174 0.765390 0.000000
1.000000 0.766030 0.000000
1.000000 0.766670 0.000000
1.000000 0.767310 0.000000
0.000000 0.776558 0.000000
0.009680 0.777196 0.000000
0.065388 0.777834 0.000000
0.111989 0.778472 0.000000
0.155055 0.779110 0.000000
0.195929 0.779748 0.000000
0.235230 0.780386 0.000000
0.273316 0.781023 0.000000
0.310415 0.781661 0.000000
0.346687 0.782298 0.000000
0.382252 0.782935 0.000000
0.417197 0.783573 0.000000
0.451594 0.784210 0.000000
0.485500 0.784847 0.000000
0.518961 0.785484 0.000000
0.552017 0.786121 0.000000
0.584701 0.786757 0.000000
0.617041 0.787394 0.000000
0.649062 0.788031 0.000000
0.680785 0.788667 0.000000
0.712230 0.789303 0.000000
0.743413 0.789940 0.000000
0.774350 0.790576 0.000000
0.805054 0.791212 0.000000
0.835536 0.791848 0.000000
0.865809 0.792484 0.000000
0.895882 0.793119 0.000000
0.925764 0.793755 0.000000
0.955464 0.794391 0.000000
0.984989 0.795026 0.000000
1.000000 0.795661 0.000000
1.000000 0.796297 0.000000
1.000000 0.796932 0.000000
0.000000 0.806114 0.000000
0.006736 0.806748 0.000000
0.063399 0.807381 0.000000
0.110196 0.808015 0.000000
0.153370 0.808648 0.000000
0.194318 0.809282 0.000000
0.233674 0.809915 0.000000
0.271804 0.810548 0.000000
0.308939 0.811181 0.000000
0.345242 0.811814 0.000000
0.380833 0.812447 0.000000
0.415802 0.813080 0.000000
0.450220 0.813712 0.000000
0.484144 0.814345 0.000000
0.517623 0.814978 0.000000
0.550694 0.815610 0.000000
0.583392 0.816242 0.000000
0.615746 0.816874 0.000000
0.647779 0.817507 0.000000
0.679514 0.818139 0.000000
0.710970 0.818770 0.000000
0.742164 0.819402 0.000000
0.773110 0.820034 0.000000
0.803823 0.820666 0.000000
0.834314 0.821297 0.000000
0.864595 0.821929 0.000000
0.894675 0.822560 0.000000
0.924565 0.823191 0.000000
0.954272 0.823823 0.000000
0.983805 0.824454 0.000000
1.000000 0.825085 0.000000
1.000000 0.825716 0.000000
1.000000 0.826346 0.000000
0.000000 0.835466 0.000000
0.003510 0.836095 0.000000
0.061398 0.836725 0.000000
0.108397 0.837354 0.000000
0.151682 0.837983 0.000000
0.192704 0.838612 0.000000
0.232116 0.839241 0.000000
0.270290 0.839870 0.000000
0.307462 0.840499 0.000000
0.343796 0.841128 0.000000
0.379414 0.841756 0.000000
0.414406 0.842385 0.000000
0.448845 0.843013 0.000000
0.482788 0.843642 0.000000
0.516284 0.844270 0.000000
0.549371 0.844898 0.000000
0.582084 0.845526 0.000000
0.614450 0.846154 0.000000
0.646496 0.846782 0.000000
0.678243 0.847410 0.000000
0.709710 0.848037 0.000000
0.740913 0.848665 0.000000
0.771869 0.849293 0.000000
0.802591 0.849920 0.000000
0.833091 0.850547 0.000000
0.863380 0.851175 0.000000
0.893469 0.851802 0.000000
0.923366 0.852429 0.000000
0.953080 0.853056 0.000000
0.982620 0.853683 0.000000
1.000000 0.854310 0.000000
1.000000 0.854937 0.000000
1.000000 0.855563 0.000000
0.000000 0.864623 0.000000
0.000000 0.865249 0.000000
0.059385 0.865874 0.000000
0.106592 0.866499 0.000000
0.149990 0.867124 0.000000
0.191088 0.867749 0.000000
0.230557 0.868374 0.000000
0.268775 0.868999 0.000000
0.305983 0.869624 0.000000
0.342349 0.870248 0.000000
0.377993 0.870873 0.000000
0.413009 0.871497 0.000000
0.447469 0.872122 0.000000
0.481431 0.872746 0.000000
0.514944 0.873370 0.000000
0.548047 0.873994 0.000000
0.580774 0.874618 0.000000
0.613154 0.875242 0.000000
0.645213 0.875866 0.000000
0.676971 0.876490 0.000000
0.708449 0.877114 0.000000
0.739663 0.877737 0.000000
0.770628 0.878361 0.000000
0.801359 0.878984 0.000000
0.831868 0.879608 0.000000
0.862165 0.880231 0.000000
0.892262 0.880854 0.000000
0.922167 0.881477 0.000000
0.951888 0.882100 0.000000
0.981434 0.882723 0.000000
1.000000 0.883346 0.000000
1.000000 0.883969 0.000000
1.000000 0.884592 0.000000
0.000000 0.893595 0.000000
0.000000 0.894216 0.000000
0.057359 0.894838 0.000000
0.104782 0.895459 0.000000
0.148294 0.896080 0.000000
0.189469 0.896701 0.000000
0.228995 0.897322 0.000000
0.267258 0.897943 0.000000
0.304503 0.898564 0.000000
0.340900 0.899185 0.000000
0.376572 0.899805 0.000000
0.411611 0.900426 0.000000
0.446092 0.901047 0.000000
0.480074 0.901667 0.000000
0.513604 0.902287 0.000000
0.546723 0.902908 0.000000
0.579464 0.903528 0.000000
0.611858 0.904148 0.000000
0.643929 0.904768 0.000000
0.675699 0.905388 0.000000
0.707187 0.906008 0.000000
0.738412 0.906628 0.000000
0.769387 0.907248 0.000000
0.800127 0.907867 0.000000
0.830645 0.908487 0.000000
