presets/film_stocks/Fuji_Natura_1600.cube
# 独寻胶片模拟 -- Fuji Natura 1600
# Fujifilm, ISO 1600, 2003, negative
TITLE "Fuji Natura 1600"
LUT_3D_SIZE 9
DOMAIN_MIN 0.0 0.0 0.0
DOMAIN_MAX 1.0 1.0 1.0
0.000000 0.000000 0.000000
0.194427 0.008133 0.000000
0.344779 0.014422 0.000000
0.482026 0.020162 0.000000
0.611401 0.025574 0.000000
0.735219 0.030753 0.000000
0.854783 0.035754 0.000000
0.970921 0.040612 0.000000
1.000000 0.045350 0.000000
0.000000 0.188370 0.000000
0.188171 0.191838 0.000000
0.339242 0.195292 0.000000
0.476869 0.198734 0.000000
0.606496 0.202163 0.000000
0.730501 0.205579 0.000000
0.850213 0.208984 0.000000
0.966471 0.212378 0.000000
1.000000 0.215760 0.000000
0.000000 0.334039 0.000000
0.181872 0.337117 0.000000
0.333686 0.340188 0.000000
0.471699 0.343254 0.000000
0.601582 0.346314 0.000000
0.725777 0.349368 0.000000
0.845637 0.352417 0.000000
0.962017 0.355460 0.000000
1.000000 0.358497 0.000000
0.000000 0.467012 0.000000
0.175526 0.469881 0.000000
0.328111 0.472746 0.000000
0.466518 0.475608 0.000000
0.596660 0.478466 0.000000
0.721046 0.481321 0.000000
0.841056 0.484172 0.000000
0.957559 0.487019 0.000000
1.000000 0.489864 0.000000
0.000000 0.592356 0.000000
0.169132 0.595086 0.000000
0.322515 0.597813 0.000000
0.461324 0.600538 0.000000
0.591729 0.603260 0.000000
0.716308 0.605979 0.000000
0.836470 0.608696 0.000000
0.953097 0.611410 0.000000
1.000000 0.614122 0.000000
0.000000 0.712318 0.000000
0.162686 0.714944 0.000000
0.316899 0.717569 0.000000
0.456118 0.720191 0.000000
0.586790 0.722811 0.000000
0.711564 0.725430 0.000000
0.831878 0.728046 0.000000
0.948630 0.730660 0.000000
1.000000 0.733273 0.000000
0.000000 0.828157 0.000000
0.156187 0.830702 0.000000
0.311262 0.833245 0.000000
0.450900 0.835787 0.000000
0.581842 0.838327 0.000000
0.706814 0.840865 0.000000
0.827281 0.843401 0.000000
0.944158 0.845936 0.000000
1.000000 0.848470 0.000000
0.000000 0.940678 0.000000
0.149630 0.943155 0.000000
0.305604 0.945632 0.000000
0.445669 0.948107 0.000000
0.576886 0.950580 0.000000
0.702056 0.953052 0.000000
0.822679 0.955523 0.000000
0.939682 0.957993 0.000000
1.000000 0.960461 0.000000
0.000000 1.000000 0.000000
0.143012 1.000000 0.000000
0.299923 1.000000 0.000000
0.440425 1.000000 0.000000
0.571920 1.000000 0.000000
0.697292 1.000000 0.000000
0.818071 1.000000 0.000000
0.935202 1.000000 0.000000
1.000000 1.000000 0.000000
0.000000 0.000000 0.188487
0.185644 0.000000 0.182440
0.337011 0.000000 0.176350
0.474792 0.000000 0.170216
0.604522 0.003893 0.164035
0.728603 0.010803 0.157805
0.848374 0.016825 0.151523
0.964682 0.022414 0.145186
1.000000 0.027722 0.138789
0.000000 0.175809 0.185395
0.179327 0.179327 0.179327
0.331447 0.182830 0.173215
0.469618 0.186318 0.167057
0.599605 0.189794 0.160851
0.723876 0.193256 0.154595
0.843796 0.196705 0.148284
0.960226 0.200141 0.141917
1.000000 0.203565 0.135490
0.000000 0.322942 0.182293
0.172962 0.326041 0.176202
0.325864 0.329134 0.170067
0.464431 0.332221 0.163885
0.594679 0.335302 0.157653
0.719142 0.338377 0.151370
0.839213 0.341446 0.145031
0.955766 0.344509 0.138633
1.000000 0.347567 0.132173
0.000000 0.456681 0.179179
0.166547 0.459563 0.173066
0.320260 0.462442 0.166907
0.459233 0.465317 0.160700
0.589745 0.468189 0.154442
0.714402 0.471056 0.148131
0.834625 0.473920 0.141762
0.951302 0.476780 0.135333
1.000000 0.479637 0.128839
0.000000 0.582534 0.176054
0.160080 0.585274 0.169917
0.314636 0.588010 0.163734
0.454022 0.590744 0.157502
0.584802 0.593476 0.151217
0.709655 0.596205 0.144876
0.830031 0.598931 0.138477
0.946833 0.601654 0.132016
1.000000 0.604375 0.125487
0.000000 0.702872 0.172917
0.153558 0.705506 0.166757
0.308990 0.708138 0.160549
0.448799 0.710767 0.154290
0.579851 0.713395 0.147977
0.704902 0.716021 0.141607
0.825432 0.718644 0.135176
0.942360 0.721266 0.128681
1.000000 0.723885 0.122115
0.000000 0.819008 0.169768
0.146977 0.821559 0.163583
0.303323 0.824108 0.157350
0.443562 0.826655 0.151063
0.574891 0.829201 0.144722
0.700142 0.831745 0.138321
0.820828 0.834288 0.131858
0.937882 0.836828 0.125327
1.000000 0.839368 0.118724
0.000000 0.931771 0.166607
0.140334 0.934254 0.160397
0.297634 0.936735 0.154137
0.438313 0.939215 0.147823
0.569921 0.941694 0.141452
0.695375 0.944171 0.135019
0.816218 0.946647 0.128522
0.933400 0.949121 0.121955
1.000000 0.951594 0.115313
0.000000 1.000000 0.163433
0.133624 1.000000 0.157198
0.291921 1.000000 0.150910
0.433050 1.000000 0.144567
0.564943 1.000000 0.138165
0.690601 1.000000 0.131700
0.811602 1.000000 0.125168
0.928913 1.000000 0.118563
1.000000 1.000000 0.111880
0.000000 0.000000 0.334246
0.176774 0.000000 0.328894
0.329205 0.000000 0.323523
0.467535 0.000000 0.318133
0.597626 0.000000 0.312724
0.721974 0.000000 0.307295
0.841954 0.000000 0.301846
0.958434 0.000000 0.296377
1.000000 0.006903 0.290886
0.000000 0.163056 0.331507
0.170389 0.166629 0.326145
0.323614 0.170186 0.320765
0.462343 0.173727 0.315365
0.592697 0.177253 0.309946
0.717238 0.180765 0.304507
0.837369 0.184262 0.299048
0.953972 0.187745 0.293567
1.000000 0.191215 0.288065
0.000000 0.311764 0.328763
0.163954 0.314886 0.323392
0.318002 0.318002 0.318002
0.457140 0.321111 0.312593
0.587759 0.324214 0.307163
0.712495 0.327310 0.301714
0.832779 0.330401 0.296244
0.949506 0.333485 0.290752
1.000000 0.336564 0.285239
0.000000 0.446301 0.326015
0.157466 0.449197 0.320634
0.312369 0.452090 0.315234
0.451924 0.454978 0.309815
0.582813 0.457863 0.304375
0.707746 0.460744 0.298915
0.828183 0.463622 0.293434
0.945035 0.466495 0.287932
1.000000 0.469365 0.282407
0.000000 0.572677 0.323262
0.150920 0.575427 0.317871
0.306715 0.578173 0.312461
0.446695 0.580917 0.307031
0.577858 0.583658 0.301581
0.702989 0.586396 0.296111
0.823582 0.589132 0.290619
0.940560 0.591865 0.285105
1.000000 0.594595 0.279569
0.000000 0.693400 0.320503
0.144315 0.696041 0.315103
0.301039 0.698681 0.309683
0.441454 0.701318 0.304243
0.572894 0.703953 0.298782
0.698227 0.706585 0.293301
0.818975 0.709216 0.287798
0.936081 0.711845 0.282272
1.000000 0.714472 0.276724
0.000000 0.809838 0.317740
0.137645 0.812394 0.312329
0.295340 0.814949 0.306899
0.436199 0.817503 0.301449
0.567921 0.820054 0.295978
0.693457 0.822604 0.290485
0.814363 0.825153 0.284971
0.931597 0.827699 0.279434
1.000000 0.830244 0.273874
0.000000 0.922847 0.314971
0.130907 0.925335 0.309551
0.289618 0.927821 0.304111
0.430931 0.930306 0.298650
0.562939 0.932790 0.293168
0.688680 0.935272 0.287664
0.809746 0.937752 0.282138
0.927108 0.940232 0.276589
1.000000 0.942710 0.271017
0.000000 1.000000 0.312198
0.124095 1.000000 0.306767
0.283872 1.000000 0.301316
0.425650 1.000000 0.295845
0.557948 1.000000 0.290352
0.683897 1.000000 0.284837
0.805123 1.000000 0.279299
0.922615 1.000000 0.273739
1.000000 1.000000 0.268154
0.000000 0.000000 0.467301
0.167809 0.000000 0.462315
0.321361 0.000000 0.457317
0.460253 0.000000 0.452308
0.590713 0.000000 0.447288
0.715332 0.000000 0.442256
0.835525 0.000000 0.437211
0.952177 0.000000 0.432154
1.000000 0.000000 0.427085
0.000000 0.150090 0.464749
0.161353 0.153725 0.459757
0.315740 0.157342 0.454754
0.455045 0.160941 0.449739
0.585772 0.164523 0.444712
0.710587 0.168089 0.439674
0.830932 0.171640 0.434623
0.947709 0.175175 0.429560
1.000000 0.178695 0.424484
0.000000 0.300502 0.462193
0.154842 0.303648 0.457196
0.310099 0.306787 0.452187
0.449824 0.309920 0.447166
0.580823 0.313045 0.442133
0.705835 0.316165 0.437089
0.826334 0.319278 0.432032
0.943237 0.322384 0.426962
1.000000 0.325484 0.421880
0.000000 0.435870 0.459635
0.148273 0.438780 0.454632
0.304436 0.441687 0.449617
0.444590 0.444590 0.444590
0.575864 0.447489 0.439551
0.701076 0.450384 0.434500
0.821731 0.453275 0.429437
0.938760 0.456162 0.424361
1.000000 0.459045 0.419272
0.000000 0.562785 0.457074
0.141642 0.565544 0.452065
0.298751 0.568301 0.447044
0.439343 0.571054 0.442011
0.570896 0.573805 0.436966
0.696310 0.576553 0.431909
0.817122 0.579298 0.426839
0.934279 0.582041 0.421756
1.000000 0.584781 0.416661
0.000000 0.683901 0.454510
0.134945 0.686550 0.449495
0.293043 0.689196 0.444468
0.434083 0.691841 0.439429
0.565920 0.694483 0.434377
0.691538 0.697124 0.429314
0.812508 0.699762 0.424238
0.929793 0.702398 0.419149
1.000000 0.705032 0.414047
0.000000 0.800645 0.451943
0.128178 0.803208 0.446922
0.287312 0.805769 0.441889
0.428810 0.808328 0.436843
0.560934 0.810886 0.431786
0.686758 0.813442 0.426716
0.807888 0.815996 0.421633
0.925303 0.818549 0.416537
1.000000 0.821100 0.411429
0.000000 0.913905 0.449373
0.121335 0.916398 0.444346
0.281556 0.918889 0.439306
0.423523 0.921379 0.434255
0.555939 0.923868 0.429191
0.681972 0.926355 0.424114
0.803263 0.928840 0.419025
0.920808 0.931325 0.413923
1.000000 0.933808 0.408807
0.000000 1.000000 0.446800
0.114409 1.000000 0.441766
0.275776 1.000000 0.436721
0.418222 1.000000 0.431663
0.550934 1.000000 0.426593
0.677178 1.000000 0.421509
0.798632 1.000000 0.416414
0.916308 1.000000 0.411304
1.000000 1.000000 0.406182
0.000000 0.000000 0.592723
0.158742 0.000000 0.587981
0.313475 0.000000 0.583231
0.452948 0.000000 0.578473
0.583784 0.000000 0.573707
0.708677 0.000000 0.568932
0.829085 0.000000 0.564149
0.945912 0.000000 0.559357
1.000000 0.000000 0.554557
0.000000 0.136884 0.590295
0.152208 0.140589 0.585549
0.307825 0.144273 0.580795
0.447722 0.147937 0.576033
0.578830 0.151583 0.571262
0.703923 0.155210 0.566484
0.824484 0.158819 0.561696
0.941438 0.162412 0.556900
1.000000 0.165987 0.552095
0.000000 0.289150 0.587866
0.145615 0.292321 0.583116
0.302154 0.295485 0.578357
0.442483 0.298643 0.573591
0.573868 0.301793 0.568816
0.699161 0.304936 0.564033
0.819879 0.308072 0.559241
0.936960 0.311202 0.554441
1.000000 0.314325 0.549631
0.000000 0.425386 0.585434
0.138958 0.428312 0.580680
0.296459 0.431233 0.575917
0.437231 0.434150 0.571147
0.568897 0.437064 0.566367
0.694393 0.439973 0.561580
0.815268 0.442878 0.556784
0.932476 0.445779 0.551979
1.000000 0.448676 0.547165
0.000000 0.552856 0.583000
0.132234 0.555625 0.578242
0.290742 0.558392 0.573475
0.431965 0.561156 0.568700
0.563917 0.563917 0.563917
0.689617 0.566675 0.559125
0.810652 0.569430 0.554324
0.927989 0.572182 0.549515
1.000000 0.574932 0.544696
0.000000 0.674373 0.580564
0.125437 0.677030 0.575802
0.285001 0.679685 0.571031
0.426687 0.682337 0.566251
0.558927 0.684987 0.561464
0.684835 0.687635 0.556667
0.806030 0.690281 0.551862
0.923497 0.692925 0.547048
1.000000 0.695566 0.542225
0.000000 0.791430 0.578126
0.118561 0.793999 0.573359
0.279236 0.796567 0.568584
0.421394 0.799132 0.563800
0.553928 0.801696 0.559008
0.680046 0.804258 0.554207
0.801402 0.806819 0.549398
0.919000 0.809377 0.544579
1.000000 0.811934 0.539752
0.000000 0.904945 0.575686
0.111601 0.907443 0.570915
0.273445 0.909939 0.566135
0.416087 0.912434 0.561347
0.548919 0.914928 0.556551
0.675250 0.917420 0.551745
0.796769 0.919910 0.546931
0.914499 0.922400 0.542108
1.000000 0.924888 0.537276
0.000000 1.000000 0.573243
0.104549 1.000000 0.568468
0.267629 1.000000 0.563684
0.410767 1.000000 0.558892
0.543901 1.000000 0.554091
0.670446 1.000000 0.549281
0.792130 1.000000 0.544462
0.909992 1.000000 0.539635
1.000000 1.000000 0.534798
0.000000 0.000000 0.712759
0.149565 0.000000 0.708198
0.305548 0.000000 0.703631
0.445617 0.000000 0.699057
0.576837 0.000000 0.694477
0.702009 0.000000 0.689891
0.822634 0.000000 0.685299
0.939638 0.000000 0.680700
1.000000 0.000000 0.676095
0.000000 0.123405 0.710424
0.142947 0.127189 0.705859
0.299867 0.130950 0.701289
0.440373 0.134689 0.696713
0.571871 0.138406 0.692130
0.697245 0.142102 0.687540
0.818026 0.145778 0.682945
0.935158 0.149434 0.678342
1.000000 0.153072 0.673734
0.000000 0.277703 0.708087
0.136264 0.280902 0.703520
0.294164 0.284092 0.698946
0.435116 0.287275 0.694366
0.566896 0.290451 0.689780
0.692474 0.293619 0.685188
0.813413 0.296781 0.680588
0.930673 0.299935 0.675983
1.000000 0.303082 0.671371
0.000000 0.414847 0.705749
0.129511 0.417789 0.701178
0.288437 0.420725 0.696601
0.429845 0.423658 0.692018
0.561912 0.426586 0.687429
0.687696 0.429510 0.682833
0.808794 0.432430 0.678231
0.926184 0.435345 0.673622
1.000000 0.438257 0.669006
0.000000 0.542889 0.703409
0.122683 0.545669 0.698835
0.282686 0.548446 0.694255
0.424561 0.551220 0.689669
0.556919 0.553992 0.685076
0.682911 0.556760 0.680477
0.804170 0.559525 0.675871
0.921690 0.562288 0.671259
1.000000 0.565048 0.666640
0.000000 0.664818 0.701067
0.115774 0.667482 0.696490
0.276911 0.670145 0.691907
0.419263 0.672805 0.687317
0.551916 0.675463 0.682721
0.678119 0.678119 0.678119
0.799540 0.680772 0.673510
0.917191 0.683424 0.668894
1.000000 0.686073 0.664271
0.000000 0.782193 0.698724
0.108778 0.784768 0.694144
0.271110 0.787342 0.689557
0.413950 0.789914 0.684964
0.546904 0.792484 0.680365
0.673320 0.795052 0.675759
0.794905 0.797619 0.671147
0.912688 0.800184 0.666527
1.000000 0.802747 0.661902
0.000000 0.895965 0.696379
0.101686 0.898468 0.691796
0.265283 0.900970 0.687206
0.408624 0.903470 0.682610
0.541882 0.905969 0.678007
0.668513 0.908466 0.673398
0.790264 0.910962 0.668782
0.908180 0.913457 0.664159
1.000000 0.915950 0.659530
0.000000 1.000000 0.694033
0.094488 1.000000 0.689446
0.259429 1.000000 0.684853
0.403283 1.000000 0.680253
0.536850 1.000000 0.675647
0.663700 1.000000 0.671035
0.785617 1.000000 0.666415
0.903667 1.000000 0.661789
1.000000 1.000000 0.657156
0.000000 0.000000 0.828670
0.140269 0.000000 0.824251
0.297578 0.000000 0.819828
0.438261 0.000000 0.815400
0.569872 0.000000 0.810966
0.695328 0.000000 0.806528
0.816173 0.000000 0.802084
0.933356 0.000000 0.797635
1.000000 0.000000 0.793181
0.000000 0.109607 0.826408
0.133558 0.113486 0.821987
0.291865 0.117336 0.817561
0.432999 0.121160 0.813130
0.564894 0.124959 0.808694
0.690554 0.128734 0.804253
0.811557 0.132486 0.799806
0.928869 0.136215 0.795355
1.000000 0.139924 0.790898
0.000000 0.266157 0.824144
0.126775 0.269384 0.819721
0.286129 0.272602 0.815292
0.427723 0.275813 0.810859
0.559906 0.279016 0.806420
0.685773 0.282211 0.801976
0.806936 0.285398 0.797527
0.924378 0.288578 0.793073
1.000000 0.291751 0.788613
0.000000 0.404253 0.821879
0.119916 0.407210 0.817453
0.280368 0.410162 0.813022
0.422433 0.413110 0.808586
0.554909 0.416054 0.804145
0.680986 0.418993 0.799698
0.802310 0.421928 0.795247
0.919882 0.424859 0.790790
1.000000 0.427785 0.786327
0.000000 0.532883 0.819613
0.112973 0.535674 0.815185
0.274582 0.538462 0.810751
0.417129 0.541247 0.806312
0.549902 0.544029 0.801868
0.676191 0.546808 0.797419
0.797678 0.549584 0.792965
0.915382 0.552357 0.788505
1.000000 0.555127 0.784040
0.000000 0.655233 0.817346
0.105939 0.657906 0.812915
0.268771 0.660577 0.808478
0.411811 0.663245 0.804037
0.544886 0.665911 0.799590
0.671389 0.668574 0.795138
0.793040 0.671236 0.790681
0.910876 0.673895 0.786219
1.000000 0.676552 0.781751
0.000000 0.772933 0.815077
0.098806 0.775515 0.810643
0.262933 0.778095 0.806204
0.406479 0.780673 0.801760
0.539860 0.783249 0.797311
0.666579 0.785824 0.792857
0.788397 0.788397 0.788397
0.906367 0.790968 0.783932
1.000000 0.793537 0.779461
0.000000 0.886967 0.812807
0.091562 0.889476 0.808371
0.257068 0.891982 0.803929
0.401131 0.894488 0.799482
0.534824 0.896992 0.795030
0.661763 0.899494 0.790573
0.783748 0.901995 0.786111
0.901852 0.904495 0.781643
1.000000 0.906993 0.777170
0.000000 0.997993 0.810536
0.084196 1.000000 0.806096
0.251175 1.000000 0.801652
0.395769 1.000000 0.797203
0.529779 1.000000 0.792748
0.656939 1.000000 0.788288
0.779093 1.000000 0.783823
0.897333 1.000000 0.779353
1.000000 1.000000 0.774877
0.000000 0.000000 0.941260
0.130840 0.000000 0.936958
0.289562 0.000000 0.932653
0.430880 0.000000 0.928343
0.562890 0.000000 0.924029
0.688633 0.000000 0.919711
0.809700 0.000000 0.915388
0.927064 0.000000 0.911062
1.000000 0.000000 0.906731
0.000000 0.095434 0.939057
0.124028 0.099424 0.934754
0.283816 0.103381 0.930446
0.425598 0.107306 0.926134
0.557898 0.111201 0.921818
0.683850 0.115068 0.917498
0.805077 0.118907 0.913173
0.922571 0.122721 0.908844
1.000000 0.126510 0.904511
0.000000 0.254504 0.936854
0.117135 0.257761 0.932548
0.278045 0.261010 0.928238
0.420303 0.264249 0.923924
0.552898 0.267481 0.919606
0.679059 0.270704 0.915283
0.800449 0.273920 0.910957
0.918074 0.277127 0.906625
1.000000 0.280327 0.902290
0.000000 0.393599 0.934649
0.110157 0.396573 0.930341
0.272250 0.399542 0.926029
0.414993 0.402506 0.921713
0.547887 0.405466 0.917393
0.674261 0.408421 0.913068
0.795814 0.411372 0.908739
0.913571 0.414318 0.904406
1.000000 0.417260 0.900068
0.000000 0.522838 0.932444
0.103084 0.525641 0.928134
0.266428 0.528440 0.923819
0.409669 0.531235 0.919501
0.542867 0.534028 0.915178
0.669456 0.536818 0.910851
0.791174 0.539605 0.906520
0.909064 0.542388 0.902185
1.000000 0.545169 0.897845
0.000000 0.645619 0.930237
0.095908 0.648300 0.925925
0.260579 0.650979 0.921608
0.404331 0.653655 0.917288
0.537837 0.656329 0.912963
0.664644 0.659001 0.908634
0.786529 0.661671 0.904300
0.904552 0.664338 0.899962
1.000000 0.667003 0.895620
0.000000 0.763649 0.928029
0.088617 0.766237 0.923715
0.254703 0.768824 0.919396
0.398978 0.771409 0.915073
0.532797 0.773992 0.910746
0.659824 0.776573 0.906415
0.781877 0.779152 0.902079
0.900036 0.781729 0.897739
1.000000 0.784305 0.893395
0.000000 0.877950 0.925820
0.081198 0.880464 0.921504
0.248798 0.882976 0.917183
0.393610 0.885487 0.912858
0.527748 0.887996 0.908529
0.654997 0.890504 0.904195
0.777220 0.893010 0.899857
0.895515 0.895515 0.895515
1.000000 0.898018 0.891168
0.000000 0.989198 0.923610
0.073633 0.991649 0.919291
0.242863 0.994100 0.914969
0.388226 0.996549 0.910641
0.522688 0.998997 0.906310
0.650163 1.000000 0.901974
0.772557 1.000000 0.897634
0.890989 1.000000 0.893289
1.000000 1.000000 0.888940
0.000000 0.000000 1.000000
0.121267 0.000000 1.000000
0.281499 0.000000 1.000000
0.423471 0.000000 1.000000
0.555889 0.000000 1.000000
0.681925 0.000000 1.000000
0.803217 0.000000 1.000000
0.920764 0.000000 1.000000
1.000000 0.000000 1.000000
0.000000 0.080803 1.000000
0.114341 0.084930 1.000000
0.275719 0.089017 1.000000
0.418170 0.093064 1.000000
0.550885 0.097074 1.000000
0.677131 0.101051 1.000000
0.798587 0.104994 1.000000
0.916264 0.108907 1.000000
1.000000 0.112790 1.000000
0.000000 0.242738 1.000000
0.107326 0.246028 1.000000
0.269913 0.249308 1.000000
0.412855 0.252579 1.000000
0.545870 0.255841 1.000000
0.672331 0.259094 1.000000
0.793950 0.262339 1.000000
0.911760 0.265575 1.000000
1.000000 0.268804 1.000000
0.000000 0.382885 1.000000
0.100213 0.385875 1.000000
0.264080 0.388861 1.000000
0.407525 0.391843 1.000000
0.540846 0.394819 1.000000
0.667523 0.397791 1.000000
0.789308 0.400758 1.000000
0.907251 0.403720 1.000000
1.000000 0.406678 1.000000
0.000000 0.512753 1.000000
0.092992 0.515566 1.000000
0.258221 0.518377 1.000000
0.402181 0.521184 1.000000
0.535812 0.523988 1.000000
0.662708 0.526789 1.000000
0.784660 0.529586 1.000000
0.902738 0.532381 1.000000
1.000000 0.535172 1.000000
0.000000 0.635975 1.000000
0.085651 0.638665 1.000000
0.252333 0.641352 1.000000
0.396822 0.644036 1.000000
0.530769 0.646719 1.000000
0.657885 0.649399 1.000000
0.780006 0.652077 1.000000
0.898219 0.654752 1.000000
1.000000 0.657425 1.000000
0.000000 0.754342 1.000000
0.078176 0.756937 1.000000
0.246416 0.759530 1.000000
0.391447 0.762121 1.000000
0.525715 0.764711 1.000000
0.653055 0.767298 1.000000
0.775346 0.769884 1.000000
0.893696 0.772468 1.000000
1.000000 0.775050 1.000000
0.000000 0.868913 1.000000
0.070547 0.871432 1.000000
0.240469 0.873950 1.000000
0.386057 0.876466 1.000000
0.520651 0.878981 1.000000
0.648218 0.881494 1.000000
0.770681 0.884005 1.000000
0.889168 0.886516 1.000000
1.000000 0.889024 1.000000
0.000000 0.980385 1.000000
0.062740 0.982842 1.000000
0.234492 0.985297 1.000000
0.380652 0.987750 1.000000
0.515576 0.990203 1.000000
0.643373 0.992654 1.000000
0.766009 0.995104 1.000000
0.884635 0.997553 1.000000
1.000000 1.000000 1.000000
