presets/film_stocks/Fuji_Crystal_Archive_Pro_PDII.cube
# 独寻胶片模拟 -- Fuji Crystal Archive Pro PDII
# Fujifilm, ISO 0, 2003, negative
TITLE "Fuji Crystal Archive Pro PDII"
LUT_3D_SIZE 5
DOMAIN_MIN 0.0 0.0 0.0
DOMAIN_MAX 1.0 1.0 1.0
0.000000 0.000000 0.000000
0.554040 0.008674 0.000000
0.922331 0.014439 0.000000
1.000000 0.019455 0.000000
1.000000 0.024038 0.000000
0.000000 0.390460 0.000000
0.490161 0.392078 0.000000
0.869746 0.393695 0.000000
1.000000 0.395308 0.000000
1.000000 0.396920 0.000000
0.000000 0.650013 0.000000
0.423123 0.651361 0.000000
0.815990 0.652708 0.000000
1.000000 0.654053 0.000000
1.000000 0.655398 0.000000
0.000000 0.875792 0.000000
0.351998 0.877003 0.000000
0.760926 0.878213 0.000000
1.000000 0.879422 0.000000
1.000000 0.880631 0.000000
0.000000 1.000000 0.000000
0.275220 1.000000 0.000000
0.704388 1.000000 0.000000
1.000000 1.000000 0.000000
1.000000 1.000000 0.000000
0.000000 0.000000 0.366807
0.431402 0.000000 0.364837
0.822539 0.000000 0.362864
1.000000 0.000000 0.360886
1.000000 0.000000 0.358905
0.000000 0.359167 0.362813
0.360835 0.360835 0.360835
0.767642 0.362500 0.358854
1.000000 0.364162 0.356868
1.000000 0.365822 0.354879
0.000000 0.624162 0.358803
0.284859 0.625529 0.356817
0.711291 0.626896 0.354828
1.000000 0.628261 0.352834
1.000000 0.629625 0.350836
0.000000 0.852628 0.354776
0.200615 0.853851 0.352783
0.653283 0.855073 0.350785
1.000000 0.856294 0.348783
1.000000 0.857514 0.346777
0.000000 1.000000 0.350733
0.100206 1.000000 0.348732
0.593356 1.000000 0.346725
0.955258 1.000000 0.344715
1.000000 1.000000 0.342701
0.000000 0.000000 0.610637
0.294382 0.000000 0.608998
0.718170 0.000000 0.607358
1.000000 0.000000 0.605716
1.000000 0.000000 0.604072
0.000000 0.326859 0.607316
0.211381 0.328584 0.605674
0.660375 0.330306 0.604030
1.000000 0.332025 0.602385
1.000000 0.333741 0.600738
0.000000 0.597919 0.603988
0.113836 0.599308 0.602342
0.600696 0.600696 0.600696
0.961448 0.602082 0.599047
1.000000 0.603467 0.597397
0.000000 0.829236 0.600653
0.000000 0.830471 0.599005
0.538796 0.831705 0.597354
0.909674 0.832938 0.595703
1.000000 0.834171 0.594049
0.000000 1.000000 0.597312
0.000000 1.000000 0.595660
0.474215 1.000000 0.594007
0.856816 1.000000 0.592351
1.000000 1.000000 0.590694
0.000000 0.000000 0.822739
0.126900 0.000000 0.821267
0.608003 0.000000 0.819794
0.967623 0.000000 0.818321
1.000000 0.000000 0.816846
0.000000 0.293356 0.819756
0.000000 0.295149 0.818283
0.546393 0.296939 0.816808
0.915973 0.298724 0.815332
1.000000 0.300506 0.813856
0.000000 0.571255 0.816770
0.000000 0.572667 0.815295
0.482166 0.574077 0.813818
0.863252 0.575486 0.812340
1.000000 0.576894 0.810862
0.000000 0.805603 0.813780
0.000000 0.806851 0.812302
0.414687 0.808098 0.810824
0.809344 0.809344 0.809344
1.000000 0.810590 0.807864
0.000000 1.000000 0.810786
0.000000 1.000000 0.809306
0.342974 1.000000 0.807826
0.754110 1.000000 0.806344
1.000000 1.000000 0.804862
0.000000 0.000000 1.000000
0.000000 0.000000 1.000000
0.490069 0.000000 1.000000
0.869671 0.000000 1.000000
1.000000 0.000000 1.000000
0.000000 0.258410 1.000000
0.000000 0.260287 1.000000
0.423025 0.262159 1.000000
0.815913 0.264026 1.000000
1.000000 0.265888 1.000000
0.000000 0.544135 1.000000
0.000000 0.545571 1.000000
0.351893 0.547007 1.000000
0.760847 0.548441 1.000000
1.000000 0.549873 1.000000
0.000000 0.781719 1.000000
0.000000 0.782980 1.000000
0.275106 0.784240 1.000000
0.704307 0.785500 1.000000
1.000000 0.786759 1.000000
0.000000 0.995378 1.000000
0.000000 0.996534 1.000000
0.189506 0.997690 1.000000
0.646080 0.998845 1.000000
1.000000 1.000000 1.000000
