presets/film_stocks/Fuji_Crystal_Archive_Super_Type_C.cube
# 独寻胶片模拟 -- Fuji Crystal Archive Super Type C
# Fujifilm, ISO 0, 2007, negative
TITLE "Fuji Crystal Archive Super Type C"
LUT_3D_SIZE 33
DOMAIN_MIN 0.0 0.0 0.0
DOMAIN_MAX 1.0 1.0 1.0
0.000000 0.000000 0.000000
0.035667 0.000000 0.000759
0.066228 0.000000 0.001410
0.095119 0.000000 0.002025
0.122976 0.000000 0.002618
0.150088 0.000000 0.003195
0.176622 0.000000 0.003760
0.202684 0.000000 0.004315
0.228348 0.000000 0.004861
0.253670 0.000000 0.005401
0.278692 0.000000 0.005933
0.303446 0.000000 0.006460
0.327960 0.000000 0.006982
0.352257 0.000000 0.007499
0.376353 0.000000 0.008012
0.400266 0.000000 0.008521
0.424008 0.000000 0.009027
0.447592 0.000000 0.009529
0.471027 0.000000 0.010028
0.494323 0.000000 0.010524
0.517489 0.000000 0.011017
0.540530 0.000000 0.011508
0.563454 0.000000 0.011996
0.586267 0.000000 0.012481
0.608973 0.000000 0.012965
0.631579 0.000000 0.013446
0.654088 0.000000 0.013925
0.676504 0.000000 0.014402
0.698831 0.000000 0.014878
0.721073 0.000000 0.015351
0.743233 0.000000 0.015823
0.765314 0.000000 0.016293
0.787319 0.000000 0.016762
0.004619 0.051016 0.000000
0.038877 0.050627 0.000000
0.069216 0.050237 0.000526
0.097983 0.049847 0.001195
0.125754 0.049457 0.001820
0.152801 0.049066 0.002420
0.179283 0.048675 0.003002
0.205301 0.048283 0.003571
0.230929 0.047891 0.004129
0.256219 0.047499 0.004678
0.281212 0.047106 0.005219
0.305941 0.046713 0.005754
0.330432 0.046319 0.006283
0.354707 0.045926 0.006806
0.378784 0.045531 0.007325
0.402679 0.045136 0.007840
0.426405 0.044741 0.008350
0.449973 0.044346 0.008857
0.473394 0.043950 0.009360
0.496677 0.043553 0.009860
0.519829 0.043156 0.010357
0.542858 0.042759 0.010851
0.565771 0.042361 0.011342
0.588572 0.041963 0.011831
0.611269 0.041565 0.012318
0.633864 0.041165 0.012802
0.656363 0.040766 0.013284
0.678770 0.040366 0.013764
0.701089 0.039965 0.014242
0.723322 0.039564 0.014718
0.745474 0.039163 0.015192
0.767547 0.038761 0.015664
0.789545 0.038358 0.016135
0.008577 0.094730 0.000000
0.042056 0.094368 0.000000
0.072189 0.094007 0.000000
0.100836 0.093645 0.000278
0.128524 0.093283 0.000976
0.155509 0.092921 0.001613
0.181939 0.092559 0.002220
0.207915 0.092196 0.002807
0.233506 0.091834 0.003380
0.258764 0.091471 0.003941
0.283729 0.091108 0.004493
0.308433 0.090745 0.005037
0.332901 0.090382 0.005574
0.357156 0.090018 0.006105
0.381214 0.089655 0.006630
0.405091 0.089291 0.007151
0.428800 0.088927 0.007666
0.452353 0.088563 0.008178
0.475759 0.088198 0.008686
0.499028 0.087834 0.009190
0.522168 0.087469 0.009691
0.545185 0.087104 0.010189
0.568086 0.086739 0.010684
0.590877 0.086374 0.011177
0.613563 0.086008 0.011666
0.636148 0.085643 0.012154
0.658638 0.085277 0.012639
0.681036 0.084911 0.013121
0.703346 0.084545 0.013602
0.725571 0.084178 0.014080
0.747715 0.083812 0.014557
0.769780 0.083445 0.015032
0.791770 0.083078 0.015505
0.012318 0.136054 0.000000
0.045206 0.135708 0.000000
0.075147 0.135362 0.000000
0.103680 0.135016 0.000000
0.131288 0.134669 0.000000
0.158210 0.134323 0.000751
0.184591 0.133976 0.001402
0.210525 0.133630 0.002017
0.236080 0.133283 0.002611
0.261307 0.132936 0.003188
0.286244 0.132589 0.003753
0.310923 0.132242 0.004308
0.335369 0.131895 0.004854
0.359602 0.131547 0.005394
0.383641 0.131200 0.005926
0.407501 0.130852 0.006454
0.431194 0.130505 0.006975
0.454731 0.130157 0.007493
0.478123 0.129809 0.008006
0.501379 0.129461 0.008515
0.524506 0.129113 0.009020
0.547511 0.128765 0.009523
0.570401 0.128416 0.010022
0.593181 0.128068 0.010518
0.615856 0.127719 0.011011
0.638431 0.127371 0.011501
0.660912 0.127022 0.011989
0.683300 0.126673 0.012475
0.705602 0.126324 0.012959
0.727818 0.125975 0.013440
0.749954 0.125626 0.013919
0.772012 0.125276 0.014396
0.793994 0.124927 0.014872
0.015926 0.175899 0.000000
0.048329 0.175564 0.000000
0.078091 0.175228 0.000000
0.106515 0.174892 0.000000
0.134044 0.174557 0.000000
0.160906 0.174221 0.000000
0.187238 0.173885 0.000517
0.213131 0.173549 0.001187
0.238650 0.173213 0.001812
0.263846 0.172877 0.002412
0.288756 0.172540 0.002995
0.313410 0.172204 0.003564
0.337834 0.171868 0.004122
0.362047 0.171531 0.004671
0.386067 0.171195 0.005212
0.409909 0.170858 0.005747
0.433586 0.170522 0.006276
0.457108 0.170185 0.006800
0.480486 0.169848 0.007319
0.503728 0.169511 0.007833
0.526843 0.169174 0.008344
0.549836 0.168837 0.008850
0.572714 0.168500 0.009353
0.595483 0.168163 0.009853
0.618148 0.167825 0.010350
0.640714 0.167488 0.010845
0.663184 0.167150 0.011336
0.685564 0.166813 0.011825
0.707857 0.166475 0.012311
0.730065 0.166137 0.012796
0.752193 0.165800 0.013278
0.774242 0.165462 0.013758
0.796217 0.165124 0.014235
0.019437 0.214679 0.000000
0.051429 0.214352 0.000000
0.081022 0.214024 0.000000
0.109340 0.213696 0.000000
0.136794 0.213369 0.000000
0.163597 0.213041 0.000000
0.189880 0.212713 0.000000
0.215733 0.212385 0.000268
0.241218 0.212057 0.000968
0.266383 0.211729 0.001605
0.291265 0.211401 0.002212
0.315895 0.211073 0.002800
0.340296 0.210744 0.003373
0.364489 0.210416 0.003934
0.388491 0.210088 0.004486
0.412316 0.209759 0.005030
0.435976 0.209431 0.005567
0.459483 0.209102 0.006098
0.482847 0.208774 0.006624
0.506076 0.208445 0.007144
0.529178 0.208116 0.007660
0.552159 0.207788 0.008172
0.575026 0.207459 0.008680
0.597784 0.207130 0.009184
0.620439 0.206801 0.009685
0.642995 0.206472 0.010183
0.665456 0.206143 0.010678
0.687827 0.205813 0.011170
0.710111 0.205484 0.011660
0.732311 0.205155 0.012147
0.754431 0.204825 0.012632
0.776473 0.204496 0.013115
0.798440 0.204167 0.013596
0.022873 0.252632 0.000000
0.054507 0.252310 0.000000
0.083940 0.251989 0.000000
0.112157 0.251668 0.000000
0.139537 0.251346 0.000000
0.166282 0.251025 0.000000
0.192518 0.250704 0.000000
0.218331 0.250382 0.000000
0.243782 0.250060 0.000000
0.268917 0.249739 0.000742
0.293772 0.249417 0.001394
0.318378 0.249095 0.002010
0.342757 0.248774 0.002603
0.366930 0.248452 0.003181
0.390913 0.248130 0.003746
0.414720 0.247808 0.004301
0.438365 0.247486 0.004848
0.461857 0.247164 0.005387
0.485207 0.246842 0.005920
0.508423 0.246520 0.006447
0.531512 0.246198 0.006969
0.554481 0.245875 0.007486
0.577337 0.245553 0.007999
0.600085 0.245231 0.008508
0.622729 0.244908 0.009014
0.645275 0.244586 0.009516
0.667727 0.244263 0.010015
0.690089 0.243941 0.010511
0.712364 0.243618 0.011005
0.734556 0.243296 0.011495
0.756668 0.242973 0.011983
0.778702 0.242650 0.012469
0.800662 0.242327 0.012952
0.026248 0.289909 0.000000
0.057563 0.289593 0.000000
0.086846 0.289277 0.000000
0.114965 0.288961 0.000000
0.142273 0.288645 0.000000
0.168962 0.288329 0.000000
0.195152 0.288013 0.000000
0.220926 0.287696 0.000000
0.246342 0.287380 0.000000
0.271447 0.287064 0.000000
0.296277 0.286747 0.000508
0.320858 0.286431 0.001179
0.345216 0.286115 0.001805
0.369369 0.285798 0.002405
0.393333 0.285482 0.002987
0.417124 0.285165 0.003556
0.440752 0.284849 0.004115
0.464230 0.284532 0.004664
0.487566 0.284215 0.005206
0.510768 0.283899 0.005740
0.533845 0.283582 0.006269
0.556802 0.283265 0.006793
0.579647 0.282948 0.007312
0.602384 0.282631 0.007827
0.625018 0.282314 0.008337
0.647555 0.281997 0.008844
0.669997 0.281680 0.009347
0.692350 0.281363 0.009847
0.714617 0.281046 0.010344
0.736800 0.280729 0.010838
0.758904 0.280412 0.011330
0.780931 0.280095 0.011819
0.802883 0.279777 0.012305
0.029572 0.326618 0.000000
0.060601 0.326307 0.000000
0.089741 0.325995 0.000000
0.117765 0.325684 0.000000
0.145003 0.325372 0.000000
0.171637 0.325060 0.000000
0.197782 0.324749 0.000000
0.223516 0.324437 0.000000
0.248900 0.324125 0.000000
0.273976 0.323814 0.000000
0.298778 0.323502 0.000000
0.323336 0.323190 0.000259
0.347672 0.322878 0.000959
0.371805 0.322566 0.001597
0.395752 0.322254 0.002204
0.419525 0.321942 0.002792
0.443138 0.321630 0.003366
0.466601 0.321318 0.003927
0.489923 0.321006 0.004479
0.513112 0.320694 0.005023
0.536177 0.320382 0.005561
0.559122 0.320070 0.006091
0.581956 0.319757 0.006617
0.604682 0.319445 0.007137
0.627306 0.319133 0.007653
0.649833 0.318820 0.008165
0.672266 0.318508 0.008673
0.694610 0.318196 0.009178
0.716868 0.317883 0.009679
0.739044 0.317571 0.010177
0.761139 0.317258 0.010672
0.783158 0.316946 0.011164
0.805103 0.316633 0.011654
0.032851 0.362837 0.000000
0.063620 0.362530 0.000000
0.092624 0.362222 0.000000
0.120557 0.361915 0.000000
0.147727 0.361607 0.000000
0.174307 0.361299 0.000000
0.200407 0.360992 0.000000
0.226104 0.360684 0.000000
0.251454 0.360376 0.000000
0.276501 0.360068 0.000000
0.301278 0.359760 0.000000
0.325812 0.359453 0.000000
0.350127 0.359145 0.000000
0.374240 0.358837 0.000733
0.398168 0.358529 0.001386
0.421925 0.358221 0.002002
0.445522 0.357913 0.002596
0.468970 0.357605 0.003173
0.492279 0.357296 0.003739
0.515455 0.356988 0.004294
0.538507 0.356680 0.004841
0.561441 0.356372 0.005380
0.584263 0.356064 0.005913
0.606979 0.355755 0.006440
0.629593 0.355447 0.006962
0.652110 0.355139 0.007480
0.674535 0.354830 0.007993
0.696870 0.354522 0.008502
0.719119 0.354214 0.009008
0.741286 0.353905 0.009510
0.763374 0.353597 0.010009
0.785385 0.353288 0.010505
0.807323 0.352980 0.010998
0.036091 0.398627 0.000000
0.066622 0.398323 0.000000
0.095496 0.398019 0.000000
0.123342 0.397715 0.000000
0.150446 0.397411 0.000000
0.176972 0.397106 0.000000
0.203028 0.396802 0.000000
0.228688 0.396498 0.000000
0.254005 0.396194 0.000000
0.279023 0.395889 0.000000
0.303774 0.395585 0.000000
0.328286 0.395281 0.000000
0.352579 0.394976 0.000000
0.376673 0.394672 0.000000
0.400583 0.394367 0.000498
0.424323 0.394063 0.001171
0.447905 0.393758 0.001797
0.471338 0.393454 0.002397
0.494633 0.393149 0.002980
0.517796 0.392844 0.003549
0.540836 0.392540 0.004108
0.563759 0.392235 0.004657
0.586570 0.391930 0.005199
0.609275 0.391626 0.005734
0.631879 0.391321 0.006263
0.654387 0.391016 0.006786
0.676802 0.390711 0.007305
0.699128 0.390406 0.007820
0.721369 0.390101 0.008331
0.743528 0.389797 0.008837
0.765608 0.389492 0.009341
0.787612 0.389187 0.009841
0.809542 0.388882 0.010338
0.039297 0.434035 0.000000
0.069608 0.433734 0.000000
0.098359 0.433433 0.000000
0.126119 0.433132 0.000000
0.153158 0.432831 0.000000
0.179633 0.432530 0.000000
0.205645 0.432229 0.000000
0.231268 0.431927 0.000000
0.256554 0.431626 0.000000
0.281543 0.431325 0.000000
0.306269 0.431024 0.000000
0.330757 0.430722 0.000000
0.355029 0.430421 0.000000
0.379104 0.430120 0.000000
0.402996 0.429818 0.000000
0.426720 0.429517 0.000249
0.450286 0.429216 0.000951
0.473705 0.428914 0.001589
0.496986 0.428613 0.002197
0.520137 0.428311 0.002785
0.543164 0.428010 0.003358
0.566075 0.427708 0.003920
0.588876 0.427407 0.004472
0.611570 0.427105 0.005017
0.634164 0.426804 0.005554
0.656662 0.426502 0.006085
0.679068 0.426200 0.006610
0.701386 0.425899 0.007131
0.723618 0.425597 0.007647
0.745769 0.425295 0.008159
0.767841 0.424993 0.008667
0.789837 0.424692 0.009171
0.811760 0.424390 0.009672
0.042472 0.469099 0.000000
0.072579 0.468801 0.000000
0.101211 0.468503 0.000000
0.128888 0.468204 0.000000
0.155864 0.467906 0.000000
0.182288 0.467608 0.000000
0.208258 0.467309 0.000000
0.233845 0.467011 0.000000
0.259099 0.466713 0.000000
0.284060 0.466414 0.000000
0.308761 0.466116 0.000000
0.333226 0.465817 0.000000
0.357478 0.465519 0.000000
0.381533 0.465220 0.000000
0.405408 0.464922 0.000000
0.429115 0.464623 0.000000
0.452666 0.464325 0.000000
0.476070 0.464026 0.000725
0.499338 0.463727 0.001378
0.522476 0.463429 0.001994
0.545491 0.463130 0.002588
0.568391 0.462831 0.003166
0.591180 0.462533 0.003732
0.613864 0.462234 0.004287
0.636449 0.461935 0.004834
0.658937 0.461636 0.005373
0.681334 0.461338 0.005906
0.703642 0.461039 0.006433
0.725866 0.460740 0.006956
0.748009 0.460441 0.007473
0.770073 0.460142 0.007986
0.792062 0.459843 0.008496
0.813978 0.459544 0.009001
0.045618 0.503851 0.000000
0.075535 0.503555 0.000000
0.104053 0.503260 0.000000
0.131651 0.502964 0.000000
0.158565 0.502668 0.000000
0.184939 0.502372 0.000000
0.210868 0.502077 0.000000
0.236418 0.501781 0.000000
0.261641 0.501485 0.000000
0.286574 0.501189 0.000000
0.311250 0.500893 0.000000
0.335693 0.500597 0.000000
0.359924 0.500302 0.000000
0.383960 0.500006 0.000000
0.407818 0.499710 0.000000
0.431508 0.499414 0.000000
0.455044 0.499118 0.000000
0.478434 0.498822 0.000000
0.501688 0.498526 0.000489
0.524813 0.498230 0.001163
0.547817 0.497933 0.001789
0.570705 0.497637 0.002390
0.593483 0.497341 0.002973
0.616157 0.497045 0.003542
0.638732 0.496749 0.004100
0.661211 0.496453 0.004650
0.683598 0.496157 0.005192
0.705898 0.495860 0.005727
0.728114 0.495564 0.006256
0.750248 0.495268 0.006780
0.772305 0.494971 0.007299
0.794286 0.494675 0.007813
0.816195 0.494379 0.008324
0.048738 0.538318 0.000000
0.078477 0.538024 0.000000
0.106887 0.537731 0.000000
0.134406 0.537437 0.000000
0.161260 0.537144 0.000000
0.187585 0.536851 0.000000
0.213473 0.536557 0.000000
0.238988 0.536264 0.000000
0.264180 0.535970 0.000000
0.289086 0.535677 0.000000
0.313737 0.535383 0.000000
0.338158 0.535090 0.000000
0.362368 0.534796 0.000000
0.386386 0.534503 0.000000
0.410226 0.534209 0.000000
0.433900 0.533915 0.000000
0.457421 0.533622 0.000000
0.480797 0.533328 0.000000
0.504037 0.533034 0.000000
0.527150 0.532741 0.000239
0.550141 0.532447 0.000942
0.573018 0.532153 0.001581
0.595786 0.531860 0.002189
0.618449 0.531566 0.002777
0.641014 0.531272 0.003351
0.663483 0.530978 0.003913
0.685862 0.530684 0.004465
0.708153 0.530390 0.005010
0.730360 0.530097 0.005547
0.752487 0.529803 0.006078
0.774536 0.529509 0.006604
0.796510 0.529215 0.007124
0.818411 0.528921 0.007640
0.051835 0.572521 0.000000
0.081406 0.572230 0.000000
0.109711 0.571939 0.000000
0.137155 0.571647 0.000000
0.163950 0.571356 0.000000
0.190227 0.571065 0.000000
0.216075 0.570774 0.000000
0.241555 0.570482 0.000000
0.266716 0.570191 0.000000
0.291595 0.569900 0.000000
0.316222 0.569608 0.000000
0.340620 0.569317 0.000000
0.364810 0.569026 0.000000
0.388809 0.568734 0.000000
0.412632 0.568443 0.000000
0.436290 0.568151 0.000000
0.459796 0.567860 0.000000
0.483158 0.567568 0.000000
0.506385 0.567277 0.000000
0.529485 0.566985 0.000000
0.552465 0.566694 0.000000
0.575330 0.566402 0.000716
0.598087 0.566111 0.001370
0.620740 0.565819 0.001987
0.643295 0.565528 0.002581
0.665755 0.565236 0.003159
0.688125 0.564944 0.003724
0.710407 0.564653 0.004280
0.732606 0.564361 0.004827
0.754725 0.564069 0.005366
0.776766 0.563778 0.005899
0.798732 0.563486 0.006427
0.820626 0.563194 0.006949
0.054910 0.606481 0.000000
0.084323 0.606192 0.000000
0.112527 0.605902 0.000000
0.139897 0.605613 0.000000
0.166635 0.605324 0.000000
0.192865 0.605035 0.000000
0.218672 0.604745 0.000000
0.244118 0.604456 0.000000
0.269250 0.604167 0.000000
0.294102 0.603878 0.000000
0.318704 0.603588 0.000000
0.343081 0.603299 0.000000
0.367251 0.603010 0.000000
0.391231 0.602720 0.000000
0.415037 0.602431 0.000000
0.438679 0.602141 0.000000
0.462169 0.601852 0.000000
0.485517 0.601563 0.000000
0.508731 0.601273 0.000000
0.531819 0.600984 0.000000
0.554787 0.600694 0.000000
0.577641 0.600405 0.000000
0.600387 0.600115 0.000480
0.623030 0.599826 0.001154
0.645575 0.599536 0.001781
0.668026 0.599246 0.002382
0.690386 0.598957 0.002965
0.712660 0.598667 0.003535
0.734851 0.598378 0.004093
0.756962 0.598088 0.004643
0.778995 0.597798 0.005185
0.800954 0.597509 0.005720
0.822841 0.597219 0.006249
0.057964 0.640214 0.000000
0.087227 0.639926 0.000000
0.115334 0.639639 0.000000
0.142633 0.639352 0.000000
0.169314 0.639064 0.000000
0.195498 0.638777 0.000000
0.221266 0.638490 0.000000
0.246679 0.638202 0.000000
0.271780 0.637915 0.000000
0.296606 0.637628 0.000000
0.321184 0.637340 0.000000
0.345539 0.637053 0.000000
0.369689 0.636765 0.000000
0.393651 0.636478 0.000000
0.417439 0.636190 0.000000
0.441066 0.635903 0.000000
0.464542 0.635615 0.000000
0.487876 0.635328 0.000000
0.511077 0.635040 0.000000
0.534152 0.634752 0.000000
0.557108 0.634465 0.000000
0.579951 0.634177 0.000000
0.602686 0.633890 0.000000
0.625319 0.633602 0.000229
0.647854 0.633314 0.000934
0.670296 0.633027 0.001573
0.692647 0.632739 0.002182
0.714913 0.632451 0.002770
0.737095 0.632163 0.003344
0.759198 0.631876 0.003906
0.781224 0.631588 0.004458
0.803175 0.631300 0.005003
0.825055 0.631012 0.005540
0.060999 0.673735 0.000000
0.090120 0.673449 0.000000
0.118133 0.673164 0.000000
0.145362 0.672878 0.000000
0.171988 0.672592 0.000000
0.198127 0.672307 0.000000
0.223857 0.672021 0.000000
0.249236 0.671736 0.000000
0.274308 0.671450 0.000000
0.299107 0.671164 0.000000
0.323662 0.670879 0.000000
0.347995 0.670593 0.000000
0.372126 0.670307 0.000000
0.396069 0.670021 0.000000
0.419841 0.669736 0.000000
0.443452 0.669450 0.000000
0.466912 0.669164 0.000000
0.490233 0.668878 0.000000
0.513420 0.668593 0.000000
0.536483 0.668307 0.000000
0.559427 0.668021 0.000000
0.582259 0.667735 0.000000
0.604984 0.667449 0.000000
0.627607 0.667163 0.000000
0.650133 0.666878 0.000000
0.672565 0.666592 0.000707
0.694908 0.666306 0.001362
0.717164 0.666020 0.001979
0.739339 0.665734 0.002573
0.761433 0.665448 0.003152
0.783451 0.665162 0.003717
0.805395 0.664876 0.004273
0.827268 0.664590 0.004820
0.064016 0.707057 0.000000
0.093002 0.706773 0.000000
0.120924 0.706489 0.000000
0.148085 0.706205 0.000000
0.174658 0.705921 0.000000
0.200752 0.705637 0.000000
0.226444 0.705353 0.000000
0.251790 0.705069 0.000000
0.276833 0.704785 0.000000
0.301606 0.704501 0.000000
0.326138 0.704217 0.000000
0.350449 0.703933 0.000000
0.374560 0.703649 0.000000
0.398486 0.703365 0.000000
0.422240 0.703081 0.000000
0.445836 0.702797 0.000000
0.469282 0.702513 0.000000
0.492588 0.702229 0.000000
0.515763 0.701944 0.000000
0.538813 0.701660 0.000000
0.561746 0.701376 0.000000
0.584567 0.701092 0.000000
0.607281 0.700808 0.000000
0.629894 0.700524 0.000000
0.652410 0.700239 0.000000
0.674833 0.699955 0.000000
0.697167 0.699671 0.000471
0.719415 0.699387 0.001146
0.741581 0.699102 0.001773
0.763668 0.698818 0.002375
0.785678 0.698534 0.002958
0.807615 0.698249 0.003528
0.829480 0.697965 0.004086
0.067016 0.740191 0.000000
0.095873 0.739909 0.000000
0.123707 0.739626 0.000000
0.150803 0.739344 0.000000
0.177322 0.739062 0.000000
0.203373 0.738779 0.000000
0.229027 0.738497 0.000000
0.254341 0.738214 0.000000
0.279355 0.737932 0.000000
0.304103 0.737650 0.000000
0.328611 0.737367 0.000000
0.352901 0.737085 0.000000
0.376993 0.736802 0.000000
0.400901 0.736520 0.000000
0.424639 0.736237 0.000000
0.448218 0.735955 0.000000
0.471650 0.735672 0.000000
0.494942 0.735390 0.000000
0.518104 0.735107 0.000000
0.541142 0.734824 0.000000
0.564064 0.734542 0.000000
0.586873 0.734259 0.000000
0.609577 0.733977 0.000000
0.632180 0.733694 0.000000
0.654686 0.733411 0.000000
0.677100 0.733129 0.000000
0.699425 0.732846 0.000000
0.721665 0.732563 0.000219
0.743823 0.732281 0.000926
0.765902 0.731998 0.001565
0.787905 0.731715 0.002174
0.809834 0.731432 0.002763
0.831692 0.731150 0.003337
0.070000 0.773148 0.000000
0.098734 0.772868 0.000000
0.126483 0.772587 0.000000
0.153514 0.772306 0.000000
0.179982 0.772025 0.000000
0.205989 0.771744 0.000000
0.231607 0.771463 0.000000
0.256888 0.771182 0.000000
0.281874 0.770901 0.000000
0.306597 0.770620 0.000000
0.331082 0.770339 0.000000
0.355351 0.770058 0.000000
0.379423 0.769777 0.000000
0.403314 0.769496 0.000000
0.427035 0.769215 0.000000
0.450599 0.768934 0.000000
0.474016 0.768653 0.000000
0.497295 0.768372 0.000000
0.520444 0.768091 0.000000
0.543470 0.767810 0.000000
0.566380 0.767529 0.000000
0.589179 0.767248 0.000000
0.611872 0.766966 0.000000
0.634465 0.766685 0.000000
0.656962 0.766404 0.000000
0.679366 0.766123 0.000000
0.701682 0.765842 0.000000
0.723914 0.765561 0.000000
0.746064 0.765279 0.000000
0.768135 0.764998 0.000698
0.790130 0.764717 0.001354
0.812052 0.764436 0.001971
0.833903 0.764154 0.002566
0.072968 0.805938 0.000000
0.101585 0.805658 0.000000
0.129252 0.805379 0.000000
0.156220 0.805099 0.000000
0.182637 0.804820 0.000000
0.208602 0.804540 0.000000
0.234183 0.804261 0.000000
0.259433 0.803981 0.000000
0.284391 0.803702 0.000000
0.309088 0.803422 0.000000
0.333551 0.803143 0.000000
0.357799 0.802863 0.000000
0.381852 0.802583 0.000000
0.405725 0.802304 0.000000
0.429430 0.802024 0.000000
0.452979 0.801745 0.000000
0.476381 0.801465 0.000000
0.499647 0.801185 0.000000
0.522783 0.800906 0.000000
0.545797 0.800626 0.000000
0.568695 0.800346 0.000000
0.591483 0.800067 0.000000
0.614166 0.799787 0.000000
0.636749 0.799507 0.000000
0.659236 0.799227 0.000000
0.681632 0.798948 0.000000
0.703939 0.798668 0.000000
0.726162 0.798388 0.000000
0.748304 0.798108 0.000000
0.770367 0.797828 0.000000
0.792355 0.797549 0.000462
0.814269 0.797269 0.001138
0.836114 0.796989 0.001766
0.075923 0.838568 0.000000
0.104426 0.838290 0.000000
0.132013 0.838012 0.000000
0.158920 0.837734 0.000000
0.185287 0.837455 0.000000
0.211211 0.837177 0.000000
0.236756 0.836899 0.000000
0.261975 0.836621 0.000000
0.286905 0.836343 0.000000
0.311577 0.836064 0.000000
0.336017 0.835786 0.000000
0.360245 0.835508 0.000000
0.384279 0.835230 0.000000
0.408134 0.834951 0.000000
0.431823 0.834673 0.000000
0.455357 0.834395 0.000000
0.478745 0.834116 0.000000
0.501997 0.833838 0.000000
0.525121 0.833560 0.000000
0.548123 0.833281 0.000000
0.571009 0.833003 0.000000
0.593786 0.832725 0.000000
0.616459 0.832446 0.000000
0.639032 0.832168 0.000000
0.661510 0.831890 0.000000
0.683896 0.831611 0.000000
0.706195 0.831333 0.000000
0.728409 0.831054 0.000000
0.750543 0.830776 0.000000
0.772598 0.830497 0.000000
0.794579 0.830219 0.000000
0.816486 0.829940 0.000209
0.838323 0.829662 0.000917
0.078863 0.871047 0.000000
0.107259 0.870770 0.000000
0.134768 0.870493 0.000000
0.161614 0.870216 0.000000
0.187933 0.869939 0.000000
0.213815 0.869662 0.000000
0.239326 0.869385 0.000000
0.264514 0.869108 0.000000
0.289416 0.868831 0.000000
0.314064 0.868554 0.000000
0.338482 0.868277 0.000000
0.362689 0.868000 0.000000
0.386705 0.867723 0.000000
0.410542 0.867446 0.000000
0.434215 0.867169 0.000000
0.457733 0.866892 0.000000
0.481107 0.866615 0.000000
0.504346 0.866338 0.000000
0.527457 0.866061 0.000000
0.550447 0.865784 0.000000
0.573322 0.865507 0.000000
0.596088 0.865230 0.000000
0.618751 0.864953 0.000000
0.641314 0.864676 0.000000
0.663782 0.864399 0.000000
0.686159 0.864121 0.000000
0.708450 0.863844 0.000000
0.730656 0.863567 0.000000
0.752781 0.863290 0.000000
0.774829 0.863013 0.000000
0.796802 0.862736 0.000000
0.818702 0.862458 0.000000
0.840532 0.862181 0.000000
0.081791 0.903380 0.000000
0.110082 0.903105 0.000000
0.137516 0.902829 0.000000
0.164303 0.902553 0.000000
0.190574 0.902278 0.000000
0.216416 0.902002 0.000000
0.241892 0.901726 0.000000
0.267050 0.901450 0.000000
0.291925 0.901175 0.000000
0.316548 0.900899 0.000000
0.340944 0.900623 0.000000
0.365131 0.900347 0.000000
0.389128 0.900072 0.000000
0.412948 0.899796 0.000000
0.436605 0.899520 0.000000
0.460108 0.899244 0.000000
0.483468 0.898968 0.000000
0.506694 0.898693 0.000000
0.529792 0.898417 0.000000
0.552770 0.898141 0.000000
0.575634 0.897865 0.000000
0.598389 0.897589 0.000000
0.621042 0.897313 0.000000
0.643595 0.897037 0.000000
0.666054 0.896761 0.000000
0.688422 0.896486 0.000000
0.710704 0.896210 0.000000
0.732902 0.895934 0.000000
0.755019 0.895658 0.000000
0.777059 0.895382 0.000000
0.799024 0.895106 0.000000
0.820917 0.894830 0.000000
0.842741 0.894554 0.000000
0.084706 0.935576 0.000000
0.112896 0.935301 0.000000
0.140257 0.935027 0.000000
0.166987 0.934752 0.000000
0.193211 0.934478 0.000000
0.219014 0.934203 0.000000
0.244455 0.933929 0.000000
0.269583 0.933654 0.000000
0.294431 0.933379 0.000000
0.319031 0.933105 0.000000
0.343404 0.932830 0.000000
0.367571 0.932556 0.000000
0.391550 0.932281 0.000000
0.415353 0.932006 0.000000
0.438993 0.931732 0.000000
0.462481 0.931457 0.000000
0.485828 0.931182 0.000000
0.509040 0.930908 0.000000
0.532126 0.930633 0.000000
0.555092 0.930358 0.000000
0.577945 0.930084 0.000000
0.600689 0.929809 0.000000
0.623331 0.929534 0.000000
0.645875 0.929260 0.000000
