presets/film_stocks/Fuji_Superia_X-Tra_400.cube
# 独寻胶片模拟 -- Fuji Superia X-Tra 400
# Fujifilm, ISO 400, 1998, negative
TITLE "Fuji Superia X-Tra 400"
LUT_3D_SIZE 9
DOMAIN_MIN 0.0 0.0 0.0
DOMAIN_MAX 1.0 1.0 1.0
0.000000 0.000000 0.000000
0.179907 0.006286 0.000000
0.328709 0.011485 0.000000
0.467665 0.016340 0.000000
0.600589 0.020984 0.000000
0.729200 0.025478 0.000000
0.854477 0.029855 0.000000
0.977045 0.034138 0.000000
1.000000 0.038341 0.000000
0.000000 0.174223 0.000000
0.173711 0.177539 0.000000
0.323057 0.180846 0.000000
0.462306 0.184144 0.000000
0.595429 0.187433 0.000000
0.724189 0.190713 0.000000
0.849583 0.193985 0.000000
0.972250 0.197249 0.000000
1.000000 0.200504 0.000000
0.000000 0.318324 0.000000
0.167483 0.321356 0.000000
0.317390 0.324383 0.000000
0.456938 0.327406 0.000000
0.590262 0.330425 0.000000
0.719172 0.333440 0.000000
0.844686 0.336451 0.000000
0.967451 0.339458 0.000000
1.000000 0.342460 0.000000
0.000000 0.452890 0.000000
0.161220 0.455766 0.000000
0.311708 0.458639 0.000000
0.451561 0.461510 0.000000
0.585088 0.464378 0.000000
0.714150 0.467244 0.000000
0.839784 0.470106 0.000000
0.962648 0.472967 0.000000
1.000000 0.475824 0.000000
0.000000 0.581614 0.000000
0.154919 0.584384 0.000000
0.306010 0.587153 0.000000
0.446174 0.589920 0.000000
0.579907 0.592684 0.000000
0.709123 0.595447 0.000000
0.834878 0.598208 0.000000
0.957842 0.600967 0.000000
1.000000 0.603724 0.000000
0.000000 0.706162 0.000000
0.148581 0.708853 0.000000
0.300296 0.711543 0.000000
0.440777 0.714231 0.000000
0.574720 0.716918 0.000000
0.704090 0.719603 0.000000
0.829967 0.722287 0.000000
0.953032 0.724969 0.000000
1.000000 0.727650 0.000000
0.000000 0.827480 0.000000
0.142201 0.830108 0.000000
0.294566 0.832735 0.000000
0.435370 0.835361 0.000000
0.569525 0.837985 0.000000
0.699052 0.840609 0.000000
0.825052 0.843231 0.000000
0.948218 0.845851 0.000000
1.000000 0.848471 0.000000
0.000000 0.946176 0.000000
0.135778 0.948752 0.000000
0.288819 0.951327 0.000000
0.429953 0.953901 0.000000
0.564324 0.956474 0.000000
0.694009 0.959046 0.000000
0.820133 0.961617 0.000000
0.943401 0.964186 0.000000
1.000000 0.966755 0.000000
0.000000 1.000000 0.000000
0.129309 1.000000 0.000000
0.283055 1.000000 0.000000
0.424526 1.000000 0.000000
0.559115 1.000000 0.000000
0.688960 1.000000 0.000000
0.815210 1.000000 0.000000
0.938580 1.000000 0.000000
1.000000 1.000000 0.000000
0.000000 0.000000 0.171706
0.170195 0.000000 0.166612
0.319856 0.000000 0.161495
0.459274 0.000000 0.156353
0.592509 0.000000 0.151186
0.721354 0.005845 0.145992
0.846816 0.011084 0.140770
0.969538 0.015960 0.135519
1.000000 0.020618 0.130237
0.000000 0.160591 0.169053
0.163947 0.163947 0.163947
0.314181 0.167294 0.158817
0.453900 0.170630 0.153662
0.587339 0.173956 0.148481
0.716334 0.177273 0.143273
0.841916 0.180581 0.138036
0.964737 0.183879 0.132769
1.000000 0.187169 0.127471
0.000000 0.305909 0.166394
0.157663 0.308959 0.161276
0.308490 0.312004 0.156133
0.448517 0.315044 0.150964
0.582161 0.318081 0.145769
0.711309 0.321113 0.140546
0.837012 0.324141 0.135294
0.959932 0.327164 0.130011
1.000000 0.330183 0.124695
0.000000 0.441126 0.163729
0.151342 0.444013 0.158598
0.302783 0.446898 0.153441
0.443125 0.449780 0.148259
0.576976 0.452659 0.143050
0.706279 0.455535 0.137811
0.832103 0.458409 0.132543
0.955123 0.461280 0.127243
1.000000 0.464148 0.121910
0.000000 0.570289 0.161057
0.144980 0.573067 0.155913
0.297060 0.575844 0.150743
0.437722 0.578619 0.145547
0.571785 0.581392 0.140322
0.701243 0.584162 0.135069
0.827190 0.586931 0.129784
0.950311 0.589698 0.124467
1.000000 0.592463 0.119116
0.000000 0.695165 0.158378
0.138576 0.697863 0.153221
0.291320 0.700559 0.148037
0.432310 0.703253 0.142826
0.566586 0.705946 0.137587
0.696202 0.708637 0.132317
0.822273 0.711327 0.127016
0.945496 0.714016 0.121682
1.000000 0.716703 0.116312
0.000000 0.816744 0.155692
0.132128 0.819377 0.150521
0.285564 0.822009 0.145324
0.426887 0.824640 0.140098
0.561381 0.827269 0.134843
0.691156 0.829898 0.129558
0.817351 0.832525 0.124239
0.940676 0.835150 0.118886
1.000000 0.837775 0.113497
0.000000 0.935655 0.153000
0.125632 0.938235 0.147815
0.279789 0.940815 0.142603
0.421454 0.943393 0.137362
0.556168 0.945970 0.132092
0.686104 0.948546 0.126789
0.812425 0.951121 0.121453
0.935853 0.953695 0.116081
1.000000 0.956268 0.110672
0.000000 1.000000 0.150300
0.119085 1.000000 0.145101
0.273998 1.000000 0.139875
0.416010 1.000000 0.134618
0.550947 1.000000 0.129331
0.681046 1.000000 0.124011
0.807494 1.000000 0.118657
0.931026 1.000000 0.113266
1.000000 1.000000 0.107837
0.000000 0.000000 0.313727
0.160400 0.000000 0.309078
0.310966 0.000000 0.304420
0.450859 0.000000 0.299750
0.584413 0.000000 0.295069
0.713495 0.000000 0.290378
0.839144 0.000000 0.285675
0.962021 0.000000 0.280960
1.000000 0.000000 0.276233
0.000000 0.146783 0.311305
0.154095 0.150185 0.306651
0.305266 0.153575 0.301986
0.445471 0.156953 0.297311
0.579232 0.160321 0.292625
0.708467 0.163679 0.287927
0.834238 0.167026 0.283218
0.957215 0.170363 0.278497
1.000000 0.173690 0.273764
0.000000 0.293417 0.308880
0.147751 0.296486 0.304220
0.299550 0.299550 0.299550
0.440073 0.302609 0.294869
0.574043 0.305664 0.290177
0.703434 0.308714 0.285473
0.829327 0.311760 0.280758
0.952404 0.314801 0.276031
1.000000 0.317838 0.271292
0.000000 0.429314 0.306452
0.141366 0.432214 0.301787
0.293818 0.435110 0.297111
0.434664 0.438003 0.292424
0.568848 0.440894 0.287726
0.698395 0.443782 0.283017
0.824411 0.446667 0.278295
0.947590 0.449549 0.273562
1.000000 0.452428 0.268816
0.000000 0.558930 0.304021
0.134937 0.561717 0.299350
0.288069 0.564502 0.294669
0.429246 0.567285 0.289976
0.563645 0.570066 0.285272
0.693351 0.572845 0.280556
0.819492 0.575622 0.275829
0.942772 0.578397 0.271089
1.000000 0.581169 0.266337
0.000000 0.684142 0.301587
0.128462 0.686846 0.296911
0.282302 0.689548 0.292224
0.423818 0.692249 0.287525
0.558435 0.694949 0.282815
0.688301 0.697646 0.278093
0.814567 0.700343 0.273359
0.937951 0.703037 0.268613
1.000000 0.705730 0.263854
0.000000 0.805986 0.299151
0.121938 0.808624 0.294469
0.276518 0.811262 0.289776
0.418379 0.813898 0.285071
0.553218 0.816532 0.280355
0.683246 0.819166 0.275627
0.809639 0.821798 0.270886
0.933126 0.824429 0.266133
1.000000 0.827059 0.261368
0.000000 0.925116 0.296711
0.115361 0.927701 0.292023
0.270716 0.930284 0.287324
0.412929 0.932867 0.282614
0.547993 0.935448 0.277891
0.678185 0.938029 0.273157
0.804705 0.940608 0.268410
0.928297 0.943186 0.263650
1.000000 0.945763 0.258878
0.000000 1.000000 0.294268
0.108727 1.000000 0.289575
0.264895 1.000000 0.284870
0.407469 1.000000 0.280153
0.542761 1.000000 0.275424
0.673118 1.000000 0.270683
0.799768 1.000000 0.265930
0.923464 1.000000 0.261164
1.000000 1.000000 0.256385
0.000000 0.000000 0.446349
0.150515 0.000000 0.441942
0.302038 0.000000 0.437528
0.442421 0.000000 0.433107
0.576300 0.000000 0.428680
0.705623 0.000000 0.424246
0.831463 0.000000 0.419804
0.954496 0.000000 0.415356
1.000000 0.000000 0.410901
0.000000 0.132777 0.444052
0.144148 0.136230 0.439641
0.296312 0.139669 0.435224
0.437017 0.143096 0.430800
0.571108 0.146510 0.426369
0.700587 0.149912 0.421931
0.826549 0.153303 0.417486
0.949684 0.156683 0.413034
1.000000 0.160052 0.408575
0.000000 0.280846 0.441753
0.137738 0.283935 0.437339
0.290571 0.287018 0.432918
0.431603 0.290097 0.428490
0.565908 0.293171 0.424056
0.695545 0.296240 0.419615
0.821631 0.299305 0.415166
0.944868 0.302364 0.410710
1.000000 0.305419 0.406247
0.000000 0.417454 0.439453
0.131284 0.420366 0.435035
0.284812 0.423274 0.430611
0.426179 0.426179 0.426179
0.560701 0.429082 0.421741
0.690497 0.431981 0.417296
0.816709 0.434878 0.412844
0.940048 0.437772 0.408384
1.000000 0.440662 0.403918
0.000000 0.547536 0.437150
0.124781 0.550332 0.432729
0.279035 0.553125 0.428301
0.420745 0.555917 0.423866
0.555487 0.558706 0.419425
0.685444 0.561493 0.414976
0.811782 0.564279 0.410520
0.935224 0.567062 0.406057
1.000000 0.569843 0.401586
0.000000 0.673092 0.434846
0.118227 0.675803 0.430421
0.273241 0.678512 0.425990
0.415300 0.681219 0.421551
0.550266 0.683925 0.417106
0.680386 0.686629 0.412653
0.806851 0.689332 0.408194
0.930397 0.692033 0.403727
1.000000 0.694732 0.399252
0.000000 0.795207 0.432540
0.111619 0.797851 0.428112
0.267428 0.800493 0.423677
0.409844 0.803134 0.419235
0.545037 0.805774 0.414786
0.675322 0.808413 0.410329
0.801915 0.811050 0.405866
0.925566 0.813686 0.401395
1.000000 0.816321 0.396916
0.000000 0.914559 0.430232
0.104950 0.917148 0.425800
0.261596 0.919736 0.421362
0.404378 0.922323 0.416916
0.539801 0.924909 0.412463
0.670252 0.927494 0.408003
0.796975 0.930077 0.403536
0.920731 0.932660 0.399061
1.000000 0.935241 0.394578
0.000000 1.000000 0.427922
0.098218 1.000000 0.423487
0.255745 1.000000 0.419045
0.398900 1.000000 0.414595
0.534557 1.000000 0.410139
0.665176 1.000000 0.405675
0.792030 1.000000 0.401204
0.915892 1.000000 0.396725
1.000000 1.000000 0.392238
0.000000 0.000000 0.573214
0.140530 0.000000 0.568970
0.293069 0.000000 0.564721
0.433959 0.000000 0.560467
0.568170 0.000000 0.556209
0.697738 0.000000 0.551945
0.823770 0.000000 0.547677
0.946962 0.000000 0.543403
1.000000 0.000000 0.539125
0.000000 0.118546 0.571002
0.134096 0.122056 0.566755
0.287318 0.125552 0.562504
0.428539 0.129033 0.558248
0.562966 0.132500 0.553986
0.692693 0.135953 0.549720
0.818850 0.139394 0.545449
0.942144 0.142821 0.541173
1.000000 0.146237 0.536892
0.000000 0.268189 0.568788
0.127615 0.271299 0.564539
0.281549 0.274404 0.560285
0.423109 0.277504 0.556027
0.557755 0.280598 0.551763
0.687642 0.283687 0.547494
0.813925 0.286771 0.543221
0.937322 0.289851 0.538942
1.000000 0.292925 0.534658
0.000000 0.405543 0.566574
0.121083 0.408467 0.562322
0.275763 0.411388 0.558066
0.417669 0.414306 0.553804
0.552537 0.417221 0.549538
0.682586 0.420132 0.545267
0.808996 0.423041 0.540991
0.932496 0.425947 0.536709
1.000000 0.428849 0.532423
0.000000 0.536107 0.564358
0.114499 0.538911 0.560103
0.269958 0.541714 0.555844
0.412218 0.544514 0.551581
0.547312 0.547312 0.547312
0.677525 0.550108 0.543038
0.804062 0.552901 0.538759
0.927667 0.555693 0.534475
1.000000 0.558483 0.530186
0.000000 0.662015 0.562140
0.107857 0.664732 0.557884
0.264134 0.667448 0.553622
0.406756 0.670162 0.549356
0.542079 0.672874 0.545084
0.672457 0.675585 0.540808
0.799124 0.678294 0.536526
0.922834 0.681002 0.532240
1.000000 0.683708 0.527948
0.000000 0.784405 0.559922
0.101154 0.787055 0.555662
0.258292 0.789703 0.551398
0.401283 0.792349 0.547129
0.536838 0.794995 0.542855
0.667384 0.797639 0.538576
0.794181 0.800281 0.534292
0.917997 0.802923 0.530003
1.000000 0.805563 0.525708
0.000000 0.903984 0.557702
0.094383 0.906577 0.553440
0.252429 0.909170 0.549173
0.395799 0.911761 0.544902
0.531590 0.914351 0.540625
0.662305 0.916941 0.536343
0.789233 0.919529 0.532056
0.913156 0.922116 0.527764
1.000000 0.924702 0.523467
0.000000 1.000000 0.555480
0.087538 1.000000 0.551216
0.246546 1.000000 0.546947
0.390304 1.000000 0.542672
0.526334 1.000000 0.538393
0.657221 1.000000 0.534109
0.784281 1.000000 0.529819
0.908311 1.000000 0.525524
1.000000 1.000000 0.521224
0.000000 0.000000 0.695963
0.130439 0.000000 0.691841
0.284060 0.000000 0.687716
0.425471 0.000000 0.683586
0.560022 0.000000 0.679453
0.689839 0.000000 0.675316
0.816067 0.000000 0.671176
0.939419 0.000000 0.667031
1.000000 0.000000 0.662883
0.000000 0.104053 0.693815
0.123930 0.107631 0.689691
0.278281 0.111192 0.685563
0.420036 0.114736 0.681432
0.554807 0.118264 0.677297
0.684785 0.121776 0.673158
0.811140 0.125272 0.669015
0.934595 0.128754 0.664869
1.000000 0.132223 0.660718
0.000000 0.255442 0.691665
0.117369 0.258575 0.687539
0.272484 0.261702 0.683410
0.414589 0.264824 0.679277
0.549585 0.267940 0.675140
0.679726 0.271050 0.670999
0.806208 0.274155 0.666854
0.929767 0.277255 0.662705
1.000000 0.280350 0.658553
0.000000 0.393579 0.689515
0.110753 0.396517 0.685387
0.266669 0.399451 0.681255
0.409132 0.402381 0.677120
0.544355 0.405309 0.672981
0.674661 0.408233 0.668838
0.801271 0.411154 0.664692
0.924936 0.414072 0.660541
1.000000 0.416987 0.656387
0.000000 0.524641 0.687363
0.104077 0.527454 0.683233
0.260835 0.530266 0.679100
0.403664 0.533075 0.674963
0.539118 0.535882 0.670822
0.669591 0.538686 0.666677
0.796331 0.541489 0.662528
0.920100 0.544289 0.658376
1.000000 0.547088 0.654219
0.000000 0.650910 0.685210
0.097336 0.653634 0.681079
0.254981 0.656357 0.676943
0.398185 0.659078 0.672804
0.533873 0.661797 0.668661
0.664514 0.664514 0.664514
0.791385 0.667230 0.660364
0.915261 0.669944 0.656209
1.000000 0.672657 0.652050
0.000000 0.773582 0.683057
0.090524 0.776237 0.678923
0.249106 0.778890 0.674786
0.392695 0.781542 0.670645
0.528620 0.784193 0.666500
0.659432 0.786842 0.662351
0.786435 0.789490 0.658198
0.910418 0.792137 0.654041
1.000000 0.794783 0.649881
0.000000 0.893390 0.680902
0.083634 0.895988 0.676767
0.243211 0.898585 0.672627
0.387192 0.901181 0.668484
0.523360 0.903776 0.664337
0.654344 0.906369 0.660186
0.781480 0.908962 0.656031
0.905571 0.911553 0.651873
1.000000 0.914144 0.647710
0.000000 1.000000 0.678746
0.076658 1.000000 0.674609
0.237295 1.000000 0.670468
0.381679 1.000000 0.666322
0.518091 1.000000 0.662173
0.649250 1.000000 0.658020
0.776520 1.000000 0.653864
0.900721 1.000000 0.649703
1.000000 1.000000 0.645538
0.000000 0.000000 0.815529
0.120228 0.000000 0.811505
0.275007 0.000000 0.807477
0.416959 0.000000 0.803446
0.551856 0.000000 0.799412
0.681927 0.000000 0.795375
0.808353 0.000000 0.791335
0.931867 0.000000 0.787292
1.000000 0.000000 0.783246
0.000000 0.089249 0.813431
0.113637 0.092909 0.809405
0.269200 0.096548 0.805376
0.411506 0.100166 0.801343
0.546630 0.103765 0.797308
0.676864 0.107345 0.793269
0.803418 0.110907 0.789228
0.927037 0.114453 0.785183
1.000000 0.117982 0.781135
0.000000 0.242599 0.811332
0.106987 0.245756 0.807305
0.263374 0.248907 0.803274
0.406043 0.252052 0.799240
0.541396 0.255191 0.795203
0.671796 0.258324 0.791163
0.798479 0.261452 0.787119
0.922203 0.264574 0.783073
1.000000 0.267690 0.779024
0.000000 0.381561 0.809233
0.100275 0.384512 0.805203
0.257528 0.387459 0.801171
0.400569 0.390403 0.797135
0.536154 0.393344 0.793097
0.666722 0.396281 0.789055
0.793536 0.399215 0.785010
0.917366 0.402146 0.780962
1.000000 0.405074 0.776911
0.000000 0.513137 0.807132
0.093495 0.515960 0.803101
0.251663 0.518780 0.799067
0.395083 0.521599 0.795030
0.530905 0.524415 0.790990
0.661643 0.527229 0.786947
0.788588 0.530040 0.782900
0.912524 0.532850 0.778851
1.000000 0.535657 0.774798
0.000000 0.639776 0.805031
0.086640 0.642508 0.800999
0.245777 0.645237 0.796963
0.389586 0.647965 0.792924
0.525648 0.650691 0.788882
0.656557 0.653416 0.784837
0.783635 0.656138 0.780789
0.907679 0.658859 0.776738
1.000000 0.661579 0.772684
0.000000 0.762736 0.802929
0.079702 0.765396 0.798895
0.239870 0.768055 0.794858
0.384078 0.770713 0.790817
0.520383 0.773369 0.786774
0.651466 0.776024 0.782727
0.778677 0.778677 0.778677
0.902830 0.781330 0.774625
1.000000 0.783981 0.770569
0.000000 0.882777 0.800826
0.072673 0.885380 0.796790
0.233941 0.887981 0.792751
0.378557 0.890582 0.788709
0.515110 0.893181 0.784664
0.646368 0.895780 0.780616
0.773715 0.898377 0.776565
0.897977 0.900973 0.772510
1.000000 0.903568 0.768453
0.000000 1.000000 0.798722
0.065540 1.000000 0.794685
0.227989 1.000000 0.790645
0.373024 1.000000 0.786601
0.509829 1.000000 0.782554
0.641265 1.000000 0.778504
0.768748 1.000000 0.774451
0.893120 1.000000 0.770395
1.000000 1.000000 0.766336
0.000000 0.000000 0.932511
0.109886 0.000000 0.928567
0.265909 0.000000 0.924620
0.408420 0.000000 0.920671
0.543673 0.000000 0.916718
0.674000 0.000000 0.912764
0.800628 0.000000 0.908807
0.924305 0.000000 0.904847
1.000000 0.000000 0.900885
0.000000 0.074065 0.930455
0.103201 0.077826 0.926509
0.260072 0.081561 0.922561
0.402951 0.085270 0.918610
0.538434 0.088954 0.914657
0.668929 0.092616 0.910701
0.795686 0.096257 0.906743
0.919470 0.099877 0.902781
1.000000 0.103477 0.898818
0.000000 0.229653 0.928398
0.096452 0.232836 0.924451
0.254216 0.236012 0.920502
0.397470 0.239182 0.916550
0.533189 0.242346 0.912595
0.663852 0.245503 0.908638
0.790740 0.248654 0.904678
0.914630 0.251800 0.900715
1.000000 0.254939 0.896750
0.000000 0.369485 0.926341
0.089630 0.372450 0.922392
0.248339 0.375412 0.918442
0.391978 0.378370 0.914488
0.527935 0.381324 0.910532
0.658769 0.384275 0.906573
0.785789 0.387223 0.902612
0.909786 0.390167 0.898648
1.000000 0.393108 0.894682
0.000000 0.501594 0.924283
0.082730 0.504427 0.920333
0.242441 0.507257 0.916381
0.386474 0.510085 0.912426
0.522673 0.512910 0.908468
0.653680 0.515734 0.904508
0.780834 0.518554 0.900546
0.904939 0.521373 0.896581
1.000000 0.524189 0.892613
0.000000 0.628613 0.922224
0.075742 0.631352 0.918273
0.236522 0.634089 0.914319
0.380959 0.636824 0.910363
0.517404 0.639557 0.906404
0.648586 0.642289 0.902443
0.775873 0.645018 0.898479
0.900088 0.647746 0.894512
1.000000 0.650473 0.890543
0.000000 0.751866 0.920164
0.068655 0.754532 0.916212
0.230580 0.757197 0.912257
0.375432 0.759860 0.908299
0.512126 0.762522 0.904339
0.643485 0.765183 0.900377
0.770909 0.767842 0.896411
0.895233 0.770500 0.892443
1.000000 0.773156 0.888473
0.000000 0.872145 0.918104
0.061457 0.874752 0.914150
0.224615 0.877359 0.910194
0.369892 0.879964 0.906235
0.506841 0.882568 0.902274
0.638378 0.885171 0.898309
0.765939 0.887773 0.894343
0.890373 0.890373 0.890373
1.000000 0.892973 0.886402
0.000000 0.989977 0.916043
0.054130 0.992535 0.912088
0.218626 0.995093 0.908130
0.364340 0.997649 0.904170
0.501547 1.000000 0.900207
0.633265 1.000000 0.896242
0.760964 1.000000 0.892274
0.885510 1.000000 0.888303
1.000000 1.000000 0.884330
0.000000 0.000000 1.000000
0.099395 0.000000 1.000000
0.256765 0.000000 1.000000
0.399854 0.000000 1.000000
0.535470 0.000000 1.000000
0.666060 0.000000 1.000000
0.792891 0.000000 1.000000
0.916735 0.000000 1.000000
1.000000 0.000000 1.000000
0.000000 0.058395 1.000000
0.092605 0.062288 1.000000
0.250897 0.066146 1.000000
0.394367 0.069969 1.000000
0.530220 0.073762 1.000000
0.660980 0.077526 1.000000
0.787942 0.081262 1.000000
0.911893 0.084973 1.000000
1.000000 0.088660 1.000000
0.000000 0.216597 1.000000
0.085740 0.219807 1.000000
0.245008 0.223011 1.000000
0.388869 0.226208 1.000000
0.524962 0.229398 1.000000
0.655894 0.232581 1.000000
0.782989 0.235758 1.000000
0.907047 0.238928 1.000000
1.000000 0.242092 1.000000
0.000000 0.357350 1.000000
0.078791 0.360330 1.000000
0.239098 0.363306 1.000000
0.383359 0.366279 1.000000
0.519696 0.369248 1.000000
0.650802 0.372213 1.000000
0.778031 0.375175 1.000000
0.902198 0.378133 1.000000
1.000000 0.381088 1.000000
0.000000 0.490012 1.000000
0.071749 0.492854 1.000000
0.233166 0.495694 1.000000
0.377836 0.498532 1.000000
0.514422 0.501367 1.000000
0.645703 0.504200 1.000000
0.773068 0.507030 1.000000
0.897344 0.509858 1.000000
1.000000 0.512684 1.000000
0.000000 0.617421 1.000000
0.064602 0.620167 1.000000
0.227211 0.622911 1.000000
0.372302 0.625653 1.000000
0.509140 0.628394 1.000000
0.640599 0.631133 1.000000
0.768100 0.633870 1.000000
0.892487 0.636605 1.000000
1.000000 0.639338 1.000000
0.000000 0.740973 1.000000
0.057333 0.743645 1.000000
0.221233 0.746315 1.000000
0.366756 0.748985 1.000000
0.503849 0.751652 1.000000
0.635489 0.754318 1.000000
0.763128 0.756983 1.000000
0.887625 0.759647 1.000000
1.000000 0.762309 1.000000
0.000000 0.861493 1.000000
0.049924 0.864106 1.000000
0.215231 0.866717 1.000000
0.361196 0.869327 1.000000
0.498551 0.871936 1.000000
0.630373 0.874543 1.000000
0.758150 0.877150 1.000000
0.882760 0.879755 1.000000
1.000000 0.882359 1.000000
0.000000 0.979527 1.000000
0.042344 0.982090 1.000000
0.209203 0.984651 1.000000
0.355624 0.987212 1.000000
0.493244 0.989771 1.000000
0.625250 0.992330 1.000000
0.753168 0.994888 1.000000
0.877891 0.997444 1.000000
1.000000 1.000000 1.000000
