presets/film_stocks/Fuji_Pro_160S.cube
# 独寻胶片模拟 -- Fuji Pro 160S
# Fujifilm, ISO 160, 2004, negative
TITLE "Fuji Pro 160S"
LUT_3D_SIZE 9
DOMAIN_MIN 0.0 0.0 0.0
DOMAIN_MAX 1.0 1.0 1.0
0.000000 0.000000 0.000000
0.150006 0.003168 0.000000
0.292120 0.006170 0.000000
0.431399 0.009112 0.000000
0.568869 0.012015 0.000000
0.705010 0.014891 0.000000
0.840100 0.017744 0.000000
0.974323 0.020579 0.000000
1.000000 0.023398 0.000000
0.000000 0.142415 0.000000
0.143464 0.145030 0.000000
0.285752 0.147644 0.000000
0.425131 0.150255 0.000000
0.562671 0.152865 0.000000
0.698865 0.155473 0.000000
0.833998 0.158079 0.000000
0.968257 0.160684 0.000000
1.000000 0.163287 0.000000
0.000000 0.277337 0.000000
0.136910 0.279884 0.000000
0.279380 0.282430 0.000000
0.418860 0.284975 0.000000
0.556470 0.287519 0.000000
0.692718 0.290063 0.000000
0.827895 0.292605 0.000000
0.962190 0.295147 0.000000
1.000000 0.297687 0.000000
0.000000 0.409568 0.000000
0.130343 0.412076 0.000000
0.273001 0.414583 0.000000
0.412585 0.417089 0.000000
0.550266 0.419595 0.000000
0.686568 0.422100 0.000000
0.821789 0.424605 0.000000
0.956121 0.427109 0.000000
1.000000 0.429613 0.000000
0.000000 0.540081 0.000000
0.123764 0.542562 0.000000
0.266617 0.545041 0.000000
0.406306 0.547521 0.000000
0.544060 0.550000 0.000000
0.680417 0.552478 0.000000
0.815682 0.554956 0.000000
0.950051 0.557434 0.000000
1.000000 0.559911 0.000000
0.000000 0.669333 0.000000
0.117170 0.671792 0.000000
0.260226 0.674250 0.000000
0.400023 0.676709 0.000000
0.537851 0.679167 0.000000
0.674263 0.681624 0.000000
0.809573 0.684082 0.000000
0.943979 0.686539 0.000000
1.000000 0.688995 0.000000
0.000000 0.797586 0.000000
0.110561 0.800028 0.000000
0.253829 0.802470 0.000000
0.393736 0.804911 0.000000
0.531638 0.807352 0.000000
0.668107 0.809793 0.000000
0.803462 0.812234 0.000000
0.937906 0.814674 0.000000
1.000000 0.817114 0.000000
0.000000 0.925017 0.000000
0.103936 0.927444 0.000000
0.247425 0.929872 0.000000
0.387446 0.932299 0.000000
0.525423 0.934725 0.000000
0.661949 0.937152 0.000000
0.797349 0.939578 0.000000
0.931831 0.942004 0.000000
1.000000 0.944430 0.000000
0.000000 1.000000 0.000000
0.097295 1.000000 0.000000
0.241015 1.000000 0.000000
0.381151 1.000000 0.000000
0.519205 1.000000 0.000000
0.655788 1.000000 0.000000
0.791234 1.000000 0.000000
0.925754 1.000000 0.000000
1.000000 1.000000 0.000000
0.000000 0.000000 0.143766
0.141965 0.000000 0.138539
0.284294 0.000000 0.133303
0.423696 0.000000 0.128060
0.561252 0.001074 0.122807
0.697458 0.004151 0.117546
0.832601 0.007130 0.112275
0.966869 0.010057 0.106995
1.000000 0.012951 0.101704
0.000000 0.132785 0.140640
0.135408 0.135408 0.135408
0.277920 0.138029 0.130168
0.417424 0.140647 0.124919
0.555050 0.143264 0.119661
0.691310 0.145878 0.114395
0.826497 0.148491 0.109118
0.960801 0.151102 0.103831
1.000000 0.153712 0.098534
0.000000 0.267967 0.137511
0.128838 0.270518 0.132274
0.271540 0.273067 0.127029
0.411148 0.275616 0.121775
0.548846 0.278163 0.116512
0.685161 0.280710 0.111239
0.820391 0.283256 0.105957
0.954732 0.285801 0.100664
1.000000 0.288345 0.095359
0.000000 0.400345 0.134380
0.122255 0.402855 0.129138
0.265154 0.405365 0.123887
0.404868 0.407873 0.118628
0.542639 0.410382 0.113359
0.679008 0.412889 0.108081
0.814284 0.415396 0.102792
0.948661 0.417902 0.097492
1.000000 0.420408 0.092181
0.000000 0.530961 0.131245
0.115658 0.533443 0.125998
0.258762 0.535925 0.120742
0.398584 0.538406 0.115478
0.536429 0.540886 0.110203
0.672854 0.543366 0.104918
0.808174 0.545846 0.099623
0.942589 0.548325 0.094316
1.000000 0.550804 0.088998
0.000000 0.660291 0.128108
0.109046 0.662752 0.122855
0.252364 0.665212 0.117594
0.392297 0.667671 0.112324
0.530216 0.670131 0.107043
0.666698 0.672590 0.101752
0.802063 0.675048 0.096450
0.936516 0.677506 0.091137
1.000000 0.679964 0.085810
0.000000 0.788609 0.124967
0.102418 0.791052 0.119709
0.245959 0.793494 0.114443
0.386005 0.795937 0.109166
0.524000 0.798379 0.103880
0.660539 0.800821 0.098582
0.795949 0.803262 0.093273
0.930440 0.805703 0.087952
1.000000 0.808144 0.082618
0.000000 0.916092 0.121823
0.095772 0.918521 0.116560
0.239547 0.920949 0.111288
0.379709 0.923377 0.106005
0.517781 0.925805 0.100712
0.654378 0.928232 0.095408
0.789834 0.930659 0.090092
0.924363 0.933086 0.084763
1.000000 0.935513 0.079421
0.000000 1.000000 0.118676
0.089108 1.000000 0.113407
0.233129 1.000000 0.108129
0.373409 1.000000 0.102840
0.511560 1.000000 0.097541
0.648214 1.000000 0.092229
0.783717 1.000000 0.086906
0.918285 1.000000 0.081569
1.000000 1.000000 0.076219
0.000000 0.000000 0.279968
0.133905 0.000000 0.274880
0.276460 0.000000 0.269788
0.415988 0.000000 0.264693
0.553630 0.000000 0.259593
0.689903 0.000000 0.254489
0.825100 0.000000 0.249381
0.959412 0.000000 0.244270
1.000000 0.002091 0.239153
0.000000 0.123128 0.276925
0.127333 0.125758 0.271835
0.270079 0.128387 0.266741
0.409711 0.131013 0.261643
0.547425 0.133637 0.256540
0.683752 0.136259 0.251434
0.818993 0.138878 0.246324
0.953343 0.141496 0.241210
1.000000 0.144112 0.236091
0.000000 0.258584 0.273881
0.120747 0.261138 0.268788
0.263692 0.263692 0.263692
0.403430 0.266244 0.258591
0.541218 0.268795 0.253487
0.677600 0.271345 0.248378
0.812885 0.273894 0.243265
0.947272 0.276442 0.238148
1.000000 0.278990 0.233027
0.000000 0.391114 0.270835
0.114146 0.393627 0.265740
0.257298 0.396138 0.260641
0.397145 0.398649 0.255538
0.535007 0.401160 0.250431
0.671445 0.403670 0.245320
0.806775 0.406179 0.240205
0.941199 0.408687 0.235085
1.000000 0.411195 0.229961
0.000000 0.521835 0.267788
0.107530 0.524319 0.262690
0.250898 0.526802 0.257589
0.390857 0.529285 0.252484
0.528793 0.531767 0.247375
0.665288 0.534249 0.242261
0.800664 0.536730 0.237143
0.935125 0.539211 0.232021
1.000000 0.541691 0.226894
0.000000 0.651245 0.264739
0.100898 0.653706 0.259639
0.244492 0.656168 0.254536
0.384564 0.658629 0.249428
0.522577 0.661090 0.244316
0.659129 0.663550 0.239200
0.794550 0.666010 0.234080
0.929049 0.668469 0.228954
1.000000 0.670929 0.223825
0.000000 0.779627 0.261689
0.094248 0.782071 0.256587
0.238078 0.784515 0.251481
0.378267 0.786958 0.246371
0.516357 0.789401 0.241256
0.652967 0.791844 0.236138
0.788434 0.794287 0.231014
0.922972 0.796729 0.225887
1.000000 0.799171 0.220754
0.000000 0.907164 0.258638
0.087580 0.909594 0.253533
0.231658 0.912023 0.248425
0.371967 0.914452 0.243312
0.510135 0.916880 0.238195
0.646803 0.919309 0.233074
0.782317 0.921737 0.227948
0.916893 0.924165 0.222817
1.000000 0.926592 0.217682
0.000000 1.000000 0.255585
0.080891 1.000000 0.250478
0.225231 1.000000 0.245367
0.365661 1.000000 0.240252
0.503909 1.000000 0.235132
0.640637 1.000000 0.230008
0.776198 1.000000 0.224879
0.910813 1.000000 0.219746
1.000000 1.000000 0.214608
0.000000 0.000000 0.413454
0.125826 0.000000 0.408445
0.268617 0.000000 0.403434
0.408273 0.000000 0.398420
0.546005 0.000000 0.393404
0.682344 0.000000 0.388385
0.817595 0.000000 0.383364
0.951953 0.000000 0.378340
1.000000 0.000000 0.373313
0.000000 0.113440 0.410458
0.119237 0.116079 0.405448
0.262229 0.118715 0.400435
0.401992 0.121350 0.395420
0.539796 0.123982 0.390402
0.676191 0.126611 0.385382
0.811487 0.129239 0.380359
0.945882 0.131864 0.375333
1.000000 0.134488 0.370305
0.000000 0.249188 0.407461
0.112633 0.251746 0.402450
0.255834 0.254303 0.397436
0.395706 0.256858 0.392419
0.533585 0.259413 0.387400
0.670036 0.261967 0.382378
0.805376 0.264520 0.377353
0.939809 0.267072 0.372326
1.000000 0.269622 0.367296
0.000000 0.381875 0.404464
0.106013 0.384389 0.399451
0.249432 0.386903 0.394435
0.389417 0.389417 0.389417
0.527371 0.391930 0.384396
0.663878 0.394442 0.379373
0.799264 0.396953 0.374346
0.933734 0.399464 0.369318
1.000000 0.401974 0.364286
0.000000 0.512702 0.401465
0.099377 0.515188 0.396451
0.243024 0.517673 0.391434
0.383123 0.520157 0.386414
0.521153 0.522641 0.381391
0.657718 0.525125 0.376366
0.793150 0.527608 0.371339
0.927658 0.530090 0.366308
1.000000 0.532572 0.361275
0.000000 0.642193 0.398466
0.092723 0.644656 0.393450
0.236609 0.647119 0.388431
0.376826 0.649582 0.383410
0.514933 0.652044 0.378386
0.651556 0.654505 0.373359
0.787034 0.656966 0.368330
0.921581 0.659427 0.363298
1.000000 0.661888 0.358263
0.000000 0.770641 0.395466
0.086050 0.773086 0.390448
0.230188 0.775531 0.385428
0.370524 0.777975 0.380405
0.508710 0.780420 0.375379
0.645392 0.782864 0.370351
0.780916 0.785308 0.365320
0.915501 0.787751 0.360286
1.000000 0.790194 0.355250
0.000000 0.898233 0.392465
0.079356 0.900663 0.387445
0.223759 0.903093 0.382424
0.364217 0.905523 0.377399
0.502484 0.907953 0.372372
0.639225 0.910382 0.367342
0.774796 0.912811 0.362309
0.909421 0.915240 0.357274
1.000000 0.917668 0.352236
0.000000 1.000000 0.389463
0.072640 1.000000 0.384442
0.217323 1.000000 0.379418
0.357907 1.000000 0.374392
0.496255 1.000000 0.369363
0.633056 1.000000 0.364332
0.768675 1.000000 0.359298
0.903338 1.000000 0.354260
1.000000 1.000000 0.349220
0.000000 0.000000 0.545206
0.117727 0.000000 0.540253
0.260765 0.000000 0.535297
0.400553 0.000000 0.530340
0.538375 0.000000 0.525382
0.674782 0.000000 0.520421
0.810088 0.000000 0.515458
0.944492 0.000000 0.510494
1.000000 0.000000 0.505527
0.000000 0.103719 0.542243
0.111119 0.106367 0.537289
0.254369 0.109013 0.532333
0.394267 0.111656 0.527374
0.532163 0.114296 0.522414
0.668627 0.116935 0.517453
0.803977 0.119570 0.512489
0.938418 0.122204 0.507523
1.000000 0.124835 0.502556
0.000000 0.239777 0.539280
0.104496 0.242339 0.534324
0.247966 0.244900 0.529367
0.387977 0.247459 0.524408
0.525948 0.250018 0.519447
0.662469 0.252576 0.514484
0.797865 0.255132 0.509519
0.932344 0.257688 0.504552
1.000000 0.260242 0.499583
0.000000 0.372626 0.536316
0.097856 0.375143 0.531359
0.241556 0.377660 0.526401
0.381682 0.380175 0.521440
0.519730 0.382691 0.516478
0.656308 0.385205 0.511514
0.791750 0.387719 0.506548
0.926267 0.390232 0.501580
1.000000 0.392745 0.496610
0.000000 0.503563 0.533351
0.091198 0.506050 0.528393
0.235140 0.508537 0.523434
0.375383 0.511023 0.518472
0.513509 0.513509 0.513509
0.650145 0.515994 0.508544
0.785634 0.518479 0.503577
0.920189 0.520963 0.498607
1.000000 0.523447 0.493636
0.000000 0.633137 0.530386
0.084520 0.635601 0.525427
0.228717 0.638065 0.520466
0.369080 0.640529 0.515504
0.507285 0.642993 0.510539
0.643980 0.645456 0.505573
0.779516 0.647918 0.500604
0.914110 0.650381 0.495634
1.000000 0.652842 0.490662
0.000000 0.761650 0.527420
0.077821 0.764097 0.522460
0.222286 0.766543 0.517498
0.362773 0.768989 0.512534
0.501058 0.771434 0.507569
0.637813 0.773879 0.502601
0.773395 0.776324 0.497631
0.908028 0.778769 0.492660
1.000000 0.781213 0.487686
0.000000 0.889298 0.524453
0.071099 0.891729 0.519492
0.215848 0.894160 0.514529
0.356462 0.896591 0.509564
0.494828 0.899022 0.504597
0.631643 0.901452 0.499629
0.767273 0.903882 0.494658
0.901946 0.906312 0.489685
1.000000 0.908741 0.484710
0.000000 1.000000 0.521486
0.064351 1.000000 0.516524
0.209403 1.000000 0.511559
0.350146 1.000000 0.506593
0.488595 1.000000 0.501625
0.625471 1.000000 0.496655
0.761149 1.000000 0.491684
0.895861 1.000000 0.486710
1.000000 1.000000 0.481734
0.000000 0.000000 0.675683
0.109604 0.000000 0.670773
0.252904 0.000000 0.665860
0.392827 0.000000 0.660947
0.530740 0.000000 0.656031
0.667217 0.000000 0.651115
0.802578 0.000000 0.646197
0.937028 0.000000 0.641277
1.000000 0.000000 0.636356
0.000000 0.093961 0.672746
0.102977 0.096619 0.667834
0.246499 0.099275 0.662921
0.386536 0.101928 0.658007
0.524525 0.104578 0.653091
0.661059 0.107226 0.648173
0.796465 0.109871 0.643254
0.930953 0.112513 0.638334
1.000000 0.115153 0.633412
0.000000 0.230352 0.669808
0.096333 0.232918 0.664896
0.240088 0.235483 0.659982
0.380241 0.238046 0.655066
0.518306 0.240609 0.650149
0.654898 0.243170 0.645231
0.790350 0.245731 0.640311
0.924876 0.248290 0.635390
1.000000 0.250848 0.630467
0.000000 0.363368 0.666870
0.089671 0.365888 0.661956
0.233670 0.368407 0.657042
0.373941 0.370925 0.652125
0.512085 0.373443 0.647207
0.648734 0.375960 0.642288
0.784233 0.378476 0.637367
0.918798 0.380992 0.632445
1.000000 0.383507 0.627521
0.000000 0.494417 0.663931
0.082988 0.496906 0.659017
0.227245 0.499395 0.654101
0.367637 0.501883 0.649184
0.505860 0.504370 0.644265
0.642569 0.506857 0.639345
0.778115 0.509344 0.634423
0.912718 0.511830 0.629500
1.000000 0.514316 0.624575
0.000000 0.624075 0.660992
0.076284 0.626541 0.656076
0.220813 0.629007 0.651160
0.361329 0.631472 0.646242
0.499633 0.633936 0.641322
0.636401 0.636401 0.636401
0.771994 0.638865 0.631478
0.906636 0.641329 0.626554
1.000000 0.643792 0.621628
0.000000 0.752656 0.658052
0.069557 0.755103 0.653136
0.214373 0.757551 0.648218
0.355016 0.759997 0.643299
0.493402 0.762444 0.638379
0.630231 0.764890 0.633456
0.765871 0.767336 0.628533
0.900553 0.769782 0.623608
1.000000 0.772228 0.618681
0.000000 0.880359 0.655111
0.062803 0.882792 0.650194
0.207926 0.885224 0.645276
0.348699 0.887655 0.640356
0.487168 0.890087 0.635434
0.624058 0.892518 0.630512
0.759747 0.894949 0.625587
0.894468 0.897380 0.620661
1.000000 0.899810 0.615733
0.000000 1.000000 0.652170
0.056020 1.000000 0.647252
0.201470 1.000000 0.642333
0.342377 1.000000 0.637412
0.480931 1.000000 0.632490
0.617883 1.000000 0.627566
0.753620 1.000000 0.622641
0.888381 1.000000 0.617714
1.000000 1.000000 0.612785
0.000000 0.000000 0.805154
0.101458 0.000000 0.800278
0.245032 0.000000 0.795400
0.385095 0.000000 0.790522
0.523101 0.000000 0.785642
0.659648 0.000000 0.780760
0.795066 0.000000 0.775878
0.929562 0.000000 0.770994
1.000000 0.000000 0.766109
0.000000 0.084162 0.802237
0.094810 0.086832 0.797360
0.238620 0.089499 0.792482
0.378799 0.092163 0.787603
0.516882 0.094824 0.782722
0.653487 0.097481 0.777840
0.788950 0.100136 0.772957
0.923485 0.102788 0.768072
1.000000 0.105438 0.763187
0.000000 0.220911 0.799320
0.088143 0.223481 0.794442
0.232200 0.226050 0.789563
0.372498 0.228618 0.784683
0.510660 0.231185 0.779802
0.647323 0.233750 0.774919
0.782833 0.236315 0.770035
0.917406 0.238878 0.765150
1.000000 0.241440 0.760264
0.000000 0.354101 0.796403
0.081456 0.356623 0.791524
0.225774 0.359144 0.786644
0.366193 0.361665 0.781763
0.504435 0.364186 0.776881
0.641157 0.366705 0.771998
0.776714 0.369224 0.767113
0.911326 0.371742 0.762227
1.000000 0.374260 0.757340
0.000000 0.485265 0.793485
0.074747 0.487756 0.788605
0.219340 0.490246 0.783725
0.359884 0.492736 0.778843
0.498207 0.495225 0.773960
0.634989 0.497714 0.769076
0.770593 0.500202 0.764191
0.905244 0.502690 0.759304
1.000000 0.505177 0.754416
0.000000 0.615008 0.790566
0.068013 0.617475 0.785686
0.212898 0.619942 0.780805
0.353571 0.622409 0.775923
0.491975 0.624875 0.771039
0.628818 0.627341 0.766154
0.764470 0.629806 0.761268
0.899160 0.632272 0.756381
1.000000 0.634736 0.751492
0.000000 0.743657 0.787647
0.061253 0.746106 0.782766
0.206449 0.748554 0.777885
0.347252 0.751002 0.773001
0.485741 0.753450 0.768117
0.622644 0.755897 0.763231
0.758345 0.758345 0.758345
0.893075 0.760791 0.753456
1.000000 0.763238 0.748567
0.000000 0.871417 0.784728
0.054463 0.873850 0.779846
0.199992 0.876283 0.774964
0.340930 0.878716 0.770080
0.479503 0.881149 0.765195
0.616469 0.883581 0.760308
0.752218 0.886013 0.755421
0.886988 0.888444 0.750532
1.000000 0.890876 0.745642
0.000000 0.998429 0.781808
0.047638 1.000000 0.776926
0.193526 1.000000 0.772042
0.334602 1.000000 0.767158
0.473262 1.000000 0.762272
0.610291 1.000000 0.757385
0.746089 1.000000 0.752497
0.880899 1.000000 0.747607
1.000000 1.000000 0.742716
0.000000 0.000000 0.933794
0.093285 0.000000 0.928946
0.237151 0.000000 0.924098
0.377357 0.000000 0.919248
0.515458 0.000000 0.914398
0.652076 0.000000 0.909546
0.787550 0.000000 0.904694
0.922093 0.000000 0.899840
1.000000 0.000000 0.894985
0.000000 0.074317 0.930894
0.086614 0.077001 0.926046
0.230730 0.079680 0.921197
0.371055 0.082356 0.916347
0.509235 0.085029 0.911496
0.645912 0.087698 0.906644
0.781432 0.090364 0.901790
0.916014 0.093027 0.896936
1.000000 0.095686 0.892081
0.000000 0.211454 0.927994
0.079922 0.214029 0.923146
0.224302 0.216602 0.918296
0.364750 0.219174 0.913445
0.503009 0.221745 0.908594
0.639745 0.224315 0.903741
0.775313 0.226884 0.898887
0.909934 0.229451 0.894032
1.000000 0.232017 0.889176
0.000000 0.344823 0.925094
0.073207 0.347348 0.920245
0.217866 0.349873 0.915395
0.358439 0.352396 0.910543
0.496780 0.354919 0.905691
0.633576 0.357441 0.900837
0.769191 0.359963 0.895983
0.903851 0.362483 0.891127
1.000000 0.365003 0.886271
0.000000 0.476105 0.922194
0.066468 0.478598 0.917344
0.211423 0.481090 0.912493
0.352125 0.483582 0.907641
0.490548 0.486073 0.902788
0.627405 0.488564 0.897934
0.763068 0.491054 0.893079
0.897767 0.493544 0.888223
1.000000 0.496033 0.883365
0.000000 0.605936 0.919293
0.059701 0.608405 0.914442
0.204972 0.610873 0.909591
0.345805 0.613341 0.904738
0.484313 0.615809 0.899884
0.621231 0.618276 0.895030
0.756942 0.620743 0.890174
0.891682 0.623209 0.885317
1.000000 0.625675 0.880459
0.000000 0.734654 0.916391
0.052904 0.737104 0.911540
0.198512 0.739553 0.906688
0.339482 0.742003 0.901835
0.478074 0.744452 0.896981
0.615055 0.746900 0.892125
0.750815 0.749348 0.887269
0.885594 0.751797 0.882411
1.000000 0.754244 0.877553
0.000000 0.862471 0.913490
0.046071 0.864905 0.908638
0.192045 0.867339 0.903785
0.333153 0.869773 0.898931
0.471833 0.872207 0.894076
0.608876 0.874640 0.889220
0.744685 0.877073 0.884363
0.879505 0.879505 0.879505
1.000000 0.881938 0.874646
0.000000 0.989532 0.910588
0.039197 0.991953 0.905735
0.185568 0.994374 0.900882
0.326820 0.996794 0.896027
0.465588 0.999215 0.891172
0.602695 1.000000 0.886315
0.738554 1.000000 0.881458
0.873415 1.000000 0.876599
1.000000 1.000000 0.871739
0.000000 0.000000 1.000000
0.085084 0.000000 1.000000
0.229259 0.000000 1.000000
0.369612 0.000000 1.000000
0.507810 0.000000 1.000000
0.644501 0.000000 1.000000
0.780032 0.000000 1.000000
0.914623 0.000000 1.000000
1.000000 0.000000 1.000000
0.000000 0.064420 1.000000
0.078387 0.067119 1.000000
0.222829 0.069813 1.000000
0.363305 0.072503 1.000000
0.501584 0.075189 1.000000
0.638333 0.077871 1.000000
0.773912 0.080549 1.000000
0.908541 0.083224 1.000000
1.000000 0.085895 1.000000
0.000000 0.201980 1.000000
0.071667 0.204559 1.000000
0.216392 0.207137 1.000000
0.356994 0.209714 1.000000
0.495354 0.212290 1.000000
0.632164 0.214864 1.000000
0.767790 0.217437 1.000000
0.902459 0.220009 1.000000
1.000000 0.222579 1.000000
0.000000 0.335536 1.000000
0.064922 0.338064 1.000000
0.209947 0.340591 1.000000
0.350679 0.343117 1.000000
0.489121 0.345643 1.000000
0.625992 0.348168 1.000000
0.761666 0.350692 1.000000
0.896374 0.353215 1.000000
1.000000 0.355738 1.000000
0.000000 0.466939 1.000000
0.058148 0.469433 1.000000
0.203494 0.471928 1.000000
0.344358 0.474421 1.000000
0.482885 0.476914 1.000000
0.619817 0.479407 1.000000
0.755540 0.481899 1.000000
0.890288 0.484390 1.000000
1.000000 0.486881 1.000000
0.000000 0.596858 1.000000
0.051343 0.599328 1.000000
0.197033 0.601798 1.000000
0.338033 0.604268 1.000000
0.476646 0.606737 1.000000
0.613641 0.609206 1.000000
0.749412 0.611674 1.000000
0.884201 0.614142 1.000000
1.000000 0.616609 1.000000
0.000000 0.725646 1.000000
0.044501 0.728097 1.000000
0.190563 0.730548 1.000000
0.331704 0.732999 1.000000
0.470403 0.735449 1.000000
0.607461 0.737899 1.000000
0.743282 0.740348 1.000000
0.878111 0.742797 1.000000
1.000000 0.745246 1.000000
0.000000 0.853521 1.000000
0.037617 0.855957 1.000000
0.184084 0.858392 1.000000
0.325369 0.860826 1.000000
0.464158 0.863261 1.000000
0.601279 0.865695 1.000000
0.737150 0.868129 1.000000
0.872020 0.870563 1.000000
1.000000 0.872996 1.000000
0.000000 0.980632 1.000000
0.030682 0.983054 1.000000
0.177597 0.985475 1.000000
0.319030 0.987897 1.000000
0.457908 0.990318 1.000000
0.595095 0.992739 1.000000
0.731016 0.995159 1.000000
0.865928 0.997580 1.000000
1.000000 1.000000 1.000000
