presets/film_stocks/Fuji_Pro_160C.cube
# 独寻胶片模拟 -- Fuji Pro 160C
# Fujifilm, ISO 160, 2004, negative
TITLE "Fuji Pro 160C"
LUT_3D_SIZE 9
DOMAIN_MIN 0.0 0.0 0.0
DOMAIN_MAX 1.0 1.0 1.0
0.000000 0.000000 0.000000
0.167906 0.002960 0.000000
0.320925 0.005658 0.000000
0.468786 0.008265 0.000000
0.613395 0.010814 0.000000
0.755632 0.013322 0.000000
0.896007 0.015797 0.000000
1.000000 0.018244 0.000000
1.000000 0.020669 0.000000
0.000000 0.154558 0.000000
0.158531 0.156654 0.000000
0.311974 0.158749 0.000000
0.460073 0.160841 0.000000
0.604845 0.162932 0.000000
0.747207 0.165021 0.000000
0.887682 0.167108 0.000000
1.000000 0.169193 0.000000
1.000000 0.171276 0.000000
0.000000 0.295411 0.000000
0.149117 0.297415 0.000000
0.303006 0.299418 0.000000
0.451348 0.301421 0.000000
0.596287 0.303422 0.000000
0.738775 0.305422 0.000000
0.879352 0.307421 0.000000
1.000000 0.309420 0.000000
1.000000 0.311417 0.000000
0.000000 0.431518 0.000000
0.139661 0.433469 0.000000
0.294019 0.435420 0.000000
0.442611 0.437371 0.000000
0.587721 0.439321 0.000000
0.730337 0.441270 0.000000
0.871017 0.443219 0.000000
1.000000 0.445167 0.000000
1.000000 0.447114 0.000000
0.000000 0.564630 0.000000
0.130160 0.566545 0.000000
0.285012 0.568460 0.000000
0.433862 0.570374 0.000000
0.579145 0.572288 0.000000
0.721892 0.574202 0.000000
0.862676 0.576115 0.000000
1.000000 0.578028 0.000000
1.000000 0.579940 0.000000
0.000000 0.695559 0.000000
0.120610 0.697446 0.000000
0.275986 0.699334 0.000000
0.425101 0.701221 0.000000
0.570561 0.703107 0.000000
0.713440 0.704993 0.000000
0.854330 0.706879 0.000000
0.993603 0.708765 0.000000
1.000000 0.710650 0.000000
0.000000 0.824774 0.000000
0.111007 0.826639 0.000000
0.266939 0.828504 0.000000
0.416327 0.830369 0.000000
0.561968 0.832233 0.000000
0.704981 0.834098 0.000000
0.845977 0.835961 0.000000
0.985339 0.837825 0.000000
1.000000 0.839688 0.000000
0.000000 0.952581 0.000000
0.101345 0.954428 0.000000
0.257870 0.956274 0.000000
0.407540 0.958120 0.000000
0.553365 0.959966 0.000000
0.696515 0.961812 0.000000
0.837619 0.963657 0.000000
0.977070 0.965502 0.000000
1.000000 0.967347 0.000000
0.000000 1.000000 0.000000
0.091618 1.000000 0.000000
0.248779 1.000000 0.000000
0.398740 1.000000 0.000000
0.544753 1.000000 0.000000
0.688042 1.000000 0.000000
0.829255 1.000000 0.000000
0.968797 1.000000 0.000000
1.000000 1.000000 0.000000
0.000000 0.000000 0.148615
0.152656 0.000000 0.145595
0.306375 0.000000 0.142571
0.454624 0.000000 0.139543
0.599501 0.000000 0.136510
0.741941 0.000000 0.133472
0.882480 0.000000 0.130430
1.000000 0.001856 0.127382
1.000000 0.004611 0.124330
0.000000 0.141106 0.146239
0.143216 0.143216 0.143216
0.297395 0.145323 0.140188
0.445892 0.147429 0.137156
0.590937 0.149532 0.134120
0.733506 0.151633 0.131078
0.874147 0.153733 0.128032
1.000000 0.155830 0.124980
1.000000 0.157925 0.121923
0.000000 0.282576 0.143860
0.133732 0.284587 0.140833
0.288395 0.286596 0.137802
0.437148 0.288604 0.134767
0.582365 0.290611 0.131726
0.725063 0.292618 0.128681
0.865808 0.294623 0.125630
1.000000 0.296627 0.122575
1.000000 0.298631 0.119514
0.000000 0.419025 0.141478
0.124201 0.420981 0.138448
0.279377 0.422936 0.135414
0.428391 0.424890 0.132374
0.573784 0.426844 0.129330
0.716614 0.428797 0.126280
0.857464 0.430750 0.123226
0.996704 0.432702 0.120166
1.000000 0.434653 0.117101
0.000000 0.552373 0.139094
0.114618 0.554292 0.136060
0.270337 0.556209 0.133022
0.419622 0.558127 0.129978
0.565195 0.560044 0.126930
0.708157 0.561960 0.123877
0.849113 0.563876 0.120818
0.988442 0.565792 0.117754
1.000000 0.567707 0.114684
0.000000 0.683482 0.136707
0.104979 0.685372 0.133669
0.261277 0.687261 0.130627
0.410840 0.689151 0.127580
0.556596 0.691039 0.124527
0.699694 0.692928 0.121470
0.840757 0.694816 0.118407
0.980175 0.696704 0.115338
1.000000 0.698591 0.112264
0.000000 0.812841 0.134316
0.095278 0.814709 0.131275
0.252194 0.816576 0.128229
0.402045 0.818442 0.125178
0.547987 0.820309 0.122121
0.691224 0.822175 0.119060
0.832396 0.824040 0.115992
0.971903 0.825906 0.112919
1.000000 0.827771 0.109841
0.000000 0.940769 0.131923
0.085506 0.942618 0.128878
0.243089 0.944466 0.125828
0.393237 0.946313 0.122773
0.539369 0.948161 0.119712
0.682746 0.950008 0.116646
0.824028 0.951855 0.113574
0.963626 0.953702 0.110497
1.000000 0.955548 0.107413
0.000000 1.000000 0.129527
0.075656 1.000000 0.126478
0.233959 1.000000 0.123424
0.384414 1.000000 0.120364
0.530742 1.000000 0.117299
0.674261 1.000000 0.114229
0.815655 1.000000 0.111152
0.955344 1.000000 0.108070
1.000000 1.000000 0.104982
0.000000 0.000000 0.284052
0.137297 0.000000 0.281168
0.291776 0.000000 0.278281
0.440432 0.000000 0.275392
0.585584 0.000000 0.272502
0.728233 0.000000 0.269609
0.868939 0.000000 0.266713
1.000000 0.000000 0.263816
1.000000 0.000000 0.260916
0.000000 0.127564 0.281782
0.127785 0.129688 0.278896
0.282765 0.131810 0.276008
0.431680 0.133930 0.273117
0.577007 0.136048 0.270225
0.719786 0.138163 0.267330
0.860597 0.140276 0.264433
0.999805 0.142386 0.261534
1.000000 0.144495 0.258633
0.000000 0.269701 0.279511
0.118222 0.271717 0.276623
0.273733 0.273733 0.273733
0.422916 0.275748 0.270841
0.568420 0.277761 0.267947
0.711333 0.279774 0.265050
0.852249 0.281786 0.262152
0.991544 0.283796 0.259251
1.000000 0.285806 0.256347
0.000000 0.406506 0.277238
0.108604 0.408466 0.274349
0.264681 0.410426 0.271457
0.414138 0.412384 0.268563
0.559825 0.414342 0.265667
0.702872 0.416299 0.262769
0.843895 0.418256 0.259869
0.983279 0.420212 0.256966
1.000000 0.422167 0.254061
0.000000 0.540098 0.274964
0.098927 0.542019 0.272073
0.255606 0.543940 0.269180
0.405348 0.545860 0.266284
0.551220 0.547780 0.263386
0.694404 0.549700 0.260486
0.835535 0.551619 0.257584
0.975009 0.553537 0.254680
1.000000 0.555455 0.251773
0.000000 0.671390 0.272689
0.089183 0.673282 0.269796
0.246510 0.675174 0.266901
0.396545 0.677066 0.264004
0.542606 0.678957 0.261104
0.685929 0.680848 0.258202
0.827170 0.682738 0.255298
0.966734 0.684628 0.252392
1.000000 0.686518 0.249483
0.000000 0.800897 0.270412
0.079363 0.802766 0.267517
0.237389 0.804635 0.264621
0.387728 0.806503 0.261722
0.533982 0.808371 0.258820
0.677447 0.810239 0.255917
0.818799 0.812107 0.253011
0.958454 0.813974 0.250103
1.000000 0.815841 0.247192
0.000000 0.928947 0.268134
0.069458 0.930797 0.265238
0.228244 0.932647 0.262339
0.378896 0.934496 0.259438
0.525348 0.936345 0.256535
0.668957 0.938194 0.253630
0.810421 0.940042 0.250722
0.950169 0.941891 0.247812
1.000000 0.943739 0.244900
0.000000 1.000000 0.265855
0.059452 1.000000 0.262957
0.219074 1.000000 0.260056
0.370051 1.000000 0.257154
0.516705 1.000000 0.254249
0.660459 1.000000 0.251342
0.802038 1.000000 0.248432
0.941879 1.000000 0.245520
1.000000 1.000000 0.242606
0.000000 0.000000 0.414925
0.121818 0.000000 0.412116
0.277126 0.000000 0.409306
0.426207 0.000000 0.406495
0.571645 0.000000 0.403682
0.714507 0.000000 0.400868
0.855383 0.000000 0.398052
0.994646 0.000000 0.395235
1.000000 0.000000 0.392417
0.000000 0.113920 0.412715
0.112221 0.116061 0.409905
0.268081 0.118200 0.407094
0.417435 0.120335 0.404281
0.563052 0.122469 0.401467
0.706049 0.124599 0.398652
0.847031 0.126727 0.395835
0.986382 0.128853 0.393017
1.000000 0.130976 0.390198
0.000000 0.256781 0.410503
0.102567 0.258805 0.407692
0.259015 0.260828 0.404880
0.408650 0.262849 0.402067
0.554451 0.264869 0.399252
0.697584 0.266889 0.396435
0.838674 0.268907 0.393618
0.978114 0.270924 0.390798
1.000000 0.272940 0.387978
0.000000 0.393961 0.408291
0.092849 0.395925 0.405479
0.249927 0.397888 0.402666
0.399851 0.399851 0.399851
0.545840 0.401813 0.397035
0.689111 0.403775 0.394218
0.830311 0.405735 0.391399
0.969841 0.407696 0.388579
1.000000 0.409655 0.385757
0.000000 0.527803 0.406078
0.083059 0.529727 0.403265
0.240816 0.531651 0.400451
0.391039 0.533575 0.397635
0.537220 0.535497 0.394818
0.680632 0.537420 0.391999
0.821942 0.539342 0.389179
0.961563 0.541263 0.386358
1.000000 0.543185 0.383535
0.000000 0.659283 0.403864
0.073187 0.661177 0.401050
0.231680 0.663072 0.398235
0.382213 0.664966 0.395418
0.528590 0.666859 0.392600
0.672145 0.668753 0.389780
0.813567 0.670646 0.386959
0.953279 0.672538 0.384136
1.000000 0.674430 0.381312
0.000000 0.788939 0.401649
0.063221 0.790811 0.398834
0.222519 0.792681 0.396018
0.373373 0.794552 0.393200
0.519951 0.796422 0.390380
0.663650 0.798292 0.387560
0.805186 0.800161 0.384737
0.944991 0.802031 0.381914
1.000000 0.803900 0.379089
0.000000 0.917114 0.399434
0.053143 0.918966 0.396618
0.213332 0.920817 0.393800
0.364518 0.922668 0.390981
0.511301 0.924519 0.388160
0.655148 0.926369 0.385339
0.796799 0.928219 0.382515
0.936698 0.930069 0.379690
1.000000 0.931919 0.376864
0.000000 1.000000 0.397217
0.042929 1.000000 0.394400
0.204117 1.000000 0.391581
0.355648 1.000000 0.388761
0.502641 1.000000 0.385940
0.646638 1.000000 0.383116
0.788405 1.000000 0.380292
0.928400 1.000000 0.377466
1.000000 1.000000 0.374639
0.000000 0.000000 0.542919
0.106199 0.000000 0.540163
0.262421 0.000000 0.537405
0.411949 0.000000 0.534647
0.557681 0.000000 0.531888
0.700762 0.000000 0.529128
0.841812 0.000000 0.526367
0.981218 0.000000 0.523604
1.000000 0.000000 0.520841
0.000000 0.100160 0.540750
0.096505 0.102321 0.537993
0.253341 0.104478 0.535235
0.403156 0.106632 0.532476
0.549074 0.108783 0.529716
0.692293 0.110931 0.526955
0.833451 0.113077 0.524193
0.972947 0.115219 0.521430
1.000000 0.117359 0.518666
0.000000 0.243817 0.538580
0.086743 0.245848 0.535822
0.244239 0.247877 0.533063
0.394349 0.249906 0.530303
0.540457 0.251934 0.527543
0.683816 0.253960 0.524781
0.825084 0.255985 0.522018
0.964671 0.258009 0.519254
1.000000 0.260032 0.516490
0.000000 0.381387 0.536409
0.076903 0.383356 0.533651
0.235112 0.385324 0.530891
0.385528 0.387291 0.528131
0.531831 0.389257 0.525369
0.675331 0.391223 0.522607
0.816711 0.393188 0.519843
0.956389 0.395153 0.517078
1.000000 0.397116 0.514313
0.000000 0.515488 0.534238
0.066974 0.517415 0.531479
0.225961 0.519342 0.528719
0.376693 0.521269 0.525957
0.523195 0.523195 0.523195
0.666840 0.525121 0.520432
0.808333 0.527046 0.517667
0.948103 0.528970 0.514902
1.000000 0.530894 0.512135
0.000000 0.647160 0.532067
0.056941 0.649057 0.529307
0.216784 0.650954 0.526545
0.367844 0.652850 0.523783
0.514549 0.654746 0.521020
0.658340 0.656642 0.518256
0.799948 0.658537 0.515491
0.939812 0.660432 0.512725
1.000000 0.662327 0.509957
0.000000 0.776969 0.529894
0.046781 0.778843 0.527133
0.207579 0.780715 0.524372
0.358980 0.782588 0.521609
0.505893 0.784460 0.518845
0.649833 0.786332 0.516080
0.791557 0.788203 0.513314
0.931515 0.790075 0.510547
1.000000 0.791946 0.507778
0.000000 0.905271 0.527721
0.036463 0.907124 0.524960
0.198346 0.908977 0.522197
0.350100 0.910829 0.519433
0.497226 0.912682 0.516669
0.641319 0.914534 0.513903
0.783159 0.916386 0.511136
0.923214 0.918238 0.508368
1.000000 0.920089 0.505599
0.000000 1.000000 0.525548
0.025934 1.000000 0.522785
0.189083 1.000000 0.520022
0.341205 1.000000 0.517257
0.488549 1.000000 0.514492
0.632796 1.000000 0.511725
0.774756 1.000000 0.508957
0.914907 1.000000 0.506189
1.000000 1.000000 0.503419
0.000000 0.000000 0.668813
0.090416 0.000000 0.666097
0.247659 0.000000 0.663380
0.397656 0.000000 0.660663
0.543693 0.000000 0.657944
0.686999 0.000000 0.655225
0.828226 0.000000 0.652505
0.967778 0.000000 0.649784
1.000000 0.000000 0.647062
0.000000 0.086266 0.666676
0.080607 0.088449 0.663959
0.238541 0.090628 0.661241
0.388841 0.092804 0.658523
0.535070 0.094976 0.655804
0.678517 0.097144 0.653084
0.819855 0.099309 0.650363
0.959499 0.101471 0.647642
1.000000 0.103630 0.644920
0.000000 0.230803 0.664537
0.070713 0.232842 0.661820
0.229399 0.234880 0.659102
0.380011 0.236916 0.656383
0.526438 0.238951 0.653663
0.670028 0.240985 0.650943
0.811479 0.243017 0.648221
0.951214 0.245049 0.645499
1.000000 0.247079 0.642776
0.000000 0.368784 0.662399
0.060721 0.370758 0.659681
0.220232 0.372730 0.656962
0.371168 0.374702 0.654242
0.517796 0.376673 0.651522
0.661532 0.378643 0.648801
0.803096 0.380613 0.646079
0.942925 0.382582 0.643356
1.000000 0.384550 0.640633
0.000000 0.503152 0.660260
0.050611 0.505083 0.657541
0.211038 0.507013 0.654822
0.362309 0.508943 0.652101
0.509143 0.510872 0.649380
0.653028 0.512801 0.646659
0.794707 0.514729 0.643936
0.934630 0.516657 0.641213
1.000000 0.518584 0.638489
0.000000 0.635021 0.658120
0.040358 0.636921 0.655401
0.201816 0.638820 0.652681
0.353435 0.640719 0.649960
0.500481 0.642618 0.647238
0.644516 0.644516 0.644516
0.786312 0.646414 0.641793
0.926331 0.648311 0.639069
1.000000 0.650208 0.636344
0.000000 0.764987 0.655980
0.029916 0.766862 0.653260
0.192564 0.768736 0.650539
0.344546 0.770611 0.647818
0.491808 0.772485 0.645096
0.635996 0.774359 0.642373
0.777911 0.776233 0.639649
0.918026 0.778106 0.636924
1.000000 0.779979 0.634199
0.000000 0.893416 0.653839
0.019206 0.895271 0.651119
0.183281 0.897126 0.648398
0.335640 0.898980 0.645675
0.483124 0.900834 0.642953
0.627468 0.902688 0.640229
0.769504 0.904542 0.637504
0.909716 0.906395 0.634779
1.000000 0.908248 0.632053
0.000000 1.000000 0.651698
0.008029 1.000000 0.648977
0.173964 1.000000 0.646255
0.326718 1.000000 0.643532
0.474429 1.000000 0.640809
0.618933 1.000000 0.638085
0.761090 1.000000 0.635360
0.901400 1.000000 0.632634
1.000000 1.000000 0.629907
0.000000 0.000000 0.793060
0.074438 0.000000 0.790376
0.232834 0.000000 0.787692
0.383328 0.000000 0.785007
0.529680 0.000000 0.782321
0.673216 0.000000 0.779634
0.814624 0.000000 0.776947
0.954325 0.000000 0.774259
1.000000 0.000000 0.771571
0.000000 0.072213 0.790948
0.064484 0.074423 0.788263
0.223677 0.076629 0.785578
0.374489 0.078829 0.782893
0.521041 0.081026 0.780206
0.664722 0.083218 0.777519
0.806243 0.085407 0.774832
0.946037 0.087591 0.772144
1.000000 0.089772 0.769455
0.000000 0.217738 0.788835
0.054422 0.219786 0.786150
0.214493 0.221831 0.783465
0.365636 0.223876 0.780778
0.512393 0.225919 0.778092
0.656221 0.227961 0.775404
0.797857 0.230001 0.772716
0.937745 0.232040 0.770027
1.000000 0.234078 0.767338
0.000000 0.356151 0.786722
0.044226 0.358129 0.784037
0.205281 0.360107 0.781351
0.356768 0.362083 0.778664
0.503734 0.364059 0.775976
0.647712 0.366034 0.773289
0.789464 0.368008 0.770600
0.929447 0.369982 0.767911
1.000000 0.371954 0.765221
0.000000 0.490795 0.784608
0.033862 0.492729 0.781923
0.196040 0.494663 0.779236
0.347885 0.496596 0.776549
0.495065 0.498529 0.773861
0.639195 0.500461 0.771172
0.781066 0.502392 0.768483
0.921144 0.504323 0.765793
1.000000 0.506254 0.763103
0.000000 0.622866 0.782495
0.023266 0.624769 0.779808
0.186769 0.626671 0.777121
0.338985 0.628572 0.774433
0.486385 0.630473 0.771745
0.630671 0.632374 0.769056
0.772660 0.634274 0.766366
0.912836 0.636174 0.763676
1.000000 0.638073 0.760985
0.000000 0.752990 0.780380
0.012306 0.754868 0.777693
0.177466 0.756745 0.775006
0.330069 0.758621 0.772318
0.477694 0.760497 0.769629
0.622138 0.762373 0.766939
0.764249 0.764249 0.764249
0.904522 0.766124 0.761558
1.000000 0.767999 0.758867
0.000000 0.881551 0.778266
0.000364 0.883407 0.775578
0.168128 0.885264 0.772890
0.321137 0.887120 0.770201
0.468992 0.888976 0.767512
0.613597 0.890831 0.764822
0.755831 0.892687 0.762131
0.896204 0.894542 0.759440
1.000000 0.896396 0.756748
0.000000 1.000000 0.776150
0.000000 1.000000 0.773462
0.158753 1.000000 0.770774
0.312186 1.000000 0.768085
0.460279 1.000000 0.765395
0.605048 1.000000 0.762704
0.747406 1.000000 0.760013
0.887879 1.000000 0.757321
1.000000 1.000000 0.754628
0.000000 0.000000 0.915953
0.058213 0.000000 0.913296
0.217943 0.000000 0.910639
0.368961 0.000000 0.907981
0.515640 0.000000 0.905322
0.659413 0.000000 0.902663
0.801006 0.000000 0.900003
0.940858 0.000000 0.897343
1.000000 0.000000 0.894682
0.000000 0.057965 0.913862
0.048071 0.060209 0.911205
0.208742 0.062446 0.908547
0.360099 0.064678 0.905888
0.506985 0.066905 0.903229
0.650907 0.069127 0.900570
0.792616 0.071343 0.897910
0.932562 0.073555 0.895249
1.000000 0.075762 0.892588
0.000000 0.204618 0.911770
0.037775 0.206674 0.909113
0.199513 0.208729 0.906454
0.351221 0.210782 0.903796
0.498320 0.212834 0.901136
0.642393 0.214884 0.898476
0.784219 0.216933 0.895816
0.924261 0.218981 0.893155
1.000000 0.221027 0.890493
0.000000 0.343487 0.909679
0.027277 0.345470 0.907021
0.190253 0.347452 0.904362
0.342328 0.349433 0.901703
0.489644 0.351414 0.899043
0.633872 0.353394 0.896382
0.775816 0.355373 0.893721
0.915955 0.357351 0.891060
1.000000 0.359329 0.888398
0.000000 0.478416 0.907587
0.016478 0.480354 0.904928
0.180962 0.482291 0.902269
0.333418 0.484227 0.899609
0.480958 0.486163 0.896949
0.625342 0.488099 0.894288
0.767407 0.490034 0.891627
0.907644 0.491968 0.888965
1.000000 0.493902 0.886302
0.000000 0.610695 0.905494
0.005102 0.612600 0.902835
0.171637 0.614504 0.900176
0.324492 0.616408 0.897515
0.472260 0.618312 0.894855
0.616804 0.620215 0.892193
0.758992 0.622118 0.889532
0.899327 0.624021 0.886869
1.000000 0.625923 0.884206
0.000000 0.740981 0.903401
0.000000 0.742860 0.900742
0.162277 0.744739 0.898082
0.315548 0.746618 0.895421
0.463551 0.748496 0.892760
0.608258 0.750374 0.890098
0.750570 0.752252 0.887436
0.891005 0.754129 0.884773
1.000000 0.756006 0.882110
0.000000 0.869674 0.901308
0.000000 0.871533 0.898648
0.152879 0.873391 0.895988
0.306587 0.875249 0.893327
0.454831 0.877106 0.890665
0.599703 0.878963 0.888003
0.742141 0.880820 0.885340
0.882677 0.882677 0.882677
1.000000 0.884534 0.880013
0.000000 0.997043 0.899215
0.000000 0.998883 0.896554
0.143440 1.000000 0.893894
0.297607 1.000000 0.891232
0.446099 1.000000 0.888570
0.591140 1.000000 0.885908
0.733705 1.000000 0.883244
0.874344 1.000000 0.880581
1.000000 1.000000 0.877916
0.000000 0.000000 1.000000
0.041661 0.000000 1.000000
0.202981 0.000000 1.000000
0.354556 0.000000 1.000000
0.501574 0.000000 1.000000
0.645590 0.000000 1.000000
0.787372 0.000000 1.000000
0.927378 0.000000 1.000000
1.000000 0.000000 1.000000
0.000000 0.043464 1.000000
0.031246 0.045752 1.000000
0.193733 0.048032 1.000000
0.345668 0.050305 1.000000
0.492902 0.052570 1.000000
0.637072 0.054829 1.000000
0.778971 0.057081 1.000000
0.919074 0.059327 1.000000
1.000000 0.061567 1.000000
0.000000 0.191439 1.000000
0.020577 0.193505 1.000000
0.184454 0.195569 1.000000
0.336765 0.197631 1.000000
0.484220 0.199692 1.000000
0.628545 0.201751 1.000000
0.770565 0.203809 1.000000
0.910764 0.205866 1.000000
1.000000 0.207921 1.000000
0.000000 0.330790 1.000000
0.009481 0.332778 1.000000
0.175142 0.334765 1.000000
0.327845 0.336752 1.000000
0.475526 0.338738 1.000000
0.620010 0.340723 1.000000
0.762152 0.342707 1.000000
0.902450 0.344690 1.000000
1.000000 0.346673 1.000000
0.000000 0.466015 1.000000
0.000000 0.467956 1.000000
0.165795 0.469897 1.000000
0.318908 0.471837 1.000000
0.466822 0.473776 1.000000
0.611467 0.475715 1.000000
0.753732 0.477654 1.000000
0.894130 0.479592 1.000000
1.000000 0.481529 1.000000
0.000000 0.598506 1.000000
0.000000 0.600414 1.000000
0.156411 0.602321 1.000000
0.309953 0.604228 1.000000
0.458106 0.606134 1.000000
0.602916 0.608040 1.000000
0.745306 0.609945 1.000000
0.885804 0.611851 1.000000
1.000000 0.613755 1.000000
0.000000 0.728958 1.000000
0.000000 0.730839 1.000000
0.146988 0.732721 1.000000
0.300980 0.734601 1.000000
0.449378 0.736482 1.000000
0.594356 0.738362 1.000000
0.736873 0.740242 1.000000
0.877473 0.742121 1.000000
1.000000 0.744000 1.000000
0.000000 0.857786 1.000000
0.000000 0.859646 1.000000
0.137522 0.861506 1.000000
0.291989 0.863366 1.000000
0.440639 0.865225 1.000000
0.585787 0.867084 1.000000
0.728433 0.868943 1.000000
0.869136 0.870802 1.000000
1.000000 0.872660 1.000000
0.000000 0.985269 1.000000
0.000000 0.987111 1.000000
0.128010 0.988953 1.000000
0.282978 0.990795 1.000000
0.431887 0.992636 1.000000
0.577210 0.994478 1.000000
0.719986 0.996319 1.000000
0.860794 0.998159 1.000000
1.000000 1.000000 1.000000
