presets/film_stocks/Fuji_Natura_1600.cube
# 独寻胶片模拟 -- Fuji Natura 1600
# Fujifilm, ISO 1600, 2003, negative
TITLE "Fuji Natura 1600"
LUT_3D_SIZE 33
DOMAIN_MIN 0.0 0.0 0.0
DOMAIN_MAX 1.0 1.0 1.0
0.000000 0.000000 0.000000
0.061828 0.002586 0.000000
0.109640 0.004586 0.000000
0.153285 0.006412 0.000000
0.194427 0.008133 0.000000
0.233801 0.009779 0.000000
0.271823 0.011370 0.000000
0.308755 0.012915 0.000000
0.344779 0.014422 0.000000
0.380028 0.015896 0.000000
0.414602 0.017342 0.000000
0.448581 0.018763 0.000000
0.482026 0.020162 0.000000
0.514991 0.021541 0.000000
0.547518 0.022902 0.000000
0.579645 0.024246 0.000000
0.611401 0.025574 0.000000
0.642814 0.026888 0.000000
0.673908 0.028188 0.000000
0.704704 0.029477 0.000000
0.735219 0.030753 0.000000
0.765471 0.032018 0.000000
0.795474 0.033273 0.000000
0.825240 0.034518 0.000000
0.854783 0.035754 0.000000
0.884113 0.036981 0.000000
0.913240 0.038199 0.000000
0.942173 0.039409 0.000000
0.970921 0.040612 0.000000
0.999491 0.041807 0.000000
1.000000 0.042995 0.000000
1.000000 0.044176 0.000000
1.000000 0.045350 0.000000
0.000000 0.059902 0.000000
0.059839 0.061005 0.000000
0.107880 0.062103 0.000000
0.151645 0.063198 0.000000
0.192867 0.064288 0.000000
0.232301 0.065375 0.000000
0.270369 0.066457 0.000000
0.307340 0.067537 0.000000
0.343397 0.068612 0.000000
0.378674 0.069684 0.000000
0.413273 0.070752 0.000000
0.447273 0.071818 0.000000
0.480738 0.072879 0.000000
0.513721 0.073938 0.000000
0.546264 0.074993 0.000000
0.578405 0.076046 0.000000
0.610175 0.077095 0.000000
0.641601 0.078141 0.000000
0.672708 0.079184 0.000000
0.703514 0.080225 0.000000
0.734040 0.081262 0.000000
0.764302 0.082297 0.000000
0.794314 0.083329 0.000000
0.824090 0.084359 0.000000
0.853641 0.085386 0.000000
0.882979 0.086410 0.000000
0.912114 0.087432 0.000000
0.941054 0.088451 0.000000
0.969809 0.089467 0.000000
0.998386 0.090482 0.000000
1.000000 0.091494 0.000000
1.000000 0.092503 0.000000
1.000000 0.093510 0.000000
0.000000 0.106225 0.000000
0.057836 0.107204 0.000000
0.106113 0.108181 0.000000
0.150001 0.109155 0.000000
0.191304 0.110128 0.000000
0.230798 0.111100 0.000000
0.268914 0.112069 0.000000
0.305923 0.113037 0.000000
0.342013 0.114003 0.000000
0.377318 0.114967 0.000000
0.411942 0.115930 0.000000
0.445964 0.116890 0.000000
0.479449 0.117850 0.000000
0.512449 0.118807 0.000000
0.545009 0.119763 0.000000
0.577165 0.120718 0.000000
0.608949 0.121670 0.000000
0.640388 0.122622 0.000000
0.671506 0.123571 0.000000
0.702325 0.124519 0.000000
0.732861 0.125466 0.000000
0.763133 0.126411 0.000000
0.793154 0.127355 0.000000
0.822939 0.128297 0.000000
0.852499 0.129238 0.000000
0.881845 0.130177 0.000000
0.910987 0.131115 0.000000
0.939935 0.132051 0.000000
0.968697 0.132987 0.000000
0.997280 0.133920 0.000000
1.000000 0.134853 0.000000
1.000000 0.135784 0.000000
1.000000 0.136713 0.000000
0.000000 0.148511 0.000000
0.055818 0.149423 0.000000
0.104340 0.150334 0.000000
0.148354 0.151244 0.000000
0.189739 0.152153 0.000000
0.229294 0.153061 0.000000
0.267457 0.153968 0.000000
0.304506 0.154873 0.000000
0.340628 0.155778 0.000000
0.375962 0.156681 0.000000
0.410610 0.157583 0.000000
0.444654 0.158484 0.000000
0.478159 0.159384 0.000000
0.511178 0.160283 0.000000
0.543754 0.161181 0.000000
0.575925 0.162078 0.000000
0.607723 0.162974 0.000000
0.639175 0.163869 0.000000
0.670305 0.164763 0.000000
0.701134 0.165655 0.000000
0.731681 0.166547 0.000000
0.761963 0.167438 0.000000
0.791994 0.168328 0.000000
0.821787 0.169216 0.000000
0.851356 0.170104 0.000000
0.880710 0.170991 0.000000
0.909860 0.171877 0.000000
0.938815 0.172762 0.000000
0.967584 0.173646 0.000000
0.996175 0.174529 0.000000
1.000000 0.175411 0.000000
1.000000 0.176292 0.000000
1.000000 0.177172 0.000000
0.000000 0.188370 0.000000
0.053784 0.189239 0.000000
0.102560 0.190106 0.000000
0.146702 0.190972 0.000000
0.188171 0.191838 0.000000
0.227787 0.192703 0.000000
0.265999 0.193567 0.000000
0.303087 0.194430 0.000000
0.339242 0.195292 0.000000
0.374604 0.196154 0.000000
0.409278 0.197014 0.000000
0.443344 0.197874 0.000000
0.476869 0.198734 0.000000
0.509905 0.199592 0.000000
0.542498 0.200450 0.000000
0.574684 0.201306 0.000000
0.606496 0.202163 0.000000
0.637961 0.203018 0.000000
0.669103 0.203872 0.000000
0.699943 0.204726 0.000000
0.730501 0.205579 0.000000
0.760793 0.206432 0.000000
0.790833 0.207283 0.000000
0.820636 0.208134 0.000000
0.850213 0.208984 0.000000
0.879575 0.209834 0.000000
0.908733 0.210682 0.000000
0.937695 0.211530 0.000000
0.966471 0.212378 0.000000
0.995069 0.213224 0.000000
1.000000 0.214070 0.000000
1.000000 0.214915 0.000000
1.000000 0.215760 0.000000
0.000000 0.226518 0.000000
0.051735 0.227354 0.000000
0.100775 0.228188 0.000000
0.145046 0.229022 0.000000
0.186600 0.229855 0.000000
0.226279 0.230688 0.000000
0.264539 0.231520 0.000000
0.301666 0.232351 0.000000
0.337855 0.233182 0.000000
0.373246 0.234012 0.000000
0.407944 0.234842 0.000000
0.442033 0.235671 0.000000
0.475577 0.236499 0.000000
0.508632 0.237327 0.000000
0.541241 0.238154 0.000000
0.573442 0.238980 0.000000
0.605268 0.239806 0.000000
0.636746 0.240631 0.000000
0.667900 0.241456 0.000000
0.698752 0.242280 0.000000
0.729321 0.243104 0.000000
0.759622 0.243927 0.000000
0.789672 0.244749 0.000000
0.819484 0.245571 0.000000
0.849069 0.246392 0.000000
0.878440 0.247212 0.000000
0.907605 0.248033 0.000000
0.936575 0.248852 0.000000
0.965358 0.249671 0.000000
0.993962 0.250489 0.000000
1.000000 0.251307 0.000000
1.000000 0.252124 0.000000
1.000000 0.252941 0.000000
0.000000 0.263356 0.000000
0.049668 0.264165 0.000000
0.098982 0.264974 0.000000
0.143387 0.265782 0.000000
0.185027 0.266589 0.000000
0.224768 0.267397 0.000000
0.263077 0.268203 0.000000
0.300244 0.269009 0.000000
0.336466 0.269815 0.000000
0.371886 0.270620 0.000000
0.406610 0.271425 0.000000
0.440721 0.272229 0.000000
0.474285 0.273033 0.000000
0.507358 0.273836 0.000000
0.539984 0.274638 0.000000
0.572200 0.275441 0.000000
0.604040 0.276242 0.000000
0.635531 0.277043 0.000000
0.666697 0.277844 0.000000
0.697561 0.278644 0.000000
0.728140 0.279444 0.000000
0.758451 0.280243 0.000000
0.788511 0.281042 0.000000
0.818331 0.281840 0.000000
0.847925 0.282638 0.000000
0.877304 0.283435 0.000000
0.906477 0.284232 0.000000
0.935455 0.285029 0.000000
0.964245 0.285825 0.000000
0.992856 0.286620 0.000000
1.000000 0.287415 0.000000
1.000000 0.288210 0.000000
1.000000 0.289004 0.000000
0.000000 0.299137 0.000000
0.047583 0.299925 0.000000
0.097183 0.300713 0.000000
0.141723 0.301500 0.000000
0.183451 0.302286 0.000000
0.223255 0.303073 0.000000
0.261614 0.303858 0.000000
0.298821 0.304644 0.000000
0.335077 0.305428 0.000000
0.370525 0.306213 0.000000
0.405274 0.306997 0.000000
0.439408 0.307781 0.000000
0.472993 0.308564 0.000000
0.506083 0.309347 0.000000
0.538726 0.310129 0.000000
0.570957 0.310911 0.000000
0.602811 0.311693 0.000000
0.634315 0.312474 0.000000
0.665494 0.313254 0.000000
0.696369 0.314035 0.000000
0.726958 0.314815 0.000000
0.757280 0.315594 0.000000
0.787349 0.316373 0.000000
0.817179 0.317152 0.000000
0.846781 0.317930 0.000000
0.876168 0.318708 0.000000
0.905349 0.319486 0.000000
0.934334 0.320263 0.000000
0.963131 0.321040 0.000000
0.991749 0.321816 0.000000
1.000000 0.322592 0.000000
1.000000 0.323367 0.000000
1.000000 0.324142 0.000000
0.000000 0.334039 0.000000
0.045478 0.334809 0.000000
0.095376 0.335579 0.000000
0.140056 0.336348 0.000000
0.181872 0.337117 0.000000
0.221740 0.337885 0.000000
0.260148 0.338653 0.000000
0.297396 0.339421 0.000000
0.333686 0.340188 0.000000
0.369164 0.340955 0.000000
0.403938 0.341722 0.000000
0.438094 0.342488 0.000000
0.471699 0.343254 0.000000
0.504808 0.344019 0.000000
0.537467 0.344784 0.000000
0.569714 0.345549 0.000000
0.601582 0.346314 0.000000
0.633099 0.347078 0.000000
0.664290 0.347842 0.000000
0.695176 0.348605 0.000000
0.725777 0.349368 0.000000
0.756109 0.350131 0.000000
0.786187 0.350893 0.000000
0.816026 0.351655 0.000000
0.845637 0.352417 0.000000
0.875032 0.353178 0.000000
0.904221 0.353939 0.000000
0.933213 0.354699 0.000000
0.962017 0.355460 0.000000
0.990642 0.356219 0.000000
1.000000 0.356979 0.000000
1.000000 0.357738 0.000000
1.000000 0.358497 0.000000
0.000000 0.368191 0.000000
0.043353 0.368945 0.000000
0.093563 0.369699 0.000000
0.138384 0.370453 0.000000
0.180290 0.371206 0.000000
0.220223 0.371959 0.000000
0.258681 0.372712 0.000000
0.295970 0.373464 0.000000
0.332294 0.374216 0.000000
0.367801 0.374968 0.000000
0.402601 0.375719 0.000000
0.436780 0.376470 0.000000
0.470405 0.377221 0.000000
0.503532 0.377972 0.000000
0.536208 0.378722 0.000000
0.568470 0.379472 0.000000
0.600352 0.380221 0.000000
0.631883 0.380971 0.000000
0.663086 0.381720 0.000000
0.693983 0.382468 0.000000
0.724595 0.383217 0.000000
0.754937 0.383965 0.000000
0.785025 0.384712 0.000000
0.814872 0.385460 0.000000
0.844492 0.386207 0.000000
0.873895 0.386954 0.000000
0.903092 0.387700 0.000000
0.932092 0.388446 0.000000
0.960903 0.389192 0.000000
0.989535 0.389938 0.000000
1.000000 0.390683 0.000000
1.000000 0.391428 0.000000
1.000000 0.392173 0.000000
0.000000 0.401688 0.000000
0.041206 0.402429 0.000000
0.091741 0.403169 0.000000
0.136708 0.403909 0.000000
0.178705 0.404649 0.000000
0.218704 0.405388 0.000000
0.257213 0.406128 0.000000
0.294542 0.406867 0.000000
0.330901 0.407605 0.000000
0.366437 0.408344 0.000000
0.401263 0.409082 0.000000
0.435464 0.409820 0.000000
0.469110 0.410557 0.000000
0.502256 0.411295 0.000000
0.534948 0.412032 0.000000
0.567226 0.412768 0.000000
0.599122 0.413505 0.000000
0.630666 0.414241 0.000000
0.661881 0.414977 0.000000
0.692790 0.415712 0.000000
0.723412 0.416448 0.000000
0.753764 0.417183 0.000000
0.783862 0.417918 0.000000
0.813719 0.418652 0.000000
0.843347 0.419387 0.000000
0.872758 0.420121 0.000000
0.901963 0.420854 0.000000
0.930970 0.421588 0.000000
0.959789 0.422321 0.000000
0.988427 0.423054 0.000000
1.000000 0.423787 0.000000
1.000000 0.424519 0.000000
1.000000 0.425251 0.000000
0.000000 0.434608 0.000000
0.039035 0.435336 0.000000
0.089913 0.436065 0.000000
0.135028 0.436793 0.000000
0.177117 0.437520 0.000000
0.217182 0.438248 0.000000
0.255742 0.438975 0.000000
0.293113 0.439702 0.000000
0.329506 0.440429 0.000000
0.365072 0.441155 0.000000
0.399924 0.441882 0.000000
0.434148 0.442608 0.000000
0.467814 0.443334 0.000000
0.500978 0.444059 0.000000
0.533688 0.444784 0.000000
0.565981 0.445509 0.000000
0.597891 0.446234 0.000000
0.629448 0.446959 0.000000
0.660676 0.447683 0.000000
0.691596 0.448407 0.000000
0.722229 0.449131 0.000000
0.752591 0.449854 0.000000
0.782699 0.450577 0.000000
0.812565 0.451300 0.000000
0.842202 0.452023 0.000000
0.871621 0.452746 0.000000
0.900834 0.453468 0.000000
0.929848 0.454190 0.000000
0.958674 0.454912 0.000000
0.987319 0.455634 0.000000
1.000000 0.456355 0.000000
1.000000 0.457076 0.000000
1.000000 0.457797 0.000000
0.000000 0.467012 0.000000
0.036838 0.467729 0.000000
0.088076 0.468447 0.000000
0.133343 0.469164 0.000000
0.175526 0.469881 0.000000
0.215658 0.470598 0.000000
0.254270 0.471314 0.000000
0.291683 0.472030 0.000000
0.328111 0.472746 0.000000
0.363706 0.473462 0.000000
0.398584 0.474178 0.000000
0.432831 0.474893 0.000000
0.466518 0.475608 0.000000
0.499700 0.476323 0.000000
0.532427 0.477038 0.000000
0.564735 0.477752 0.000000
0.596660 0.478466 0.000000
0.628230 0.479180 0.000000
0.659470 0.479894 0.000000
0.690402 0.480608 0.000000
0.721046 0.481321 0.000000
0.751418 0.482034 0.000000
0.781535 0.482747 0.000000
0.811410 0.483460 0.000000
0.841056 0.484172 0.000000
0.870484 0.484884 0.000000
0.899704 0.485596 0.000000
0.928726 0.486308 0.000000
0.957559 0.487019 0.000000
0.986211 0.487731 0.000000
1.000000 0.488442 0.000000
1.000000 0.489153 0.000000
1.000000 0.489864 0.000000
0.000000 0.498950 0.000000
0.034614 0.499657 0.000000
0.086232 0.500365 0.000000
0.131654 0.501072 0.000000
0.173932 0.501779 0.000000
0.214132 0.502486 0.000000
0.252796 0.503193 0.000000
0.290251 0.503899 0.000000
0.326714 0.504606 0.000000
0.362339 0.505312 0.000000
0.397243 0.506018 0.000000
0.431513 0.506723 0.000000
0.465220 0.507429 0.000000
0.498422 0.508134 0.000000
0.531165 0.508839 0.000000
0.563489 0.509544 0.000000
0.595428 0.510248 0.000000
0.627011 0.510953 0.000000
0.658264 0.511657 0.000000
0.689207 0.512361 0.000000
0.719862 0.513065 0.000000
0.750245 0.513769 0.000000
0.780371 0.514472 0.000000
0.810255 0.515175 0.000000
0.839910 0.515878 0.000000
0.869346 0.516581 0.000000
0.898574 0.517284 0.000000
0.927604 0.517986 0.000000
0.956444 0.518688 0.000000
0.985103 0.519390 0.000000
1.000000 0.520092 0.000000
1.000000 0.520794 0.000000
1.000000 0.521495 0.000000
0.000000 0.530464 0.000000
0.032359 0.531162 0.000000
0.084379 0.531861 0.000000
0.129960 0.532559 0.000000
0.172335 0.533257 0.000000
0.212604 0.533955 0.000000
0.251320 0.534653 0.000000
0.288817 0.535351 0.000000
0.325315 0.536048 0.000000
0.360971 0.536745 0.000000
0.395901 0.537442 0.000000
0.430194 0.538139 0.000000
0.463922 0.538835 0.000000
0.497143 0.539532 0.000000
0.529903 0.540228 0.000000
0.562242 0.540924 0.000000
0.594196 0.541620 0.000000
0.625792 0.542316 0.000000
0.657057 0.543011 0.000000
0.688012 0.543706 0.000000
0.718678 0.544401 0.000000
0.749071 0.545096 0.000000
0.779207 0.545791 0.000000
0.809100 0.546486 0.000000
0.838763 0.547180 0.000000
0.868208 0.547874 0.000000
0.897444 0.548568 0.000000
0.926481 0.549262 0.000000
0.955329 0.549956 0.000000
0.983994 0.550649 0.000000
1.000000 0.551342 0.000000
1.000000 0.552035 0.000000
1.000000 0.552728 0.000000
0.000000 0.561589 0.000000
0.030070 0.562280 0.000000
0.082517 0.562970 0.000000
0.128261 0.563660 0.000000
0.170735 0.564350 0.000000
0.211073 0.565039 0.000000
0.249842 0.565729 0.000000
0.287382 0.566418 0.000000
0.323916 0.567107 0.000000
0.359602 0.567796 0.000000
0.394558 0.568485 0.000000
0.428875 0.569174 0.000000
0.462624 0.569862 0.000000
0.495862 0.570550 0.000000
0.528640 0.571238 0.000000
0.560995 0.571926 0.000000
0.592963 0.572614 0.000000
0.624573 0.573302 0.000000
0.655850 0.573989 0.000000
0.686817 0.574676 0.000000
0.717493 0.575363 0.000000
0.747897 0.576050 0.000000
0.778042 0.576737 0.000000
0.807945 0.577424 0.000000
0.837617 0.578110 0.000000
0.867069 0.578796 0.000000
0.896313 0.579482 0.000000
0.925358 0.580168 0.000000
0.954213 0.580854 0.000000
0.982885 0.581539 0.000000
1.000000 0.582225 0.000000
1.000000 0.582910 0.000000
1.000000 0.583595 0.000000
0.000000 0.592356 0.000000
0.027744 0.593039 0.000000
0.080647 0.593721 0.000000
0.126558 0.594404 0.000000
0.169132 0.595086 0.000000
0.209540 0.595768 0.000000
0.248363 0.596450 0.000000
0.285946 0.597132 0.000000
0.322515 0.597813 0.000000
0.358232 0.598495 0.000000
0.393214 0.599176 0.000000
0.427554 0.599857 0.000000
0.461324 0.600538 0.000000
0.494582 0.601219 0.000000
0.527376 0.601899 0.000000
0.559747 0.602580 0.000000
0.591729 0.603260 0.000000
0.623353 0.603940 0.000000
0.654642 0.604620 0.000000
0.685621 0.605300 0.000000
0.716308 0.605979 0.000000
0.746722 0.606659 0.000000
0.776877 0.607338 0.000000
0.806789 0.608017 0.000000
0.836470 0.608696 0.000000
0.865930 0.609375 0.000000
0.895182 0.610054 0.000000
0.924235 0.610732 0.000000
0.953097 0.611410 0.000000
0.981776 0.612089 0.000000
1.000000 0.612767 0.000000
1.000000 0.613444 0.000000
1.000000 0.614122 0.000000
0.000000 0.622791 0.000000
0.025377 0.623467 0.000000
0.078767 0.624142 0.000000
0.124850 0.624817 0.000000
0.167525 0.625492 0.000000
0.208004 0.626167 0.000000
0.246881 0.626842 0.000000
0.284507 0.627517 0.000000
0.321113 0.628191 0.000000
0.356860 0.628866 0.000000
0.391870 0.629540 0.000000
0.426233 0.630214 0.000000
0.460024 0.630888 0.000000
0.493300 0.631561 0.000000
0.526112 0.632235 0.000000
0.558499 0.632908 0.000000
0.590495 0.633582 0.000000
0.622132 0.634255 0.000000
0.653434 0.634928 0.000000
0.684425 0.635601 0.000000
0.715123 0.636273 0.000000
0.745547 0.636946 0.000000
0.775712 0.637618 0.000000
0.805633 0.638291 0.000000
0.835322 0.638963 0.000000
0.864791 0.639635 0.000000
0.894051 0.640306 0.000000
0.923111 0.640978 0.000000
0.951980 0.641650 0.000000
0.980667 0.642321 0.000000
1.000000 0.642992 0.000000
1.000000 0.643663 0.000000
1.000000 0.644334 0.000000
0.000000 0.652917 0.000000
0.022962 0.653586 0.000000
0.076878 0.654254 0.000000
0.123137 0.654923 0.000000
0.165916 0.655591 0.000000
0.206466 0.656260 0.000000
0.245398 0.656928 0.000000
0.283068 0.657596 0.000000
0.319710 0.658264 0.000000
0.355488 0.658932 0.000000
0.390524 0.659599 0.000000
0.424911 0.660267 0.000000
0.458723 0.660934 0.000000
0.492018 0.661601 0.000000
0.524847 0.662268 0.000000
0.557250 0.662935 0.000000
0.589261 0.663602 0.000000
0.620911 0.664269 0.000000
0.652226 0.664935 0.000000
0.683228 0.665601 0.000000
0.713937 0.666268 0.000000
0.744371 0.666934 0.000000
0.774546 0.667600 0.000000
0.804476 0.668265 0.000000
0.834174 0.668931 0.000000
0.863652 0.669596 0.000000
0.892920 0.670262 0.000000
0.921987 0.670927 0.000000
0.950864 0.671592 0.000000
0.979557 0.672257 0.000000
1.000000 0.672922 0.000000
1.000000 0.673587 0.000000
1.000000 0.674251 0.000000
0.000000 0.682753 0.000000
0.020492 0.683416 0.000000
0.074980 0.684078 0.000000
0.121419 0.684741 0.000000
0.164303 0.685403 0.000000
0.204926 0.686065 0.000000
0.243913 0.686727 0.000000
0.281627 0.687389 0.000000
0.318305 0.688050 0.000000
0.354114 0.688712 0.000000
0.389177 0.689373 0.000000
0.423588 0.690035 0.000000
0.457421 0.690696 0.000000
0.490735 0.691357 0.000000
0.523581 0.692018 0.000000
0.556000 0.692679 0.000000
0.588026 0.693339 0.000000
0.619690 0.694000 0.000000
0.651017 0.694660 0.000000
0.682031 0.695321 0.000000
0.712751 0.695981 0.000000
0.743195 0.696641 0.000000
0.773380 0.697301 0.000000
0.803320 0.697960 0.000000
0.833026 0.698620 0.000000
0.862512 0.699279 0.000000
0.891788 0.699939 0.000000
0.920863 0.700598 0.000000
0.949747 0.701257 0.000000
0.978447 0.701916 0.000000
1.000000 0.702575 0.000000
1.000000 0.703233 0.000000
1.000000 0.703892 0.000000
0.000000 0.712318 0.000000
0.017958 0.712975 0.000000
0.073071 0.713631 0.000000
0.119696 0.714288 0.000000
0.162686 0.714944 0.000000
0.203384 0.715601 0.000000
0.242426 0.716257 0.000000
0.280184 0.716913 0.000000
0.316899 0.717569 0.000000
0.352740 0.718224 0.000000
0.387830 0.718880 0.000000
0.422264 0.719536 0.000000
0.456118 0.720191 0.000000
0.489452 0.720846 0.000000
0.522315 0.721501 0.000000
0.554750 0.722156 0.000000
0.586790 0.722811 0.000000
0.618468 0.723466 0.000000
0.649807 0.724121 0.000000
0.680833 0.724775 0.000000
0.711564 0.725430 0.000000
0.742019 0.726084 0.000000
0.772214 0.726738 0.000000
0.802162 0.727392 0.000000
0.831878 0.728046 0.000000
0.861372 0.728700 0.000000
0.890656 0.729353 0.000000
0.919739 0.730007 0.000000
0.948630 0.730660 0.000000
0.977337 0.731314 0.000000
1.000000 0.731967 0.000000
1.000000 0.732620 0.000000
1.000000 0.733273 0.000000
0.000000 0.741627 0.000000
0.015346 0.742278 0.000000
0.071151 0.742930 0.000000
0.117968 0.743581 0.000000
0.161067 0.744232 0.000000
0.201838 0.744882 0.000000
0.240937 0.745533 0.000000
0.278740 0.746183 0.000000
0.315492 0.746834 0.000000
0.351364 0.747484 0.000000
0.386481 0.748134 0.000000
0.420939 0.748784 0.000000
0.454815 0.749434 0.000000
0.488168 0.750084 0.000000
0.521048 0.750734 0.000000
0.553499 0.751383 0.000000
0.585554 0.752033 0.000000
0.617245 0.752682 0.000000
0.648597 0.753332 0.000000
0.679635 0.753981 0.000000
0.710377 0.754630 0.000000
0.740843 0.755278 0.000000
0.771047 0.755927 0.000000
0.801005 0.756576 0.000000
0.830729 0.757224 0.000000
0.860232 0.757873 0.000000
0.889524 0.758521 0.000000
0.918614 0.759169 0.000000
0.947512 0.759817 0.000000
0.976226 0.760465 0.000000
1.000000 0.761113 0.000000
1.000000 0.761761 0.000000
1.000000 0.762408 0.000000
0.000000 0.770695 0.000000
0.012637 0.771341 0.000000
0.069221 0.771987 0.000000
0.116234 0.772633 0.000000
0.159443 0.773279 0.000000
0.200291 0.773924 0.000000
0.239446 0.774570 0.000000
0.277294 0.775215 0.000000
0.314083 0.775860 0.000000
0.349987 0.776505 0.000000
0.385131 0.777150 0.000000
0.419614 0.777795 0.000000
0.453511 0.778440 0.000000
0.486883 0.779085 0.000000
0.519781 0.779729 0.000000
0.552247 0.780374 0.000000
0.584317 0.781018 0.000000
0.616022 0.781662 0.000000
0.647387 0.782306 0.000000
0.678436 0.782950 0.000000
0.709190 0.783594 0.000000
0.739666 0.784238 0.000000
0.769880 0.784882 0.000000
0.799847 0.785525 0.000000
0.829580 0.786169 0.000000
0.859091 0.786812 0.000000
0.888391 0.787455 0.000000
0.917489 0.788098 0.000000
0.946395 0.788741 0.000000
0.975116 0.789384 0.000000
1.000000 0.790027 0.000000
1.000000 0.790670 0.000000
1.000000 0.791312 0.000000
0.000000 0.799535 0.000000
0.009799 0.800176 0.000000
0.067279 0.800817 0.000000
0.114495 0.801458 0.000000
0.157817 0.802098 0.000000
0.198741 0.802739 0.000000
0.237953 0.803379 0.000000
0.275847 0.804020 0.000000
0.312673 0.804660 0.000000
0.348609 0.805300 0.000000
0.383781 0.805940 0.000000
0.418287 0.806580 0.000000
0.452206 0.807220 0.000000
0.485597 0.807860 0.000000
0.518513 0.808500 0.000000
0.550995 0.809139 0.000000
0.583080 0.809779 0.000000
0.614798 0.810418 0.000000
0.646176 0.811057 0.000000
0.677237 0.811696 0.000000
0.708002 0.812336 0.000000
0.738488 0.812974 0.000000
0.768712 0.813613 0.000000
0.798689 0.814252 0.000000
0.828431 0.814891 0.000000
0.857950 0.815529 0.000000
0.887258 0.816167 0.000000
0.916364 0.816806 0.000000
0.945277 0.817444 0.000000
0.974005 0.818082 0.000000
1.000000 0.818720 0.000000
1.000000 0.819358 0.000000
1.000000 0.819996 0.000000
0.000000 0.828157 0.000000
0.006773 0.828794 0.000000
0.065325 0.829430 0.000000
0.112750 0.830066 0.000000
0.156187 0.830702 0.000000
0.197188 0.831338 0.000000
0.236459 0.831974 0.000000
0.274398 0.832610 0.000000
0.311262 0.833245 0.000000
0.347229 0.833881 0.000000
0.382429 0.834516 0.000000
0.416960 0.835152 0.000000
0.450900 0.835787 0.000000
0.484311 0.836422 0.000000
0.517244 0.837057 0.000000
0.549743 0.837692 0.000000
0.581842 0.838327 0.000000
0.613574 0.838961 0.000000
0.644965 0.839596 0.000000
0.676038 0.840230 0.000000
0.706814 0.840865 0.000000
0.737310 0.841499 0.000000
0.767544 0.842133 0.000000
0.797530 0.842767 0.000000
0.827281 0.843401 0.000000
0.856809 0.844035 0.000000
0.886125 0.844669 0.000000
0.915238 0.845303 0.000000
0.944158 0.845936 0.000000
0.972894 0.846570 0.000000
1.000000 0.847203 0.000000
1.000000 0.847837 0.000000
1.000000 0.848470 0.000000
0.000000 0.856574 0.000000
0.003413 0.857206 0.000000
0.063359 0.857837 0.000000
0.111000 0.858469 0.000000
0.154553 0.859101 0.000000
0.195633 0.859732 0.000000
0.234962 0.860363 0.000000
0.272947 0.860995 0.000000
0.309850 0.861626 0.000000
0.345849 0.862257 0.000000
0.381076 0.862888 0.000000
0.415632 0.863519 0.000000
0.449593 0.864150 0.000000
0.483024 0.864780 0.000000
0.515975 0.865411 0.000000
0.548489 0.866041 0.000000
0.580604 0.866672 0.000000
0.612350 0.867302 0.000000
0.643753 0.867932 0.000000
0.674838 0.868562 0.000000
0.705625 0.869192 0.000000
0.736132 0.869822 0.000000
0.766376 0.870452 0.000000
0.796371 0.871082 0.000000
0.826131 0.871711 0.000000
0.855668 0.872341 0.000000
0.884991 0.872970 0.000000
0.914112 0.873600 0.000000
0.943040 0.874229 0.000000
0.971782 0.874858 0.000000
1.000000 0.875487 0.000000
1.000000 0.876116 0.000000
1.000000 0.876745 0.000000
0.000000 0.884793 0.000000
0.000000 0.885421 0.000000
0.061381 0.886048 0.000000
0.109244 0.886676 0.000000
0.152916 0.887303 0.000000
0.194075 0.887930 0.000000
0.233463 0.888557 0.000000
0.271495 0.889184 0.000000
0.308436 0.889811 0.000000
0.344467 0.890438 0.000000
0.379723 0.891065 0.000000
0.414303 0.891692 0.000000
0.448286 0.892318 0.000000
0.481736 0.892945 0.000000
0.514705 0.893571 0.000000
0.547236 0.894197 0.000000
0.579365 0.894823 0.000000
0.611124 0.895449 0.000000
0.642541 0.896075 0.000000
0.673638 0.896701 0.000000
0.704436 0.897327 0.000000
0.734953 0.897953 0.000000
0.765207 0.898578 0.000000
0.795212 0.899204 0.000000
0.824981 0.899829 0.000000
