presets/film_stocks/Fuji_Superia_Reala.cube
# 独寻胶片模拟 -- Fuji Superia Reala
# Fujifilm, ISO 100, 1998, negative
TITLE "Fuji Superia Reala"
LUT_3D_SIZE 9
DOMAIN_MIN 0.0 0.0 0.0
DOMAIN_MAX 1.0 1.0 1.0
0.000000 0.000000 0.000000
0.191325 0.007362 0.000000
0.342561 0.013182 0.000000
0.481631 0.018533 0.000000
0.613345 0.023602 0.000000
0.739846 0.028470 0.000000
0.862344 0.033183 0.000000
0.981608 0.037773 0.000000
1.000000 0.042258 0.000000
0.000000 0.185362 0.000000
0.184835 0.188708 0.000000
0.336760 0.192043 0.000000
0.476196 0.195367 0.000000
0.608156 0.198680 0.000000
0.734840 0.201982 0.000000
0.857482 0.205275 0.000000
0.976865 0.208557 0.000000
1.000000 0.211830 0.000000
0.000000 0.331884 0.000000
0.178301 0.334882 0.000000
0.330941 0.337875 0.000000
0.470750 0.340863 0.000000
0.602959 0.343846 0.000000
0.729827 0.346824 0.000000
0.852614 0.349797 0.000000
0.972117 0.352766 0.000000
1.000000 0.355729 0.000000
0.000000 0.466619 0.000000
0.171721 0.469430 0.000000
0.325101 0.472238 0.000000
0.465293 0.475042 0.000000
0.597753 0.477844 0.000000
0.724808 0.480642 0.000000
0.847741 0.483437 0.000000
0.967364 0.486229 0.000000
1.000000 0.489018 0.000000
0.000000 0.594228 0.000000
0.165094 0.596913 0.000000
0.319242 0.599596 0.000000
0.459822 0.602276 0.000000
0.592539 0.604954 0.000000
0.719782 0.607631 0.000000
0.842863 0.610304 0.000000
0.962607 0.612976 0.000000
1.000000 0.615645 0.000000
0.000000 0.716787 0.000000
0.158415 0.719378 0.000000
0.313362 0.721968 0.000000
0.454340 0.724555 0.000000
0.587315 0.727141 0.000000
0.714749 0.729726 0.000000
0.837980 0.732308 0.000000
0.957846 0.734889 0.000000
1.000000 0.737468 0.000000
0.000000 0.835466 0.000000
0.151682 0.837983 0.000000
0.307462 0.840499 0.000000
0.448845 0.843013 0.000000
0.582084 0.845526 0.000000
0.709710 0.848037 0.000000
0.833091 0.850547 0.000000
0.953080 0.853056 0.000000
1.000000 0.855563 0.000000
0.000000 0.951013 0.000000
0.144892 0.953469 0.000000
0.301539 0.955924 0.000000
0.443337 0.958378 0.000000
0.576843 0.960830 0.000000
0.704663 0.963282 0.000000
0.828197 0.965732 0.000000
0.948310 0.968181 0.000000
1.000000 0.970628 0.000000
0.000000 1.000000 0.000000
0.138041 1.000000 0.000000
0.295595 1.000000 0.000000
0.437816 1.000000 0.000000
0.571593 1.000000 0.000000
0.699610 1.000000 0.000000
0.823297 1.000000 0.000000
0.943535 1.000000 0.000000
1.000000 1.000000 0.000000
0.000000 0.000000 0.181799
0.180783 0.000000 0.176857
0.333149 0.000000 0.171888
0.472816 0.000000 0.166892
0.604930 0.000000 0.161868
0.731728 0.005426 0.156813
0.854460 0.011473 0.151728
0.973917 0.016939 0.146609
1.000000 0.022082 0.141457
0.000000 0.170823 0.179177
0.174221 0.174221 0.174221
0.327317 0.177606 0.169238
0.467363 0.180979 0.164227
0.599727 0.184341 0.159187
0.726711 0.187690 0.154116
0.849589 0.191028 0.149013
0.969166 0.194355 0.143877
1.000000 0.197672 0.138706
0.000000 0.318919 0.176548
0.167612 0.321940 0.171578
0.321466 0.324955 0.166580
0.461897 0.327965 0.161554
0.594516 0.330970 0.156498
0.721688 0.333970 0.151410
0.844713 0.336964 0.146290
0.964411 0.339954 0.141135
1.000000 0.342938 0.135945
0.000000 0.454482 0.173912
0.160953 0.457307 0.168927
0.315594 0.460129 0.163914
0.456420 0.462947 0.158872
0.589296 0.465762 0.153799
0.716658 0.468574 0.148695
0.839832 0.471383 0.143556
0.959651 0.474188 0.138383
1.000000 0.476991 0.133173
0.000000 0.582643 0.171268
0.154241 0.585338 0.166268
0.309701 0.588031 0.161240
0.450929 0.590722 0.156182
0.584068 0.593410 0.151092
0.711621 0.596095 0.145970
0.834945 0.598779 0.140813
0.954887 0.601460 0.135620
1.000000 0.604139 0.130389
0.000000 0.705612 0.168616
0.147473 0.708211 0.163601
0.303787 0.710808 0.158557
0.445426 0.713404 0.153483
0.578830 0.715997 0.148376
0.706577 0.718589 0.143236
0.830053 0.721179 0.138060
0.950119 0.723768 0.132847
1.000000 0.726354 0.127595
0.000000 0.824614 0.165956
0.140645 0.827138 0.160926
0.297851 0.829660 0.155866
0.439910 0.832180 0.150774
0.573584 0.834699 0.145650
0.701527 0.837217 0.140491
0.825155 0.839733 0.135296
0.945346 0.842248 0.130063
1.000000 0.844761 0.124789
0.000000 0.940427 0.163288
0.133754 0.942889 0.158242
0.291892 0.945349 0.153166
0.434381 0.947808 0.148057
0.568328 0.950265 0.142914
0.696469 0.952722 0.137737
0.820252 0.955177 0.132521
0.940568 0.957631 0.127267
1.000000 0.960084 0.121971
0.000000 1.000000 0.160612
0.126795 1.000000 0.155550
0.285910 1.000000 0.150457
0.428838 1.000000 0.145330
0.563063 1.000000 0.140169
0.691405 1.000000 0.134971
0.815343 1.000000 0.129736
0.935785 1.000000 0.124459
1.000000 1.000000 0.119140
0.000000 0.000000 0.325505
0.170123 0.000000 0.321086
0.323686 0.000000 0.316656
0.463971 0.000000 0.312214
0.596493 0.000000 0.307760
0.723593 0.000000 0.303294
0.846562 0.000000 0.298815
0.966214 0.000000 0.294323
1.000000 0.000000 0.289819
0.000000 0.156046 0.323160
0.163483 0.159502 0.318735
0.317822 0.162943 0.314298
0.458498 0.166371 0.309850
0.591276 0.169786 0.305389
0.718565 0.173188 0.300917
0.841683 0.176577 0.296431
0.961456 0.179954 0.291932
1.000000 0.183318 0.287421
0.000000 0.305854 0.320811
0.156791 0.308898 0.316380
0.311937 0.311937 0.311937
0.453012 0.314971 0.307482
0.586051 0.317998 0.303015
0.713531 0.321021 0.298536
0.836798 0.324038 0.294043
0.956694 0.327049 0.289538
1.000000 0.330056 0.285019
0.000000 0.442284 0.318459
0.150045 0.445123 0.314022
0.306031 0.447959 0.309573
0.447514 0.450792 0.305111
0.580817 0.453621 0.300638
0.708490 0.456447 0.296151
0.831908 0.459270 0.291652
0.951927 0.462089 0.287139
1.000000 0.464905 0.282613
0.000000 0.571015 0.316104
0.143241 0.573720 0.311660
0.300104 0.576423 0.307205
0.442003 0.579124 0.302737
0.575574 0.581822 0.298256
0.703442 0.584518 0.293763
0.827012 0.587211 0.289257
0.947155 0.589903 0.284737
1.000000 0.592591 0.280204
0.000000 0.694403 0.313745
0.136374 0.697010 0.309295
0.294153 0.699615 0.304833
0.436479 0.702219 0.300359
0.570322 0.704820 0.295872
0.698387 0.707420 0.291371
0.822111 0.710017 0.286858
0.942379 0.712613 0.282331
1.000000 0.715208 0.277790
0.000000 0.813736 0.311383
0.129441 0.816265 0.306927
0.288180 0.818794 0.302458
0.430941 0.821320 0.297977
0.565060 0.823846 0.293483
0.693325 0.826370 0.288976
0.817204 0.828892 0.284455
0.937599 0.831413 0.279921
1.000000 0.833932 0.275373
0.000000 0.929819 0.309018
0.122437 0.932285 0.304555
0.282184 0.934751 0.300080
0.425390 0.937215 0.295592
0.559790 0.939678 0.291091
0.688257 0.942139 0.286577
0.812292 0.944600 0.282049
0.932814 0.947059 0.277507
1.000000 0.949517 0.272951
0.000000 1.000000 0.306649
0.115356 1.000000 0.302180
0.276163 1.000000 0.297698
0.419825 1.000000 0.293203
0.554509 1.000000 0.288695
0.683181 1.000000 0.284174
0.807374 1.000000 0.279638
0.928024 1.000000 0.275089
1.000000 1.000000 0.270526
0.000000 0.000000 0.457650
0.159334 0.000000 0.453510
0.314170 0.000000 0.449363
0.455093 0.000000 0.445209
0.588033 0.000000 0.441047
0.715440 0.000000 0.436878
0.838650 0.000000 0.432701
0.958500 0.000000 0.428517
1.000000 0.000000 0.424325
0.000000 0.140996 0.455452
0.152609 0.144519 0.451308
0.308273 0.148025 0.447158
0.449600 0.151515 0.442999
0.582802 0.154990 0.438834
0.710402 0.158451 0.434661
0.833762 0.161897 0.430480
0.953734 0.165329 0.426291
1.000000 0.168748 0.422095
0.000000 0.292681 0.453252
0.145827 0.295751 0.449105
0.302353 0.298815 0.444950
0.444093 0.301873 0.440788
0.577562 0.304925 0.436618
0.705356 0.307972 0.432441
0.828869 0.311012 0.428256
0.948965 0.314047 0.424063
1.000000 0.317077 0.419863
0.000000 0.430021 0.451050
0.138985 0.432875 0.446899
0.296412 0.435727 0.442740
0.438574 0.438574 0.438574
0.572314 0.441418 0.434401
0.700304 0.444259 0.430219
0.823970 0.447096 0.426030
0.944190 0.449930 0.421833
1.000000 0.452760 0.417629
0.000000 0.559341 0.448846
0.132077 0.562057 0.444691
0.290447 0.564771 0.440529
0.433042 0.567482 0.436358
0.567056 0.570190 0.432181
0.695245 0.572897 0.427995
0.819065 0.575600 0.423802
0.939412 0.578302 0.419601
1.000000 0.581001 0.415392
0.000000 0.683160 0.446640
0.125101 0.685775 0.442481
0.284460 0.688388 0.438315
0.427496 0.691000 0.434141
0.561789 0.693609 0.429959
0.690179 0.696216 0.425769
0.814155 0.698822 0.421572
0.934628 0.701426 0.417367
1.000000 0.704028 0.413153
0.000000 0.802829 0.444432
0.118050 0.805365 0.440269
0.278448 0.807900 0.436099
0.421936 0.810433 0.431921
0.556512 0.812965 0.427735
0.685106 0.815495 0.423541
0.809239 0.818024 0.419339
0.929840 0.820551 0.415130
1.000000 0.823077 0.410912
0.000000 0.919187 0.442222
0.110917 0.921659 0.438055
0.272412 0.924130 0.433881
0.416363 0.926599 0.429698
0.551226 0.929068 0.425508
0.680025 0.931534 0.421310
0.804318 0.934000 0.417105
0.925047 0.936465 0.412891
1.000000 0.938928 0.408669
0.000000 1.000000 0.440010
0.103697 1.000000 0.435839
0.266350 1.000000 0.431660
0.410775 1.000000 0.427474
0.545930 1.000000 0.423280
0.674938 1.000000 0.419078
0.799390 1.000000 0.414868
0.920249 1.000000 0.410649
1.000000 1.000000 0.406423
0.000000 0.000000 0.582806
0.148405 0.000000 0.578853
0.304600 0.000000 0.574895
0.446182 0.000000 0.570931
0.579550 0.000000 0.566962
0.707270 0.000000 0.562988
0.830724 0.000000 0.559009
0.950773 0.000000 0.555024
1.000000 0.000000 0.551034
0.000000 0.125635 0.580707
0.141586 0.129234 0.576751
0.298667 0.132814 0.572790
0.440668 0.136376 0.568824
0.574304 0.139921 0.564852
0.702220 0.143448 0.560876
0.825827 0.146959 0.556893
0.946001 0.150454 0.552906
1.000000 0.153934 0.548913
0.000000 0.279394 0.578607
0.134704 0.282492 0.574648
0.292711 0.285582 0.570684
0.435141 0.288667 0.566715
0.569050 0.291745 0.562741
0.697164 0.294817 0.558761
0.820925 0.297883 0.554776
0.941224 0.300942 0.550786
1.000000 0.303996 0.546790
0.000000 0.417691 0.576505
0.127754 0.420562 0.572543
0.286732 0.423428 0.568577
0.429600 0.426291 0.564605
0.563786 0.429151 0.560628
0.692100 0.432007 0.556645
0.816017 0.434859 0.552658
0.936442 0.437707 0.548664
1.000000 0.440553 0.544665
0.000000 0.547621 0.574401
0.120732 0.550348 0.570437
0.280730 0.553072 0.566468
0.424045 0.555794 0.562493
0.558513 0.558513 0.558513
0.687030 0.561230 0.554528
0.811103 0.563945 0.550537
0.931655 0.566656 0.546541
1.000000 0.569366 0.542539
0.000000 0.671882 0.572297
0.113631 0.674505 0.568330
0.274703 0.677126 0.564358
0.418477 0.679746 0.560380
0.553231 0.682363 0.556397
0.681952 0.684979 0.552409
0.806184 0.687593 0.548415
0.926864 0.690205 0.544416
1.000000 0.692814 0.540411
0.000000 0.791894 0.570190
0.106445 0.794437 0.566221
0.268651 0.796979 0.562246
0.412895 0.799518 0.558266
0.547939 0.802057 0.554280
0.676867 0.804593 0.550289
0.801259 0.807128 0.546292
0.922069 0.809662 0.542290
1.000000 0.812194 0.538282
0.000000 0.908532 0.568083
0.099165 0.911010 0.564110
0.262573 0.913486 0.560133
0.407298 0.915961 0.556149
0.542637 0.918434 0.552161
0.671775 0.920907 0.548167
0.796328 0.923378 0.544167
0.917268 0.925847 0.540162
1.000000 0.928316 0.536151
0.000000 1.000000 0.565974
0.091782 1.000000 0.561998
0.256468 1.000000 0.558018
0.401687 1.000000 0.554032
0.537326 1.000000 0.550040
0.666676 1.000000 0.546043
0.791391 1.000000 0.542041
0.912463 1.000000 0.538032
1.000000 1.000000 0.534018
0.000000 0.000000 0.703009
0.137320 0.000000 0.699195
0.294971 0.000000 0.695377
0.437237 0.000000 0.691554
0.571043 0.000000 0.687728
0.699081 0.000000 0.683898
0.822784 0.000000 0.680063
0.943035 0.000000 0.676225
1.000000 0.000000 0.672382
0.000000 0.109907 0.700984
0.130397 0.113597 0.697167
0.289001 0.117264 0.693347
0.431702 0.120910 0.689523
0.565783 0.124535 0.685694
0.694020 0.128140 0.681862
0.817878 0.131726 0.678025
0.938255 0.135293 0.674185
1.000000 0.138843 0.670340
0.000000 0.265987 0.698957
0.123403 0.269113 0.695139
0.283008 0.272232 0.691316
0.426153 0.275344 0.687490
0.560513 0.278450 0.683659
0.688953 0.281549 0.679825
0.812966 0.284642 0.675986
0.933470 0.287728 0.672143
1.000000 0.290808 0.668296
0.000000 0.405292 0.696930
0.116332 0.408179 0.693109
0.276991 0.411062 0.689285
0.420590 0.413941 0.685456
0.555235 0.416816 0.681623
0.683878 0.419688 0.677786
0.808049 0.422556 0.673945
0.928681 0.425420 0.670100
1.000000 0.428280 0.666251
0.000000 0.535853 0.694901
0.109179 0.538591 0.691078
0.270948 0.541327 0.687252
0.415013 0.544060 0.683421
0.549946 0.546790 0.679586
0.678796 0.549518 0.675747
0.803126 0.552243 0.671904
0.923887 0.554965 0.668056
1.000000 0.557686 0.664205
0.000000 0.660567 0.692871
0.101936 0.663199 0.689046
0.264880 0.665829 0.685217
0.409422 0.668457 0.681385
0.544648 0.671082 0.677547
0.673706 0.673706 0.673706
0.798198 0.676328 0.669861
0.919088 0.678948 0.666011
1.000000 0.681566 0.662158
0.000000 0.780931 0.690840
0.094594 0.783481 0.687013
0.258785 0.786028 0.683182
0.403816 0.788575 0.679347
0.539340 0.791120 0.675508
0.668610 0.793663 0.671664
0.793263 0.796205 0.667817
0.914285 0.798745 0.663965
1.000000 0.801284 0.660109
0.000000 0.897853 0.688808
0.087141 0.900336 0.684979
0.252663 0.902818 0.681146
0.398195 0.905298 0.677309
0.534022 0.907778 0.673467
0.663506 0.910255 0.669621
0.788323 0.912732 0.665772
0.909477 0.915207 0.661918
1.000000 0.917681 0.658059
0.000000 1.000000 0.686775
0.079566 1.000000 0.682944
0.246512 1.000000 0.679108
0.392560 1.000000 0.675269
0.528695 1.000000 0.671425
0.658394 1.000000 0.667577
0.783377 1.000000 0.663725
0.904663 1.000000 0.659869
1.000000 1.000000 0.656008
0.000000 0.000000 0.819407
0.126063 0.000000 0.815703
0.285283 0.000000 0.811995
0.428258 0.000000 0.808284
0.562512 0.000000 0.804570
0.690874 0.000000 0.800852
0.814829 0.000000 0.797132
0.935285 0.000000 0.793408
1.000000 0.000000 0.789680
0.000000 0.093737 0.817440
0.119022 0.097538 0.813734
0.279275 0.101311 0.810024
0.422700 0.105057 0.806312
0.557237 0.108779 0.802596
0.685802 0.112476 0.798877
0.809914 0.116150 0.795154
0.930497 0.119802 0.791428
1.000000 0.123433 0.787699
0.000000 0.252449 0.815472
0.111901 0.255606 0.811764
0.273242 0.258756 0.808053
0.417129 0.261898 0.804339
0.551952 0.265034 0.800621
0.680723 0.268162 0.796900
0.804993 0.271283 0.793176
0.925705 0.274397 0.789448
1.000000 0.277505 0.785717
0.000000 0.392820 0.813503
0.104693 0.395724 0.809793
0.267183 0.398624 0.806081
0.411543 0.401520 0.802365
0.546658 0.404412 0.798645
0.675636 0.407300 0.794922
0.800067 0.410184 0.791196
0.920908 0.413064 0.787467
1.000000 0.415941 0.783734
0.000000 0.524035 0.811533
0.097389 0.526785 0.807822
0.261099 0.529532 0.804107
0.405943 0.532277 0.800389
0.541353 0.535018 0.796668
0.670543 0.537757 0.792944
0.795135 0.540494 0.789216
0.916106 0.543228 0.785485
1.000000 0.545959 0.781751
0.000000 0.649216 0.809562
0.089980 0.651856 0.805849
0.254987 0.654495 0.802133
0.400328 0.657131 0.798414
0.536039 0.659765 0.794691
0.665441 0.662398 0.790964
0.790197 0.665028 0.787235
0.911300 0.667657 0.783502
1.000000 0.670283 0.779766
0.000000 0.769938 0.807591
0.082453 0.772495 0.803876
0.248847 0.775049 0.800158
0.394698 0.777603 0.796437
0.530715 0.780154 0.792712
0.660333 0.782704 0.788984
0.785253 0.785253 0.785253
0.906489 0.787800 0.781518
1.000000 0.790345 0.777780
0.000000 0.887150 0.805618
0.074792 0.889639 0.801902
0.242679 0.892126 0.798182
0.389052 0.894612 0.794459
0.525381 0.897097 0.790732
0.655217 0.899580 0.787003
0.780303 0.902062 0.783270
0.901672 0.904543 0.779533
1.000000 0.907023 0.775793
0.000000 1.000000 0.803645
0.066980 1.000000 0.799926
0.236480 1.000000 0.796205
0.383392 1.000000 0.792480
0.520037 1.000000 0.788752
0.650093 1.000000 0.785020
0.775347 1.000000 0.781286
0.896851 1.000000 0.777547
1.000000 1.000000 0.773806
0.000000 0.000000 0.932734
0.114610 0.000000 0.929119
0.275532 0.000000 0.925502
0.419242 0.000000 0.921883
0.553956 0.000000 0.918261
0.682649 0.000000 0.914636
0.806859 0.000000 0.911008
0.927522 0.000000 0.907377
1.000000 0.000000 0.903744
0.000000 0.077016 0.930814
0.107436 0.080957 0.927199
0.269483 0.084863 0.923580
0.413662 0.088734 0.919959
0.548666 0.092574 0.916336
0.677565 0.096384 0.912709
0.801935 0.100165 0.909080
0.922727 0.103919 0.905448
1.000000 0.107648 0.901813
0.000000 0.238773 0.928894
0.100170 0.241963 0.925277
0.263408 0.245145 0.921657
0.408067 0.248320 0.918035
0.543365 0.251487 0.914410
0.672474 0.254646 0.910782
0.797005 0.257798 0.907151
0.917927 0.260942 0.903518
1.000000 0.264080 0.899882
0.000000 0.380273 0.926974
0.092802 0.383194 0.923355
0.257307 0.386112 0.919734
0.402458 0.389026 0.916110
0.538055 0.391935 0.912483
0.667376 0.394840 0.908854
0.792069 0.397741 0.905222
0.913122 0.400638 0.901587
1.000000 0.403532 0.897949
0.000000 0.512167 0.925052
0.085321 0.514929 0.921432
0.251178 0.517688 0.917809
0.396834 0.520444 0.914184
0.532735 0.523198 0.910556
0.662270 0.525948 0.906925
0.787128 0.528696 0.903292
0.908313 0.531441 0.899655
1.000000 0.534184 0.896016
0.000000 0.637826 0.923130
0.077713 0.640476 0.919508
0.245021 0.643123 0.915884
0.391194 0.645768 0.912257
0.527404 0.648411 0.908628
0.657157 0.651052 0.904996
0.782180 0.653691 0.901361
0.903499 0.656328 0.897723
1.000000 0.658963 0.894082
0.000000 0.758915 0.921207
0.069961 0.761479 0.917584
0.238834 0.764041 0.913958
0.385539 0.766601 0.910330
0.522064 0.769159 0.906699
0.652036 0.771716 0.903065
0.777226 0.774272 0.899429
0.898680 0.776825 0.895789
1.000000 0.779377 0.892147
0.000000 0.876423 0.919283
0.062041 0.878917 0.915659
0.232616 0.881410 0.912032
0.379869 0.883902 0.908402
0.516713 0.886392 0.904770
0.646907 0.888881 0.901134
0.772267 0.891369 0.897496
0.893855 0.893855 0.893855
1.000000 0.896340 0.890212
0.000000 0.991000 0.917358
0.053924 0.993437 0.913733
0.226367 0.995873 0.910104
0.374182 0.998307 0.906473
0.511351 1.000000 0.902839
0.641771 1.000000 0.899202
0.767301 1.000000 0.895563
0.889026 1.000000 0.891921
1.000000 1.000000 0.888275
0.000000 0.000000 1.000000
0.102936 0.000000 1.000000
0.265714 0.000000 1.000000
0.410190 0.000000 1.000000
0.545376 0.000000 1.000000
0.674405 0.000000 1.000000
0.798875 0.000000 1.000000
0.919747 0.000000 1.000000
1.000000 0.000000 1.000000
0.000000 0.059567 1.000000
0.095608 0.063698 1.000000
0.259623 0.067780 1.000000
0.404586 0.071815 1.000000
0.540069 0.075808 1.000000
0.669309 0.079761 1.000000
0.793941 0.083677 1.000000
0.914944 0.087559 1.000000
1.000000 0.091408 1.000000
0.000000 0.224945 1.000000
0.088171 0.228172 1.000000
0.253505 0.231389 1.000000
0.398967 0.234599 1.000000
0.534753 0.237800 1.000000
0.664206 0.240992 1.000000
0.789001 0.244177 1.000000
0.910137 0.247354 1.000000
1.000000 0.250523 1.000000
0.000000 0.367646 1.000000
0.080613 0.370586 1.000000
0.247358 0.373523 1.000000
0.393334 0.376454 1.000000
0.529426 0.379382 1.000000
0.659096 0.382305 1.000000
0.784056 0.385224 1.000000
0.905324 0.388139 1.000000
1.000000 0.391049 1.000000
0.000000 0.500247 1.000000
0.072918 0.503021 1.000000
0.241182 0.505792 1.000000
0.387685 0.508560 1.000000
0.524090 0.511326 1.000000
0.653978 0.514088 1.000000
0.779105 0.516848 1.000000
0.900507 0.519605 1.000000
1.000000 0.522359 1.000000
0.000000 0.626398 1.000000
0.065065 0.629057 1.000000
0.234977 0.631713 1.000000
0.382020 0.634367 1.000000
0.518742 0.637019 1.000000
0.648852 0.639669 1.000000
0.774148 0.642317 1.000000
0.895685 0.644963 1.000000
1.000000 0.647607 1.000000
0.000000 0.747862 1.000000
0.057026 0.750433 1.000000
0.228739 0.753002 1.000000
0.376339 0.755569 1.000000
0.513385 0.758134 1.000000
0.643719 0.760698 1.000000
0.769184 0.763261 1.000000
0.890858 0.765821 1.000000
1.000000 0.768380 1.000000
0.000000 0.865670 1.000000
0.048766 0.868170 1.000000
0.222470 0.870669 1.000000
0.370642 0.873167 1.000000
0.508017 0.875663 1.000000
0.638578 0.878158 1.000000
0.764215 0.880651 1.000000
0.886025 0.883143 1.000000
1.000000 0.885634 1.000000
0.000000 0.980497 1.000000
0.040229 0.982939 1.000000
0.216166 0.985380 1.000000
0.364929 0.987819 1.000000
0.502638 0.990258 1.000000
0.633429 0.992695 1.000000
0.759240 0.995131 1.000000
0.881188 0.997566 1.000000
1.000000 1.000000 1.000000
