presets/film_stocks/Fuji_Velvia_50.cube
# 独寻胶片模拟 -- Fuji Velvia 50
# Fujifilm, ISO 50, 2007, positive
TITLE "Fuji Velvia 50"
LUT_3D_SIZE 33
DOMAIN_MIN 0.0 0.0 0.0
DOMAIN_MAX 1.0 1.0 1.0
0.000000 0.000000 0.000000
0.061026 0.000671 0.000000
0.114598 0.001260 0.000000
0.165676 0.001821 0.000000
0.215200 0.002366 0.000000
0.263598 0.002898 0.000000
0.311117 0.003420 0.000000
0.357919 0.003935 0.000000
0.404115 0.004442 0.000000
0.449787 0.004945 0.000000
0.495000 0.005442 0.000000
0.539802 0.005934 0.000000
0.584236 0.006423 0.000000
0.628333 0.006907 0.000000
0.672123 0.007389 0.000000
0.715629 0.007867 0.000000
0.758872 0.008342 0.000000
0.801870 0.008815 0.000000
0.844639 0.009285 0.000000
0.887192 0.009753 0.000000
0.929541 0.010218 0.000000
0.971699 0.010682 0.000000
1.000000 0.011143 0.000000
1.000000 0.011603 0.000000
1.000000 0.012061 0.000000
1.000000 0.012517 0.000000
1.000000 0.012971 0.000000
1.000000 0.013424 0.000000
1.000000 0.013875 0.000000
1.000000 0.014325 0.000000
1.000000 0.014773 0.000000
1.000000 0.015220 0.000000
1.000000 0.015666 0.000000
0.000000 0.048412 0.000000
0.055685 0.048809 0.000000
0.109595 0.049206 0.000000
0.160857 0.049603 0.000000
0.210507 0.049999 0.000000
0.259000 0.050396 0.000000
0.306596 0.050791 0.000000
0.353461 0.051187 0.000000
0.399711 0.051582 0.000000
0.445431 0.051977 0.000000
0.490685 0.052372 0.000000
0.535525 0.052766 0.000000
0.579992 0.053160 0.000000
0.624120 0.053554 0.000000
0.667939 0.053947 0.000000
0.711471 0.054340 0.000000
0.754739 0.054733 0.000000
0.797759 0.055126 0.000000
0.840549 0.055518 0.000000
0.883122 0.055910 0.000000
0.925491 0.056302 0.000000
0.967666 0.056693 0.000000
1.000000 0.057084 0.000000
1.000000 0.057475 0.000000
1.000000 0.057866 0.000000
1.000000 0.058256 0.000000
1.000000 0.058646 0.000000
1.000000 0.059036 0.000000
1.000000 0.059426 0.000000
1.000000 0.059815 0.000000
1.000000 0.060204 0.000000
1.000000 0.060593 0.000000
1.000000 0.060982 0.000000
0.000000 0.090911 0.000000
0.050291 0.091284 0.000000
0.104568 0.091657 0.000000
0.156024 0.092030 0.000000
0.205803 0.092402 0.000000
0.254394 0.092775 0.000000
0.302068 0.093148 0.000000
0.348998 0.093520 0.000000
0.395303 0.093892 0.000000
0.441070 0.094264 0.000000
0.486366 0.094636 0.000000
0.531244 0.095008 0.000000
0.575745 0.095379 0.000000
0.619905 0.095751 0.000000
0.663752 0.096122 0.000000
0.707310 0.096493 0.000000
0.750603 0.096864 0.000000
0.793646 0.097235 0.000000
0.836458 0.097606 0.000000
0.879051 0.097976 0.000000
0.921439 0.098347 0.000000
0.963632 0.098717 0.000000
1.000000 0.099087 0.000000
1.000000 0.099457 0.000000
1.000000 0.099827 0.000000
1.000000 0.100197 0.000000
1.000000 0.100566 0.000000
1.000000 0.100936 0.000000
1.000000 0.101305 0.000000
1.000000 0.101674 0.000000
1.000000 0.102043 0.000000
1.000000 0.102412 0.000000
1.000000 0.102781 0.000000
0.000000 0.131431 0.000000
0.044840 0.131791 0.000000
0.099517 0.132150 0.000000
0.151176 0.132510 0.000000
0.201089 0.132869 0.000000
0.249780 0.133228 0.000000
0.297533 0.133588 0.000000
0.344529 0.133947 0.000000
0.390889 0.134306 0.000000
0.436705 0.134665 0.000000
0.482044 0.135024 0.000000
0.526960 0.135382 0.000000
0.571495 0.135741 0.000000
0.615686 0.136100 0.000000
0.659562 0.136458 0.000000
0.703147 0.136817 0.000000
0.746464 0.137175 0.000000
0.789531 0.137533 0.000000
0.832364 0.137891 0.000000
0.874978 0.138249 0.000000
0.917384 0.138607 0.000000
0.959596 0.138965 0.000000
1.000000 0.139323 0.000000
1.000000 0.139680 0.000000
1.000000 0.140038 0.000000
1.000000 0.140395 0.000000
1.000000 0.140753 0.000000
1.000000 0.141110 0.000000
1.000000 0.141467 0.000000
1.000000 0.141824 0.000000
1.000000 0.142181 0.000000
1.000000 0.142538 0.000000
1.000000 0.142895 0.000000
0.000000 0.170717 0.000000
0.039321 0.171068 0.000000
0.094440 0.171418 0.000000
0.146312 0.171769 0.000000
0.196364 0.172119 0.000000
0.245158 0.172469 0.000000
0.292992 0.172819 0.000000
0.340053 0.173169 0.000000
0.386470 0.173519 0.000000
0.432335 0.173869 0.000000
0.477717 0.174219 0.000000
0.522672 0.174568 0.000000
0.567242 0.174918 0.000000
0.611465 0.175268 0.000000
0.655370 0.175617 0.000000
0.698982 0.175967 0.000000
0.742324 0.176316 0.000000
0.785414 0.176665 0.000000
0.828268 0.177015 0.000000
0.870902 0.177364 0.000000
0.913329 0.177713 0.000000
0.955559 0.178062 0.000000
0.997603 0.178411 0.000000
1.000000 0.178760 0.000000
1.000000 0.179109 0.000000
1.000000 0.179458 0.000000
1.000000 0.179806 0.000000
1.000000 0.180155 0.000000
1.000000 0.180504 0.000000
1.000000 0.180852 0.000000
1.000000 0.181200 0.000000
1.000000 0.181549 0.000000
1.000000 0.181897 0.000000
0.000000 0.209111 0.000000
0.033723 0.209455 0.000000
0.089336 0.209798 0.000000
0.141431 0.210142 0.000000
0.191628 0.210485 0.000000
0.240526 0.210828 0.000000
0.288443 0.211171 0.000000
0.335572 0.211514 0.000000
0.382047 0.211857 0.000000
0.427961 0.212200 0.000000
0.473387 0.212543 0.000000
0.518380 0.212886 0.000000
0.562986 0.213229 0.000000
0.607241 0.213572 0.000000
0.651175 0.213914 0.000000
0.694814 0.214257 0.000000
0.738181 0.214600 0.000000
0.781294 0.214942 0.000000
0.824171 0.215285 0.000000
0.866825 0.215627 0.000000
0.909271 0.215969 0.000000
0.951519 0.216312 0.000000
0.993581 0.216654 0.000000
1.000000 0.216996 0.000000
1.000000 0.217338 0.000000
1.000000 0.217680 0.000000
1.000000 0.218022 0.000000
1.000000 0.218364 0.000000
1.000000 0.218706 0.000000
1.000000 0.219048 0.000000
1.000000 0.219390 0.000000
1.000000 0.219732 0.000000
1.000000 0.220074 0.000000
0.000000 0.246809 0.000000
0.028030 0.247147 0.000000
0.084203 0.247484 0.000000
0.136534 0.247822 0.000000
0.186879 0.248160 0.000000
0.235886 0.248497 0.000000
0.283887 0.248835 0.000000
0.331085 0.249172 0.000000
0.377618 0.249510 0.000000
0.423583 0.249847 0.000000
0.469053 0.250185 0.000000
0.514085 0.250522 0.000000
0.558726 0.250859 0.000000
0.603013 0.251196 0.000000
0.646977 0.251534 0.000000
0.690644 0.251871 0.000000
0.734036 0.252208 0.000000
0.777172 0.252545 0.000000
0.820071 0.252882 0.000000
0.862746 0.253219 0.000000
0.905212 0.253556 0.000000
0.947478 0.253893 0.000000
0.989557 0.254230 0.000000
1.000000 0.254566 0.000000
1.000000 0.254903 0.000000
1.000000 0.255240 0.000000
1.000000 0.255576 0.000000
1.000000 0.255913 0.000000
1.000000 0.256250 0.000000
1.000000 0.256586 0.000000
1.000000 0.256923 0.000000
1.000000 0.257259 0.000000
1.000000 0.257595 0.000000
0.000000 0.283937 0.000000
0.022218 0.284270 0.000000
0.079038 0.284603 0.000000
0.131619 0.284936 0.000000
0.182119 0.285269 0.000000
0.231236 0.285602 0.000000
0.279324 0.285935 0.000000
0.326592 0.286267 0.000000
0.373184 0.286600 0.000000
0.419200 0.286933 0.000000
0.464714 0.287266 0.000000
0.509787 0.287598 0.000000
0.554464 0.287931 0.000000
0.598783 0.288264 0.000000
0.642776 0.288596 0.000000
0.686471 0.288929 0.000000
0.729888 0.289261 0.000000
0.773049 0.289594 0.000000
0.815969 0.289926 0.000000
0.858665 0.290259 0.000000
0.901150 0.290591 0.000000
0.943436 0.290923 0.000000
0.985532 0.291256 0.000000
1.000000 0.291588 0.000000
1.000000 0.291920 0.000000
1.000000 0.292252 0.000000
1.000000 0.292584 0.000000
1.000000 0.292916 0.000000
1.000000 0.293248 0.000000
1.000000 0.293580 0.000000
1.000000 0.293912 0.000000
1.000000 0.294244 0.000000
1.000000 0.294576 0.000000
0.000000 0.320584 0.000000
0.016248 0.320913 0.000000
0.073839 0.321242 0.000000
0.126686 0.321571 0.000000
0.177346 0.321900 0.000000
0.226578 0.322229 0.000000
0.274753 0.322558 0.000000
0.322093 0.322886 0.000000
0.368745 0.323215 0.000000
0.414812 0.323544 0.000000
0.460372 0.323873 0.000000
0.505485 0.324202 0.000000
0.550198 0.324530 0.000000
0.594550 0.324859 0.000000
0.638573 0.325188 0.000000
0.682295 0.325516 0.000000
0.725738 0.325845 0.000000
0.768923 0.326173 0.000000
0.811866 0.326502 0.000000
0.854583 0.326830 0.000000
0.897087 0.327159 0.000000
0.939391 0.327487 0.000000
0.981505 0.327815 0.000000
1.000000 0.328144 0.000000
1.000000 0.328472 0.000000
1.000000 0.328800 0.000000
1.000000 0.329129 0.000000
1.000000 0.329457 0.000000
1.000000 0.329785 0.000000
1.000000 0.330113 0.000000
1.000000 0.330441 0.000000
1.000000 0.330769 0.000000
1.000000 0.331097 0.000000
0.000000 0.356815 0.000000
0.010043 0.357141 0.000000
0.068603 0.357467 0.000000
0.121733 0.357792 0.000000
0.172560 0.358118 0.000000
0.221909 0.358443 0.000000
0.270174 0.358768 0.000000
0.317588 0.359094 0.000000
0.364300 0.359419 0.000000
0.410420 0.359745 0.000000
0.456026 0.360070 0.000000
0.501179 0.360395 0.000000
0.545928 0.360720 0.000000
0.590314 0.361046 0.000000
0.634367 0.361371 0.000000
0.678117 0.361696 0.000000
0.721586 0.362021 0.000000
0.764794 0.362346 0.000000
0.807760 0.362671 0.000000
0.850498 0.362996 0.000000
0.893022 0.363321 0.000000
0.935345 0.363646 0.000000
0.977477 0.363971 0.000000
1.000000 0.364296 0.000000
1.000000 0.364621 0.000000
1.000000 0.364946 0.000000
1.000000 0.365271 0.000000
1.000000 0.365595 0.000000
1.000000 0.365920 0.000000
1.000000 0.366245 0.000000
1.000000 0.366570 0.000000
1.000000 0.366894 0.000000
1.000000 0.367219 0.000000
0.000000 0.392682 0.000000
0.003386 0.393005 0.000000
0.063327 0.393327 0.000000
0.116761 0.393650 0.000000
0.167761 0.393972 0.000000
0.217231 0.394294 0.000000
0.265588 0.394617 0.000000
0.313076 0.394939 0.000000
0.359850 0.395261 0.000000
0.406023 0.395584 0.000000
0.451675 0.395906 0.000000
0.496869 0.396228 0.000000
0.541656 0.396550 0.000000
0.586074 0.396872 0.000000
0.630159 0.397194 0.000000
0.673936 0.397517 0.000000
0.717431 0.397839 0.000000
0.760664 0.398161 0.000000
0.803652 0.398483 0.000000
0.846411 0.398805 0.000000
0.888955 0.399127 0.000000
0.931297 0.399449 0.000000
0.973447 0.399771 0.000000
1.000000 0.400092 0.000000
1.000000 0.400414 0.000000
1.000000 0.400736 0.000000
1.000000 0.401058 0.000000
1.000000 0.401380 0.000000
1.000000 0.401701 0.000000
1.000000 0.402023 0.000000
1.000000 0.402345 0.000000
1.000000 0.402667 0.000000
1.000000 0.402988 0.000000
0.000000 0.428224 0.000000
0.000000 0.428544 0.000000
0.058006 0.428863 0.000000
0.111767 0.429183 0.000000
0.162948 0.429503 0.000000
0.212543 0.429822 0.000000
0.260994 0.430142 0.000000
0.308557 0.430461 0.000000
0.355395 0.430781 0.000000
0.401621 0.431100 0.000000
0.447320 0.431420 0.000000
0.492556 0.431739 0.000000
0.537380 0.432059 0.000000
0.581832 0.432378 0.000000
0.625947 0.432698 0.000000
0.669753 0.433017 0.000000
0.713274 0.433336 0.000000
0.756531 0.433656 0.000000
0.799542 0.433975 0.000000
0.842322 0.434294 0.000000
0.884887 0.434613 0.000000
0.927247 0.434932 0.000000
0.969415 0.435252 0.000000
1.000000 0.435571 0.000000
1.000000 0.435890 0.000000
1.000000 0.436209 0.000000
1.000000 0.436528 0.000000
1.000000 0.436847 0.000000
1.000000 0.437166 0.000000
1.000000 0.437485 0.000000
1.000000 0.437804 0.000000
1.000000 0.438123 0.000000
1.000000 0.438442 0.000000
0.000000 0.463473 0.000000
0.000000 0.463790 0.000000
0.052636 0.464107 0.000000
0.106750 0.464424 0.000000
0.158121 0.464741 0.000000
0.207844 0.465059 0.000000
0.256392 0.465376 0.000000
0.304032 0.465693 0.000000
0.350934 0.466010 0.000000
0.397215 0.466327 0.000000
0.442961 0.466644 0.000000
0.488239 0.466961 0.000000
0.533100 0.467277 0.000000
0.577587 0.467594 0.000000
0.621733 0.467911 0.000000
0.665567 0.468228 0.000000
0.709115 0.468545 0.000000
0.752396 0.468862 0.000000
0.795430 0.469179 0.000000
0.838232 0.469495 0.000000
0.880816 0.469812 0.000000
0.923196 0.470129 0.000000
0.965381 0.470446 0.000000
1.000000 0.470762 0.000000
1.000000 0.471079 0.000000
1.000000 0.471396 0.000000
1.000000 0.471712 0.000000
1.000000 0.472029 0.000000
1.000000 0.472345 0.000000
1.000000 0.472662 0.000000
1.000000 0.472979 0.000000
1.000000 0.473295 0.000000
1.000000 0.473612 0.000000
0.000000 0.498455 0.000000
0.000000 0.498770 0.000000
0.047211 0.499085 0.000000
0.101710 0.499400 0.000000
0.153280 0.499715 0.000000
0.203134 0.500030 0.000000
0.251782 0.500344 0.000000
0.299500 0.500659 0.000000
0.346467 0.500974 0.000000
0.392803 0.501288 0.000000
0.438598 0.501603 0.000000
0.483918 0.501918 0.000000
0.528817 0.502232 0.000000
0.573338 0.502547 0.000000
0.617515 0.502862 0.000000
0.661379 0.503176 0.000000
0.704953 0.503491 0.000000
0.748259 0.503805 0.000000
0.791315 0.504120 0.000000
0.834139 0.504434 0.000000
0.876744 0.504749 0.000000
0.919142 0.505063 0.000000
0.961346 0.505378 0.000000
1.000000 0.505692 0.000000
1.000000 0.506007 0.000000
1.000000 0.506321 0.000000
1.000000 0.506635 0.000000
1.000000 0.506950 0.000000
1.000000 0.507264 0.000000
1.000000 0.507578 0.000000
1.000000 0.507893 0.000000
1.000000 0.508207 0.000000
1.000000 0.508521 0.000000
0.000000 0.533194 0.000000
0.000000 0.533507 0.000000
0.041722 0.533819 0.000000
0.096645 0.534132 0.000000
0.148422 0.534445 0.000000
0.198414 0.534757 0.000000
0.247163 0.535070 0.000000
0.294962 0.535383 0.000000
0.341994 0.535695 0.000000
0.388387 0.536008 0.000000
0.434230 0.536320 0.000000
0.479593 0.536633 0.000000
0.524531 0.536946 0.000000
0.569087 0.537258 0.000000
0.613295 0.537571 0.000000
0.657188 0.537883 0.000000
0.700788 0.538196 0.000000
0.744119 0.538508 0.000000
0.787199 0.538821 0.000000
0.830044 0.539133 0.000000
0.872669 0.539445 0.000000
0.915087 0.539758 0.000000
0.957309 0.540070 0.000000
0.999346 0.540382 0.000000
1.000000 0.540695 0.000000
1.000000 0.541007 0.000000
1.000000 0.541319 0.000000
1.000000 0.541632 0.000000
1.000000 0.541944 0.000000
1.000000 0.542256 0.000000
1.000000 0.542568 0.000000
1.000000 0.542881 0.000000
1.000000 0.543193 0.000000
0.000000 0.567707 0.000000
0.000000 0.568018 0.000000
0.036160 0.568329 0.000000
0.091553 0.568640 0.000000
0.143549 0.568950 0.000000
0.193683 0.569261 0.000000
0.242535 0.569572 0.000000
0.290416 0.569882 0.000000
0.337516 0.570193 0.000000
0.383965 0.570504 0.000000
0.429858 0.570814 0.000000
0.475265 0.571125 0.000000
0.520241 0.571436 0.000000
0.564832 0.571746 0.000000
0.609072 0.572057 0.000000
0.652994 0.572367 0.000000
0.696621 0.572678 0.000000
0.739977 0.572988 0.000000
0.783080 0.573299 0.000000
0.825948 0.573609 0.000000
0.868593 0.573920 0.000000
0.911030 0.574230 0.000000
0.953271 0.574541 0.000000
0.995325 0.574851 0.000000
1.000000 0.575162 0.000000
1.000000 0.575472 0.000000
1.000000 0.575782 0.000000
1.000000 0.576093 0.000000
1.000000 0.576403 0.000000
1.000000 0.576713 0.000000
1.000000 0.577024 0.000000
1.000000 0.577334 0.000000
1.000000 0.577644 0.000000
0.000000 0.602012 0.000000
0.000000 0.602321 0.000000
0.030511 0.602630 0.000000
0.086432 0.602939 0.000000
0.138659 0.603248 0.000000
0.188939 0.603557 0.000000
0.237899 0.603865 0.000000
0.285863 0.604174 0.000000
0.333032 0.604483 0.000000
0.379539 0.604792 0.000000
0.425481 0.605101 0.000000
0.470932 0.605410 0.000000
0.515948 0.605719 0.000000
0.560574 0.606027 0.000000
0.604846 0.606336 0.000000
0.648797 0.606645 0.000000
0.692452 0.606954 0.000000
0.735833 0.607262 0.000000
0.778960 0.607571 0.000000
0.821849 0.607880 0.000000
0.864515 0.608188 0.000000
0.906972 0.608497 0.000000
0.949230 0.608806 0.000000
0.991302 0.609114 0.000000
1.000000 0.609423 0.000000
1.000000 0.609732 0.000000
1.000000 0.610040 0.000000
1.000000 0.610349 0.000000
1.000000 0.610657 0.000000
1.000000 0.610966 0.000000
1.000000 0.611274 0.000000
1.000000 0.611583 0.000000
1.000000 0.611891 0.000000
0.000000 0.636122 0.000000
0.000000 0.636429 0.000000
0.024754 0.636737 0.000000
0.081281 0.637044 0.000000
0.133752 0.637351 0.000000
0.184184 0.637658 0.000000
0.233253 0.637965 0.000000
0.281303 0.638273 0.000000
0.328541 0.638580 0.000000
0.375107 0.638887 0.000000
0.421100 0.639194 0.000000
0.466596 0.639501 0.000000
0.511651 0.639808 0.000000
0.556312 0.640116 0.000000
0.600617 0.640423 0.000000
0.644598 0.640730 0.000000
0.688280 0.641037 0.000000
0.731686 0.641344 0.000000
0.774837 0.641651 0.000000
0.817748 0.641958 0.000000
0.860435 0.642265 0.000000
0.902911 0.642572 0.000000
0.945188 0.642879 0.000000
0.987277 0.643186 0.000000
1.000000 0.643493 0.000000
1.000000 0.643800 0.000000
1.000000 0.644107 0.000000
1.000000 0.644413 0.000000
1.000000 0.644720 0.000000
1.000000 0.645027 0.000000
1.000000 0.645334 0.000000
1.000000 0.645641 0.000000
1.000000 0.645948 0.000000
0.000000 0.670050 0.000000
0.000000 0.670356 0.000000
0.018859 0.670662 0.000000
0.076097 0.670967 0.000000
0.128827 0.671273 0.000000
0.179417 0.671578 0.000000
0.228599 0.671884 0.000000
0.276735 0.672190 0.000000
0.324045 0.672495 0.000000
0.370670 0.672801 0.000000
0.416715 0.673106 0.000000
0.462255 0.673412 0.000000
0.507350 0.673718 0.000000
0.552048 0.674023 0.000000
0.596386 0.674329 0.000000
0.640396 0.674634 0.000000
0.684106 0.674940 0.000000
0.727538 0.675245 0.000000
0.770712 0.675550 0.000000
0.813645 0.675856 0.000000
0.856353 0.676161 0.000000
0.898849 0.676467 0.000000
0.941145 0.676772 0.000000
0.983251 0.677078 0.000000
1.000000 0.677383 0.000000
1.000000 0.677688 0.000000
1.000000 0.677994 0.000000
1.000000 0.678299 0.000000
1.000000 0.678604 0.000000
1.000000 0.678910 0.000000
1.000000 0.679215 0.000000
1.000000 0.679520 0.000000
1.000000 0.679825 0.000000
0.000000 0.703807 0.000000
0.000000 0.704112 0.000000
0.012770 0.704416 0.000000
0.070878 0.704720 0.000000
0.123883 0.705024 0.000000
0.174637 0.705328 0.000000
0.223934 0.705632 0.000000
0.272160 0.705936 0.000000
0.319542 0.706240 0.000000
0.366228 0.706545 0.000000
0.412325 0.706849 0.000000
0.457910 0.707153 0.000000
0.503046 0.707457 0.000000
0.547780 0.707761 0.000000
0.592151 0.708065 0.000000
0.636191 0.708369 0.000000
0.679929 0.708673 0.000000
0.723386 0.708977 0.000000
0.766584 0.709281 0.000000
0.809540 0.709585 0.000000
0.852269 0.709889 0.000000
0.894785 0.710193 0.000000
0.937099 0.710497 0.000000
0.979224 0.710800 0.000000
1.000000 0.711104 0.000000
1.000000 0.711408 0.000000
1.000000 0.711712 0.000000
1.000000 0.712016 0.000000
1.000000 0.712320 0.000000
1.000000 0.712624 0.000000
1.000000 0.712927 0.000000
1.000000 0.713231 0.000000
1.000000 0.713535 0.000000
0.000000 0.737403 0.000000
0.000000 0.737706 0.000000
0.006359 0.738009 0.000000
0.065620 0.738312 0.000000
0.118919 0.738614 0.000000
0.169844 0.738917 0.000000
0.219260 0.739220 0.000000
0.267578 0.739522 0.000000
0.315033 0.739825 0.000000
0.361780 0.740128 0.000000
0.407930 0.740430 0.000000
0.453562 0.740733 0.000000
0.498738 0.741036 0.000000
0.543509 0.741338 0.000000
0.587913 0.741641 0.000000
0.631984 0.741944 0.000000
0.675749 0.742246 0.000000
0.719233 0.742549 0.000000
0.762455 0.742851 0.000000
0.805433 0.743154 0.000000
0.848183 0.743456 0.000000
0.890719 0.743759 0.000000
0.933052 0.744061 0.000000
0.975194 0.744364 0.000000
1.000000 0.744666 0.000000
1.000000 0.744969 0.000000
1.000000 0.745271 0.000000
1.000000 0.745574 0.000000
1.000000 0.745876 0.000000
1.000000 0.746179 0.000000
1.000000 0.746481 0.000000
1.000000 0.746784 0.000000
1.000000 0.747086 0.000000
0.000000 0.770847 0.000000
0.000000 0.771148 0.000000
0.000000 0.771450 0.000000
0.060319 0.771751 0.000000
0.113934 0.772052 0.000000
0.165037 0.772354 0.000000
0.214576 0.772655 0.000000
0.262987 0.772957 0.000000
0.310517 0.773258 0.000000
0.357327 0.773559 0.000000
0.403530 0.773861 0.000000
0.449209 0.774162 0.000000
0.494427 0.774463 0.000000
0.539234 0.774765 0.000000
0.583672 0.775066 0.000000
0.627773 0.775367 0.000000
0.671567 0.775668 0.000000
0.715077 0.775970 0.000000
0.758323 0.776271 0.000000
0.801324 0.776572 0.000000
0.844095 0.776873 0.000000
0.886651 0.777174 0.000000
0.929003 0.777476 0.000000
0.971163 0.777777 0.000000
1.000000 0.778078 0.000000
1.000000 0.778379 0.000000
1.000000 0.778680 0.000000
1.000000 0.778981 0.000000
1.000000 0.779283 0.000000
1.000000 0.779584 0.000000
1.000000 0.779885 0.000000
1.000000 0.780186 0.000000
1.000000 0.780487 0.000000
0.000000 0.804146 0.000000
0.000000 0.804446 0.000000
0.000000 0.804746 0.000000
0.054971 0.805046 0.000000
0.108928 0.805346 0.000000
0.160216 0.805646 0.000000
0.209882 0.805947 0.000000
0.258388 0.806247 0.000000
0.305995 0.806547 0.000000
0.352868 0.806847 0.000000
0.399126 0.807147 0.000000
0.444851 0.807447 0.000000
0.490111 0.807747 0.000000
0.534956 0.808047 0.000000
0.579428 0.808347 0.000000
0.623560 0.808647 0.000000
0.667382 0.808947 0.000000
0.710918 0.809247 0.000000
0.754189 0.809547 0.000000
0.797213 0.809847 0.000000
0.840005 0.810147 0.000000
0.882581 0.810447 0.000000
0.924952 0.810747 0.000000
0.967130 0.811047 0.000000
1.000000 0.811347 0.000000
1.000000 0.811647 0.000000
1.000000 0.811946 0.000000
1.000000 0.812246 0.000000
1.000000 0.812546 0.000000
1.000000 0.812846 0.000000
1.000000 0.813146 0.000000
1.000000 0.813446 0.000000
1.000000 0.813746 0.000000
0.000000 0.837307 0.000000
0.000000 0.837606 0.000000
0.000000 0.837905 0.000000
0.049570 0.838204 0.000000
0.103898 0.838503 0.000000
0.155381 0.838802 0.000000
0.205178 0.839101 0.000000
0.253782 0.839400 0.000000
0.301466 0.839699 0.000000
0.348404 0.839998 0.000000
0.394716 0.840296 0.000000
0.440490 0.840595 0.000000
0.485792 0.840894 0.000000
0.530675 0.841193 0.000000
0.575181 0.841492 0.000000
0.619344 0.841791 0.000000
0.663195 0.842089 0.000000
0.706757 0.842388 0.000000
0.750053 0.842687 0.000000
0.793099 0.842986 0.000000
0.835914 0.843284 0.000000
0.878510 0.843583 0.000000
0.920900 0.843882 0.000000
0.963096 0.844181 0.000000
1.000000 0.844479 0.000000
1.000000 0.844778 0.000000
1.000000 0.845077 0.000000
1.000000 0.845375 0.000000
1.000000 0.845674 0.000000
1.000000 0.845973 0.000000
1.000000 0.846271 0.000000
1.000000 0.846570 0.000000
1.000000 0.846869 0.000000
0.000000 0.870338 0.000000
0.000000 0.870636 0.000000
0.000000 0.870934 0.000000
0.044110 0.871231 0.000000
0.098844 0.871529 0.000000
0.150530 0.871827 0.000000
0.200462 0.872125 0.000000
0.249166 0.872422 0.000000
0.296930 0.872720 0.000000
0.343934 0.873018 0.000000
0.390302 0.873316 0.000000
0.436124 0.873613 0.000000
0.481469 0.873911 0.000000
0.526390 0.874209 0.000000
0.570930 0.874506 0.000000
0.615125 0.874804 0.000000
0.659005 0.875102 0.000000
0.702594 0.875399 0.000000
0.745914 0.875697 0.000000
0.788984 0.875995 0.000000
0.831820 0.876292 0.000000
0.874436 0.876590 0.000000
0.916846 0.876887 0.000000
0.959060 0.877185 0.000000
1.000000 0.877483 0.000000
1.000000 0.877780 0.000000
1.000000 0.878078 0.000000
1.000000 0.878375 0.000000
1.000000 0.878673 0.000000
1.000000 0.878970 0.000000
1.000000 0.879268 0.000000
1.000000 0.879565 0.000000
1.000000 0.879863 0.000000
0.000000 0.903244 0.000000
0.000000 0.903541 0.000000
0.000000 0.903837 0.000000
0.038582 0.904134 0.000000
0.093764 0.904431 0.000000
0.145664 0.904727 0.000000
0.195735 0.905024 0.000000
0.244543 0.905321 0.000000
0.292387 0.905617 0.000000
0.339458 0.905914 0.000000
0.385883 0.906210 0.000000
0.431754 0.906507 0.000000
0.477142 0.906804 0.000000
0.522102 0.907100 0.000000
0.566677 0.907397 0.000000
0.610904 0.907693 0.000000
0.654812 0.907990 0.000000
0.698428 0.908286 0.000000
0.741773 0.908583 0.000000
0.784866 0.908880 0.000000
0.827724 0.909176 0.000000
0.870361 0.909473 0.000000
0.912789 0.909769 0.000000
0.955022 0.910066 0.000000
0.997068 0.910362 0.000000
1.000000 0.910658 0.000000
1.000000 0.910955 0.000000
1.000000 0.911251 0.000000
1.000000 0.911548 0.000000
1.000000 0.911844 0.000000
1.000000 0.912141 0.000000
1.000000 0.912437 0.000000
1.000000 0.912733 0.000000
0.000000 0.936030 0.000000
0.000000 0.936326 0.000000
0.000000 0.936622 0.000000
0.032972 0.936917 0.000000
0.088656 0.937213 0.000000
0.140781 0.937508 0.000000
0.190997 0.937804 0.000000
0.239910 0.938100 0.000000
0.287838 0.938395 0.000000
0.334976 0.938691 0.000000
0.381459 0.938986 0.000000
0.427379 0.939282 0.000000
0.472811 0.939577 0.000000
0.517810 0.939873 0.000000
0.562420 0.940168 0.000000
0.606679 0.940464 0.000000
0.650617 0.940759 0.000000
0.694260 0.941055 0.000000
0.737630 0.941350 0.000000
0.780746 0.941646 0.000000
0.823626 0.941941 0.000000
0.866283 0.942237 0.000000
0.908732 0.942532 0.000000
0.950982 0.942828 0.000000
0.993046 0.943123 0.000000
