presets/film_stocks/Fuji_C200.cube
# 独寻胶片模拟 -- Fuji C200
# Fujifilm, ISO 200, 2017, negative
TITLE "Fuji C200"
LUT_3D_SIZE 9
DOMAIN_MIN 0.0 0.0 0.0
DOMAIN_MAX 1.0 1.0 1.0
0.000000 0.000000 0.000000
0.172438 0.005307 0.000000
0.320191 0.009855 0.000000
0.459868 0.014154 0.000000
0.594546 0.018299 0.000000
0.725625 0.022334 0.000000
0.853905 0.026282 0.000000
0.979904 0.030160 0.000000
1.000000 0.033979 0.000000
0.000000 0.166310 0.000000
0.166108 0.169440 0.000000
0.314321 0.172564 0.000000
0.454250 0.175681 0.000000
0.589099 0.178792 0.000000
0.720308 0.181896 0.000000
0.848691 0.184993 0.000000
0.974776 0.188085 0.000000
1.000000 0.191170 0.000000
0.000000 0.308812 0.000000
0.159750 0.311720 0.000000
0.308438 0.314625 0.000000
0.448623 0.317527 0.000000
0.583647 0.320426 0.000000
0.714986 0.323321 0.000000
0.843473 0.326214 0.000000
0.969644 0.329103 0.000000
1.000000 0.331989 0.000000
0.000000 0.443525 0.000000
0.153361 0.446310 0.000000
0.302542 0.449093 0.000000
0.442988 0.451874 0.000000
0.578188 0.454654 0.000000
0.709659 0.457430 0.000000
0.838252 0.460205 0.000000
0.964510 0.462978 0.000000
1.000000 0.465749 0.000000
0.000000 0.573417 0.000000
0.146940 0.576118 0.000000
0.296631 0.578817 0.000000
0.437345 0.581515 0.000000
0.572723 0.584212 0.000000
0.704327 0.586907 0.000000
0.833026 0.589600 0.000000
0.959371 0.592292 0.000000
1.000000 0.594982 0.000000
0.000000 0.699838 0.000000
0.140485 0.702475 0.000000
0.290707 0.705111 0.000000
0.431693 0.707746 0.000000
0.567252 0.710380 0.000000
0.698991 0.713012 0.000000
0.827796 0.715644 0.000000
0.954230 0.718274 0.000000
1.000000 0.720903 0.000000
0.000000 0.823559 0.000000
0.133994 0.826146 0.000000
0.284768 0.828731 0.000000
0.426031 0.831316 0.000000
0.561774 0.833899 0.000000
0.693650 0.836482 0.000000
0.822563 0.839063 0.000000
0.949085 0.841644 0.000000
1.000000 0.844223 0.000000
0.000000 0.945081 0.000000
0.127466 0.947625 0.000000
0.278814 0.950168 0.000000
0.420361 0.952710 0.000000
0.556291 0.955252 0.000000
0.688303 0.957793 0.000000
0.817325 0.960333 0.000000
0.943937 0.962872 0.000000
1.000000 0.965410 0.000000
0.000000 1.000000 0.000000
0.120897 1.000000 0.000000
0.272845 1.000000 0.000000
0.414682 1.000000 0.000000
0.550800 1.000000 0.000000
0.682952 1.000000 0.000000
0.812084 1.000000 0.000000
0.938786 1.000000 0.000000
1.000000 1.000000 0.000000
0.000000 0.000000 0.163638
0.162571 0.000000 0.158815
0.311047 0.000000 0.153974
0.451118 0.000000 0.149115
0.586064 0.000000 0.144236
0.717345 0.004277 0.139338
0.845786 0.008905 0.134419
0.971919 0.013246 0.129479
1.000000 0.017420 0.124515
0.000000 0.153034 0.161029
0.156196 0.156196 0.156196
0.305156 0.159350 0.151345
0.445486 0.162497 0.146476
0.580608 0.165636 0.141587
0.712020 0.168769 0.136678
0.840566 0.171894 0.131747
0.966785 0.175012 0.126794
1.000000 0.178124 0.121818
0.000000 0.296517 0.158414
0.149789 0.299440 0.153572
0.299252 0.302359 0.148711
0.439847 0.305274 0.143831
0.575146 0.308187 0.138931
0.706691 0.311096 0.134011
0.835342 0.314002 0.129068
0.961649 0.316904 0.124103
1.000000 0.319804 0.119114
0.000000 0.431763 0.155795
0.143350 0.434557 0.150942
0.293334 0.437349 0.146071
0.434198 0.440139 0.141181
0.569677 0.442927 0.136270
0.701356 0.445712 0.131337
0.830114 0.448496 0.126383
0.956509 0.451277 0.121405
1.000000 0.454057 0.116402
0.000000 0.562016 0.153170
0.136875 0.564724 0.148307
0.287402 0.567430 0.143426
0.428541 0.570134 0.138524
0.564203 0.572837 0.133602
0.696017 0.575538 0.128658
0.824882 0.578238 0.123690
0.951365 0.580936 0.118699
1.000000 0.583633 0.113682
0.000000 0.688709 0.150539
0.130364 0.691352 0.145667
0.281455 0.693993 0.140775
0.422875 0.696633 0.135862
0.558721 0.699271 0.130928
0.690673 0.701909 0.125971
0.819647 0.704545 0.120991
0.946219 0.707180 0.115986
1.000000 0.709814 0.110955
0.000000 0.812648 0.147904
0.123813 0.815238 0.143020
0.275492 0.817828 0.138117
0.417200 0.820416 0.133193
0.553234 0.823004 0.128247
0.685324 0.825590 0.123278
0.814407 0.828176 0.118284
0.941069 0.830761 0.113265
1.000000 0.833344 0.108220
0.000000 0.934349 0.145262
0.117220 0.936897 0.140368
0.269515 0.939443 0.135454
0.411515 0.941989 0.130518
0.547740 0.944534 0.125559
0.679970 0.947078 0.120577
0.809163 0.949622 0.115570
0.935915 0.952164 0.110537
1.000000 0.954706 0.105476
0.000000 1.000000 0.142615
0.110582 1.000000 0.137710
0.263521 1.000000 0.132784
0.405821 1.000000 0.127836
0.542239 1.000000 0.122865
0.674611 1.000000 0.117869
0.803915 1.000000 0.112848
0.930759 1.000000 0.107800
1.000000 1.000000 0.102724
0.000000 0.000000 0.303851
0.152632 0.000000 0.299377
0.301870 0.000000 0.294895
0.442347 0.000000 0.290405
0.577567 0.000000 0.285906
0.709053 0.000000 0.281399
0.837658 0.000000 0.276883
0.963925 0.000000 0.272359
1.000000 0.000000 0.267825
0.000000 0.139619 0.301430
0.146207 0.142815 0.296951
0.295958 0.146003 0.292465
0.436702 0.149183 0.287970
0.572101 0.152354 0.283467
0.703721 0.155518 0.278955
0.832431 0.158673 0.274435
0.958787 0.161822 0.269905
1.000000 0.164963 0.265367
0.000000 0.284161 0.299006
0.139749 0.287099 0.294523
0.290032 0.290032 0.290032
0.431049 0.292963 0.285533
0.566629 0.295889 0.281025
0.698384 0.298812 0.276509
0.827201 0.301732 0.271983
0.953645 0.304649 0.267449
1.000000 0.307562 0.262905
0.000000 0.419962 0.296580
0.133254 0.422765 0.292093
0.284092 0.425567 0.287597
0.425387 0.428366 0.283093
0.561151 0.431163 0.278581
0.693042 0.433957 0.274060
0.821967 0.436750 0.269530
0.948500 0.439540 0.264990
1.000000 0.442328 0.260441
0.000000 0.550588 0.294151
0.126721 0.553302 0.289660
0.278136 0.556015 0.285160
0.419716 0.558726 0.280651
0.555666 0.561435 0.276134
0.687695 0.564143 0.271608
0.816729 0.566849 0.267073
0.943351 0.569553 0.262528
1.000000 0.572257 0.257975
0.000000 0.677559 0.291720
0.120147 0.680207 0.287224
0.272165 0.682853 0.282720
0.414035 0.685498 0.278207
0.550175 0.688142 0.273685
0.682343 0.690784 0.269154
0.811487 0.693426 0.264614
0.938199 0.696066 0.260064
1.000000 0.698705 0.255505
0.000000 0.801719 0.289287
0.113529 0.804313 0.284787
0.266179 0.806907 0.280277
0.408345 0.809500 0.275759
0.544677 0.812091 0.271233
0.676986 0.814682 0.266697
0.806241 0.817272 0.262151
0.933044 0.819861 0.257597
1.000000 0.822448 0.253032
0.000000 0.923603 0.286851
0.106865 0.926154 0.282346
0.260176 0.928704 0.277832
0.402646 0.931253 0.273309
0.539173 0.933802 0.268778
0.671624 0.936350 0.264237
0.800991 0.938897 0.259687
0.927885 0.941443 0.255127
1.000000 0.943988 0.250557
0.000000 1.000000 0.284413
0.100151 1.000000 0.279903
0.254156 1.000000 0.275385
0.396937 1.000000 0.270857
0.533662 1.000000 0.266320
0.666257 1.000000 0.261774
0.795736 1.000000 0.257219
0.922723 1.000000 0.252654
1.000000 1.000000 0.248079
0.000000 0.000000 0.436400
0.142615 0.000000 0.432118
0.292660 0.000000 0.427830
0.433555 0.000000 0.423537
0.569055 0.000000 0.419239
0.700749 0.000000 0.414936
0.829519 0.000000 0.410628
0.955924 0.000000 0.406313
1.000000 0.000000 0.401994
0.000000 0.126047 0.434082
0.136136 0.129282 0.429797
0.286726 0.132508 0.425507
0.427897 0.135724 0.421211
0.563579 0.138931 0.416910
0.695410 0.142129 0.412604
0.824287 0.145319 0.408292
0.950780 0.148500 0.403975
1.000000 0.151674 0.399653
0.000000 0.271740 0.431763
0.129620 0.274693 0.427475
0.280777 0.277643 0.423181
0.422230 0.280588 0.418883
0.558098 0.283530 0.414579
0.690065 0.286468 0.410270
0.819051 0.289403 0.405956
0.945633 0.292334 0.401636
1.000000 0.295261 0.397310
0.000000 0.408121 0.429442
0.123065 0.410934 0.425151
0.274813 0.413745 0.420855
0.416553 0.416553 0.416553
0.552609 0.419360 0.412247
0.684715 0.422164 0.407935
0.813811 0.424965 0.403617
0.940483 0.427765 0.399294
1.000000 0.430562 0.394966
0.000000 0.539131 0.427119
0.116467 0.541852 0.422825
0.268834 0.544571 0.418527
0.410868 0.547289 0.414222
0.547114 0.550005 0.409913
0.679361 0.552719 0.405598
0.808566 0.555432 0.401277
0.935329 0.558143 0.396951
1.000000 0.560853 0.392619
0.000000 0.666387 0.424795
0.109824 0.669040 0.420499
0.262838 0.671691 0.416197
0.405173 0.674341 0.411890
0.541613 0.676990 0.407577
0.674001 0.679638 0.403259
0.803318 0.682285 0.398936
0.930172 0.684930 0.394607
1.000000 0.687574 0.390272
0.000000 0.790772 0.422469
0.103133 0.793371 0.418170
0.256826 0.795969 0.413865
0.399468 0.798565 0.409555
0.536105 0.801161 0.405240
0.668636 0.803756 0.400919
0.798065 0.806350 0.396592
0.925011 0.808943 0.392260
1.000000 0.811535 0.387922
0.000000 0.912841 0.420142
0.096389 0.915396 0.415840
0.250797 0.917950 0.411532
0.393753 0.920503 0.407220
0.530590 0.923055 0.402901
0.663266 0.925606 0.398577
0.792809 0.928156 0.394248
0.919847 0.930706 0.389912
1.000000 0.933255 0.385571
0.000000 1.000000 0.417813
0.089588 1.000000 0.413508
0.244751 1.000000 0.409198
0.388029 1.000000 0.404882
0.525068 1.000000 0.400561
0.657891 1.000000 0.396234
0.787548 1.000000 0.391901
0.914680 1.000000 0.387562
1.000000 1.000000 0.383218
0.000000 0.000000 0.564206
0.132513 0.000000 0.560054
0.283415 0.000000 0.555898
0.424742 0.000000 0.551739
0.560528 0.000000 0.547576
0.692434 0.000000 0.543409
0.821372 0.000000 0.539238
0.947914 0.000000 0.535064
1.000000 0.000000 0.530885
0.000000 0.112296 0.561958
0.125975 0.115576 0.557804
0.277458 0.118845 0.553647
0.419070 0.122103 0.549485
0.555042 0.125351 0.545320
0.687087 0.128588 0.541151
0.816133 0.131816 0.536978
0.942765 0.135034 0.532802
1.000000 0.138243 0.528621
0.000000 0.259251 0.559710
0.119396 0.262221 0.555554
0.271485 0.265186 0.551394
0.413388 0.268148 0.547231
0.549550 0.271106 0.543063
0.681734 0.274060 0.538892
0.810891 0.277010 0.534717
0.937613 0.279956 0.530539
1.000000 0.282899 0.526356
0.000000 0.396239 0.557460
0.112774 0.399062 0.553302
0.265497 0.401883 0.549140
0.407698 0.404701 0.544975
0.544052 0.407517 0.540806
0.676377 0.410330 0.536632
0.805644 0.413142 0.532455
0.932457 0.415951 0.528274
1.000000 0.418757 0.524089
0.000000 0.527645 0.555209
0.106104 0.530373 0.551049
0.259492 0.533099 0.546885
0.401997 0.535824 0.542718
0.538547 0.538547 0.538547
0.671014 0.541268 0.534371
0.800393 0.543987 0.530192
0.927298 0.546705 0.526009
1.000000 0.549422 0.521822
0.000000 0.655192 0.552957
0.099384 0.657850 0.548795
0.253471 0.660507 0.544629
0.396287 0.663163 0.540460
0.533035 0.665817 0.536286
0.665647 0.668470 0.532109
0.795139 0.671122 0.527928
0.922136 0.673772 0.523742
1.000000 0.676422 0.519553
0.000000 0.779806 0.550704
0.092609 0.782410 0.546540
0.247432 0.785012 0.542372
0.390567 0.787613 0.538201
0.527516 0.790213 0.534025
0.660274 0.792813 0.529846
0.789880 0.795411 0.525662
0.916970 0.798008 0.521475
1.000000 0.800604 0.517283
0.000000 0.902065 0.548450
0.085774 0.904623 0.544284
0.241376 0.907180 0.540114
0.384837 0.909737 0.535940
0.521990 0.912293 0.531763
0.654896 0.914847 0.527581
0.784616 0.917401 0.523395
0.911800 0.919954 0.519206
1.000000 0.922507 0.515012
0.000000 1.000000 0.546195
0.078872 1.000000 0.542027
0.235301 1.000000 0.537855
0.379096 1.000000 0.533679
0.516457 1.000000 0.529499
0.649512 1.000000 0.525315
0.779349 1.000000 0.521127
0.906627 1.000000 0.516936
1.000000 1.000000 0.512740
0.000000 0.000000 0.688596
0.122317 0.000000 0.684542
0.274134 0.000000 0.680486
0.415907 0.000000 0.676427
0.551985 0.000000 0.672365
0.684107 0.000000 0.668299
0.813214 0.000000 0.664231
0.939897 0.000000 0.660160
1.000000 0.000000 0.656086
0.000000 0.098341 0.686401
0.115714 0.101672 0.682346
0.268152 0.104991 0.678288
0.410221 0.108297 0.674228
0.546489 0.111591 0.670164
0.678751 0.114873 0.666097
0.807970 0.118144 0.662027
0.934743 0.121404 0.657955
1.000000 0.124654 0.653879
0.000000 0.246689 0.684206
0.109066 0.249676 0.680150
0.262155 0.252659 0.676090
0.404524 0.255638 0.672028
0.540987 0.258613 0.667962
0.673391 0.261583 0.663894
0.802721 0.264550 0.659823
0.929585 0.267512 0.655748
1.000000 0.270471 0.651671
0.000000 0.384314 0.682010
0.102369 0.387147 0.677952
0.256141 0.389978 0.673891
0.398818 0.392807 0.669827
0.535478 0.395633 0.665760
0.668026 0.398456 0.661690
0.797468 0.401277 0.657617
0.924424 0.404096 0.653541
1.000000 0.406912 0.649462
0.000000 0.516128 0.679813
0.095618 0.518864 0.675754
0.250110 0.521597 0.671691
0.393103 0.524329 0.667625
0.529962 0.527059 0.663557
0.662655 0.529787 0.659485
0.792211 0.532514 0.655411
0.919259 0.535239 0.651333
1.000000 0.537962 0.647252
0.000000 0.643974 0.677616
0.088810 0.646638 0.673554
0.244062 0.649300 0.669490
0.387377 0.651961 0.665423
0.524440 0.654621 0.661353
0.657279 0.657279 0.657279
0.786949 0.659937 0.653203
0.914092 0.662592 0.649124
1.000000 0.665247 0.645041
0.000000 0.768823 0.675417
0.081939 0.771430 0.671354
0.237995 0.774037 0.667288
0.381641 0.776643 0.663219
0.518910 0.779247 0.659148
0.651898 0.781851 0.655073
0.781684 0.784453 0.650995
0.908920 0.787055 0.646914
1.000000 0.789655 0.642830
0.000000 0.891272 0.673218
0.074998 0.893834 0.669153
0.231910 0.896395 0.665086
0.375895 0.898956 0.661015
0.513373 0.901515 0.656942
0.646512 0.904074 0.652865
0.776414 0.906631 0.648786
0.903745 0.909188 0.644703
1.000000 0.911744 0.640617
0.000000 1.000000 0.671017
0.067979 1.000000 0.666951
0.225806 1.000000 0.662882
0.370138 1.000000 0.658810
0.507829 1.000000 0.654735
0.641120 1.000000 0.650657
0.771140 1.000000 0.646576
0.898567 1.000000 0.642491
1.000000 1.000000 0.638404
0.000000 0.000000 0.810330
0.112018 0.000000 0.806355
0.264815 0.000000 0.802378
0.407050 0.000000 0.798398
0.543426 0.000000 0.794417
0.675767 0.000000 0.790432
0.805047 0.000000 0.786445
0.931871 0.000000 0.782456
1.000000 0.000000 0.778465
0.000000 0.084142 0.808178
0.105343 0.087535 0.804202
0.258808 0.090913 0.800224
0.401348 0.094275 0.796243
0.537920 0.097623 0.792260
0.670404 0.100958 0.788274
0.799796 0.104279 0.784286
0.926711 0.107588 0.780295
1.000000 0.110884 0.776303
0.000000 0.234050 0.806026
0.098616 0.237056 0.802048
0.252785 0.240057 0.798069
0.395637 0.243054 0.794086
0.532407 0.246047 0.790102
0.665036 0.249035 0.786115
0.794541 0.252019 0.782126
0.921548 0.254999 0.778134
1.000000 0.257974 0.774140
0.000000 0.372344 0.803872
0.091835 0.375188 0.799894
0.246744 0.378030 0.795913
0.389916 0.380869 0.791929
0.526888 0.383705 0.787944
0.659662 0.386539 0.783955
0.789281 0.389371 0.779965
0.916382 0.392199 0.775971
1.000000 0.395026 0.771976
0.000000 0.504581 0.801719
0.084992 0.507324 0.797739
0.240686 0.510064 0.793756
0.384184 0.512804 0.789772
0.521361 0.515541 0.785784
0.654283 0.518276 0.781795
0.784017 0.521010 0.777803
0.911212 0.523742 0.773808
1.000000 0.526473 0.769811
0.000000 0.632733 0.799564
0.078083 0.635402 0.795583
0.234609 0.638070 0.791599
0.378443 0.640737 0.787613
0.515828 0.643402 0.783625
0.648899 0.646066 0.779634
0.778749 0.648729 0.775640
0.906039 0.651390 0.771645
1.000000 0.654050 0.767646
0.000000 0.757820 0.797409
0.071099 0.760432 0.793426
0.228513 0.763043 0.789441
0.372691 0.765653 0.785454
0.510287 0.768262 0.781464
0.643510 0.770870 0.777472
0.773477 0.773477 0.773477
0.900862 0.776083 0.769480
1.000000 0.778688 0.765480
0.000000 0.880465 0.795253
0.064032 0.883030 0.791269
0.222398 0.885595 0.787283
0.366928 0.888159 0.783294
0.504739 0.890722 0.779303
0.638115 0.893284 0.775309
0.768201 0.895846 0.771313
0.895681 0.898406 0.767315
1.000000 0.900966 0.763314
0.000000 1.000000 0.793096
0.056870 1.000000 0.789111
0.216262 1.000000 0.785123
0.361154 1.000000 0.781133
0.499184 1.000000 0.777141
0.632715 1.000000 0.773146
0.762920 1.000000 0.769149
0.890497 1.000000 0.765149
1.000000 1.000000 0.761147
0.000000 0.000000 0.929899
0.101604 0.000000 0.925990
0.255456 0.000000 0.922078
0.398169 0.000000 0.918164
0.534851 0.000000 0.914249
0.667415 0.000000 0.910331
0.796870 0.000000 0.906412
0.923837 0.000000 0.902490
1.000000 0.000000 0.898567
0.000000 0.069648 0.927783
0.094847 0.073117 0.923872
0.249423 0.076567 0.919959
0.392452 0.079998 0.916045
0.529334 0.083411 0.912128
0.662044 0.086808 0.908209
0.791612 0.090189 0.904289
0.918672 0.093554 0.900366
1.000000 0.096906 0.896441
0.000000 0.221328 0.925665
0.088032 0.224354 0.921754
0.243373 0.227375 0.917840
0.386725 0.230392 0.913924
0.523811 0.233404 0.910007
0.656668 0.236411 0.906087
0.786350 0.239413 0.902165
0.913503 0.242411 0.898241
1.000000 0.245405 0.894316
0.000000 0.360328 0.923548
0.081153 0.363184 0.919635
0.237304 0.366036 0.915720
0.380988 0.368886 0.911803
0.518280 0.371733 0.907885
0.651286 0.374578 0.903964
0.781084 0.377420 0.900041
0.908332 0.380259 0.896116
1.000000 0.383096 0.892189
0.000000 0.493002 0.921429
0.074204 0.495752 0.917516
0.231217 0.498501 0.913600
0.375241 0.501247 0.909682
0.512743 0.503992 0.905762
0.645899 0.506735 0.901840
0.775814 0.509476 0.897916
0.903156 0.512215 0.893990
1.000000 0.514953 0.890062
0.000000 0.621468 0.919311
0.067175 0.624143 0.915396
0.225110 0.626816 0.911479
0.369483 0.629488 0.907560
0.507198 0.632159 0.903639
0.640507 0.634829 0.899716
0.770539 0.637497 0.895791
0.897977 0.640164 0.891864
1.000000 0.642830 0.887934
0.000000 0.746798 0.917191
0.060056 0.749415 0.913275
0.218984 0.752031 0.909357
0.363714 0.754645 0.905437
0.501646 0.757259 0.901515
0.635109 0.759871 0.897591
0.765261 0.762483 0.893665
0.892795 0.765093 0.889736
1.000000 0.767702 0.885806
0.000000 0.869641 0.915071
0.052835 0.872210 0.911154
0.212837 0.874779 0.907235
0.357934 0.877347 0.903314
0.496087 0.879913 0.899391
0.629705 0.882479 0.895465
0.759977 0.885044 0.891538
0.887609 0.887609 0.887609
1.000000 0.890172 0.883677
0.000000 0.990428 0.912951
0.045493 0.992958 0.909032
0.206668 0.995487 0.905112
0.352143 0.998015 0.901190
0.490520 1.000000 0.897266
0.624296 1.000000 0.893339
0.754689 1.000000 0.889411
0.882419 1.000000 0.885480
1.000000 1.000000 0.881548
0.000000 0.000000 1.000000
0.091060 0.000000 1.000000
0.246056 0.000000 1.000000
0.389264 0.000000 1.000000
0.526259 0.000000 1.000000
0.659051 0.000000 1.000000
0.788683 0.000000 1.000000
0.915794 0.000000 1.000000
1.000000 0.000000 1.000000
0.000000 0.054780 1.000000
0.084210 0.058347 1.000000
0.239995 0.061888 1.000000
0.383532 0.065406 1.000000
0.520732 0.068900 1.000000
0.653671 0.072374 1.000000
0.783418 0.075828 1.000000
0.910624 0.079262 1.000000
1.000000 0.082680 1.000000
0.000000 0.208518 1.000000
0.077292 0.211565 1.000000
0.233917 0.214608 1.000000
0.377789 0.217645 1.000000
0.515198 0.220677 1.000000
0.648287 0.223705 1.000000
0.778150 0.226727 1.000000
0.905450 0.229744 1.000000
1.000000 0.232757 1.000000
0.000000 0.348264 1.000000
0.070300 0.351131 1.000000
0.227819 0.353995 1.000000
0.372036 0.356856 1.000000
0.509656 0.359715 1.000000
0.642897 0.362571 1.000000
0.772877 0.365424 1.000000
0.900273 0.368274 1.000000
1.000000 0.371122 1.000000
0.000000 0.481390 1.000000
0.063223 0.484148 1.000000
0.221701 0.486904 1.000000
0.366272 0.489659 1.000000
0.504107 0.492411 1.000000
0.637501 0.495162 1.000000
0.767600 0.497911 1.000000
0.895092 0.500658 1.000000
1.000000 0.503403 1.000000
0.000000 0.610178 1.000000
0.056049 0.612859 1.000000
0.215563 0.615538 1.000000
0.360497 0.618216 1.000000
0.498551 0.620893 1.000000
0.632100 0.623568 1.000000
0.762319 0.626242 1.000000
0.889907 0.628915 1.000000
1.000000 0.631586 1.000000
0.000000 0.735756 1.000000
0.048763 0.738378 1.000000
0.209404 0.740998 1.000000
0.354711 0.743618 1.000000
0.492988 0.746236 1.000000
0.626694 0.748853 1.000000
0.757033 0.751469 1.000000
0.884719 0.754084 1.000000
1.000000 0.756698 1.000000
0.000000 0.858801 1.000000
0.041343 0.861374 1.000000
0.203223 0.863947 1.000000
0.348914 0.866518 1.000000
0.487417 0.869089 1.000000
0.621282 0.871659 1.000000
0.751743 0.874227 1.000000
0.879527 0.876795 1.000000
1.000000 0.879362 1.000000
0.000000 0.979757 1.000000
0.033759 0.982290 1.000000
0.197020 0.984822 1.000000
0.343105 0.987354 1.000000
0.481838 0.989885 1.000000
0.615864 0.992415 1.000000
0.746448 0.994944 1.000000
0.874332 0.997472 1.000000
1.000000 1.000000 1.000000
