presets/film_stocks/Fuji_Eterna-CP_3523XD.cube
# 独寻胶片模拟 -- Fuji Eterna-CP 3523XD
# Fujifilm, ISO 0, 2010, negative
TITLE "Fuji Eterna-CP 3523XD"
LUT_3D_SIZE 9
DOMAIN_MIN 0.0 0.0 0.0
DOMAIN_MAX 1.0 1.0 1.0
0.000000 0.000000 0.000000
0.275264 0.002067 0.000000
0.502938 0.003777 0.000000
0.715545 0.005374 0.000000
0.918924 0.006901 0.000000
1.000000 0.008379 0.000000
1.000000 0.009819 0.000000
1.000000 0.011227 0.000000
1.000000 0.012609 0.000000
0.000000 0.181370 0.000000
0.239325 0.182288 0.000000
0.470278 0.183206 0.000000
0.684620 0.184123 0.000000
0.889162 0.185039 0.000000
1.000000 0.185955 0.000000
1.000000 0.186870 0.000000
1.000000 0.187784 0.000000
1.000000 0.188698 0.000000
0.000000 0.331383 0.000000
0.202555 0.332222 0.000000
0.437274 0.333061 0.000000
0.653484 0.333899 0.000000
0.859251 0.334738 0.000000
1.000000 0.335576 0.000000
1.000000 0.336413 0.000000
1.000000 0.337250 0.000000
1.000000 0.338087 0.000000
0.000000 0.471468 0.000000
0.164748 0.472264 0.000000
0.403892 0.473060 0.000000
0.622124 0.473856 0.000000
0.829182 0.474651 0.000000
1.000000 0.475447 0.000000
1.000000 0.476242 0.000000
1.000000 0.477036 0.000000
1.000000 0.477831 0.000000
0.000000 0.605473 0.000000
0.125576 0.606240 0.000000
0.370091 0.607007 0.000000
0.590525 0.607773 0.000000
0.798949 0.608539 0.000000
0.999420 0.609305 0.000000
1.000000 0.610071 0.000000
1.000000 0.610837 0.000000
1.000000 0.611603 0.000000
0.000000 0.735131 0.000000
0.084437 0.735875 0.000000
0.335818 0.736620 0.000000
0.558670 0.737365 0.000000
0.768544 0.738109 0.000000
0.970038 0.738853 0.000000
1.000000 0.739597 0.000000
1.000000 0.740342 0.000000
1.000000 0.741086 0.000000
0.000000 0.861426 0.000000
0.039841 0.862153 0.000000
0.301012 0.862880 0.000000
0.526539 0.863607 0.000000
0.737957 0.864334 0.000000
0.940522 0.865061 0.000000
1.000000 0.865788 0.000000
1.000000 0.866514 0.000000
1.000000 0.867241 0.000000
0.000000 0.984991 0.000000
0.000000 0.985704 0.000000
0.265590 0.986417 0.000000
0.494112 0.987129 0.000000
0.707178 0.987842 0.000000
0.910866 0.988554 0.000000
1.000000 0.989267 0.000000
1.000000 0.989979 0.000000
1.000000 0.990691 0.000000
0.000000 1.000000 0.000000
0.000000 1.000000 0.000000
0.229442 1.000000 0.000000
0.461362 1.000000 0.000000
0.676197 1.000000 0.000000
0.881065 1.000000 0.000000
1.000000 1.000000 0.000000
1.000000 1.000000 0.000000
1.000000 1.000000 0.000000
0.000000 0.000000 0.166964
0.201779 0.000000 0.165947
0.436583 0.000000 0.164928
0.652834 0.000000 0.163908
0.858626 0.000000 0.162888
1.000000 0.000000 0.161866
1.000000 0.000000 0.160844
1.000000 0.000000 0.159820
1.000000 0.000000 0.158795
0.000000 0.163014 0.164967
0.163947 0.163947 0.163947
0.403193 0.164880 0.162927
0.621468 0.165811 0.161905
0.828555 0.166742 0.160883
1.000000 0.167672 0.159859
1.000000 0.168602 0.158835
1.000000 0.169530 0.157809
1.000000 0.170458 0.156783
0.000000 0.314681 0.162966
0.124743 0.315527 0.161944
0.369382 0.316372 0.160922
0.589864 0.317217 0.159898
0.798318 0.318062 0.158874
0.998810 0.318906 0.157849
1.000000 0.319750 0.156822
1.000000 0.320594 0.155795
1.000000 0.321437 0.154766
0.000000 0.455648 0.160961
0.083552 0.456448 0.159938
0.335099 0.457248 0.158913
0.558003 0.458047 0.157888
0.767909 0.458847 0.156861
0.969425 0.459646 0.155834
1.000000 0.460445 0.154806
1.000000 0.461244 0.153776
1.000000 0.462043 0.152746
0.000000 0.590245 0.158952
0.038849 0.591014 0.157927
0.300281 0.591784 0.156901
0.525867 0.592553 0.155873
0.737318 0.593323 0.154845
0.939906 0.594092 0.153816
1.000000 0.594861 0.152785
1.000000 0.595629 0.151754
1.000000 0.596398 0.150721
0.000000 0.720345 0.156940
0.000000 0.721092 0.155913
0.264845 0.721839 0.154884
0.493434 0.722585 0.153855
0.706535 0.723332 0.152825
0.910247 0.724079 0.151793
1.000000 0.724825 0.150761
1.000000 0.725572 0.149727
1.000000 0.726318 0.148693
0.000000 0.846991 0.154924
0.000000 0.847720 0.153894
0.228681 0.848449 0.152864
0.460677 0.849178 0.151833
0.675550 0.849907 0.150800
0.880443 0.850635 0.149767
1.000000 0.851364 0.148732
1.000000 0.852093 0.147696
1.000000 0.852821 0.146660
0.000000 0.970846 0.152904
0.000000 0.971561 0.151872
0.191632 0.972275 0.150840
0.427566 0.972989 0.149806
0.644350 0.973703 0.148772
0.850486 0.974417 0.147736
1.000000 0.975131 0.146699
1.000000 0.975845 0.145662
1.000000 0.976559 0.144623
0.000000 1.000000 0.150879
0.000000 1.000000 0.149846
0.153469 1.000000 0.148811
0.394066 1.000000 0.147776
0.612921 1.000000 0.146739
0.820371 1.000000 0.145701
1.000000 1.000000 0.144662
1.000000 1.000000 0.143622
1.000000 1.000000 0.142581
0.000000 0.000000 0.305063
0.123908 0.000000 0.304133
0.368673 0.000000 0.303203
0.589203 0.000000 0.302273
0.797687 0.000000 0.301342
0.998199 0.000000 0.300411
1.000000 0.000000 0.299479
1.000000 0.000000 0.298547
1.000000 0.000000 0.297614
0.000000 0.144342 0.303239
0.082666 0.145293 0.302308
0.334380 0.146242 0.301378
0.557337 0.147191 0.300446
0.767274 0.148138 0.299514
0.968812 0.149085 0.298582
1.000000 0.150031 0.297650
1.000000 0.150976 0.296717
1.000000 0.151920 0.295783
0.000000 0.297845 0.301413
0.037853 0.298698 0.300482
0.299550 0.299550 0.299550
0.525195 0.300402 0.298618
0.736679 0.301254 0.297685
0.939290 0.302105 0.296752
1.000000 0.302956 0.295819
1.000000 0.303807 0.294885
1.000000 0.304657 0.293951
0.000000 0.439744 0.299586
0.000000 0.440548 0.298654
0.264100 0.441352 0.297721
0.492755 0.442156 0.296788
0.705892 0.442960 0.295855
0.909628 0.443764 0.294921
1.000000 0.444567 0.293986
1.000000 0.445370 0.293052
1.000000 0.446173 0.292117
0.000000 0.574957 0.297757
0.000000 0.575730 0.296824
0.227919 0.576503 0.295890
0.459991 0.577275 0.294957
0.674902 0.578047 0.294022
0.879821 0.578819 0.293088
1.000000 0.579591 0.292152
1.000000 0.580363 0.291217
1.000000 0.581135 0.290281
0.000000 0.705513 0.295926
0.000000 0.706263 0.294992
0.190850 0.707012 0.294058
0.426873 0.707761 0.293123
0.643698 0.708510 0.292188
0.849861 0.709259 0.291252
1.000000 0.710008 0.290316
1.000000 0.710756 0.289380
1.000000 0.711505 0.288443
0.000000 0.832519 0.294094
0.000000 0.833250 0.293159
0.152660 0.833981 0.292224
0.393364 0.834712 0.291288
0.612264 0.835443 0.290352
0.819742 0.836173 0.289416
1.000000 0.836904 0.288479
1.000000 0.837634 0.287541
1.000000 0.838364 0.286603
0.000000 0.956671 0.292260
0.000000 0.957387 0.291324
0.112959 0.958102 0.290388
0.359421 0.958818 0.289452
0.580587 0.959534 0.288515
0.789456 0.960249 0.287577
0.990242 0.960965 0.286639
1.000000 0.961680 0.285701
1.000000 0.962396 0.284762
0.000000 1.000000 0.290424
0.000000 1.000000 0.289487
0.070981 1.000000 0.288550
0.324990 1.000000 0.287613
0.548648 1.000000 0.286675
0.758994 1.000000 0.285737
0.960819 1.000000 0.284798
1.000000 1.000000 0.283859
1.000000 1.000000 0.282919
0.000000 0.000000 0.434022
0.036854 0.000000 0.433141
0.298819 0.000000 0.432259
0.524523 0.000000 0.431377
0.736040 0.000000 0.430494
0.938674 0.000000 0.429611
1.000000 0.000000 0.428728
1.000000 0.000000 0.427845
1.000000 0.000000 0.426962
0.000000 0.125300 0.432293
0.000000 0.126271 0.431410
0.263355 0.127240 0.430528
0.492076 0.128209 0.429645
0.705249 0.129176 0.428762
0.909009 0.130142 0.427879
1.000000 0.131107 0.426995
1.000000 0.132071 0.426112
1.000000 0.133034 0.425228
0.000000 0.280865 0.430562
0.000000 0.281725 0.429679
0.227157 0.282585 0.428796
0.459305 0.283445 0.427913
0.674255 0.284304 0.427029
0.879199 0.285163 0.426146
1.000000 0.286021 0.425261
1.000000 0.286879 0.424377
1.000000 0.287736 0.423492
0.000000 0.423753 0.428830
0.000000 0.424562 0.427947
0.190067 0.425371 0.427063
0.426179 0.426179 0.426179
0.643045 0.426988 0.425295
0.849235 0.427795 0.424411
1.000000 0.428603 0.423526
1.000000 0.429411 0.422641
1.000000 0.430218 0.421756
0.000000 0.559609 0.427097
0.000000 0.560384 0.426213
0.151850 0.561160 0.425329
0.392662 0.561936 0.424445
0.611607 0.562711 0.423560
0.819113 0.563486 0.422675
1.000000 0.564261 0.421790
1.000000 0.565036 0.420905
1.000000 0.565811 0.420019
0.000000 0.690635 0.425363
0.000000 0.691387 0.424479
0.112112 0.692138 0.423594
0.358710 0.692890 0.422709
0.579924 0.693641 0.421824
0.788823 0.694392 0.420939
0.989631 0.695144 0.420053
1.000000 0.695895 0.419167
1.000000 0.696645 0.418281
0.000000 0.818010 0.423628
0.000000 0.818743 0.422743
0.070073 0.819475 0.421858
0.324267 0.820208 0.420973
0.547980 0.820941 0.420087
0.758358 0.821673 0.419201
0.960204 0.822406 0.418315
1.000000 0.823138 0.417428
1.000000 0.823870 0.416541
0.000000 0.942463 0.421892
0.000000 0.943181 0.421006
0.023395 0.943898 0.420121
0.289266 0.944616 0.419235
0.515753 0.945333 0.418349
0.727708 0.946050 0.417462
0.930642 0.946767 0.416575
1.000000 0.947484 0.415688
1.000000 0.948201 0.414801
0.000000 1.000000 0.420155
0.000000 1.000000 0.419269
0.000000 1.000000 0.418382
0.253615 1.000000 0.417496
0.483221 1.000000 0.416609
0.696863 1.000000 0.415722
0.900939 1.000000 0.414835
1.000000 1.000000 0.413947
1.000000 1.000000 0.413059
0.000000 0.000000 0.557384
0.000000 0.000000 0.556535
0.226394 0.000000 0.555686
0.458619 0.000000 0.554836
0.673607 0.000000 0.553986
0.878576 0.000000 0.553136
1.000000 0.000000 0.552286
1.000000 0.000000 0.551436
1.000000 0.000000 0.550585
0.000000 0.105811 0.555718
0.000000 0.106806 0.554869
0.189284 0.107800 0.554019
0.425486 0.108793 0.553169
0.642393 0.109785 0.552319
0.848610 0.110774 0.551468
1.000000 0.111763 0.550618
1.000000 0.112751 0.549767
1.000000 0.113737 0.548916
0.000000 0.263730 0.554051
0.000000 0.264598 0.553201
0.151040 0.265466 0.552351
0.391960 0.266334 0.551501
0.610950 0.267201 0.550651
0.818484 0.268068 0.549800
1.000000 0.268934 0.548949
1.000000 0.269800 0.548098
1.000000 0.270665 0.547247
0.000000 0.407672 0.552384
0.000000 0.408486 0.551534
0.111264 0.409299 0.550683
0.357998 0.410112 0.549832
0.579262 0.410925 0.548982
0.788191 0.411737 0.548130
0.989019 0.412550 0.547279
1.000000 0.413362 0.546428
1.000000 0.414174 0.545576
0.000000 0.544196 0.550716
0.000000 0.544975 0.549865
0.069162 0.545754 0.549014
0.323544 0.546533 0.548163
0.547312 0.547312 0.547312
0.757722 0.548090 0.546460
0.959590 0.548868 0.545609
1.000000 0.549647 0.544757
1.000000 0.550425 0.543905
0.000000 0.675708 0.549047
0.000000 0.676462 0.548196
0.022319 0.677216 0.547344
0.288530 0.677970 0.546493
0.515079 0.678724 0.545641
0.727068 0.679478 0.544789
0.930025 0.680232 0.543937
1.000000 0.680985 0.543085
1.000000 0.681738 0.542233
0.000000 0.803461 0.547377
0.000000 0.804196 0.546525
0.000000 0.804931 0.545674
0.252865 0.805666 0.544822
0.482541 0.806400 0.543970
0.696219 0.807135 0.543118
0.900319 0.807869 0.542265
1.000000 0.808604 0.541413
1.000000 0.809338 0.540560
0.000000 0.928224 0.545706
0.000000 0.928943 0.544855
0.000000 0.929662 0.544003
0.216426 0.930381 0.543150
0.449669 0.931100 0.542298
0.665163 0.931819 0.541445
0.870464 0.932537 0.540592
1.000000 0.933256 0.539739
1.000000 0.933975 0.538886
0.000000 1.000000 0.544035
0.000000 1.000000 0.543183
0.000000 1.000000 0.542331
0.179037 1.000000 0.541478
0.416433 1.000000 0.540625
0.633889 1.000000 0.539772
0.840455 1.000000 0.538919
1.000000 1.000000 0.538065
1.000000 1.000000 0.537212
0.000000 0.000000 0.676743
0.000000 0.000000 0.675919
0.150229 0.000000 0.675094
0.391257 0.000000 0.674269
0.610293 0.000000 0.673443
0.817855 0.000000 0.672618
1.000000 0.000000 0.671793
1.000000 0.000000 0.670967
1.000000 0.000000 0.670141
0.000000 0.085764 0.675125
0.000000 0.086791 0.674300
0.110415 0.087817 0.673475
0.357286 0.088840 0.672650
0.578600 0.089862 0.671824
0.787558 0.090882 0.670999
0.988408 0.091900 0.670173
1.000000 0.092917 0.669347
1.000000 0.093932 0.668521
0.000000 0.246426 0.673507
0.000000 0.247303 0.672681
0.068250 0.248180 0.671856
0.322821 0.249056 0.671030
0.546644 0.249932 0.670204
0.757085 0.250807 0.669378
0.958976 0.251682 0.668552
1.000000 0.252557 0.667726
1.000000 0.253431 0.666900
0.000000 0.391495 0.671887
0.000000 0.392313 0.671062
0.021235 0.393132 0.670236
0.287795 0.393950 0.669410
0.514405 0.394767 0.668584
0.726428 0.395585 0.667758
0.929408 0.396402 0.666931
1.000000 0.397219 0.666105
1.000000 0.398036 0.665278
0.000000 0.528718 0.670268
0.000000 0.529501 0.669442
0.000000 0.530283 0.668616
0.252115 0.531065 0.667789
0.481860 0.531847 0.666963
0.695574 0.532629 0.666136
0.899699 0.533411 0.665310
1.000000 0.534192 0.664483
1.000000 0.534973 0.663656
0.000000 0.660732 0.668647
0.000000 0.661489 0.667821
0.000000 0.662245 0.666994
0.215658 0.663002 0.666168
0.448981 0.663758 0.665341
0.664514 0.664514 0.664514
0.869841 0.665270 0.663687
1.000000 0.666026 0.662860
1.000000 0.666782 0.662033
0.000000 0.788874 0.667026
0.000000 0.789610 0.666200
0.000000 0.790347 0.665373
0.178246 0.791084 0.664546
0.415737 0.791821 0.663719
0.633235 0.792557 0.662892
0.839829 0.793294 0.662064
1.000000 0.794030 0.661237
1.000000 0.794766 0.660409
0.000000 0.913951 0.665405
0.000000 0.914672 0.664578
0.000000 0.915393 0.663751
0.139606 0.916114 0.662923
0.382089 0.916834 0.662096
0.601722 0.917555 0.661269
0.809655 0.918275 0.660441
1.000000 0.918995 0.659613
1.000000 0.919716 0.658785
0.000000 1.000000 0.663782
0.000000 1.000000 0.662955
0.000000 1.000000 0.662128
0.099263 1.000000 0.661300
0.347990 1.000000 0.660473
0.569959 1.000000 0.659645
0.779311 1.000000 0.658817
0.980439 1.000000 0.657989
1.000000 1.000000 0.657161
0.000000 0.000000 0.793008
0.000000 0.000000 0.792202
0.067336 0.000000 0.791397
0.322098 0.000000 0.790591
0.545975 0.000000 0.789785
0.756449 0.000000 0.788979
0.958362 0.000000 0.788173
1.000000 0.000000 0.787367
1.000000 0.000000 0.786561
0.000000 0.064980 0.791428
0.000000 0.066050 0.790622
0.020143 0.067118 0.789816
0.287059 0.068183 0.789010
0.513730 0.069246 0.788204
0.725787 0.070306 0.787398
0.928791 0.071364 0.786592
1.000000 0.072420 0.785786
1.000000 0.073473 0.784979
0.000000 0.228937 0.789847
0.000000 0.229824 0.789041
0.000000 0.230711 0.788235
0.251364 0.231596 0.787429
0.481179 0.232482 0.786623
0.694930 0.233367 0.785817
0.899078 0.234251 0.785010
1.000000 0.235135 0.784203
1.000000 0.236019 0.783397
0.000000 0.375217 0.788266
0.000000 0.376040 0.787460
0.000000 0.376864 0.786654
0.214889 0.377687 0.785847
0.448293 0.378510 0.785041
0.663865 0.379333 0.784234
0.869218 0.380155 0.783428
1.000000 0.380977 0.782621
1.000000 0.381799 0.781814
0.000000 0.513172 0.786685
0.000000 0.513958 0.785878
0.000000 0.514744 0.785072
0.177455 0.515530 0.784265
0.415041 0.516315 0.783459
0.632581 0.517100 0.782652
0.839202 0.517885 0.781845
1.000000 0.518670 0.781038
1.000000 0.519455 0.780230
0.000000 0.645704 0.785103
0.000000 0.646464 0.784296
0.000000 0.647223 0.783489
0.138786 0.647982 0.782683
0.381384 0.648741 0.781876
0.601063 0.649500 0.781069
0.809025 0.650259 0.780261
1.000000 0.651017 0.779454
1.000000 0.651776 0.778647
0.000000 0.774245 0.783520
0.000000 0.774984 0.782713
0.000000 0.775723 0.781907
0.098399 0.776462 0.781099
0.347274 0.777200 0.780292
0.569295 0.777939 0.779485
0.778677 0.778677 0.778677
0.979826 0.779416 0.777870
1.000000 0.780154 0.777062
0.000000 0.899645 0.781937
0.000000 0.900368 0.781130
0.000000 0.901090 0.780323
0.055248 0.901813 0.779516
0.312654 0.902535 0.778708
0.537259 0.903257 0.777901
0.748152 0.903979 0.777093
0.950355 0.904701 0.776285
1.000000 0.905423 0.775477
0.000000 1.000000 0.780354
0.000000 1.000000 0.779547
0.000000 1.000000 0.778739
0.004636 1.000000 0.777932
0.277447 1.000000 0.777124
0.504933 1.000000 0.776316
0.717438 1.000000 0.775508
0.920747 1.000000 0.774700
1.000000 1.000000 0.773892
0.000000 0.000000 0.906759
0.000000 0.000000 0.905970
0.000000 0.000000 0.905180
0.250613 0.000000 0.904391
0.480497 0.000000 0.903601
0.694285 0.000000 0.902811
0.898458 0.000000 0.902022
1.000000 0.000000 0.901232
1.000000 0.000000 0.900442
0.000000 0.043122 0.905211
0.000000 0.044260 0.904421
0.000000 0.045393 0.903631
0.214120 0.046522 0.902842
0.447604 0.047646 0.902052
0.663216 0.048767 0.901262
0.868594 0.049884 0.900472
1.000000 0.050998 0.899682
1.000000 0.052107 0.898891
0.000000 0.211245 0.903662
0.000000 0.212143 0.902872
0.000000 0.213040 0.902082
0.176664 0.213937 0.901292
0.414344 0.214833 0.900502
0.631927 0.215728 0.899712
0.838575 0.216623 0.898922
1.000000 0.217518 0.898131
1.000000 0.218412 0.897341
0.000000 0.358832 0.902112
0.000000 0.359661 0.901322
0.000000 0.360490 0.900532
0.137965 0.361319 0.899742
0.380678 0.362147 0.898952
0.600404 0.362975 0.898162
0.808395 0.363803 0.897371
1.000000 0.364631 0.896581
1.000000 0.365458 0.895790
0.000000 0.497555 0.900563
0.000000 0.498345 0.899772
0.000000 0.499134 0.898982
0.097534 0.499923 0.898192
0.346559 0.500712 0.897401
0.568631 0.501501 0.896611
0.778044 0.502290 0.895820
0.979214 0.503079 0.895029
1.000000 0.503867 0.894239
0.000000 0.630624 0.899012
0.000000 0.631386 0.898222
0.000000 0.632148 0.897432
0.054304 0.632910 0.896641
0.311927 0.633672 0.895850
0.536589 0.634433 0.895060
0.747514 0.635195 0.894269
0.949740 0.635956 0.893478
1.000000 0.636717 0.892687
0.000000 0.759575 0.897462
0.000000 0.760316 0.896671
0.000000 0.761057 0.895881
0.003234 0.761798 0.895090
0.276707 0.762539 0.894299
0.504257 0.763280 0.893508
0.716796 0.764020 0.892717
0.920129 0.764761 0.891926
1.000000 0.765501 0.891135
0.000000 0.885305 0.895911
0.000000 0.886030 0.895120
0.000000 0.886754 0.894329
0.000000 0.887478 0.893538
0.240799 0.888202 0.892747
0.471611 0.888926 0.891956
0.685880 0.889650 0.891165
0.890373 0.890373 0.890373
1.000000 0.891097 0.889582
0.000000 1.000000 0.894360
0.000000 1.000000 0.893569
0.000000 1.000000 0.892778
0.000000 1.000000 0.891986
0.204066 1.000000 0.891195
0.438621 1.000000 0.890404
0.654752 1.000000 0.889612
0.860468 1.000000 0.888821
1.000000 1.000000 0.888029
0.000000 0.000000 1.000000
0.000000 0.000000 1.000000
0.000000 0.000000 1.000000
0.175872 0.000000 1.000000
0.413647 0.000000 1.000000
0.631273 0.000000 1.000000
0.837949 0.000000 1.000000
1.000000 0.000000 1.000000
1.000000 0.000000 1.000000
0.000000 0.019334 1.000000
0.000000 0.020614 1.000000
0.000000 0.021881 1.000000
0.137143 0.023137 1.000000
0.379973 0.024384 1.000000
0.599745 0.025621 1.000000
0.807764 0.026849 1.000000
1.000000 0.028068 1.000000
1.000000 0.029280 1.000000
0.000000 0.193329 1.000000
0.000000 0.194238 1.000000
0.000000 0.195147 1.000000
0.096668 0.196056 1.000000
0.345843 0.196964 1.000000
0.567966 0.197871 1.000000
0.777410 0.198777 1.000000
0.978602 0.199683 1.000000
1.000000 0.200589 1.000000
0.000000 0.342334 1.000000
0.000000 0.343169 1.000000
0.000000 0.344004 1.000000
0.053358 0.344838 1.000000
0.311200 0.345673 1.000000
0.535919 0.346507 1.000000
0.746876 0.347340 1.000000
0.949125 0.348173 1.000000
1.000000 0.349007 1.000000
0.000000 0.481864 1.000000
0.000000 0.482657 1.000000
0.000000 0.483451 1.000000
0.001730 0.484244 1.000000
0.275967 0.485036 1.000000
0.503580 0.485829 1.000000
0.716155 0.486622 1.000000
0.919511 0.487414 1.000000
1.000000 0.488206 1.000000
0.000000 0.615490 1.000000
0.000000 0.616255 1.000000
0.000000 0.617020 1.000000
0.000000 0.617784 1.000000
0.240044 0.618549 1.000000
0.470927 0.619313 1.000000
0.685234 0.620077 1.000000
0.889752 0.620841 1.000000
1.000000 0.621605 1.000000
0.000000 0.744862 1.000000
0.000000 0.745606 1.000000
0.000000 0.746349 1.000000
0.000000 0.747092 1.000000
0.203291 0.747835 1.000000
0.437931 0.748578 1.000000
0.654102 0.749321 1.000000
0.859844 0.750063 1.000000
1.000000 0.750806 1.000000
0.000000 0.870930 1.000000
0.000000 0.871656 1.000000
0.000000 0.872382 1.000000
0.000000 0.873108 1.000000
0.165507 0.873834 1.000000
0.404556 0.874560 1.000000
0.622746 0.875285 1.000000
0.829779 0.876011 1.000000
1.000000 0.876736 1.000000
0.000000 0.994308 1.000000
0.000000 0.995020 1.000000
0.000000 0.995731 1.000000
0.000000 0.996443 1.000000
0.126367 0.997154 1.000000
0.370763 0.997866 1.000000
0.591152 0.998577 1.000000
0.799549 0.999289 1.000000
1.000000 1.000000 1.000000
