presets/film_stocks/Fuji_C200.cube
# 独寻胶片模拟 -- Fuji C200
# Fujifilm, ISO 200, 2017, negative
TITLE "Fuji C200"
LUT_3D_SIZE 33
DOMAIN_MIN 0.0 0.0 0.0
DOMAIN_MAX 1.0 1.0 1.0
0.000000 0.000000 0.000000
0.050012 0.001539 0.000000
0.092866 0.002858 0.000000
0.133377 0.004105 0.000000
0.172438 0.005307 0.000000
0.210455 0.006478 0.000000
0.247660 0.007623 0.000000
0.284204 0.008747 0.000000
0.320191 0.009855 0.000000
0.355697 0.010948 0.000000
0.390783 0.012028 0.000000
0.425494 0.013096 0.000000
0.459868 0.014154 0.000000
0.493936 0.015203 0.000000
0.527724 0.016243 0.000000
0.561254 0.017275 0.000000
0.594546 0.018299 0.000000
0.627615 0.019317 0.000000
0.660476 0.020329 0.000000
0.693143 0.021334 0.000000
0.725625 0.022334 0.000000
0.757934 0.023328 0.000000
0.790078 0.024318 0.000000
0.822066 0.025302 0.000000
0.853905 0.026282 0.000000
0.885603 0.027258 0.000000
0.917165 0.028229 0.000000
0.948597 0.029197 0.000000
0.979904 0.030160 0.000000
1.000000 0.031120 0.000000
1.000000 0.032077 0.000000
1.000000 0.033030 0.000000
1.000000 0.033979 0.000000
0.000000 0.048235 0.000000
0.048177 0.049143 0.000000
0.091163 0.050049 0.000000
0.131747 0.050953 0.000000
0.170858 0.051855 0.000000
0.208913 0.052756 0.000000
0.246148 0.053654 0.000000
0.282717 0.054551 0.000000
0.318724 0.055446 0.000000
0.354250 0.056339 0.000000
0.389351 0.057230 0.000000
0.424077 0.058120 0.000000
0.458464 0.059008 0.000000
0.492544 0.059895 0.000000
0.526343 0.060779 0.000000
0.559884 0.061663 0.000000
0.593185 0.062545 0.000000
0.626263 0.063425 0.000000
0.659132 0.064304 0.000000
0.691806 0.065182 0.000000
0.724296 0.066058 0.000000
0.756612 0.066932 0.000000
0.788763 0.067806 0.000000
0.820757 0.068678 0.000000
0.852602 0.069548 0.000000
0.884305 0.070418 0.000000
0.915873 0.071286 0.000000
0.947310 0.072153 0.000000
0.978623 0.073018 0.000000
1.000000 0.073882 0.000000
1.000000 0.074746 0.000000
1.000000 0.075607 0.000000
1.000000 0.076468 0.000000
0.000000 0.089565 0.000000
0.046333 0.090409 0.000000
0.089457 0.091251 0.000000
0.130115 0.092093 0.000000
0.169276 0.092934 0.000000
0.207369 0.093774 0.000000
0.244635 0.094613 0.000000
0.281228 0.095451 0.000000
0.317257 0.096288 0.000000
0.352801 0.097124 0.000000
0.387919 0.097959 0.000000
0.422659 0.098794 0.000000
0.457060 0.099628 0.000000
0.491152 0.100460 0.000000
0.524962 0.101292 0.000000
0.558513 0.102124 0.000000
0.591823 0.102954 0.000000
0.624910 0.103784 0.000000
0.657788 0.104612 0.000000
0.690470 0.105440 0.000000
0.722967 0.106268 0.000000
0.755290 0.107094 0.000000
0.787447 0.107920 0.000000
0.819448 0.108745 0.000000
0.851299 0.109569 0.000000
0.883008 0.110392 0.000000
0.914581 0.111215 0.000000
0.946023 0.112037 0.000000
0.977341 0.112858 0.000000
1.000000 0.113679 0.000000
1.000000 0.114499 0.000000
1.000000 0.115318 0.000000
1.000000 0.116136 0.000000
0.000000 0.128637 0.000000
0.044480 0.129444 0.000000
0.087747 0.130252 0.000000
0.128481 0.131058 0.000000
0.167693 0.131864 0.000000
0.205824 0.132670 0.000000
0.243120 0.133474 0.000000
0.279739 0.134279 0.000000
0.315790 0.135082 0.000000
0.351352 0.135885 0.000000
0.386486 0.136688 0.000000
0.421241 0.137490 0.000000
0.455655 0.138291 0.000000
0.489759 0.139092 0.000000
0.523581 0.139892 0.000000
0.557142 0.140692 0.000000
0.590462 0.141491 0.000000
0.623557 0.142290 0.000000
0.656443 0.143088 0.000000
0.689133 0.143886 0.000000
0.721637 0.144683 0.000000
0.753967 0.145479 0.000000
0.786131 0.146275 0.000000
0.818138 0.147071 0.000000
0.849995 0.147866 0.000000
0.881710 0.148660 0.000000
0.913288 0.149454 0.000000
0.944736 0.150248 0.000000
0.976058 0.151041 0.000000
1.000000 0.151833 0.000000
1.000000 0.152625 0.000000
1.000000 0.153416 0.000000
1.000000 0.154207 0.000000
0.000000 0.166310 0.000000
0.042617 0.167093 0.000000
0.086033 0.167876 0.000000
0.126844 0.168658 0.000000
0.166108 0.169440 0.000000
0.204278 0.170222 0.000000
0.241604 0.171003 0.000000
0.278249 0.171784 0.000000
0.314321 0.172564 0.000000
0.349902 0.173344 0.000000
0.385053 0.174124 0.000000
0.419823 0.174903 0.000000
0.454250 0.175681 0.000000
0.488366 0.176459 0.000000
0.522199 0.177237 0.000000
0.555770 0.178015 0.000000
0.589099 0.178792 0.000000
0.622204 0.179568 0.000000
0.655099 0.180345 0.000000
0.687796 0.181120 0.000000
0.720308 0.181896 0.000000
0.752644 0.182671 0.000000
0.784815 0.183445 0.000000
0.816828 0.184220 0.000000
0.848691 0.184993 0.000000
0.880412 0.185767 0.000000
0.911995 0.186540 0.000000
0.943448 0.187313 0.000000
0.974776 0.188085 0.000000
1.000000 0.188857 0.000000
1.000000 0.189628 0.000000
1.000000 0.190399 0.000000
1.000000 0.191170 0.000000
0.000000 0.202976 0.000000
0.040745 0.203741 0.000000
0.084314 0.204505 0.000000
0.125205 0.205269 0.000000
0.164521 0.206033 0.000000
0.202730 0.206797 0.000000
0.240088 0.207560 0.000000
0.276758 0.208323 0.000000
0.312851 0.209085 0.000000
0.348451 0.209847 0.000000
0.383619 0.210609 0.000000
0.418403 0.211371 0.000000
0.452844 0.212132 0.000000
0.486972 0.212893 0.000000
0.520816 0.213653 0.000000
0.554398 0.214414 0.000000
0.587737 0.215173 0.000000
0.620850 0.215933 0.000000
0.653753 0.216692 0.000000
0.686458 0.217451 0.000000
0.718978 0.218210 0.000000
0.751321 0.218968 0.000000
0.783499 0.219726 0.000000
0.815518 0.220484 0.000000
0.847387 0.221241 0.000000
0.879113 0.221998 0.000000
0.910703 0.222755 0.000000
0.942161 0.223511 0.000000
0.973493 0.224267 0.000000
1.000000 0.225023 0.000000
1.000000 0.225779 0.000000
1.000000 0.226534 0.000000
1.000000 0.227289 0.000000
0.000000 0.238859 0.000000
0.038863 0.239609 0.000000
0.082592 0.240359 0.000000
0.123563 0.241108 0.000000
0.162933 0.241858 0.000000
0.201181 0.242607 0.000000
0.238570 0.243355 0.000000
0.275265 0.244104 0.000000
0.311381 0.244852 0.000000
0.347000 0.245600 0.000000
0.382184 0.246348 0.000000
0.416984 0.247095 0.000000
0.451438 0.247842 0.000000
0.485578 0.248589 0.000000
0.519433 0.249335 0.000000
0.553025 0.250082 0.000000
0.586374 0.250828 0.000000
0.619496 0.251573 0.000000
0.652408 0.252319 0.000000
0.685121 0.253064 0.000000
0.717647 0.253809 0.000000
0.749998 0.254554 0.000000
0.782182 0.255298 0.000000
0.814208 0.256042 0.000000
0.846083 0.256786 0.000000
0.877815 0.257530 0.000000
0.909409 0.258273 0.000000
0.940873 0.259016 0.000000
0.972211 0.259759 0.000000
1.000000 0.260502 0.000000
1.000000 0.261244 0.000000
1.000000 0.261986 0.000000
1.000000 0.262728 0.000000
0.000000 0.274104 0.000000
0.036969 0.274842 0.000000
0.080865 0.275579 0.000000
0.121918 0.276317 0.000000
0.161342 0.277054 0.000000
0.199630 0.277791 0.000000
0.237051 0.278528 0.000000
0.273772 0.279264 0.000000
0.309910 0.280000 0.000000
0.345548 0.280736 0.000000
0.380749 0.281472 0.000000
0.415563 0.282207 0.000000
0.450031 0.282943 0.000000
0.484184 0.283678 0.000000
0.518050 0.284413 0.000000
0.551652 0.285147 0.000000
0.585011 0.285882 0.000000
0.618142 0.286616 0.000000
0.651062 0.287350 0.000000
0.683783 0.288083 0.000000
0.716317 0.288817 0.000000
0.748674 0.289550 0.000000
0.780865 0.290283 0.000000
0.812897 0.291016 0.000000
0.844778 0.291749 0.000000
0.876516 0.292481 0.000000
0.908116 0.293213 0.000000
0.939585 0.293945 0.000000
0.970928 0.294677 0.000000
1.000000 0.295408 0.000000
1.000000 0.296139 0.000000
1.000000 0.296870 0.000000
1.000000 0.297601 0.000000
0.000000 0.308812 0.000000
0.035064 0.309539 0.000000
0.079134 0.310266 0.000000
0.120271 0.310993 0.000000
0.159750 0.311720 0.000000
0.198078 0.312447 0.000000
0.235531 0.313173 0.000000
0.272278 0.313899 0.000000
0.308438 0.314625 0.000000
0.344095 0.315351 0.000000
0.379313 0.316077 0.000000
0.414142 0.316802 0.000000
0.448623 0.317527 0.000000
0.482789 0.318252 0.000000
0.516666 0.318977 0.000000
0.550279 0.319701 0.000000
0.583647 0.320426 0.000000
0.616787 0.321150 0.000000
0.649715 0.321874 0.000000
0.682444 0.322598 0.000000
0.714986 0.323321 0.000000
0.747350 0.324045 0.000000
0.779548 0.324768 0.000000
0.811586 0.325491 0.000000
0.843473 0.326214 0.000000
0.875217 0.326936 0.000000
0.906823 0.327659 0.000000
0.938297 0.328381 0.000000
0.969644 0.329103 0.000000
1.000000 0.329825 0.000000
1.000000 0.330547 0.000000
1.000000 0.331268 0.000000
1.000000 0.331989 0.000000
0.000000 0.343057 0.000000
0.033146 0.343775 0.000000
0.077398 0.344493 0.000000
0.118621 0.345211 0.000000
0.158156 0.345929 0.000000
0.196525 0.346646 0.000000
0.234009 0.347364 0.000000
0.270783 0.348081 0.000000
0.306965 0.348798 0.000000
0.342641 0.349515 0.000000
0.377876 0.350231 0.000000
0.412721 0.350948 0.000000
0.447215 0.351664 0.000000
0.481393 0.352380 0.000000
0.515282 0.353096 0.000000
0.548905 0.353812 0.000000
0.582283 0.354528 0.000000
0.615432 0.355243 0.000000
0.648369 0.355958 0.000000
0.681105 0.356674 0.000000
0.713654 0.357388 0.000000
0.746026 0.358103 0.000000
0.778230 0.358818 0.000000
0.810275 0.359532 0.000000
0.842168 0.360247 0.000000
0.873917 0.360961 0.000000
0.905529 0.361675 0.000000
0.937008 0.362388 0.000000
0.968361 0.363102 0.000000
0.999593 0.363815 0.000000
1.000000 0.364528 0.000000
1.000000 0.365242 0.000000
1.000000 0.365954 0.000000
0.000000 0.376895 0.000000
0.031215 0.377605 0.000000
0.075658 0.378316 0.000000
0.116969 0.379025 0.000000
0.156559 0.379735 0.000000
0.194970 0.380445 0.000000
0.232487 0.381154 0.000000
0.269287 0.381863 0.000000
0.305492 0.382573 0.000000
0.341187 0.383282 0.000000
0.376439 0.383990 0.000000
0.411299 0.384699 0.000000
0.445807 0.385407 0.000000
0.479997 0.386116 0.000000
0.513897 0.386824 0.000000
0.547531 0.387532 0.000000
0.580918 0.388240 0.000000
0.614077 0.388948 0.000000
0.647022 0.389655 0.000000
0.679766 0.390362 0.000000
0.712323 0.391070 0.000000
0.744702 0.391777 0.000000
0.776912 0.392484 0.000000
0.808964 0.393191 0.000000
0.840863 0.393897 0.000000
0.872618 0.394604 0.000000
0.904235 0.395310 0.000000
0.935719 0.396016 0.000000
0.967077 0.396722 0.000000
0.998314 0.397428 0.000000
1.000000 0.398134 0.000000
1.000000 0.398839 0.000000
1.000000 0.399545 0.000000
0.000000 0.410373 0.000000
0.029269 0.411076 0.000000
0.073912 0.411779 0.000000
0.115313 0.412481 0.000000
0.154961 0.413184 0.000000
0.193413 0.413886 0.000000
0.230963 0.414589 0.000000
0.267790 0.415291 0.000000
0.304017 0.415993 0.000000
0.339732 0.416695 0.000000
0.375001 0.417396 0.000000
0.409876 0.418098 0.000000
0.444398 0.418799 0.000000
0.478601 0.419501 0.000000
0.512512 0.420202 0.000000
0.546156 0.420903 0.000000
0.579553 0.421604 0.000000
0.612721 0.422305 0.000000
0.645674 0.423005 0.000000
0.678427 0.423706 0.000000
0.710991 0.424406 0.000000
0.743377 0.425106 0.000000
0.775594 0.425806 0.000000
0.807652 0.426506 0.000000
0.839558 0.427206 0.000000
0.871318 0.427905 0.000000
0.902941 0.428605 0.000000
0.934430 0.429304 0.000000
0.965794 0.430004 0.000000
0.997035 0.430703 0.000000
1.000000 0.431402 0.000000
1.000000 0.432100 0.000000
1.000000 0.432799 0.000000
0.000000 0.443525 0.000000
0.027308 0.444222 0.000000
0.072162 0.444918 0.000000
0.113655 0.445614 0.000000
0.153361 0.446310 0.000000
0.191855 0.447006 0.000000
0.229438 0.447702 0.000000
0.266292 0.448398 0.000000
0.302542 0.449093 0.000000
0.338276 0.449789 0.000000
0.373563 0.450484 0.000000
0.408453 0.451179 0.000000
0.442988 0.451874 0.000000
0.477204 0.452569 0.000000
0.511126 0.453264 0.000000
0.544781 0.453959 0.000000
0.578188 0.454654 0.000000
0.611365 0.455348 0.000000
0.644327 0.456042 0.000000
0.677087 0.456736 0.000000
0.709659 0.457430 0.000000
0.742052 0.458124 0.000000
0.774276 0.458818 0.000000
0.806340 0.459512 0.000000
0.838252 0.460205 0.000000
0.870018 0.460899 0.000000
0.901646 0.461592 0.000000
0.933141 0.462285 0.000000
0.964510 0.462978 0.000000
0.995756 0.463671 0.000000
1.000000 0.464364 0.000000
1.000000 0.465057 0.000000
1.000000 0.465749 0.000000
0.000000 0.476382 0.000000
0.025330 0.477073 0.000000
0.070407 0.477763 0.000000
0.111993 0.478454 0.000000
0.151759 0.479144 0.000000
0.190296 0.479834 0.000000
0.227911 0.480524 0.000000
0.264793 0.481214 0.000000
0.301065 0.481904 0.000000
0.336820 0.482593 0.000000
0.372123 0.483283 0.000000
0.407029 0.483972 0.000000
0.441578 0.484661 0.000000
0.475806 0.485350 0.000000
0.509740 0.486039 0.000000
0.543406 0.486728 0.000000
0.576822 0.487417 0.000000
0.610008 0.488106 0.000000
0.642979 0.488794 0.000000
0.675747 0.489483 0.000000
0.708326 0.490171 0.000000
0.740727 0.490859 0.000000
0.772958 0.491547 0.000000
0.805028 0.492235 0.000000
0.836946 0.492923 0.000000
0.868718 0.493611 0.000000
0.900351 0.494299 0.000000
0.931852 0.494986 0.000000
0.963225 0.495673 0.000000
0.994476 0.496361 0.000000
1.000000 0.497048 0.000000
1.000000 0.497735 0.000000
1.000000 0.498422 0.000000
0.000000 0.508970 0.000000
0.023333 0.509655 0.000000
0.068646 0.510340 0.000000
0.110329 0.511025 0.000000
0.150155 0.511710 0.000000
0.188735 0.512394 0.000000
0.226384 0.513079 0.000000
0.263293 0.513763 0.000000
0.299588 0.514448 0.000000
0.335362 0.515132 0.000000
0.370683 0.515816 0.000000
0.405604 0.516500 0.000000
0.440168 0.517184 0.000000
0.474408 0.517868 0.000000
0.508354 0.518551 0.000000
0.542030 0.519235 0.000000
0.575456 0.519918 0.000000
0.608651 0.520602 0.000000
0.641630 0.521285 0.000000
0.674407 0.521968 0.000000
0.706994 0.522651 0.000000
0.739401 0.523334 0.000000
0.771639 0.524017 0.000000
0.803716 0.524700 0.000000
0.835639 0.525382 0.000000
0.867418 0.526065 0.000000
0.899057 0.526747 0.000000
0.930562 0.527429 0.000000
0.961941 0.528112 0.000000
0.993197 0.528794 0.000000
1.000000 0.529476 0.000000
1.000000 0.530157 0.000000
1.000000 0.530839 0.000000
0.000000 0.541309 0.000000
0.021315 0.541989 0.000000
0.066880 0.542669 0.000000
0.108662 0.543349 0.000000
0.148548 0.544028 0.000000
0.187172 0.544708 0.000000
0.224855 0.545387 0.000000
0.261791 0.546067 0.000000
0.298110 0.546746 0.000000
0.333904 0.547426 0.000000
0.369243 0.548105 0.000000
0.404179 0.548784 0.000000
0.438757 0.549463 0.000000
0.473009 0.550141 0.000000
0.506967 0.550820 0.000000
0.540654 0.551499 0.000000
0.574090 0.552177 0.000000
0.607294 0.552856 0.000000
0.640282 0.553534 0.000000
0.673067 0.554212 0.000000
0.705661 0.554891 0.000000
0.738075 0.555569 0.000000
0.770320 0.556247 0.000000
0.802403 0.556924 0.000000
0.834333 0.557602 0.000000
0.866117 0.558280 0.000000
0.897761 0.558957 0.000000
0.929273 0.559635 0.000000
0.960656 0.560312 0.000000
0.991917 0.560989 0.000000
1.000000 0.561667 0.000000
1.000000 0.562344 0.000000
1.000000 0.563021 0.000000
0.000000 0.573417 0.000000
0.019274 0.574092 0.000000
0.065108 0.574768 0.000000
0.106992 0.575443 0.000000
0.146940 0.576118 0.000000
0.185608 0.576793 0.000000
0.223325 0.577468 0.000000
0.260289 0.578143 0.000000
0.296631 0.578817 0.000000
0.332446 0.579492 0.000000
0.367802 0.580167 0.000000
0.402754 0.580841 0.000000
0.437345 0.581515 0.000000
0.471610 0.582190 0.000000
0.505580 0.582864 0.000000
0.539277 0.583538 0.000000
0.572723 0.584212 0.000000
0.605937 0.584886 0.000000
0.638933 0.585559 0.000000
0.671726 0.586233 0.000000
0.704327 0.586907 0.000000
0.736749 0.587580 0.000000
0.769000 0.588254 0.000000
0.801090 0.588927 0.000000
0.833026 0.589600 0.000000
0.864816 0.590273 0.000000
0.896466 0.590946 0.000000
0.927983 0.591619 0.000000
0.959371 0.592292 0.000000
0.990637 0.592965 0.000000
1.000000 0.593637 0.000000
1.000000 0.594310 0.000000
1.000000 0.594982 0.000000
0.000000 0.605311 0.000000
0.017206 0.605982 0.000000
0.063331 0.606653 0.000000
0.105318 0.607324 0.000000
0.145329 0.607995 0.000000
0.184042 0.608665 0.000000
0.221794 0.609336 0.000000
0.258786 0.610006 0.000000
0.295152 0.610677 0.000000
0.330986 0.611347 0.000000
0.366360 0.612017 0.000000
0.401327 0.612687 0.000000
0.435933 0.613357 0.000000
0.470211 0.614027 0.000000
0.504192 0.614697 0.000000
0.537900 0.615367 0.000000
0.571356 0.616037 0.000000
0.604579 0.616706 0.000000
0.637583 0.617376 0.000000
0.670384 0.618045 0.000000
0.702994 0.618714 0.000000
0.735423 0.619384 0.000000
0.767681 0.620053 0.000000
0.799777 0.620722 0.000000
0.831719 0.621391 0.000000
0.863515 0.622060 0.000000
0.895171 0.622729 0.000000
0.926692 0.623397 0.000000
0.958086 0.624066 0.000000
0.989357 0.624734 0.000000
1.000000 0.625403 0.000000
1.000000 0.626071 0.000000
1.000000 0.626740 0.000000
0.000000 0.637005 0.000000
0.015109 0.637671 0.000000
0.061547 0.638338 0.000000
0.103642 0.639005 0.000000
0.143717 0.639672 0.000000
0.182475 0.640338 0.000000
0.220262 0.641005 0.000000
0.257282 0.641671 0.000000
0.293671 0.642337 0.000000
0.329526 0.643004 0.000000
0.364917 0.643670 0.000000
0.399900 0.644336 0.000000
0.434520 0.645002 0.000000
0.468811 0.645668 0.000000
0.502804 0.646334 0.000000
0.536522 0.646999 0.000000
0.569988 0.647665 0.000000
0.603220 0.648331 0.000000
0.636234 0.648996 0.000000
0.669043 0.649662 0.000000
0.701660 0.650327 0.000000
0.734096 0.650992 0.000000
0.766361 0.651657 0.000000
0.798463 0.652323 0.000000
0.830412 0.652988 0.000000
0.862213 0.653652 0.000000
0.893875 0.654317 0.000000
0.925402 0.654982 0.000000
0.956801 0.655647 0.000000
0.988077 0.656311 0.000000
1.000000 0.656976 0.000000
1.000000 0.657640 0.000000
1.000000 0.658305 0.000000
0.000000 0.668510 0.000000
0.012975 0.669173 0.000000
0.059758 0.669836 0.000000
0.101962 0.670499 0.000000
0.142102 0.671162 0.000000
0.180906 0.671824 0.000000
0.218728 0.672487 0.000000
0.255777 0.673150 0.000000
0.292190 0.673812 0.000000
0.328064 0.674475 0.000000
0.363474 0.675137 0.000000
0.398473 0.675799 0.000000
0.433106 0.676461 0.000000
0.467410 0.677123 0.000000
0.501415 0.677786 0.000000
0.535144 0.678447 0.000000
0.568620 0.679109 0.000000
0.601862 0.679771 0.000000
0.634884 0.680433 0.000000
0.667701 0.681095 0.000000
0.700326 0.681756 0.000000
0.732769 0.682418 0.000000
0.765040 0.683079 0.000000
0.797150 0.683740 0.000000
0.829104 0.684402 0.000000
0.860912 0.685063 0.000000
0.892579 0.685724 0.000000
0.924111 0.686385 0.000000
0.955516 0.687046 0.000000
0.986796 0.687707 0.000000
1.000000 0.688368 0.000000
1.000000 0.689028 0.000000
1.000000 0.689689 0.000000
0.000000 0.699838 0.000000
0.010799 0.700497 0.000000
0.057962 0.701157 0.000000
0.100278 0.701816 0.000000
0.140485 0.702475 0.000000
0.179336 0.703134 0.000000
0.217193 0.703793 0.000000
0.254270 0.704452 0.000000
0.290707 0.705111 0.000000
0.326603 0.705770 0.000000
0.362030 0.706429 0.000000
0.397045 0.707087 0.000000
0.431693 0.707746 0.000000
0.466009 0.708405 0.000000
0.500026 0.709063 0.000000
0.533766 0.709722 0.000000
0.567252 0.710380 0.000000
0.600502 0.711038 0.000000
0.633533 0.711696 0.000000
0.666359 0.712354 0.000000
0.698991 0.713012 0.000000
0.731441 0.713670 0.000000
0.763720 0.714328 0.000000
0.795836 0.714986 0.000000
0.827796 0.715644 0.000000
0.859610 0.716301 0.000000
0.891282 0.716959 0.000000
0.922821 0.717617 0.000000
0.954230 0.718274 0.000000
0.985516 0.718931 0.000000
1.000000 0.719589 0.000000
1.000000 0.720246 0.000000
1.000000 0.720903 0.000000
0.000000 0.730998 0.000000
0.008568 0.731654 0.000000
0.056159 0.732310 0.000000
0.098592 0.732966 0.000000
0.138866 0.733622 0.000000
0.177763 0.734278 0.000000
0.215657 0.734933 0.000000
0.252763 0.735589 0.000000
0.289224 0.736244 0.000000
0.325140 0.736900 0.000000
0.360585 0.737555 0.000000
0.395616 0.738210 0.000000
0.430278 0.738866 0.000000
0.464608 0.739521 0.000000
0.498636 0.740176 0.000000
0.532387 0.740831 0.000000
0.565883 0.741486 0.000000
0.599143 0.742141 0.000000
0.632183 0.742796 0.000000
0.665016 0.743450 0.000000
0.697656 0.744105 0.000000
0.730114 0.744760 0.000000
0.762399 0.745414 0.000000
0.794521 0.746069 0.000000
0.826488 0.746723 0.000000
0.858308 0.747377 0.000000
0.889986 0.748032 0.000000
0.921530 0.748686 0.000000
0.952944 0.749340 0.000000
0.984235 0.749994 0.000000
1.000000 0.750648 0.000000
1.000000 0.751302 0.000000
1.000000 0.751956 0.000000
0.000000 0.762000 0.000000
0.006263 0.762653 0.000000
0.054349 0.763306 0.000000
0.096902 0.763958 0.000000
0.137244 0.764611 0.000000
0.176189 0.765263 0.000000
0.214119 0.765916 0.000000
0.251254 0.766568 0.000000
0.287739 0.767220 0.000000
0.323676 0.767873 0.000000
0.359139 0.768525 0.000000
0.394187 0.769177 0.000000
0.428863 0.769829 0.000000
0.463206 0.770481 0.000000
0.497246 0.771133 0.000000
0.531008 0.771784 0.000000
0.564514 0.772436 0.000000
0.597783 0.773088 0.000000
0.630831 0.773739 0.000000
0.663673 0.774391 0.000000
0.696321 0.775042 0.000000
0.728786 0.775694 0.000000
0.761078 0.776345 0.000000
0.793207 0.776996 0.000000
0.825180 0.777648 0.000000
0.857005 0.778299 0.000000
0.888689 0.778950 0.000000
0.920238 0.779601 0.000000
0.951658 0.780252 0.000000
0.982954 0.780903 0.000000
1.000000 0.781553 0.000000
1.000000 0.782204 0.000000
1.000000 0.782855 0.000000
0.000000 0.792852 0.000000
0.003850 0.793501 0.000000
0.052532 0.794151 0.000000
0.095208 0.794800 0.000000
0.135620 0.795450 0.000000
0.174614 0.796099 0.000000
0.212580 0.796748 0.000000
0.249745 0.797398 0.000000
0.286254 0.798047 0.000000
0.322212 0.798696 0.000000
0.357693 0.799345 0.000000
0.392757 0.799994 0.000000
0.427448 0.800643 0.000000
0.461803 0.801292 0.000000
0.495855 0.801941 0.000000
0.529628 0.802589 0.000000
0.563144 0.803238 0.000000
0.596423 0.803887 0.000000
0.629480 0.804535 0.000000
0.662330 0.805184 0.000000
0.694985 0.805832 0.000000
0.727458 0.806481 0.000000
0.759757 0.807129 0.000000
0.791892 0.807777 0.000000
0.823872 0.808425 0.000000
0.855703 0.809073 0.000000
0.887392 0.809722 0.000000
0.918947 0.810370 0.000000
0.950372 0.811017 0.000000
0.981672 0.811665 0.000000
1.000000 0.812313 0.000000
1.000000 0.812961 0.000000
1.000000 0.813609 0.000000
0.000000 0.823559 0.000000
0.001216 0.824206 0.000000
0.050707 0.824853 0.000000
0.093511 0.825499 0.000000
0.133994 0.826146 0.000000
0.173037 0.826792 0.000000
0.211040 0.827439 0.000000
0.248234 0.828085 0.000000
0.284768 0.828731 0.000000
0.320747 0.829377 0.000000
0.356247 0.830024 0.000000
0.391326 0.830670 0.000000
0.426031 0.831316 0.000000
0.460400 0.831962 0.000000
0.494464 0.832607 0.000000
0.528248 0.833253 0.000000
0.561774 0.833899 0.000000
0.595062 0.834545 0.000000
0.628128 0.835190 0.000000
0.660986 0.835836 0.000000
0.693650 0.836482 0.000000
0.726129 0.837127 0.000000
0.758435 0.837772 0.000000
0.790577 0.838418 0.000000
0.822563 0.839063 0.000000
0.854400 0.839708 0.000000
0.886095 0.840353 0.000000
0.917655 0.840999 0.000000
0.949085 0.841644 0.000000
0.980391 0.842289 0.000000
1.000000 0.842934 0.000000
1.000000 0.843578 0.000000
1.000000 0.844223 0.000000
0.000000 0.854130 0.000000
0.000000 0.854774 0.000000
0.048874 0.855418 0.000000
0.091810 0.856062 0.000000
0.132366 0.856706 0.000000
0.171458 0.857349 0.000000
0.209498 0.857993 0.000000
0.246722 0.858636 0.000000
0.283281 0.859280 0.000000
0.319281 0.859923 0.000000
0.354799 0.860566 0.000000
0.389895 0.861210 0.000000
0.424615 0.861853 0.000000
0.458997 0.862496 0.000000
0.493072 0.863139 0.000000
0.526867 0.863782 0.000000
0.560404 0.864425 0.000000
0.593701 0.865068 0.000000
0.626776 0.865711 0.000000
0.659643 0.866354 0.000000
0.692314 0.866997 0.000000
0.724800 0.867639 0.000000
0.757114 0.868282 0.000000
0.789262 0.868925 0.000000
0.821254 0.869567 0.000000
0.853097 0.870210 0.000000
0.884798 0.870852 0.000000
0.916363 0.871494 0.000000
0.947798 0.872137 0.000000
0.979109 0.872779 0.000000
1.000000 0.873421 0.000000
1.000000 0.874063 0.000000
1.000000 0.874705 0.000000
0.000000 0.884571 0.000000
0.000000 0.885212 0.000000
0.047034 0.885853 0.000000
0.090105 0.886494 0.000000
0.130735 0.887135 0.000000
0.169877 0.887776 0.000000
0.207955 0.888417 0.000000
0.245209 0.889058 0.000000
0.281793 0.889698 0.000000
0.317814 0.890339 0.000000
0.353351 0.890980 0.000000
0.388463 0.891620 0.000000
0.423197 0.892261 0.000000
0.457593 0.892901 0.000000
0.491680 0.893542 0.000000
0.525486 0.894182 0.000000
0.559033 0.894823 0.000000
0.592340 0.895463 0.000000
0.625424 0.896103 0.000000
0.658298 0.896743 0.000000
0.690977 0.897383 0.000000
0.723471 0.898023 0.000000
0.755791 0.898663 0.000000
0.787946 0.899303 0.000000
0.819945 0.899943 0.000000
