presets/film_stocks/Fujiflex_Crystal_Archive_Old_Version.cube
# 独寻胶片模拟 -- Fujiflex Crystal Archive Old Version
# Fujifilm, ISO 0, 0, negative
TITLE "Fujiflex Crystal Archive Old Version"
LUT_3D_SIZE 5
DOMAIN_MIN 0.0 0.0 0.0
DOMAIN_MAX 1.0 1.0 1.0
0.000000 0.000000 0.000000
0.458224 0.004067 0.000000
0.837227 0.007430 0.000000
1.000000 0.010572 0.000000
1.000000 0.013576 0.000000
0.000000 0.328306 0.000000
0.403912 0.330136 0.000000
0.787844 0.331964 0.000000
1.000000 0.333790 0.000000
1.000000 0.335615 0.000000
0.000000 0.599853 0.000000
0.348477 0.601524 0.000000
0.737992 0.603195 0.000000
1.000000 0.604865 0.000000
1.000000 0.606535 0.000000
0.000000 0.853429 0.000000
0.291680 0.855015 0.000000
0.687630 0.856600 0.000000
1.000000 0.858185 0.000000
1.000000 0.859769 0.000000
0.000000 1.000000 0.000000
0.233159 1.000000 0.000000
0.636707 1.000000 0.000000
1.000000 1.000000 0.000000
1.000000 1.000000 0.000000
0.000000 0.000000 0.305747
0.356143 0.000000 0.303522
0.744849 0.000000 0.301295
1.000000 0.000000 0.299065
1.000000 0.000000 0.296833
0.000000 0.297694 0.301779
0.299550 0.299550 0.299550
0.694559 0.301405 0.297318
1.000000 0.303258 0.295084
1.000000 0.305109 0.292847
0.000000 0.571989 0.297804
0.241294 0.573672 0.295570
0.643716 0.575355 0.293334
1.000000 0.577037 0.291095
1.000000 0.578719 0.288854
0.000000 0.827032 0.293820
0.180819 0.828625 0.291582
0.592263 0.830218 0.289341
0.960853 0.831810 0.287097
1.000000 0.833402 0.284851
0.000000 1.000000 0.289828
0.117063 1.000000 0.287585
0.540129 1.000000 0.285340
0.912512 1.000000 0.283092
1.000000 1.000000 0.280841
0.000000 0.000000 0.558635
0.249387 0.000000 0.556603
0.650713 0.000000 0.554570
1.000000 0.000000 0.552535
1.000000 0.000000 0.550500
0.000000 0.266600 0.555011
0.189262 0.268488 0.552978
0.599348 0.270373 0.550942
0.967444 0.272256 0.548906
1.000000 0.274138 0.546869
0.000000 0.543920 0.551385
0.126056 0.545616 0.549349
0.547312 0.547312 0.547312
0.919155 0.549007 0.545274
1.000000 0.550700 0.543234
0.000000 0.800508 0.547755
0.057343 0.802109 0.545717
0.494522 0.803710 0.543677
0.870482 0.805310 0.541637
1.000000 0.806909 0.539596
0.000000 1.000000 0.544121
0.000000 1.000000 0.542081
0.440871 1.000000 0.540039
0.821396 1.000000 0.537997
1.000000 1.000000 0.535954
0.000000 0.000000 0.794787
0.134953 0.000000 0.792860
0.554480 0.000000 0.790932
0.925790 0.000000 0.789003
1.000000 0.000000 0.787074
0.000000 0.234952 0.791351
0.067285 0.236875 0.789423
0.501799 0.238796 0.787493
0.877171 0.240715 0.785564
1.000000 0.242631 0.783633
0.000000 0.515632 0.787913
0.000000 0.517342 0.785983
0.448274 0.519051 0.784053
0.828144 0.520759 0.782122
1.000000 0.522467 0.780190
0.000000 0.773852 0.784472
0.000000 0.775461 0.782541
0.393769 0.777069 0.780610
0.778677 0.778677 0.778677
1.000000 0.780285 0.776744
0.000000 1.000000 0.781030
0.000000 1.000000 0.779097
0.338103 1.000000 0.777165
0.728735 1.000000 0.775231
1.000000 1.000000 0.773297
0.000000 0.000000 1.000000
0.000000 0.000000 1.000000
0.455658 0.000000 1.000000
0.834883 0.000000 1.000000
1.000000 0.000000 1.000000
0.000000 0.202648 1.000000
0.000000 0.204614 1.000000
0.401297 0.206578 1.000000
0.785479 0.208538 1.000000
1.000000 0.210496 1.000000
0.000000 0.487109 1.000000
0.000000 0.488834 1.000000
0.345803 0.490557 1.000000
0.735604 0.492280 1.000000
1.000000 0.494002 1.000000
0.000000 0.747057 1.000000
0.000000 0.748674 1.000000
0.288933 0.750292 1.000000
0.685216 0.751908 1.000000
1.000000 0.753524 1.000000
0.000000 0.993803 1.000000
0.000000 0.995353 1.000000
0.230318 0.996902 1.000000
0.634265 0.998451 1.000000
1.000000 1.000000 1.000000
