presets/film_stocks/Fuji_Pro_400H.cube
# 独寻胶片模拟 -- Fuji Pro 400H
# Fujifilm, ISO 400, 2004, negative
TITLE "Fuji Pro 400H"
LUT_3D_SIZE 5
DOMAIN_MIN 0.0 0.0 0.0
DOMAIN_MAX 1.0 1.0 1.0
0.000000 0.000000 0.000000
0.322799 0.006447 0.000000
0.609687 0.012177 0.000000
0.884420 0.017664 0.000000
1.000000 0.022999 0.000000
0.000000 0.299861 0.000000
0.305910 0.304045 0.000000
0.593757 0.308224 0.000000
0.869020 0.312397 0.000000
1.000000 0.316566 0.000000
0.000000 0.566362 0.000000
0.288937 0.570315 0.000000
0.577788 0.574264 0.000000
0.853596 0.578212 0.000000
1.000000 0.582157 0.000000
0.000000 0.821572 0.000000
0.271873 0.825395 0.000000
0.561779 0.829216 0.000000
0.838146 0.833036 0.000000
1.000000 0.836853 0.000000
0.000000 1.000000 0.000000
0.254712 1.000000 0.000000
0.545729 1.000000 0.000000
0.822671 1.000000 0.000000
1.000000 1.000000 0.000000
0.000000 0.000000 0.291856
0.297337 0.000000 0.285272
0.585685 0.000000 0.278674
0.861222 0.000000 0.272062
1.000000 0.000000 0.265436
0.000000 0.276103 0.286913
0.280318 0.280318 0.280318
0.569696 0.284527 0.273710
0.845785 0.288731 0.267087
1.000000 0.292929 0.260450
0.000000 0.543968 0.281962
0.263206 0.547934 0.275357
0.553667 0.551899 0.268738
0.830323 0.555860 0.262104
1.000000 0.559819 0.255455
0.000000 0.799928 0.277003
0.245994 0.803760 0.270387
0.537596 0.807590 0.263757
0.814835 0.811419 0.257112
1.000000 0.815246 0.250451
0.000000 1.000000 0.272036
0.228672 1.000000 0.265410
0.521481 1.000000 0.258768
0.799320 1.000000 0.252111
1.000000 1.000000 0.245439
0.000000 0.000000 0.551243
0.271676 0.000000 0.545028
0.561594 0.000000 0.538807
0.837968 0.000000 0.532579
1.000000 0.000000 0.526345
0.000000 0.252160 0.546576
0.254514 0.256409 0.540357
0.545544 0.260652 0.534131
0.822493 0.264889 0.527898
1.000000 0.269119 0.521659
0.000000 0.521490 0.541906
0.237247 0.525472 0.535682
0.529451 0.529451 0.529451
0.806991 0.533427 0.523214
1.000000 0.537401 0.516969
0.000000 0.778232 0.537232
0.219866 0.782073 0.531003
0.513314 0.785913 0.524767
0.791463 0.789751 0.518525
1.000000 0.793587 0.512276
0.000000 1.000000 0.532555
0.202361 1.000000 0.526321
0.497131 1.000000 0.520080
0.775907 1.000000 0.513832
1.000000 1.000000 0.507578
0.000000 0.000000 0.799640
0.245795 0.000000 0.793631
0.537410 0.000000 0.787618
0.814656 0.000000 0.781600
1.000000 0.000000 0.775579
0.000000 0.228010 0.795127
0.228472 0.232298 0.789115
0.521295 0.236578 0.783099
0.799141 0.240851 0.777079
1.000000 0.245118 0.771054
0.000000 0.498925 0.790613
0.211029 0.502922 0.784598
0.505135 0.506917 0.778578
0.783599 0.510909 0.772555
1.000000 0.514898 0.766527
0.000000 0.756480 0.786096
0.193456 0.760332 0.780078
0.488928 0.764181 0.774055
0.768028 0.768028 0.768028
1.000000 0.771874 0.761997
0.000000 1.000000 0.781577
0.175738 1.000000 0.775555
0.472673 1.000000 0.769530
0.752430 1.000000 0.763500
1.000000 1.000000 0.757466
0.000000 0.000000 1.000000
0.219666 0.000000 1.000000
0.513128 0.000000 1.000000
0.791284 0.000000 1.000000
1.000000 0.000000 1.000000
0.000000 0.203627 1.000000
0.202159 0.207958 1.000000
0.496944 0.212281 1.000000
0.775727 0.216596 1.000000
1.000000 0.220903 1.000000
0.000000 0.476267 1.000000
0.184514 0.480282 1.000000
0.480713 0.484293 1.000000
0.760143 0.488301 1.000000
1.000000 0.492306 1.000000
0.000000 0.734673 1.000000
0.166716 0.738534 1.000000
0.464433 0.742393 1.000000
0.744530 0.746251 1.000000
1.000000 0.750107 1.000000
0.000000 0.984964 1.000000
0.148745 0.988725 1.000000
0.448100 0.992485 1.000000
0.728887 0.996243 1.000000
1.000000 1.000000 1.000000
