presets/film_stocks/Fuji_Superia_X-Tra_400.cube
# 独寻胶片模拟 -- Fuji Superia X-Tra 400
# Fujifilm, ISO 400, 1998, negative
TITLE "Fuji Superia X-Tra 400"
LUT_3D_SIZE 5
DOMAIN_MIN 0.0 0.0 0.0
DOMAIN_MAX 1.0 1.0 1.0
0.000000 0.000000 0.000000
0.328709 0.011485 0.000000
0.600589 0.020984 0.000000
0.854477 0.029855 0.000000
1.000000 0.038341 0.000000
0.000000 0.318324 0.000000
0.317390 0.324383 0.000000
0.590262 0.330425 0.000000
0.844686 0.336451 0.000000
1.000000 0.342460 0.000000
0.000000 0.581614 0.000000
0.306010 0.587153 0.000000
0.579907 0.592684 0.000000
0.834878 0.598208 0.000000
1.000000 0.603724 0.000000
0.000000 0.827480 0.000000
0.294566 0.832735 0.000000
0.569525 0.837985 0.000000
0.825052 0.843231 0.000000
1.000000 0.848471 0.000000
0.000000 1.000000 0.000000
0.283055 1.000000 0.000000
0.559115 1.000000 0.000000
0.815210 1.000000 0.000000
1.000000 1.000000 0.000000
0.000000 0.000000 0.313727
0.310966 0.000000 0.304420
0.584413 0.000000 0.295069
0.839144 0.000000 0.285675
1.000000 0.000000 0.276233
0.000000 0.293417 0.308880
0.299550 0.299550 0.299550
0.574043 0.305664 0.290177
0.829327 0.311760 0.280758
1.000000 0.317838 0.271292
0.000000 0.558930 0.304021
0.288069 0.564502 0.294669
0.563645 0.570066 0.285272
0.819492 0.575622 0.275829
1.000000 0.581169 0.266337
0.000000 0.805986 0.299151
0.276518 0.811262 0.289776
0.553218 0.816532 0.280355
0.809639 0.821798 0.270886
1.000000 0.827059 0.261368
0.000000 1.000000 0.294268
0.264895 1.000000 0.284870
0.542761 1.000000 0.275424
0.799768 1.000000 0.265930
1.000000 1.000000 0.256385
0.000000 0.000000 0.573214
0.293069 0.000000 0.564721
0.568170 0.000000 0.556209
0.823770 0.000000 0.547677
1.000000 0.000000 0.539125
0.000000 0.268189 0.568788
0.281549 0.274404 0.560285
0.557755 0.280598 0.551763
0.813925 0.286771 0.543221
1.000000 0.292925 0.534658
0.000000 0.536107 0.564358
0.269958 0.541714 0.555844
0.547312 0.547312 0.547312
0.804062 0.552901 0.538759
1.000000 0.558483 0.530186
0.000000 0.784405 0.559922
0.258292 0.789703 0.551398
0.536838 0.794995 0.542855
0.794181 0.800281 0.534292
1.000000 0.805563 0.525708
0.000000 1.000000 0.555480
0.246546 1.000000 0.546947
0.526334 1.000000 0.538393
0.784281 1.000000 0.529819
1.000000 1.000000 0.521224
0.000000 0.000000 0.815529
0.275007 0.000000 0.807477
0.551856 0.000000 0.799412
0.808353 0.000000 0.791335
1.000000 0.000000 0.783246
0.000000 0.242599 0.811332
0.263374 0.248907 0.803274
0.541396 0.255191 0.795203
0.798479 0.261452 0.787119
1.000000 0.267690 0.779024
0.000000 0.513137 0.807132
0.251663 0.518780 0.799067
0.530905 0.524415 0.790990
0.788588 0.530040 0.782900
1.000000 0.535657 0.774798
0.000000 0.762736 0.802929
0.239870 0.768055 0.794858
0.520383 0.773369 0.786774
0.778677 0.778677 0.778677
1.000000 0.783981 0.770569
0.000000 1.000000 0.798722
0.227989 1.000000 0.790645
0.509829 1.000000 0.782554
0.768748 1.000000 0.774451
1.000000 1.000000 0.766336
0.000000 0.000000 1.000000
0.256765 0.000000 1.000000
0.535470 0.000000 1.000000
0.792891 0.000000 1.000000
1.000000 0.000000 1.000000
0.000000 0.216597 1.000000
0.245008 0.223011 1.000000
0.524962 0.229398 1.000000
0.782989 0.235758 1.000000
1.000000 0.242092 1.000000
0.000000 0.490012 1.000000
0.233166 0.495694 1.000000
0.514422 0.501367 1.000000
0.773068 0.507030 1.000000
1.000000 0.512684 1.000000
0.000000 0.740973 1.000000
0.221233 0.746315 1.000000
0.503849 0.751652 1.000000
0.763128 0.756983 1.000000
1.000000 0.762309 1.000000
0.000000 0.979527 1.000000
0.209203 0.984651 1.000000
0.493244 0.989771 1.000000
0.753168 0.994888 1.000000
1.000000 1.000000 1.000000
