presets/film_stocks/Fuji_Pro_160S.cube
# 独寻胶片模拟 -- Fuji Pro 160S
# Fujifilm, ISO 160, 2004, negative
TITLE "Fuji Pro 160S"
LUT_3D_SIZE 5
DOMAIN_MIN 0.0 0.0 0.0
DOMAIN_MAX 1.0 1.0 1.0
0.000000 0.000000 0.000000
0.292120 0.006170 0.000000
0.568869 0.012015 0.000000
0.840100 0.017744 0.000000
1.000000 0.023398 0.000000
0.000000 0.277337 0.000000
0.279380 0.282430 0.000000
0.556470 0.287519 0.000000
0.827895 0.292605 0.000000
1.000000 0.297687 0.000000
0.000000 0.540081 0.000000
0.266617 0.545041 0.000000
0.544060 0.550000 0.000000
0.815682 0.554956 0.000000
1.000000 0.559911 0.000000
0.000000 0.797586 0.000000
0.253829 0.802470 0.000000
0.531638 0.807352 0.000000
0.803462 0.812234 0.000000
1.000000 0.817114 0.000000
0.000000 1.000000 0.000000
0.241015 1.000000 0.000000
0.519205 1.000000 0.000000
0.791234 1.000000 0.000000
1.000000 1.000000 0.000000
0.000000 0.000000 0.279968
0.276460 0.000000 0.269788
0.553630 0.000000 0.259593
0.825100 0.000000 0.249381
1.000000 0.002091 0.239153
0.000000 0.258584 0.273881
0.263692 0.263692 0.263692
0.541218 0.268795 0.253487
0.812885 0.273894 0.243265
1.000000 0.278990 0.233027
0.000000 0.521835 0.267788
0.250898 0.526802 0.257589
0.528793 0.531767 0.247375
0.800664 0.536730 0.237143
1.000000 0.541691 0.226894
0.000000 0.779627 0.261689
0.238078 0.784515 0.251481
0.516357 0.789401 0.241256
0.788434 0.794287 0.231014
1.000000 0.799171 0.220754
0.000000 1.000000 0.255585
0.225231 1.000000 0.245367
0.503909 1.000000 0.235132
0.776198 1.000000 0.224879
1.000000 1.000000 0.214608
0.000000 0.000000 0.545206
0.260765 0.000000 0.535297
0.538375 0.000000 0.525382
0.810088 0.000000 0.515458
1.000000 0.000000 0.505527
0.000000 0.239777 0.539280
0.247966 0.244900 0.529367
0.525948 0.250018 0.519447
0.797865 0.255132 0.509519
1.000000 0.260242 0.499583
0.000000 0.503563 0.533351
0.235140 0.508537 0.523434
0.513509 0.513509 0.513509
0.785634 0.518479 0.503577
1.000000 0.523447 0.493636
0.000000 0.761650 0.527420
0.222286 0.766543 0.517498
0.501058 0.771434 0.507569
0.773395 0.776324 0.497631
1.000000 0.781213 0.487686
0.000000 1.000000 0.521486
0.209403 1.000000 0.511559
0.488595 1.000000 0.501625
0.761149 1.000000 0.491684
1.000000 1.000000 0.481734
0.000000 0.000000 0.805154
0.245032 0.000000 0.795400
0.523101 0.000000 0.785642
0.795066 0.000000 0.775878
1.000000 0.000000 0.766109
0.000000 0.220911 0.799320
0.232200 0.226050 0.789563
0.510660 0.231185 0.779802
0.782833 0.236315 0.770035
1.000000 0.241440 0.760264
0.000000 0.485265 0.793485
0.219340 0.490246 0.783725
0.498207 0.495225 0.773960
0.770593 0.500202 0.764191
1.000000 0.505177 0.754416
0.000000 0.743657 0.787647
0.206449 0.748554 0.777885
0.485741 0.753450 0.768117
0.758345 0.758345 0.758345
1.000000 0.763238 0.748567
0.000000 0.998429 0.781808
0.193526 1.000000 0.772042
0.473262 1.000000 0.762272
0.746089 1.000000 0.752497
1.000000 1.000000 0.742716
0.000000 0.000000 1.000000
0.229259 0.000000 1.000000
0.507810 0.000000 1.000000
0.780032 0.000000 1.000000
1.000000 0.000000 1.000000
0.000000 0.201980 1.000000
0.216392 0.207137 1.000000
0.495354 0.212290 1.000000
0.767790 0.217437 1.000000
1.000000 0.222579 1.000000
0.000000 0.466939 1.000000
0.203494 0.471928 1.000000
0.482885 0.476914 1.000000
0.755540 0.481899 1.000000
1.000000 0.486881 1.000000
0.000000 0.725646 1.000000
0.190563 0.730548 1.000000
0.470403 0.735449 1.000000
0.743282 0.740348 1.000000
1.000000 0.745246 1.000000
0.000000 0.980632 1.000000
0.177597 0.985475 1.000000
0.457908 0.990318 1.000000
0.731016 0.995159 1.000000
1.000000 1.000000 1.000000
