presets/film_stocks/Fuji_Pro_160S.cube
# 独寻胶片模拟 -- Fuji Pro 160S
# Fujifilm, ISO 160, 2004, negative
TITLE "Fuji Pro 160S"
LUT_3D_SIZE 33
DOMAIN_MIN 0.0 0.0 0.0
DOMAIN_MAX 1.0 1.0 1.0
0.000000 0.000000 0.000000
0.039555 0.000835 0.000000
0.077029 0.001627 0.000000
0.113756 0.002403 0.000000
0.150006 0.003168 0.000000
0.185905 0.003927 0.000000
0.221527 0.004679 0.000000
0.256921 0.005426 0.000000
0.292120 0.006170 0.000000
0.327149 0.006910 0.000000
0.362029 0.007647 0.000000
0.396775 0.008380 0.000000
0.431399 0.009112 0.000000
0.465912 0.009841 0.000000
0.500324 0.010567 0.000000
0.534640 0.011292 0.000000
0.568869 0.012015 0.000000
0.603016 0.012736 0.000000
0.637085 0.013456 0.000000
0.671082 0.014174 0.000000
0.705010 0.014891 0.000000
0.738873 0.015606 0.000000
0.772673 0.016320 0.000000
0.806415 0.017033 0.000000
0.840100 0.017744 0.000000
0.873731 0.018454 0.000000
0.907311 0.019164 0.000000
0.940841 0.019872 0.000000
0.974323 0.020579 0.000000
1.000000 0.021285 0.000000
1.000000 0.021990 0.000000
1.000000 0.022695 0.000000
1.000000 0.023398 0.000000
0.000000 0.037554 0.000000
0.037830 0.038243 0.000000
0.075350 0.038932 0.000000
0.112104 0.039621 0.000000
0.148372 0.040309 0.000000
0.184285 0.040997 0.000000
0.219918 0.041684 0.000000
0.255321 0.042371 0.000000
0.290528 0.043057 0.000000
0.325565 0.043743 0.000000
0.360451 0.044429 0.000000
0.395203 0.045114 0.000000
0.429832 0.045798 0.000000
0.464351 0.046483 0.000000
0.498766 0.047167 0.000000
0.533087 0.047850 0.000000
0.567320 0.048533 0.000000
0.601470 0.049216 0.000000
0.635543 0.049898 0.000000
0.669543 0.050580 0.000000
0.703474 0.051261 0.000000
0.737339 0.051943 0.000000
0.771143 0.052623 0.000000
0.804887 0.053304 0.000000
0.838575 0.053984 0.000000
0.872209 0.054664 0.000000
0.905790 0.055343 0.000000
0.939322 0.056022 0.000000
0.972807 0.056701 0.000000
1.000000 0.057380 0.000000
1.000000 0.058058 0.000000
1.000000 0.058736 0.000000
1.000000 0.059413 0.000000
0.000000 0.073131 0.000000
0.036102 0.073803 0.000000
0.073670 0.074474 0.000000
0.110450 0.075145 0.000000
0.146736 0.075816 0.000000
0.182664 0.076487 0.000000
0.218309 0.077157 0.000000
0.253721 0.077828 0.000000
0.288937 0.078498 0.000000
0.323981 0.079167 0.000000
0.358873 0.079837 0.000000
0.393631 0.080506 0.000000
0.428266 0.081175 0.000000
0.462789 0.081844 0.000000
0.497209 0.082513 0.000000
0.531534 0.083181 0.000000
0.565771 0.083849 0.000000
0.599924 0.084517 0.000000
0.634001 0.085185 0.000000
0.668004 0.085853 0.000000
0.701938 0.086520 0.000000
0.735806 0.087187 0.000000
0.769612 0.087854 0.000000
0.803359 0.088521 0.000000
0.837049 0.089187 0.000000
0.870686 0.089854 0.000000
0.904270 0.090520 0.000000
0.937804 0.091186 0.000000
0.971290 0.091851 0.000000
1.000000 0.092517 0.000000
1.000000 0.093182 0.000000
1.000000 0.093847 0.000000
1.000000 0.094512 0.000000
0.000000 0.108000 0.000000
0.034370 0.108661 0.000000
0.071988 0.109322 0.000000
0.108795 0.109983 0.000000
0.145101 0.110644 0.000000
0.181042 0.111304 0.000000
0.216699 0.111965 0.000000
0.252121 0.112625 0.000000
0.287345 0.113285 0.000000
0.322396 0.113945 0.000000
0.357295 0.114605 0.000000
0.392058 0.115265 0.000000
0.426699 0.115924 0.000000
0.461227 0.116584 0.000000
0.495651 0.117243 0.000000
0.529980 0.117902 0.000000
0.564221 0.118561 0.000000
0.598378 0.119220 0.000000
0.632458 0.119879 0.000000
0.666464 0.120537 0.000000
0.700401 0.121196 0.000000
0.734273 0.121854 0.000000
0.768082 0.122512 0.000000
0.801831 0.123170 0.000000
0.835524 0.123828 0.000000
0.869162 0.124485 0.000000
0.902749 0.125143 0.000000
0.936285 0.125800 0.000000
0.969774 0.126457 0.000000
1.000000 0.127115 0.000000
1.000000 0.127772 0.000000
1.000000 0.128428 0.000000
1.000000 0.129085 0.000000
0.000000 0.142415 0.000000
0.032635 0.143069 0.000000
0.070305 0.143723 0.000000
0.107139 0.144377 0.000000
0.143464 0.145030 0.000000
0.179420 0.145684 0.000000
0.215088 0.146337 0.000000
0.250520 0.146990 0.000000
0.285752 0.147644 0.000000
0.320811 0.148297 0.000000
0.355717 0.148950 0.000000
0.390486 0.149603 0.000000
0.425131 0.150255 0.000000
0.459664 0.150908 0.000000
0.494093 0.151560 0.000000
0.528427 0.152213 0.000000
0.562671 0.152865 0.000000
0.596832 0.153517 0.000000
0.630915 0.154169 0.000000
0.664925 0.154821 0.000000
0.698865 0.155473 0.000000
0.732739 0.156125 0.000000
0.766551 0.156776 0.000000
0.800303 0.157428 0.000000
0.833998 0.158079 0.000000
0.867639 0.158731 0.000000
0.901228 0.159382 0.000000
0.934767 0.160033 0.000000
0.968257 0.160684 0.000000
1.000000 0.161335 0.000000
1.000000 0.161986 0.000000
1.000000 0.162636 0.000000
1.000000 0.163287 0.000000
0.000000 0.176497 0.000000
0.030897 0.177146 0.000000
0.068619 0.177794 0.000000
0.105483 0.178442 0.000000
0.141827 0.179090 0.000000
0.177797 0.179739 0.000000
0.213477 0.180387 0.000000
0.248919 0.181034 0.000000
0.284160 0.181682 0.000000
0.319226 0.182330 0.000000
0.354138 0.182977 0.000000
0.388913 0.183625 0.000000
0.423564 0.184272 0.000000
0.458102 0.184920 0.000000
0.492535 0.185567 0.000000
0.526873 0.186214 0.000000
0.561121 0.186861 0.000000
0.595286 0.187508 0.000000
0.629372 0.188155 0.000000
0.663385 0.188802 0.000000
0.697328 0.189448 0.000000
0.731206 0.190095 0.000000
0.765020 0.190742 0.000000
0.798775 0.191388 0.000000
0.832473 0.192034 0.000000
0.866116 0.192681 0.000000
0.899707 0.193327 0.000000
0.933248 0.193973 0.000000
0.966741 0.194619 0.000000
1.000000 0.195265 0.000000
1.000000 0.195911 0.000000
1.000000 0.196556 0.000000
1.000000 0.197202 0.000000
0.000000 0.210317 0.000000
0.029154 0.210961 0.000000
0.066933 0.211605 0.000000
0.103825 0.212248 0.000000
0.140189 0.212892 0.000000
0.176174 0.213536 0.000000
0.211866 0.214179 0.000000
0.247318 0.214823 0.000000
0.282567 0.215466 0.000000
0.317640 0.216109 0.000000
0.352559 0.216752 0.000000
0.387340 0.217396 0.000000
0.421996 0.218039 0.000000
0.456539 0.218682 0.000000
0.490977 0.219325 0.000000
0.525319 0.219967 0.000000
0.559571 0.220610 0.000000
0.593739 0.221253 0.000000
0.627829 0.221895 0.000000
0.661845 0.222538 0.000000
0.695792 0.223180 0.000000
0.729672 0.223823 0.000000
0.763489 0.224465 0.000000
0.797246 0.225107 0.000000
0.830947 0.225750 0.000000
0.864592 0.226392 0.000000
0.898186 0.227034 0.000000
0.931729 0.227676 0.000000
0.965224 0.228317 0.000000
0.998672 0.228959 0.000000
1.000000 0.229601 0.000000
1.000000 0.230243 0.000000
1.000000 0.230884 0.000000
0.000000 0.243919 0.000000
0.027407 0.244559 0.000000
0.065244 0.245199 0.000000
0.102166 0.245839 0.000000
0.138550 0.246479 0.000000
0.174550 0.247119 0.000000
0.210254 0.247759 0.000000
0.245716 0.248399 0.000000
0.280973 0.249038 0.000000
0.316054 0.249678 0.000000
0.350980 0.250317 0.000000
0.385767 0.250957 0.000000
0.420428 0.251596 0.000000
0.454976 0.252235 0.000000
0.489419 0.252875 0.000000
0.523765 0.253514 0.000000
0.558021 0.254153 0.000000
0.592193 0.254792 0.000000
0.626286 0.255431 0.000000
0.660306 0.256070 0.000000
0.694255 0.256709 0.000000
0.728138 0.257348 0.000000
0.761958 0.257986 0.000000
0.795718 0.258625 0.000000
0.829421 0.259264 0.000000
0.863069 0.259902 0.000000
0.896665 0.260541 0.000000
0.930210 0.261179 0.000000
0.963707 0.261818 0.000000
0.997158 0.262456 0.000000
1.000000 0.263094 0.000000
1.000000 0.263732 0.000000
1.000000 0.264370 0.000000
0.000000 0.277337 0.000000
0.025656 0.277974 0.000000
0.063554 0.278610 0.000000
0.100506 0.279247 0.000000
0.136910 0.279884 0.000000
0.172926 0.280520 0.000000
0.208642 0.281157 0.000000
0.244114 0.281793 0.000000
0.279380 0.282430 0.000000
0.314468 0.283066 0.000000
0.349400 0.283702 0.000000
0.384193 0.284339 0.000000
0.418860 0.284975 0.000000
0.453412 0.285611 0.000000
0.487860 0.286247 0.000000
0.522210 0.286883 0.000000
0.556470 0.287519 0.000000
0.590646 0.288155 0.000000
0.624743 0.288791 0.000000
0.658765 0.289427 0.000000
0.692718 0.290063 0.000000
0.726604 0.290698 0.000000
0.760427 0.291334 0.000000
0.794189 0.291969 0.000000
0.827895 0.292605 0.000000
0.861545 0.293240 0.000000
0.895143 0.293876 0.000000
0.928691 0.294511 0.000000
0.962190 0.295147 0.000000
0.995643 0.295782 0.000000
1.000000 0.296417 0.000000
1.000000 0.297052 0.000000
1.000000 0.297687 0.000000
0.000000 0.310594 0.000000
0.023900 0.311228 0.000000
0.061862 0.311861 0.000000
0.098845 0.312495 0.000000
0.135270 0.313129 0.000000
0.171301 0.313763 0.000000
0.207029 0.314397 0.000000
0.242511 0.315030 0.000000
0.277786 0.315664 0.000000
0.312882 0.316297 0.000000
0.347820 0.316931 0.000000
0.382619 0.317564 0.000000
0.417292 0.318198 0.000000
0.451849 0.318831 0.000000
0.486301 0.319464 0.000000
0.520656 0.320098 0.000000
0.554920 0.320731 0.000000
0.589099 0.321364 0.000000
0.623199 0.321997 0.000000
0.657225 0.322630 0.000000
0.691181 0.323263 0.000000
0.725070 0.323896 0.000000
0.758895 0.324529 0.000000
0.792661 0.325162 0.000000
0.826368 0.325795 0.000000
0.860021 0.326427 0.000000
0.893622 0.327060 0.000000
0.927172 0.327693 0.000000
0.960673 0.328325 0.000000
0.994128 0.328958 0.000000
1.000000 0.329590 0.000000
1.000000 0.330223 0.000000
1.000000 0.330855 0.000000
0.000000 0.343708 0.000000
0.022138 0.344340 0.000000
0.060168 0.344971 0.000000
0.097183 0.345602 0.000000
0.133628 0.346234 0.000000
0.169675 0.346865 0.000000
0.205416 0.347496 0.000000
0.240908 0.348127 0.000000
0.276191 0.348758 0.000000
0.311295 0.349389 0.000000
0.346240 0.350020 0.000000
0.381045 0.350651 0.000000
0.415723 0.351282 0.000000
0.450285 0.351913 0.000000
0.484742 0.352544 0.000000
0.519101 0.353175 0.000000
0.553369 0.353805 0.000000
0.587552 0.354436 0.000000
0.621656 0.355067 0.000000
0.655685 0.355697 0.000000
0.689643 0.356328 0.000000
0.723535 0.356958 0.000000
0.757364 0.357589 0.000000
0.791132 0.358219 0.000000
0.824842 0.358849 0.000000
0.858498 0.359480 0.000000
0.892100 0.360110 0.000000
0.925652 0.360740 0.000000
0.959156 0.361370 0.000000
0.992613 0.362000 0.000000
1.000000 0.362631 0.000000
1.000000 0.363261 0.000000
1.000000 0.363891 0.000000
0.000000 0.376696 0.000000
0.020371 0.377325 0.000000
0.058472 0.377954 0.000000
0.095520 0.378583 0.000000
0.131986 0.379212 0.000000
0.168049 0.379841 0.000000
0.203802 0.380470 0.000000
0.239304 0.381098 0.000000
0.274596 0.381727 0.000000
0.309707 0.382356 0.000000
0.344660 0.382985 0.000000
0.379471 0.383613 0.000000
0.414154 0.384242 0.000000
0.448721 0.384871 0.000000
0.483183 0.385499 0.000000
0.517546 0.386128 0.000000
0.551818 0.386756 0.000000
0.586005 0.387385 0.000000
0.620112 0.388013 0.000000
0.654144 0.388641 0.000000
0.688106 0.389270 0.000000
0.722001 0.389898 0.000000
0.755832 0.390526 0.000000
0.789603 0.391154 0.000000
0.823316 0.391783 0.000000
0.856974 0.392411 0.000000
0.890579 0.393039 0.000000
0.924133 0.393667 0.000000
0.957639 0.394295 0.000000
0.991098 0.394923 0.000000
1.000000 0.395551 0.000000
1.000000 0.396178 0.000000
1.000000 0.396806 0.000000
0.000000 0.409568 0.000000
0.018598 0.410195 0.000000
0.056774 0.410822 0.000000
0.093855 0.411449 0.000000
0.130343 0.412076 0.000000
0.166422 0.412702 0.000000
0.202187 0.413329 0.000000
0.237700 0.413956 0.000000
0.273001 0.414583 0.000000
0.308120 0.415209 0.000000
0.343079 0.415836 0.000000
0.377896 0.416463 0.000000
0.412585 0.417089 0.000000
0.447157 0.417716 0.000000
0.481623 0.418342 0.000000
0.515991 0.418969 0.000000
0.550266 0.419595 0.000000
0.584457 0.420222 0.000000
0.618568 0.420848 0.000000
0.652604 0.421474 0.000000
0.686568 0.422100 0.000000
0.720466 0.422727 0.000000
0.754300 0.423353 0.000000
0.788074 0.423979 0.000000
0.821789 0.424605 0.000000
0.855449 0.425231 0.000000
0.889057 0.425857 0.000000
0.922614 0.426483 0.000000
0.956121 0.427109 0.000000
0.989582 0.427735 0.000000
1.000000 0.428361 0.000000
1.000000 0.428987 0.000000
1.000000 0.429613 0.000000
0.000000 0.442335 0.000000
0.016818 0.442960 0.000000
0.055074 0.443585 0.000000
0.092190 0.444210 0.000000
0.128700 0.444835 0.000000
0.164794 0.445460 0.000000
0.200572 0.446085 0.000000
0.236096 0.446709 0.000000
0.271406 0.447334 0.000000
0.306532 0.447959 0.000000
0.341498 0.448584 0.000000
0.376321 0.449208 0.000000
0.411016 0.449833 0.000000
0.445593 0.450458 0.000000
0.480064 0.451082 0.000000
0.514435 0.451707 0.000000
0.548715 0.452332 0.000000
0.582910 0.452956 0.000000
0.617024 0.453580 0.000000
0.651063 0.454205 0.000000
0.685031 0.454829 0.000000
0.718931 0.455454 0.000000
0.752768 0.456078 0.000000
0.786544 0.456702 0.000000
0.820263 0.457327 0.000000
0.853925 0.457951 0.000000
0.887535 0.458575 0.000000
0.921094 0.459199 0.000000
0.954604 0.459823 0.000000
0.988067 0.460447 0.000000
1.000000 0.461072 0.000000
1.000000 0.461696 0.000000
1.000000 0.462320 0.000000
0.000000 0.475005 0.000000
0.015031 0.475628 0.000000
0.053372 0.476251 0.000000
0.090523 0.476874 0.000000
0.127055 0.477498 0.000000
0.163166 0.478121 0.000000
0.198957 0.478744 0.000000
0.234491 0.479367 0.000000
0.269810 0.479990 0.000000
0.304944 0.480613 0.000000
0.339917 0.481236 0.000000
0.374746 0.481859 0.000000
0.409446 0.482482 0.000000
0.444029 0.483105 0.000000
0.478504 0.483728 0.000000
0.512880 0.484350 0.000000
0.547164 0.484973 0.000000
0.581362 0.485596 0.000000
0.615480 0.486219 0.000000
0.649522 0.486841 0.000000
0.683493 0.487464 0.000000
0.717397 0.488087 0.000000
0.751236 0.488709 0.000000
0.785015 0.489332 0.000000
0.818736 0.489955 0.000000
0.852401 0.490577 0.000000
0.886013 0.491200 0.000000
0.919574 0.491822 0.000000
0.953087 0.492444 0.000000
0.986552 0.493067 0.000000
1.000000 0.493689 0.000000
1.000000 0.494312 0.000000
1.000000 0.494934 0.000000
0.000000 0.507585 0.000000
0.013235 0.508206 0.000000
0.051668 0.508828 0.000000
0.088855 0.509450 0.000000
0.125410 0.510071 0.000000
0.161537 0.510693 0.000000
0.197341 0.511314 0.000000
0.232885 0.511936 0.000000
0.268213 0.512557 0.000000
0.303355 0.513178 0.000000
0.338335 0.513800 0.000000
0.373170 0.514421 0.000000
0.407876 0.515042 0.000000
0.442464 0.515664 0.000000
0.476944 0.516285 0.000000
0.511324 0.516906 0.000000
0.545612 0.517527 0.000000
0.579814 0.518148 0.000000
0.613935 0.518770 0.000000
0.647981 0.519391 0.000000
0.681955 0.520012 0.000000
0.715862 0.520633 0.000000
0.749704 0.521254 0.000000
0.783486 0.521875 0.000000
0.817209 0.522496 0.000000
0.850877 0.523117 0.000000
0.884491 0.523738 0.000000
0.918054 0.524358 0.000000
0.951569 0.524979 0.000000
0.985036 0.525600 0.000000
1.000000 0.526221 0.000000
1.000000 0.526842 0.000000
1.000000 0.527462 0.000000
0.000000 0.540081 0.000000
0.011429 0.540702 0.000000
0.049962 0.541322 0.000000
0.087186 0.541942 0.000000
0.123764 0.542562 0.000000
0.159907 0.543182 0.000000
0.195724 0.543802 0.000000
0.231280 0.544422 0.000000
0.266617 0.545041 0.000000
0.301767 0.545661 0.000000
0.336753 0.546281 0.000000
0.371595 0.546901 0.000000
0.406306 0.547521 0.000000
0.440899 0.548141 0.000000
0.475383 0.548760 0.000000
0.509768 0.549380 0.000000
0.544060 0.550000 0.000000
0.578266 0.550619 0.000000
0.612391 0.551239 0.000000
0.646440 0.551858 0.000000
0.680417 0.552478 0.000000
0.714327 0.553098 0.000000
0.748172 0.553717 0.000000
0.781956 0.554337 0.000000
0.815682 0.554956 0.000000
0.849352 0.555575 0.000000
0.882969 0.556195 0.000000
0.916535 0.556814 0.000000
0.950051 0.557434 0.000000
0.983521 0.558053 0.000000
1.000000 0.558672 0.000000
1.000000 0.559291 0.000000
1.000000 0.559911 0.000000
0.000000 0.572500 0.000000
0.009612 0.573119 0.000000
0.048253 0.573737 0.000000
0.085515 0.574356 0.000000
0.122116 0.574975 0.000000
0.158277 0.575593 0.000000
0.194107 0.576212 0.000000
0.229673 0.576830 0.000000
0.265019 0.577449 0.000000
0.300177 0.578067 0.000000
0.335171 0.578685 0.000000
0.370019 0.579304 0.000000
0.404736 0.579922 0.000000
0.439334 0.580540 0.000000
0.473823 0.581159 0.000000
0.508212 0.581777 0.000000
0.542508 0.582395 0.000000
0.576717 0.583014 0.000000
0.610846 0.583632 0.000000
0.644898 0.584250 0.000000
0.678879 0.584868 0.000000
0.712791 0.585486 0.000000
0.746639 0.586104 0.000000
0.780426 0.586722 0.000000
0.814155 0.587340 0.000000
0.847827 0.587958 0.000000
0.881447 0.588576 0.000000
0.915015 0.589194 0.000000
0.948533 0.589812 0.000000
0.982005 0.590430 0.000000
1.000000 0.591048 0.000000
1.000000 0.591666 0.000000
1.000000 0.592284 0.000000
0.000000 0.604845 0.000000
0.007780 0.605463 0.000000
0.046542 0.606080 0.000000
0.083843 0.606697 0.000000
0.120468 0.607314 0.000000
0.156646 0.607932 0.000000
0.192490 0.608549 0.000000
0.228067 0.609166 0.000000
0.263422 0.609783 0.000000
0.298588 0.610400 0.000000
0.333589 0.611017 0.000000
0.368443 0.611634 0.000000
0.403165 0.612251 0.000000
0.437768 0.612868 0.000000
0.472262 0.613485 0.000000
0.506655 0.614102 0.000000
0.540956 0.614719 0.000000
0.575169 0.615336 0.000000
0.609301 0.615953 0.000000
0.643357 0.616570 0.000000
0.677340 0.617187 0.000000
0.711256 0.617803 0.000000
0.745107 0.618420 0.000000
0.778897 0.619037 0.000000
0.812628 0.619654 0.000000
0.846303 0.620270 0.000000
0.879924 0.620887 0.000000
0.913495 0.621504 0.000000
0.947015 0.622120 0.000000
0.980489 0.622737 0.000000
1.000000 0.623353 0.000000
1.000000 0.623970 0.000000
1.000000 0.624587 0.000000
0.000000 0.637122 0.000000
0.005931 0.637738 0.000000
0.044828 0.638354 0.000000
0.082170 0.638970 0.000000
0.118820 0.639586 0.000000
0.155015 0.640201 0.000000
0.190872 0.640817 0.000000
0.226460 0.641433 0.000000
0.261824 0.642049 0.000000
0.296998 0.642665 0.000000
0.332006 0.643281 0.000000
0.366866 0.643896 0.000000
0.401594 0.644512 0.000000
0.436203 0.645128 0.000000
0.470701 0.645744 0.000000
0.505099 0.646359 0.000000
0.539403 0.646975 0.000000
0.573620 0.647591 0.000000
0.607756 0.648206 0.000000
0.641815 0.648822 0.000000
0.675802 0.649437 0.000000
0.709720 0.650053 0.000000
0.743574 0.650669 0.000000
0.777367 0.651284 0.000000
0.811100 0.651899 0.000000
0.844778 0.652515 0.000000
0.878402 0.653130 0.000000
0.911974 0.653746 0.000000
0.945497 0.654361 0.000000
0.978973 0.654976 0.000000
1.000000 0.655592 0.000000
1.000000 0.656207 0.000000
1.000000 0.656822 0.000000
0.000000 0.669333 0.000000
0.004059 0.669947 0.000000
0.043112 0.670562 0.000000
0.080496 0.671177 0.000000
0.117170 0.671792 0.000000
0.153382 0.672406 0.000000
0.189253 0.673021 0.000000
0.224852 0.673636 0.000000
0.260226 0.674250 0.000000
0.295408 0.674865 0.000000
0.330423 0.675480 0.000000
0.365289 0.676094 0.000000
0.400023 0.676709 0.000000
0.434637 0.677323 0.000000
0.469140 0.677938 0.000000
0.503542 0.678552 0.000000
0.537851 0.679167 0.000000
0.572072 0.679781 0.000000
0.606211 0.680396 0.000000
0.640273 0.681010 0.000000
0.674263 0.681624 0.000000
0.708185 0.682239 0.000000
0.742042 0.682853 0.000000
0.775837 0.683467 0.000000
0.809573 0.684082 0.000000
0.843253 0.684696 0.000000
0.876879 0.685310 0.000000
0.910454 0.685924 0.000000
0.943979 0.686539 0.000000
0.977457 0.687153 0.000000
1.000000 0.687767 0.000000
1.000000 0.688381 0.000000
1.000000 0.688995 0.000000
0.000000 0.701482 0.000000
0.002149 0.702095 0.000000
0.041393 0.702709 0.000000
0.078820 0.703322 0.000000
0.115519 0.703936 0.000000
0.151749 0.704550 0.000000
0.187634 0.705163 0.000000
0.223244 0.705777 0.000000
0.258627 0.706390 0.000000
0.293817 0.707004 0.000000
0.328839 0.707617 0.000000
0.363712 0.708231 0.000000
0.398452 0.708844 0.000000
0.433071 0.709457 0.000000
0.467579 0.710071 0.000000
0.501985 0.710684 0.000000
0.536298 0.711297 0.000000
0.570523 0.711911 0.000000
0.604665 0.712524 0.000000
0.638731 0.713137 0.000000
0.672724 0.713751 0.000000
0.706649 0.714364 0.000000
0.740509 0.714977 0.000000
0.774306 0.715590 0.000000
0.808045 0.716203 0.000000
0.841728 0.716816 0.000000
0.875357 0.717430 0.000000
0.908934 0.718043 0.000000
0.942461 0.718656 0.000000
0.975941 0.719269 0.000000
1.000000 0.719882 0.000000
1.000000 0.720495 0.000000
1.000000 0.721108 0.000000
0.000000 0.733572 0.000000
0.000150 0.734184 0.000000
0.039671 0.734797 0.000000
0.077142 0.735409 0.000000
0.113867 0.736022 0.000000
0.150116 0.736634 0.000000
0.186014 0.737247 0.000000
0.221635 0.737859 0.000000
0.257028 0.738472 0.000000
0.292226 0.739084 0.000000
0.327256 0.739696 0.000000
0.362135 0.740309 0.000000
0.396880 0.740921 0.000000
0.431504 0.741533 0.000000
0.466017 0.742146 0.000000
0.500428 0.742758 0.000000
0.534745 0.743370 0.000000
0.568973 0.743982 0.000000
0.603120 0.744595 0.000000
0.637189 0.745207 0.000000
0.671185 0.745819 0.000000
0.705113 0.746431 0.000000
0.738976 0.747043 0.000000
0.772776 0.747655 0.000000
0.806518 0.748267 0.000000
0.840203 0.748880 0.000000
0.873834 0.749492 0.000000
0.907413 0.750104 0.000000
0.940943 0.750716 0.000000
0.974425 0.751328 0.000000
1.000000 0.751940 0.000000
1.000000 0.752552 0.000000
1.000000 0.753163 0.000000
0.000000 0.765606 0.000000
0.000000 0.766217 0.000000
0.037946 0.766829 0.000000
0.075463 0.767440 0.000000
0.112215 0.768052 0.000000
0.148481 0.768663 0.000000
0.184394 0.769275 0.000000
0.220026 0.769886 0.000000
0.255429 0.770497 0.000000
0.290635 0.771109 0.000000
0.325671 0.771720 0.000000
0.360557 0.772331 0.000000
0.395308 0.772943 0.000000
0.429938 0.773554 0.000000
0.464456 0.774165 0.000000
0.498871 0.774776 0.000000
0.533192 0.775388 0.000000
0.567424 0.775999 0.000000
0.601574 0.776610 0.000000
0.635647 0.777221 0.000000
0.669646 0.777832 0.000000
0.703577 0.778443 0.000000
0.737442 0.779055 0.000000
0.771246 0.779666 0.000000
0.804990 0.780277 0.000000
0.838677 0.780888 0.000000
0.872311 0.781499 0.000000
0.905893 0.782110 0.000000
0.939424 0.782721 0.000000
0.972909 0.783332 0.000000
1.000000 0.783943 0.000000
1.000000 0.784554 0.000000
1.000000 0.785165 0.000000
0.000000 0.797586 0.000000
0.000000 0.798197 0.000000
0.036218 0.798807 0.000000
0.073783 0.799418 0.000000
0.110561 0.800028 0.000000
0.146846 0.800639 0.000000
0.182773 0.801249 0.000000
0.218417 0.801860 0.000000
0.253829 0.802470 0.000000
0.289044 0.803080 0.000000
0.324087 0.803691 0.000000
0.358979 0.804301 0.000000
0.393736 0.804911 0.000000
0.428371 0.805522 0.000000
0.462894 0.806132 0.000000
0.497314 0.806742 0.000000
0.531638 0.807352 0.000000
0.565875 0.807963 0.000000
0.600028 0.808573 0.000000
0.634104 0.809183 0.000000
0.668107 0.809793 0.000000
0.702041 0.810403 0.000000
0.735909 0.811013 0.000000
0.769715 0.811623 0.000000
0.803462 0.812234 0.000000
0.837152 0.812844 0.000000
0.870788 0.813454 0.000000
0.904372 0.814064 0.000000
0.937906 0.814674 0.000000
0.971392 0.815284 0.000000
1.000000 0.815894 0.000000
1.000000 0.816504 0.000000
1.000000 0.817114 0.000000
0.000000 0.829516 0.000000
0.000000 0.830125 0.000000
0.034487 0.830735 0.000000
0.072101 0.831344 0.000000
0.108906 0.831954 0.000000
0.145211 0.832563 0.000000
0.181151 0.833173 0.000000
0.216807 0.833782 0.000000
0.252229 0.834392 0.000000
0.287452 0.835001 0.000000
0.322503 0.835610 0.000000
0.357401 0.836220 0.000000
0.392164 0.836829 0.000000
0.426804 0.837439 0.000000
0.461331 0.838048 0.000000
0.495756 0.838657 0.000000
0.530085 0.839266 0.000000
0.564325 0.839876 0.000000
0.598482 0.840485 0.000000
0.632562 0.841094 0.000000
0.666568 0.841703 0.000000
0.700505 0.842313 0.000000
0.734376 0.842922 0.000000
0.768185 0.843531 0.000000
0.801934 0.844140 0.000000
0.835626 0.844749 0.000000
0.869265 0.845358 0.000000
0.902851 0.845967 0.000000
0.936387 0.846576 0.000000
0.969876 0.847186 0.000000
1.000000 0.847795 0.000000
1.000000 0.848404 0.000000
1.000000 0.849013 0.000000
0.000000 0.861396 0.000000
0.000000 0.862005 0.000000
0.032752 0.862613 0.000000
0.070418 0.863222 0.000000
0.107251 0.863830 0.000000
0.143574 0.864439 0.000000
0.179529 0.865048 0.000000
0.215197 0.865656 0.000000
0.250628 0.866265 0.000000
0.285859 0.866873 0.000000
0.320918 0.867482 0.000000
0.355823 0.868090 0.000000
0.390592 0.868698 0.000000
0.425237 0.869307 0.000000
0.459769 0.869915 0.000000
0.494198 0.870524 0.000000
0.528531 0.871132 0.000000
0.562775 0.871740 0.000000
0.596936 0.872349 0.000000
0.631019 0.872957 0.000000
0.665028 0.873565 0.000000
0.698968 0.874174 0.000000
0.732842 0.874782 0.000000
0.766654 0.875390 0.000000
0.800406 0.875998 0.000000
