presets/film_stocks/Fujiflex_Crystal_Archive_New_Version.cube
# 独寻胶片模拟 -- Fujiflex Crystal Archive New Version
# Fujifilm, ISO 0, 0, negative
TITLE "Fujiflex Crystal Archive New Version"
LUT_3D_SIZE 33
DOMAIN_MIN 0.0 0.0 0.0
DOMAIN_MAX 1.0 1.0 1.0
0.000000 0.000000 0.000000
0.034722 0.000000 0.000720
0.064834 0.000000 0.001345
0.093420 0.000000 0.001938
0.121060 0.000000 0.002511
0.148015 0.000000 0.003070
0.174438 0.000000 0.003618
0.200425 0.000000 0.004157
0.226046 0.000000 0.004689
0.251351 0.000000 0.005214
0.276378 0.000000 0.005733
0.301158 0.000000 0.006247
0.325716 0.000000 0.006756
0.350071 0.000000 0.007261
0.374241 0.000000 0.007762
0.398240 0.000000 0.008260
0.422081 0.000000 0.008755
0.445775 0.000000 0.009246
0.469331 0.000000 0.009735
0.492758 0.000000 0.010221
0.516062 0.000000 0.010704
0.539252 0.000000 0.011185
0.562332 0.000000 0.011664
0.585309 0.000000 0.012140
0.608186 0.000000 0.012615
0.630970 0.000000 0.013088
0.653663 0.000000 0.013558
0.676270 0.000000 0.014027
0.698794 0.000000 0.014494
0.721238 0.000000 0.014960
0.743606 0.000000 0.015424
0.765900 0.000000 0.015886
0.788123 0.000000 0.016347
0.004341 0.049707 0.000000
0.037818 0.049317 0.000000
0.067731 0.048927 0.000514
0.096206 0.048536 0.001154
0.123768 0.048145 0.001755
0.150665 0.047754 0.002333
0.177040 0.047362 0.002897
0.202989 0.046970 0.003448
0.228577 0.046578 0.003989
0.253852 0.046185 0.004523
0.278853 0.045792 0.005050
0.303610 0.045398 0.005571
0.328147 0.045004 0.006086
0.352482 0.044610 0.006597
0.376635 0.044215 0.007104
0.400618 0.043820 0.007606
0.424444 0.043424 0.008105
0.448124 0.043029 0.008600
0.471667 0.042632 0.009093
0.495081 0.042236 0.009582
0.518374 0.041838 0.010069
0.541552 0.041441 0.010553
0.564622 0.041043 0.011035
0.587588 0.040645 0.011514
0.610456 0.040246 0.011992
0.633231 0.039847 0.012467
0.655915 0.039447 0.012940
0.678514 0.039047 0.013411
0.701030 0.038646 0.013881
0.723466 0.038245 0.014348
0.745827 0.037844 0.014814
0.768114 0.037442 0.015279
0.790330 0.037039 0.015742
0.008105 0.092815 0.000000
0.040887 0.092451 0.000000
0.070615 0.092087 0.000000
0.098983 0.091723 0.000297
0.126470 0.091358 0.000959
0.153310 0.090993 0.001570
0.179639 0.090628 0.002154
0.205549 0.090263 0.002722
0.231104 0.089898 0.003276
0.256350 0.089533 0.003821
0.281326 0.089168 0.004357
0.306060 0.088802 0.004886
0.330576 0.088436 0.005409
0.354893 0.088070 0.005926
0.379027 0.087704 0.006438
0.402994 0.087338 0.006946
0.426805 0.086971 0.007449
0.450471 0.086604 0.007949
0.474001 0.086238 0.008446
0.497403 0.085871 0.008939
0.520684 0.085503 0.009429
0.543851 0.085136 0.009917
0.566910 0.084769 0.010402
0.589867 0.084401 0.010884
0.612726 0.084033 0.011365
0.635491 0.083665 0.011843
0.658166 0.083297 0.012318
0.680757 0.082928 0.012792
0.703265 0.082560 0.013264
0.725693 0.082191 0.013734
0.748046 0.081822 0.014202
0.770326 0.081453 0.014669
0.792535 0.081083 0.015134
0.011679 0.133739 0.000000
0.043930 0.133390 0.000000
0.073486 0.133040 0.000000
0.101751 0.132690 0.000000
0.129166 0.132340 0.000058
0.155949 0.131990 0.000760
0.182233 0.131640 0.001382
0.208106 0.131290 0.001974
0.233628 0.130939 0.002546
0.258846 0.130589 0.003104
0.283796 0.130238 0.003652
0.308508 0.129887 0.004190
0.333003 0.129537 0.004721
0.357301 0.129186 0.005246
0.381418 0.128835 0.005764
0.405369 0.128484 0.006278
0.429165 0.128132 0.006787
0.452817 0.127781 0.007292
0.476334 0.127430 0.007793
0.499723 0.127078 0.008291
0.522993 0.126726 0.008785
0.546149 0.126375 0.009276
0.569198 0.126023 0.009765
0.592145 0.125671 0.010251
0.614994 0.125319 0.010734
0.637750 0.124966 0.011215
0.660417 0.124614 0.011693
0.682999 0.124262 0.012170
0.705499 0.123909 0.012644
0.727920 0.123557 0.013117
0.750266 0.123204 0.013587
0.772538 0.122851 0.014056
0.794740 0.122498 0.014523
0.015134 0.173307 0.000000
0.046950 0.172968 0.000000
0.076345 0.172628 0.000000
0.104511 0.172288 0.000000
0.131855 0.171948 0.000000
0.158584 0.171607 0.000000
0.184824 0.171267 0.000555
0.210659 0.170927 0.001192
0.236149 0.170587 0.001791
0.261339 0.170246 0.002368
0.286264 0.169906 0.002931
0.310953 0.169565 0.003481
0.335428 0.169224 0.004023
0.359707 0.168884 0.004556
0.383808 0.168543 0.005082
0.407743 0.168202 0.005603
0.431524 0.167861 0.006118
0.455162 0.167520 0.006628
0.478666 0.167179 0.007135
0.502043 0.166838 0.007637
0.525301 0.166496 0.008136
0.548446 0.166155 0.008631
0.571485 0.165814 0.009123
0.594421 0.165472 0.009612
0.617261 0.165131 0.010099
0.640008 0.164789 0.010583
0.662667 0.164447 0.011065
0.685240 0.164105 0.011544
0.707732 0.163763 0.012021
0.730146 0.163422 0.012496
0.752484 0.163079 0.012969
0.774749 0.162737 0.013440
0.796945 0.162395 0.013910
0.018504 0.211896 0.000000
0.049950 0.211564 0.000000
0.079192 0.211231 0.000000
0.107263 0.210899 0.000000
0.134538 0.210566 0.000000
0.161214 0.210234 0.000000
0.187410 0.209901 0.000000
0.213208 0.209568 0.000341
0.238667 0.209235 0.000998
0.263829 0.208903 0.001606
0.288730 0.208570 0.002190
0.313396 0.208237 0.002756
0.337851 0.207904 0.003310
0.362112 0.207571 0.003854
0.386195 0.207237 0.004390
0.410115 0.206904 0.004918
0.433881 0.206571 0.005441
0.457505 0.206238 0.005957
0.480996 0.205904 0.006469
0.504361 0.205571 0.006977
0.527608 0.205237 0.007480
0.550742 0.204904 0.007980
0.573770 0.204570 0.008476
0.596697 0.204236 0.008969
0.619527 0.203903 0.009460
0.642265 0.203569 0.009947
0.664915 0.203235 0.010432
0.687481 0.202901 0.010914
0.709965 0.202567 0.011394
0.732371 0.202233 0.011872
0.754701 0.201899 0.012348
0.776960 0.201565 0.012821
0.799148 0.201230 0.013293
0.021807 0.249723 0.000000
0.052929 0.249396 0.000000
0.082028 0.249070 0.000000
0.110007 0.248743 0.000000
0.137216 0.248416 0.000000
0.163839 0.248090 0.000000
0.189993 0.247763 0.000000
0.215755 0.247436 0.000000
0.241182 0.247110 0.000109
0.266317 0.246783 0.000800
0.291193 0.246456 0.001419
0.315838 0.246129 0.002009
0.340272 0.245802 0.002581
0.364515 0.245475 0.003138
0.388581 0.245148 0.003685
0.412485 0.244821 0.004223
0.436237 0.244494 0.004754
0.459848 0.244167 0.005278
0.483325 0.243839 0.005796
0.506678 0.243512 0.006310
0.529914 0.243185 0.006818
0.553037 0.242857 0.007323
0.576055 0.242530 0.007824
0.598972 0.242202 0.008321
0.621793 0.241875 0.008815
0.644522 0.241547 0.009307
0.667163 0.241220 0.009795
0.689720 0.240892 0.010280
0.712196 0.240564 0.010764
0.734595 0.240236 0.011244
0.756918 0.239908 0.011723
0.779170 0.239581 0.012199
0.801351 0.239253 0.012673
0.025056 0.286926 0.000000
0.055890 0.286605 0.000000
0.084853 0.286283 0.000000
0.112744 0.285962 0.000000
0.139887 0.285640 0.000000
0.166460 0.285318 0.000000
0.192571 0.284997 0.000000
0.218298 0.284675 0.000000
0.243694 0.284353 0.000000
0.268802 0.284031 0.000000
0.293654 0.283709 0.000596
0.318277 0.283388 0.001229
0.342691 0.283066 0.001827
0.366916 0.282744 0.002404
0.390966 0.282422 0.002965
0.414854 0.282100 0.003515
0.438591 0.281778 0.004056
0.462188 0.281455 0.004588
0.485653 0.281133 0.005114
0.508994 0.280811 0.005635
0.532218 0.280489 0.006150
0.555331 0.280166 0.006660
0.578339 0.279844 0.007166
0.601246 0.279522 0.007668
0.624057 0.279199 0.008166
0.646778 0.278877 0.008661
0.669410 0.278554 0.009153
0.691959 0.278232 0.009642
0.714428 0.277909 0.010129
0.736818 0.277587 0.010613
0.759135 0.277264 0.011094
0.781379 0.276941 0.011573
0.803554 0.276619 0.012050
0.028259 0.323605 0.000000
0.058834 0.323288 0.000000
0.087667 0.322970 0.000000
0.115473 0.322653 0.000000
0.142554 0.322336 0.000000
0.169076 0.322018 0.000000
0.195146 0.321701 0.000000
0.220838 0.321383 0.000000
0.246204 0.321066 0.000000
0.271285 0.320748 0.000000
0.296113 0.320431 0.000000
0.320714 0.320113 0.000384
0.345109 0.319796 0.001036
0.369315 0.319478 0.001643
0.393349 0.319160 0.002225
0.417221 0.318842 0.002791
0.440944 0.318525 0.003344
0.464528 0.318207 0.003887
0.487980 0.317889 0.004423
0.511309 0.317571 0.004951
0.534522 0.317253 0.005472
0.557624 0.316935 0.005989
0.580621 0.316617 0.006501
0.603519 0.316299 0.007008
0.626321 0.315981 0.007511
0.649032 0.315663 0.008011
0.671657 0.315345 0.008507
0.694197 0.315027 0.009000
0.716658 0.314709 0.009490
0.739041 0.314390 0.009977
0.761350 0.314072 0.010462
0.783587 0.313754 0.010944
0.805755 0.313435 0.011424
0.031423 0.359831 0.000000
0.061762 0.359517 0.000000
0.090472 0.359204 0.000000
0.118196 0.358890 0.000000
0.145214 0.358576 0.000000
0.171688 0.358263 0.000000
0.197717 0.357949 0.000000
0.223374 0.357635 0.000000
0.248710 0.357321 0.000000
0.273765 0.357008 0.000000
0.298569 0.356694 0.000000
0.323149 0.356380 0.000000
0.347525 0.356066 0.000157
0.371713 0.355752 0.000839
0.395730 0.355438 0.001456
0.419587 0.355124 0.002045
0.443296 0.354810 0.002615
0.466866 0.354496 0.003172
0.490306 0.354182 0.003718
0.513623 0.353868 0.004256
0.536824 0.353554 0.004786
0.559916 0.353239 0.005310
0.582903 0.352925 0.005828
0.605791 0.352611 0.006341
0.628584 0.352297 0.006850
0.651286 0.351982 0.007354
0.673902 0.351668 0.007855
0.696435 0.351354 0.008352
0.718887 0.351039 0.008846
0.741263 0.350725 0.009337
0.763565 0.350410 0.009825
0.785795 0.350096 0.010310
0.807956 0.349781 0.010793
0.034551 0.395659 0.000000
0.064675 0.395349 0.000000
0.093267 0.395039 0.000000
0.120911 0.394728 0.000000
0.147870 0.394418 0.000000
0.174295 0.394108 0.000000
0.200285 0.393797 0.000000
0.225908 0.393487 0.000000
0.251214 0.393176 0.000000
0.276243 0.392866 0.000000
0.301024 0.392555 0.000000
0.325582 0.392244 0.000000
0.349938 0.391934 0.000000
0.374109 0.391623 0.000000
0.398109 0.391312 0.000637
0.421951 0.391002 0.001267
0.445646 0.390691 0.001863
0.469203 0.390380 0.002438
0.492630 0.390070 0.002999
0.515936 0.389759 0.003549
0.539126 0.389448 0.004089
0.562207 0.389137 0.004621
0.585184 0.388826 0.005147
0.608062 0.388515 0.005666
0.630846 0.388204 0.006181
0.653539 0.387893 0.006691
0.676147 0.387582 0.007197
0.698671 0.387271 0.007699
0.721116 0.386960 0.008197
0.743484 0.386649 0.008692
0.765779 0.386338 0.009183
0.788002 0.386027 0.009672
0.810157 0.385716 0.010159
0.037649 0.431134 0.000000
0.067573 0.430827 0.000000
0.096054 0.430519 0.000000
0.123620 0.430212 0.000000
0.150520 0.429904 0.000000
0.176898 0.429597 0.000000
0.202849 0.429289 0.000000
0.228438 0.428982 0.000000
0.253715 0.428674 0.000000
0.278718 0.428366 0.000000
0.303476 0.428059 0.000000
0.328013 0.427751 0.000000
0.352350 0.427443 0.000000
0.376504 0.427136 0.000000
0.400488 0.426828 0.000000
0.424314 0.426520 0.000427
0.447995 0.426213 0.001075
0.471539 0.425905 0.001679
0.494953 0.425597 0.002260
0.518247 0.425289 0.002825
0.541426 0.424981 0.003378
0.564496 0.424673 0.003921
0.587463 0.424365 0.004455
0.610332 0.424058 0.004983
0.633107 0.423750 0.005504
0.655792 0.423442 0.006021
0.678391 0.423134 0.006532
0.700907 0.422826 0.007039
0.723344 0.422517 0.007542
0.745705 0.422209 0.008041
0.767992 0.421901 0.008537
0.790209 0.421593 0.009030
0.812356 0.421285 0.009520
0.040719 0.466290 0.000000
0.070457 0.465985 0.000000
0.098831 0.465680 0.000000
0.126322 0.465375 0.000000
0.153165 0.465071 0.000000
0.179497 0.464766 0.000000
0.205409 0.464461 0.000000
0.230965 0.464156 0.000000
0.256214 0.463851 0.000000
0.281191 0.463546 0.000000
0.305926 0.463241 0.000000
0.330442 0.462936 0.000000
0.354760 0.462631 0.000000
0.378896 0.462326 0.000000
0.402864 0.462021 0.000000
0.426676 0.461716 0.000000
0.450342 0.461411 0.000204
0.473873 0.461106 0.000878
0.497275 0.460801 0.001493
0.520557 0.460496 0.002081
0.543725 0.460190 0.002650
0.566785 0.459885 0.003206
0.589742 0.459580 0.003752
0.612601 0.459275 0.004289
0.635367 0.458969 0.004819
0.658043 0.458664 0.005342
0.680634 0.458359 0.005860
0.703142 0.458054 0.006373
0.725571 0.457748 0.006881
0.747925 0.457443 0.007385
0.770205 0.457137 0.007885
0.792414 0.456832 0.008382
0.814555 0.456526 0.008876
0.043764 0.501156 0.000000
0.073329 0.500854 0.000000
0.101599 0.500552 0.000000
0.129018 0.500249 0.000000
0.155805 0.499947 0.000000
0.182091 0.499644 0.000000
0.207966 0.499342 0.000000
0.233489 0.499039 0.000000
0.258709 0.498737 0.000000
0.283661 0.498434 0.000000
0.308373 0.498132 0.000000
0.332870 0.497829 0.000000
0.357169 0.497527 0.000000
0.381287 0.497224 0.000000
0.405239 0.496921 0.000000
0.429036 0.496619 0.000000
0.452689 0.496316 0.000000
0.476206 0.496013 0.000000
0.499596 0.495711 0.000677
0.522867 0.495408 0.001304
0.546023 0.495105 0.001899
0.569073 0.494803 0.002473
0.592020 0.494500 0.003033
0.614869 0.494197 0.003582
0.637626 0.493894 0.004122
0.660294 0.493591 0.004654
0.682876 0.493288 0.005179
0.705376 0.492986 0.005698
0.727798 0.492683 0.006213
0.750144 0.492380 0.006722
0.772417 0.492077 0.007228
0.794619 0.491774 0.007729
0.816754 0.491471 0.008227
0.046785 0.535758 0.000000
0.076188 0.535457 0.000000
0.104360 0.535157 0.000000
0.131708 0.534857 0.000000
0.158440 0.534557 0.000000
0.184682 0.534257 0.000000
0.210519 0.533956 0.000000
0.236011 0.533656 0.000000
0.261202 0.533356 0.000000
0.286129 0.533056 0.000000
0.310819 0.532755 0.000000
0.335295 0.532455 0.000000
0.359575 0.532155 0.000000
0.383677 0.531854 0.000000
0.407613 0.531554 0.000000
0.431395 0.531254 0.000000
0.455033 0.530953 0.000000
0.478538 0.530653 0.000000
0.501916 0.530352 0.000000
0.525175 0.530052 0.000469
0.548320 0.529751 0.001113
0.571359 0.529451 0.001716
0.594297 0.529150 0.002295
0.617137 0.528850 0.002860
0.639884 0.528549 0.003411
0.662543 0.528249 0.003954
0.685117 0.527948 0.004488
0.707610 0.527647 0.005015
0.730024 0.527347 0.005536
0.752362 0.527046 0.006052
0.774628 0.526745 0.006563
0.796824 0.526445 0.007070
0.818952 0.526144 0.007573
0.049786 0.570115 0.000000
0.079036 0.569817 0.000000
0.107112 0.569518 0.000000
0.134391 0.569220 0.000000
0.161070 0.568922 0.000000
0.187269 0.568624 0.000000
0.213069 0.568326 0.000000
0.238529 0.568028 0.000000
0.263693 0.567729 0.000000
0.288595 0.567431 0.000000
0.313262 0.567133 0.000000
0.337718 0.566835 0.000000
0.361980 0.566536 0.000000
0.386064 0.566238 0.000000
0.409985 0.565940 0.000000
0.433752 0.565641 0.000000
0.457377 0.565343 0.000000
0.480868 0.565045 0.000000
0.504234 0.564746 0.000000
0.527481 0.564448 0.000000
0.550617 0.564150 0.000249
0.573645 0.563851 0.000917
0.596572 0.563553 0.001530
0.619403 0.563254 0.002116
0.642142 0.562956 0.002685
0.664792 0.562657 0.003240
0.687358 0.562359 0.003785
0.709842 0.562060 0.004322
0.732249 0.561762 0.004851
0.754580 0.561463 0.005374
0.776839 0.561164 0.005891
0.799027 0.560866 0.006404
0.821149 0.560567 0.006912
0.052766 0.604245 0.000000
0.081872 0.603949 0.000000
0.109857 0.603653 0.000000
0.137069 0.603357 0.000000
0.163695 0.603061 0.000000
0.189851 0.602764 0.000000
0.215615 0.602468 0.000000
0.241044 0.602172 0.000000
0.266181 0.601875 0.000000
0.291058 0.601579 0.000000
0.315704 0.601283 0.000000
0.340139 0.600986 0.000000
0.364383 0.600690 0.000000
0.388451 0.600394 0.000000
0.412355 0.600097 0.000000
0.436108 0.599801 0.000000
0.459719 0.599504 0.000000
0.483198 0.599208 0.000000
0.506551 0.598911 0.000000
0.529787 0.598615 0.000000
0.552912 0.598318 0.000000
0.575930 0.598022 0.000000
0.598847 0.597725 0.000717
0.621669 0.597429 0.001342
0.644398 0.597132 0.001935
0.667040 0.596836 0.002508
0.689598 0.596539 0.003067
0.712074 0.596243 0.003616
0.734473 0.595946 0.004155
0.756797 0.595649 0.004686
0.779049 0.595353 0.005211
0.801231 0.595056 0.005730
0.823345 0.594759 0.006244
0.055728 0.638165 0.000000
0.084698 0.637871 0.000000
0.112594 0.637576 0.000000
0.139741 0.637282 0.000000
0.166316 0.636987 0.000000
0.192430 0.636693 0.000000
0.218158 0.636398 0.000000
0.243557 0.636104 0.000000
0.268666 0.635809 0.000000
0.293519 0.635515 0.000000
0.318143 0.635220 0.000000
0.342559 0.634926 0.000000
0.366784 0.634631 0.000000
0.390835 0.634337 0.000000
0.414724 0.634042 0.000000
0.438462 0.633747 0.000000
0.462060 0.633453 0.000000
0.485526 0.633158 0.000000
0.508868 0.632863 0.000000
0.532092 0.632569 0.000000
0.555205 0.632274 0.000000
0.578213 0.631979 0.000000
0.601121 0.631685 0.000000
0.623933 0.631390 0.000510
0.646654 0.631095 0.001151
0.669287 0.630800 0.001752
0.691837 0.630505 0.002331
0.714305 0.630211 0.002894
0.736696 0.629916 0.003445
0.759013 0.629621 0.003987
0.781258 0.629326 0.004521
0.803433 0.629031 0.005047
0.825541 0.628736 0.005568
0.058673 0.671888 0.000000
0.087513 0.671595 0.000000
0.115324 0.671302 0.000000
0.142408 0.671009 0.000000
0.168933 0.670717 0.000000
0.195005 0.670424 0.000000
0.220698 0.670131 0.000000
0.246066 0.669838 0.000000
0.271149 0.669545 0.000000
0.295978 0.669252 0.000000
0.320580 0.668960 0.000000
0.344976 0.668667 0.000000
0.369184 0.668374 0.000000
0.393218 0.668081 0.000000
0.417091 0.667788 0.000000
0.440815 0.667495 0.000000
0.464400 0.667202 0.000000
0.487853 0.666909 0.000000
0.511182 0.666616 0.000000
0.534396 0.666323 0.000000
0.557498 0.666030 0.000000
0.580496 0.665737 0.000000
0.603394 0.665444 0.000000
0.626197 0.665151 0.000000
0.648909 0.664858 0.000294
0.671534 0.664565 0.000956
0.694075 0.664272 0.001567
0.716536 0.663978 0.002152
0.738919 0.663685 0.002719
0.761229 0.663392 0.003274
0.783466 0.663099 0.003818
0.805635 0.662806 0.004354
0.827736 0.662513 0.004883
0.061602 0.705425 0.000000
0.090319 0.705134 0.000000
0.118046 0.704843 0.000000
0.145069 0.704551 0.000000
0.171544 0.704260 0.000000
0.197576 0.703969 0.000000
0.223235 0.703678 0.000000
0.248573 0.703386 0.000000
0.273629 0.703095 0.000000
0.298435 0.702804 0.000000
0.323016 0.702512 0.000000
0.347392 0.702221 0.000000
0.371582 0.701930 0.000000
0.395599 0.701638 0.000000
0.419457 0.701347 0.000000
0.443167 0.701056 0.000000
0.466738 0.700764 0.000000
0.490178 0.700473 0.000000
0.513496 0.700182 0.000000
0.536698 0.699890 0.000000
0.559790 0.699599 0.000000
0.582778 0.699307 0.000000
0.605666 0.699016 0.000000
0.628460 0.698724 0.000000
0.651163 0.698433 0.000000
0.673779 0.698141 0.000054
0.696312 0.697850 0.000757
0.718765 0.697558 0.001379
0.741141 0.697267 0.001971
0.763443 0.696975 0.002543
0.785674 0.696683 0.003101
0.807836 0.696392 0.003649
0.829931 0.696100 0.004188
0.064515 0.738788 0.000000
0.093114 0.738498 0.000000
0.120762 0.738208 0.000000
0.147724 0.737919 0.000000
0.174152 0.737629 0.000000
0.200144 0.737339 0.000000
0.225769 0.737049 0.000000
0.251077 0.736759 0.000000
0.276107 0.736470 0.000000
0.300889 0.736180 0.000000
0.325449 0.735890 0.000000
0.349806 0.735600 0.000000
0.373978 0.735310 0.000000
0.397979 0.735020 0.000000
0.421822 0.734731 0.000000
0.445517 0.734441 0.000000
0.469075 0.734151 0.000000
0.492503 0.733861 0.000000
0.515809 0.733571 0.000000
0.539000 0.733281 0.000000
0.562081 0.732991 0.000000
0.585059 0.732701 0.000000
0.607937 0.732411 0.000000
0.630722 0.732121 0.000000
0.653416 0.731831 0.000000
0.676024 0.731541 0.000000
0.698549 0.731251 0.000000
0.720994 0.730961 0.000552
0.743363 0.730671 0.001189
0.765657 0.730381 0.001788
0.787881 0.730091 0.002366
0.810036 0.729801 0.002928
0.832125 0.729511 0.003479
0.067414 0.771985 0.000000
0.095901 0.771697 0.000000
0.123471 0.771409 0.000000
0.150375 0.771120 0.000000
0.176755 0.770832 0.000000
0.202708 0.770544 0.000000
0.228299 0.770255 0.000000
0.253578 0.769967 0.000000
0.278582 0.769679 0.000000
0.303341 0.769390 0.000000
0.327880 0.769102 0.000000
0.352218 0.768813 0.000000
0.376372 0.768525 0.000000
0.400357 0.768236 0.000000
0.424185 0.767948 0.000000
0.447866 0.767659 0.000000
0.471411 0.767371 0.000000
0.494826 0.767082 0.000000
0.518120 0.766794 0.000000
0.541300 0.766505 0.000000
0.564371 0.766217 0.000000
0.587338 0.765928 0.000000
0.610208 0.765640 0.000000
0.632983 0.765351 0.000000
0.655668 0.765063 0.000000
0.678268 0.764774 0.000000
0.700784 0.764485 0.000000
0.723222 0.764197 0.000000
0.745583 0.763908 0.000338
0.767871 0.763619 0.000995
0.790088 0.763331 0.001603
0.812236 0.763042 0.002187
0.834318 0.762753 0.002754
0.070300 0.805027 0.000000
0.098679 0.804740 0.000000
0.126174 0.804453 0.000000
0.153020 0.804166 0.000000
0.179354 0.803879 0.000000
0.205268 0.803592 0.000000
0.230827 0.803305 0.000000
0.256077 0.803018 0.000000
0.281055 0.802731 0.000000
0.305791 0.802444 0.000000
0.330309 0.802156 0.000000
0.354628 0.801869 0.000000
0.378765 0.801582 0.000000
0.402734 0.801295 0.000000
0.426547 0.801008 0.000000
0.450214 0.800721 0.000000
0.473745 0.800434 0.000000
0.497148 0.800147 0.000000
0.520431 0.799859 0.000000
0.543599 0.799572 0.000000
0.566660 0.799285 0.000000
0.589617 0.798998 0.000000
0.612477 0.798710 0.000000
0.635243 0.798423 0.000000
0.657920 0.798136 0.000000
0.680511 0.797849 0.000000
0.703019 0.797561 0.000000
0.725449 0.797274 0.000000
0.747803 0.796987 0.000000
0.770084 0.796700 0.000105
0.792293 0.796412 0.000797
0.814435 0.796125 0.001416
0.836510 0.795838 0.002006
0.073172 0.837920 0.000000
0.101448 0.837634 0.000000
0.128870 0.837348 0.000000
0.155660 0.837062 0.000000
0.181949 0.836777 0.000000
0.207825 0.836491 0.000000
0.233351 0.836205 0.000000
0.258572 0.835919 0.000000
0.283526 0.835634 0.000000
0.308239 0.835348 0.000000
0.332737 0.835062 0.000000
0.357037 0.834776 0.000000
0.381156 0.834490 0.000000
0.405109 0.834204 0.000000
0.428907 0.833919 0.000000
0.452560 0.833633 0.000000
0.476078 0.833347 0.000000
0.499469 0.833061 0.000000
0.522740 0.832775 0.000000
0.545897 0.832489 0.000000
0.568947 0.832203 0.000000
0.591895 0.831917 0.000000
0.614745 0.831631 0.000000
0.637502 0.831345 0.000000
0.660170 0.831059 0.000000
0.682753 0.830773 0.000000
0.705254 0.830487 0.000000
0.727676 0.830201 0.000000
0.750022 0.829915 0.000000
0.772296 0.829629 0.000000
0.794498 0.829343 0.000000
0.816633 0.829057 0.000593
0.838702 0.828771 0.001226
0.076032 0.870671 0.000000
0.104209 0.870387 0.000000
0.131560 0.870102 0.000000
0.158295 0.869817 0.000000
0.184540 0.869533 0.000000
0.210379 0.869248 0.000000
0.235872 0.868964 0.000000
0.261066 0.868679 0.000000
0.285994 0.868395 0.000000
0.310685 0.868110 0.000000
0.335162 0.867825 0.000000
0.359443 0.867541 0.000000
0.383546 0.867256 0.000000
0.407483 0.866971 0.000000
0.431265 0.866687 0.000000
0.454905 0.866402 0.000000
0.478410 0.866117 0.000000
0.501789 0.865833 0.000000
0.525048 0.865548 0.000000
0.548195 0.865263 0.000000
0.571234 0.864979 0.000000
0.594172 0.864694 0.000000
0.617012 0.864409 0.000000
0.639761 0.864124 0.000000
0.662420 0.863840 0.000000
0.684994 0.863555 0.000000
0.707487 0.863270 0.000000
0.729902 0.862985 0.000000
0.752241 0.862700 0.000000
0.774507 0.862416 0.000000
0.796703 0.862131 0.000000
0.818831 0.861846 0.000000
0.840894 0.861561 0.000381
0.078880 0.903287 0.000000
0.106962 0.903004 0.000000
0.134244 0.902721 0.000000
0.160926 0.902437 0.000000
0.187127 0.902154 0.000000
0.212929 0.901870 0.000000
0.238391 0.901587 0.000000
0.263556 0.901304 0.000000
0.288460 0.901020 0.000000
0.313129 0.900737 0.000000
0.337585 0.900453 0.000000
0.361848 0.900170 0.000000
0.385934 0.899886 0.000000
0.409855 0.899603 0.000000
0.433623 0.899319 0.000000
0.457249 0.899036 0.000000
0.480741 0.898752 0.000000
0.504107 0.898469 0.000000
0.527355 0.898185 0.000000
0.550491 0.897902 0.000000
0.573520 0.897618 0.000000
0.596448 0.897335 0.000000
0.619279 0.897051 0.000000
0.642018 0.896767 0.000000
0.664669 0.896484 0.000000
0.687235 0.896200 0.000000
0.709720 0.895916 0.000000
0.732127 0.895633 0.000000
0.754458 0.895349 0.000000
0.776717 0.895066 0.000000
0.798907 0.894782 0.000000
0.821028 0.894498 0.000000
0.843084 0.894215 0.000000
0.081717 0.935775 0.000000
0.109707 0.935492 0.000000
0.136922 0.935210 0.000000
0.163552 0.934928 0.000000
0.189710 0.934646 0.000000
0.215476 0.934363 0.000000
0.240906 0.934081 0.000000
0.266044 0.933799 0.000000
0.290923 0.933516 0.000000
0.315570 0.933234 0.000000
0.340007 0.932952 0.000000
0.364251 0.932669 0.000000
0.388320 0.932387 0.000000
0.412225 0.932104 0.000000
0.435979 0.931822 0.000000
0.459591 0.931540 0.000000
0.483070 0.931257 0.000000
0.506424 0.930975 0.000000
0.529661 0.930692 0.000000
0.552786 0.930410 0.000000
0.575805 0.930127 0.000000
0.598723 0.929845 0.000000
0.621545 0.929563 0.000000
0.644275 0.929280 0.000000
