presets/film_stocks/Fuji_FP-100C.cube
# 独寻胶片模拟 -- Fuji FP-100C
# Fujifilm, ISO 128, 2002, positive
TITLE "Fuji FP-100C"
LUT_3D_SIZE 9
DOMAIN_MIN 0.0 0.0 0.0
DOMAIN_MAX 1.0 1.0 1.0
0.000000 0.000000 0.000000
0.218899 0.012114 0.000000
0.373083 0.020647 0.000000
0.509637 0.028204 0.000000
0.635869 0.035190 0.000000
0.754942 0.041780 0.000000
0.868605 0.048071 0.000000
0.977957 0.054122 0.000000
1.000000 0.059977 0.000000
0.000000 0.214512 0.000000
0.212760 0.218436 0.000000
0.367862 0.222339 0.000000
0.504885 0.226221 0.000000
0.631424 0.230084 0.000000
0.750722 0.233927 0.000000
0.864559 0.237751 0.000000
0.974053 0.241557 0.000000
1.000000 0.245346 0.000000
0.000000 0.365605 0.000000
0.206566 0.368954 0.000000
0.362619 0.372293 0.000000
0.500121 0.375624 0.000000
0.626970 0.378945 0.000000
0.746494 0.382258 0.000000
0.860507 0.385562 0.000000
0.970144 0.388858 0.000000
1.000000 0.392146 0.000000
0.000000 0.499421 0.000000
0.200316 0.502472 0.000000
0.357353 0.505517 0.000000
0.495342 0.508557 0.000000
0.622507 0.511591 0.000000
0.742259 0.514620 0.000000
0.856449 0.517644 0.000000
0.966230 0.520662 0.000000
1.000000 0.523675 0.000000
0.000000 0.623123 0.000000
0.194008 0.625979 0.000000
0.352063 0.628830 0.000000
0.490550 0.631678 0.000000
0.618034 0.634522 0.000000
0.738017 0.637362 0.000000
0.852386 0.640198 0.000000
0.962311 0.643030 0.000000
1.000000 0.645859 0.000000
0.000000 0.739810 0.000000
0.187637 0.742522 0.000000
0.346749 0.745232 0.000000
0.485743 0.747938 0.000000
0.613551 0.750642 0.000000
0.733767 0.753343 0.000000
0.848317 0.756041 0.000000
0.958388 0.758736 0.000000
1.000000 0.761428 0.000000
0.000000 0.851194 0.000000
0.181200 0.853795 0.000000
0.341411 0.856394 0.000000
0.480923 0.858990 0.000000
0.609058 0.861584 0.000000
0.729510 0.864176 0.000000
0.844242 0.866765 0.000000
0.954460 0.869352 0.000000
1.000000 0.871936 0.000000
0.000000 0.958355 0.000000
0.174694 0.960865 0.000000
0.336048 0.963373 0.000000
0.476087 0.965879 0.000000
0.604555 0.968384 0.000000
0.725246 0.970886 0.000000
0.840161 0.973387 0.000000
0.950527 0.975885 0.000000
1.000000 0.978382 0.000000
0.000000 1.000000 0.000000
0.168115 1.000000 0.000000
0.330659 1.000000 0.000000
0.471237 1.000000 0.000000
0.600043 1.000000 0.000000
0.720974 1.000000 0.000000
0.836074 1.000000 0.000000
0.946589 1.000000 0.000000
1.000000 1.000000 0.000000
0.000000 0.000000 0.210017
0.208218 0.000000 0.204596
0.364015 0.000000 0.199133
0.501389 0.000000 0.193624
0.628155 0.000000 0.188067
0.747618 0.010635 0.182461
0.861585 0.019399 0.176803
0.971183 0.027071 0.171089
1.000000 0.034131 0.165318
0.000000 0.197965 0.207424
0.201983 0.201983 0.201983
0.358755 0.205978 0.196498
0.496614 0.209949 0.190967
0.623694 0.213898 0.185387
0.743385 0.217826 0.179756
0.857529 0.221732 0.174071
0.967271 0.225618 0.168331
1.000000 0.229483 0.162531
0.000000 0.351589 0.204822
0.195691 0.354977 0.199360
0.353471 0.358355 0.193853
0.491825 0.361724 0.188298
0.619224 0.365083 0.182694
0.739145 0.368433 0.177038
0.853467 0.371773 0.171327
0.963354 0.375105 0.165559
1.000000 0.378428 0.159729
0.000000 0.486682 0.202210
0.189336 0.489757 0.196726
0.348164 0.492825 0.191197
0.487022 0.495888 0.185619
0.614743 0.498946 0.179990
0.734897 0.501997 0.174308
0.849399 0.505043 0.168570
0.959431 0.508084 0.162772
1.000000 0.511119 0.156912
0.000000 0.611214 0.199587
0.182918 0.614086 0.194082
0.342833 0.616954 0.188530
0.482206 0.619818 0.182928
0.610253 0.622678 0.177274
0.730642 0.625534 0.171565
0.845326 0.628386 0.165799
0.955505 0.631235 0.159972
1.000000 0.634079 0.154081
0.000000 0.728505 0.196954
0.176431 0.731230 0.191427
0.337476 0.733952 0.185851
0.477374 0.736671 0.180224
0.605753 0.739387 0.174545
0.726380 0.742100 0.168809
0.841246 0.744810 0.163014
0.951573 0.747517 0.157157
1.000000 0.750221 0.151233
0.000000 0.840359 0.194311
0.169871 0.842970 0.188761
0.332094 0.845579 0.183161
0.472528 0.848185 0.177509
0.601243 0.850789 0.171803
0.722110 0.853390 0.166039
0.837161 0.855989 0.160215
0.947636 0.858586 0.154326
1.000000 0.861180 0.148369
0.000000 0.947901 0.191657
0.163235 0.950420 0.186083
0.326686 0.952936 0.180459
0.467667 0.955451 0.174781
0.596723 0.957963 0.169048
0.717833 0.960474 0.163255
0.833070 0.962983 0.157401
0.943695 0.965489 0.151480
1.000000 0.967994 0.145489
0.000000 1.000000 0.188992
0.156517 1.000000 0.183394
0.321250 1.000000 0.177744
0.462791 1.000000 0.172040
0.592192 1.000000 0.166279
0.713547 1.000000 0.160457
0.828972 1.000000 0.154571
0.939748 1.000000 0.148618
1.000000 1.000000 0.142591
0.000000 0.000000 0.357944
0.197369 0.000000 0.353334
0.354878 0.000000 0.348706
0.493099 0.000000 0.344059
0.620413 0.000000 0.339394
0.740273 0.000000 0.334709
0.854547 0.000000 0.330004
0.964395 0.000000 0.325280
1.000000 0.000000 0.320534
0.000000 0.180992 0.355737
0.191032 0.185118 0.351118
0.349577 0.189217 0.346481
0.488300 0.193290 0.341826
0.615935 0.197337 0.337151
0.736027 0.201359 0.332457
0.850481 0.205357 0.327743
0.960474 0.209332 0.323008
1.000000 0.213285 0.318252
0.000000 0.337403 0.353526
0.184630 0.340833 0.348898
0.344252 0.344252 0.344252
0.483487 0.347661 0.339588
0.611448 0.351061 0.334904
0.731774 0.354450 0.330200
0.846409 0.357829 0.325476
0.956549 0.361199 0.320731
1.000000 0.364560 0.315966
0.000000 0.473843 0.351310
0.178162 0.476942 0.346674
0.338903 0.480035 0.342019
0.478660 0.483122 0.337345
0.606950 0.486203 0.332652
0.727514 0.489278 0.327938
0.842331 0.492348 0.323205
0.952618 0.495412 0.318450
1.000000 0.498470 0.313674
0.000000 0.599235 0.349090
0.171622 0.602124 0.344445
0.333527 0.605009 0.339781
0.473818 0.607890 0.335098
0.602443 0.610766 0.330395
0.723246 0.613639 0.325672
0.838247 0.616507 0.320928
0.948683 0.619372 0.316163
1.000000 0.622233 0.311377
0.000000 0.717147 0.346866
0.165007 0.719885 0.342212
0.328126 0.722620 0.337539
0.468961 0.725352 0.332847
0.597925 0.728080 0.328134
0.718970 0.730806 0.323401
0.834158 0.733528 0.318647
0.944743 0.736248 0.313872
1.000000 0.738964 0.309075
0.000000 0.829482 0.344638
0.158311 0.832104 0.339975
0.322698 0.834722 0.335293
0.464088 0.837339 0.330591
0.593398 0.839952 0.325868
0.714687 0.842564 0.321125
0.830062 0.845173 0.316361
0.940798 0.847779 0.311576
1.000000 0.850383 0.306768
0.000000 0.937413 0.342406
0.151529 0.939940 0.337733
0.317242 0.942465 0.333042
0.459201 0.944988 0.328330
0.588859 0.947509 0.323598
0.710396 0.950028 0.318845
0.825960 0.952544 0.314070
0.936848 0.955059 0.309274
1.000000 0.957572 0.304456
0.000000 1.000000 0.340169
0.144654 1.000000 0.335487
0.311758 1.000000 0.330786
0.454298 1.000000 0.326064
0.584311 1.000000 0.321322
0.706098 1.000000 0.316559
0.821852 1.000000 0.311775
0.932892 1.000000 0.306968
1.000000 1.000000 0.302138
0.000000 0.000000 0.488956
0.186338 0.000000 0.484761
0.345670 0.000000 0.480554
0.484768 0.000000 0.476337
0.612641 0.000000 0.472108
0.732905 0.000000 0.467868
0.847492 0.000000 0.463616
0.957593 0.000000 0.459353
1.000000 0.000000 0.455078
0.000000 0.163526 0.486947
0.179888 0.167778 0.482746
0.340327 0.171998 0.478534
0.479945 0.176187 0.474312
0.608147 0.180346 0.470077
0.728647 0.184477 0.465832
0.843416 0.188580 0.461575
0.953664 0.192657 0.457305
1.000000 0.196708 0.453024
0.000000 0.323036 0.484935
0.173368 0.326511 0.480729
0.334959 0.329974 0.476512
0.475106 0.333427 0.472284
0.603642 0.336868 0.468044
0.724381 0.340300 0.463793
0.839334 0.343720 0.459530
0.949730 0.347131 0.455255
1.000000 0.350532 0.450968
0.000000 0.460898 0.482920
0.166773 0.464022 0.478709
0.329564 0.467141 0.474487
0.470253 0.470253 0.470253
0.599127 0.473359 0.466008
0.720108 0.476459 0.461751
0.835245 0.479553 0.457483
0.945791 0.482641 0.453202
1.000000 0.485723 0.448909
0.000000 0.587183 0.480904
0.160099 0.590090 0.476687
0.324143 0.592992 0.472459
0.465385 0.595891 0.468220
0.594602 0.598784 0.463969
0.715826 0.601674 0.459707
0.831151 0.604560 0.455433
0.941847 0.607441 0.451146
1.000000 0.610318 0.446848
0.000000 0.705735 0.478884
0.153340 0.708486 0.474662
0.318695 0.711234 0.470429
0.460502 0.713979 0.466184
0.590067 0.716720 0.461928
0.711538 0.719459 0.457660
0.827051 0.722194 0.453380
0.937898 0.724926 0.449088
1.000000 0.727655 0.444783
0.000000 0.818563 0.476862
0.146491 0.821194 0.472635
0.313218 0.823823 0.468396
0.455603 0.826450 0.464146
0.585521 0.829074 0.459884
0.707241 0.831696 0.455610
0.822945 0.834315 0.451324
0.933944 0.836931 0.447026
1.000000 0.839545 0.442715
0.000000 0.926890 0.474837
0.139544 0.929425 0.470605
0.307713 0.931959 0.466360
0.450688 0.934490 0.462105
0.580964 0.937019 0.457837
0.702937 0.939547 0.453557
0.818832 0.942072 0.449266
0.929985 0.944595 0.444962
1.000000 0.947116 0.440645
0.000000 1.000000 0.472810
0.132492 1.000000 0.468572
0.302178 1.000000 0.464322
0.445757 1.000000 0.460061
0.576397 1.000000 0.455787
0.698624 1.000000 0.451502
0.814714 1.000000 0.447204
0.926022 1.000000 0.442894
1.000000 1.000000 0.438572
0.000000 0.000000 0.610066
0.175108 0.000000 0.606141
0.336388 0.000000 0.602209
0.476394 0.000000 0.598269
0.604840 0.000000 0.594321
0.725516 0.000000 0.590365
0.840419 0.000000 0.586401
0.950776 0.000000 0.582430
1.000000 0.000000 0.578450
0.000000 0.145480 0.608186
0.168533 0.149881 0.604257
0.331001 0.154244 0.600321
0.471545 0.158570 0.596378
0.600328 0.162861 0.592426
0.721244 0.167118 0.588466
0.836333 0.171343 0.584499
0.946838 0.175536 0.580523
1.000000 0.179700 0.576539
0.000000 0.308475 0.606304
0.161881 0.311998 0.602372
0.325587 0.315508 0.598432
0.466681 0.319007 0.594485
0.595806 0.322494 0.590529
0.716965 0.325970 0.586566
0.832240 0.329435 0.582594
0.942896 0.332890 0.578615
1.000000 0.336333 0.574627
0.000000 0.447842 0.604420
0.155145 0.450994 0.600485
0.320146 0.454139 0.596541
0.461801 0.457278 0.592590
0.591273 0.460410 0.588631
0.712678 0.463536 0.584663
0.828142 0.466656 0.580688
0.938948 0.469769 0.576705
1.000000 0.472876 0.572713
0.000000 0.575057 0.602535
0.148321 0.577982 0.598596
0.314677 0.580903 0.594648
0.456906 0.583819 0.590693
0.586730 0.586730 0.586730
0.708384 0.589638 0.582759
0.824037 0.592541 0.578780
0.934996 0.595439 0.574792
1.000000 0.598334 0.570797
0.000000 0.694268 0.600648
0.141401 0.697032 0.596705
0.309179 0.699794 0.592754
0.451996 0.702552 0.588795
0.582177 0.705306 0.584828
0.704082 0.708058 0.580853
0.819926 0.710806 0.576870
0.931038 0.713552 0.572878
1.000000 0.716294 0.568879
0.000000 0.807599 0.598759
0.134378 0.810241 0.594812
0.303652 0.812881 0.590857
0.447069 0.815518 0.586895
0.577612 0.818152 0.582924
0.699771 0.820784 0.578945
0.815809 0.823414 0.574958
0.927076 0.826041 0.570962
1.000000 0.828665 0.566959
0.000000 0.916330 0.596868
0.127242 0.918875 0.592918
0.298095 0.921417 0.588959
0.442126 0.923957 0.584993
0.573037 0.926495 0.581018
0.695453 0.929031 0.577035
0.811686 0.931564 0.573044
0.923108 0.934096 0.569044
1.000000 0.936626 0.565037
0.000000 1.000000 0.594976
0.119985 1.000000 0.591021
0.292506 1.000000 0.587059
0.437166 1.000000 0.583089
0.568451 1.000000 0.579110
0.691127 1.000000 0.575123
0.807556 1.000000 0.571128
0.919135 1.000000 0.567125
1.000000 1.000000 0.563113
0.000000 0.000000 0.724307
0.163657 0.000000 0.720580
0.327028 0.000000 0.716848
0.467975 0.000000 0.713109
0.597009 0.000000 0.709364
0.718103 0.000000 0.705614
0.833329 0.000000 0.701857
0.943944 0.000000 0.698095
1.000000 0.000000 0.694326
0.000000 0.126735 0.722522
0.156944 0.131318 0.718792
0.321595 0.135853 0.715056
0.463100 0.140344 0.711315
0.592479 0.144791 0.707568
0.713819 0.149199 0.703814
0.829232 0.153567 0.700055
0.939998 0.157898 0.696289
1.000000 0.162195 0.692518
0.000000 0.293704 0.720735
0.150144 0.297279 0.717002
0.316133 0.300840 0.713264
0.458209 0.304389 0.709520
0.587939 0.307925 0.705769
0.709526 0.311450 0.702013
0.825129 0.314962 0.698251
0.936047 0.318463 0.694483
1.000000 0.321952 0.690708
0.000000 0.434672 0.718947
0.143250 0.437852 0.715211
0.310643 0.441025 0.711470
0.453303 0.444191 0.707723
0.583388 0.447351 0.703970
0.705226 0.450504 0.700211
0.821019 0.453650 0.696446
0.932091 0.456790 0.692674
1.000000 0.459923 0.688897
0.000000 0.562854 0.717157
0.136255 0.565798 0.713419
0.305124 0.568737 0.709675
0.448380 0.571671 0.705925
0.578827 0.574601 0.702169
0.700918 0.577527 0.698407
0.816904 0.580448 0.694639
0.928130 0.583365 0.690865
1.000000 0.586277 0.687084
0.000000 0.682743 0.715366
0.129151 0.685521 0.711625
0.299575 0.688297 0.707878
0.443441 0.691068 0.704126
0.574254 0.693837 0.700367
0.696602 0.696602 0.696602
0.812782 0.699364 0.692831
0.924163 0.702122 0.689054
1.000000 0.704878 0.685270
0.000000 0.796590 0.713574
0.121927 0.799243 0.709830
0.293995 0.801894 0.706081
0.438486 0.804542 0.702325
0.569671 0.807187 0.698563
0.692278 0.809830 0.694795
0.808655 0.812470 0.691021
0.920192 0.815107 0.687241
1.000000 0.817742 0.683455
0.000000 0.905735 0.711781
0.114572 0.908288 0.708034
0.288383 0.910839 0.704281
0.433514 0.913387 0.700523
0.565077 0.915934 0.696758
0.687946 0.918479 0.692987
0.804520 0.921021 0.689210
0.916215 0.923561 0.685427
1.000000 0.926100 0.681638
0.000000 1.000000 0.709986
0.107073 1.000000 0.706236
0.282737 1.000000 0.702481
0.428525 1.000000 0.698719
0.560471 1.000000 0.694952
0.683605 1.000000 0.691178
0.800380 1.000000 0.687398
0.912234 1.000000 0.683612
1.000000 1.000000 0.679819
0.000000 0.000000 0.833358
0.151960 0.000000 0.829785
0.317588 0.000000 0.826207
0.459511 0.000000 0.822625
0.589147 0.000000 0.819038
0.710668 0.000000 0.815446
0.826220 0.000000 0.811850
0.937098 0.000000 0.808249
1.000000 0.000000 0.804643
0.000000 0.107113 0.831646
0.145092 0.111927 0.828071
0.312106 0.116680 0.824491
0.454608 0.121375 0.820906
0.584599 0.126016 0.817317
0.706370 0.130607 0.813723
0.822112 0.135150 0.810125
0.933143 0.139647 0.806521
1.000000 0.144101 0.802913
0.000000 0.278707 0.829933
0.138125 0.282338 0.826356
0.306594 0.285954 0.822774
0.449690 0.289557 0.819187
0.580040 0.293147 0.815595
0.702064 0.296723 0.811999
0.817999 0.300286 0.808398
0.929183 0.303837 0.804792
1.000000 0.307375 0.801182
0.000000 0.421381 0.828219
0.131050 0.424591 0.824639
0.301053 0.427793 0.821055
0.444756 0.430988 0.817466
0.575471 0.434176 0.813872
0.697750 0.437357 0.810274
0.813879 0.440531 0.806671
0.925218 0.443699 0.803062
1.000000 0.446859 0.799449
0.000000 0.550571 0.826504
0.123859 0.553534 0.822922
0.295481 0.556492 0.819336
0.439805 0.559446 0.815744
0.570890 0.562395 0.812148
0.693428 0.565339 0.808547
0.809752 0.568279 0.804942
0.921248 0.571214 0.801331
1.000000 0.574145 0.797716
0.000000 0.671160 0.824788
0.116541 0.673952 0.821204
0.289878 0.676742 0.817615
0.434837 0.679528 0.814021
0.566299 0.682310 0.810423
0.689098 0.685089 0.806820
0.805620 0.687865 0.803212
0.917273 0.690637 0.799599
1.000000 0.693406 0.795981
0.000000 0.785536 0.823071
0.109081 0.788200 0.819484
0.284241 0.790862 0.815893
0.429853 0.793520 0.812297
0.561696 0.796177 0.808697
0.684760 0.798830 0.805091
0.801481 0.801481 0.801481
0.913292 0.804129 0.797866
1.000000 0.806775 0.794246
0.000000 0.895101 0.821352
0.101466 0.897663 0.817764
0.278571 0.900223 0.814170
0.424851 0.902781 0.810572
0.557082 0.905337 0.806969
0.680413 0.907890 0.803362
0.797336 0.910441 0.799749
0.909307 0.912990 0.796132
1.000000 0.915537 0.792509
0.000000 1.000000 0.819633
0.093674 1.000000 0.816042
0.272866 1.000000 0.812447
0.419831 1.000000 0.808846
0.552457 1.000000 0.805241
0.676058 1.000000 0.801631
0.793184 1.000000 0.798016
0.905316 1.000000 0.794396
1.000000 1.000000 0.790771
0.000000 0.000000 0.938273
0.139987 0.000000 0.934825
0.308062 0.000000 0.931373
0.450999 0.000000 0.927918
0.581253 0.000000 0.924459
0.703209 0.000000 0.920995
0.819093 0.000000 0.917528
0.930236 0.000000 0.914057
1.000000 0.000000 0.910582
0.000000 0.086339 0.936621
0.132942 0.091464 0.933171
0.302529 0.096504 0.929718
0.446069 0.101467 0.926260
0.576686 0.106357 0.922799
0.698897 0.111181 0.919334
0.814974 0.115943 0.915865
0.926272 0.120647 0.912392
1.000000 0.125297 0.908915
0.000000 0.263464 0.934968
0.125783 0.267156 0.931516
0.296965 0.270832 0.928061
0.441123 0.274494 0.924602
0.572109 0.278141 0.921139
0.694578 0.281773 0.917672
0.810850 0.285392 0.914201
0.922304 0.288997 0.910726
1.000000 0.292588 0.907247
0.000000 0.407963 0.933314
0.118499 0.411204 0.929861
0.291370 0.414437 0.926404
0.436159 0.417662 0.922943
0.567520 0.420880 0.919478
0.690250 0.424091 0.916009
0.806719 0.427295 0.912536
0.918330 0.430491 0.909059
1.000000 0.433680 0.905579
0.000000 0.538205 0.931660
0.111079 0.541188 0.928204
0.285743 0.544166 0.924745
0.431179 0.547140 0.921283
0.562921 0.550109 0.917816
0.685914 0.553073 0.914345
0.802582 0.556032 0.910870
0.914351 0.558986 0.907392
1.000000 0.561936 0.903909
0.000000 0.659516 0.930004
0.103506 0.662323 0.926547
0.280082 0.665127 0.923086
0.426182 0.667928 0.919621
0.558310 0.670724 0.916153
0.681569 0.673518 0.912680
0.798438 0.676307 0.909204
0.910367 0.679094 0.905723
1.000000 0.681877 0.902238
0.000000 0.774434 0.928348
0.095764 0.777110 0.924889
0.274386 0.779783 0.921426
0.421167 0.782453 0.917959
0.553688 0.785120 0.914489
0.677217 0.787785 0.911014
0.794288 0.790447 0.907536
0.906377 0.793106 0.904053
1.000000 0.795763 0.900567
0.000000 0.884430 0.926690
0.087828 0.887001 0.923230
0.268655 0.889570 0.919765
0.416134 0.892137 0.916297
0.549054 0.894702 0.912824
0.672856 0.897264 0.909348
0.790132 0.899825 0.905867
0.902383 0.902383 0.902383
1.000000 0.904939 0.898894
0.000000 0.990455 0.925032
0.079671 0.992940 0.921570
0.262887 0.995424 0.918103
0.411082 0.997906 0.914633
0.544408 1.000000 0.911158
0.668486 1.000000 0.907680
0.785969 1.000000 0.904198
0.898383 1.000000 0.900711
1.000000 1.000000 0.897221
0.000000 0.000000 1.000000
0.127697 0.000000 1.000000
0.298447 0.000000 1.000000
0.442439 0.000000 1.000000
0.573327 0.000000 1.000000
0.695727 0.000000 1.000000
0.811947 0.000000 1.000000
0.923359 0.000000 1.000000
1.000000 0.000000 1.000000
0.000000 0.063921 1.000000
0.120448 0.069507 1.000000
0.292861 0.074962 1.000000
0.437480 0.080299 1.000000
0.568741 0.085533 1.000000
0.691401 0.090672 1.000000
0.807818 0.095724 1.000000
0.919387 0.100698 1.000000
1.000000 0.105600 1.000000
0.000000 0.247951 1.000000
0.113065 0.251710 1.000000
0.287242 0.255452 1.000000
0.432505 0.259178 1.000000
0.564145 0.262888 1.000000
0.687067 0.266582 1.000000
0.803682 0.270260 1.000000
0.915409 0.273924 1.000000
1.000000 0.277573 1.000000
0.000000 0.394411 1.000000
0.105535 0.397685 1.000000
0.281590 0.400950 1.000000
0.427512 0.404208 1.000000
0.559537 0.407457 1.000000
0.682725 0.410699 1.000000
0.799540 0.413934 1.000000
0.911426 0.417160 1.000000
1.000000 0.420380 1.000000
0.000000 0.525753 1.000000
0.097839 0.528757 1.000000
0.275904 0.531756 1.000000
0.422502 0.534750 1.000000
0.554917 0.537740 1.000000
0.678375 0.540724 1.000000
0.795392 0.543703 1.000000
0.907438 0.546677 1.000000
1.000000 0.549647 1.000000
0.000000 0.647810 1.000000
0.089958 0.650633 1.000000
0.270182 0.653452 1.000000
0.417473 0.656267 1.000000
0.550286 0.659078 1.000000
0.674016 0.661886 1.000000
0.791237 0.664691 1.000000
0.903445 0.667492 1.000000
1.000000 0.670289 1.000000
0.000000 0.763285 1.000000
0.081863 0.765972 1.000000
0.264424 0.768657 1.000000
0.412427 0.771338 1.000000
0.545644 0.774017 1.000000
0.669648 0.776693 1.000000
0.787076 0.779367 1.000000
0.899447 0.782037 1.000000
1.000000 0.784705 1.000000
0.000000 0.873720 1.000000
0.073520 0.876301 1.000000
0.258628 0.878879 1.000000
0.407362 0.881455 1.000000
0.540989 0.884029 1.000000
0.665273 0.886601 1.000000
0.782908 0.889170 1.000000
0.895443 0.891738 1.000000
1.000000 0.894303 1.000000
0.000000 0.980105 1.000000
0.064882 0.982599 1.000000
0.252792 0.985090 1.000000
0.402278 0.987580 1.000000
0.536323 0.990068 1.000000
0.660888 0.992553 1.000000
0.778733 0.995037 1.000000
0.891433 0.997520 1.000000
1.000000 1.000000 1.000000
