presets/film_stocks/Fuji_Provia_100F.cube
# 独寻胶片模拟 -- Fuji Provia 100F
# Fujifilm, ISO 100, 2000, positive
TITLE "Fuji Provia 100F"
LUT_3D_SIZE 9
DOMAIN_MIN 0.0 0.0 0.0
DOMAIN_MAX 1.0 1.0 1.0
0.000000 0.000000 0.000000
0.169071 0.004893 0.000000
0.317491 0.009188 0.000000
0.459002 0.013283 0.000000
0.596205 0.017254 0.000000
0.730290 0.021134 0.000000
0.861942 0.024944 0.000000
0.991606 0.028696 0.000000
1.000000 0.032400 0.000000
0.000000 0.163581 0.000000
0.162739 0.166709 0.000000
0.311552 0.169832 0.000000
0.453279 0.172949 0.000000
0.590631 0.176060 0.000000
0.724828 0.179166 0.000000
0.856571 0.182266 0.000000
0.986309 0.185361 0.000000
1.000000 0.188451 0.000000
0.000000 0.307182 0.000000
0.156383 0.310121 0.000000
0.305601 0.313057 0.000000
0.447550 0.315990 0.000000
0.585051 0.318921 0.000000
0.719363 0.321849 0.000000
0.851196 0.324774 0.000000
0.981010 0.327696 0.000000
1.000000 0.330616 0.000000
0.000000 0.444098 0.000000
0.150000 0.446931 0.000000
0.299639 0.449762 0.000000
0.441812 0.452592 0.000000
0.579467 0.455419 0.000000
0.713893 0.458245 0.000000
0.845818 0.461069 0.000000
0.975708 0.463891 0.000000
1.000000 0.466712 0.000000
0.000000 0.576846 0.000000
0.143591 0.579606 0.000000
0.293665 0.582365 0.000000
0.436068 0.585122 0.000000
0.573877 0.587878 0.000000
0.708419 0.590633 0.000000
0.840436 0.593386 0.000000
0.970403 0.596138 0.000000
1.000000 0.598889 0.000000
0.000000 0.706578 0.000000
0.137152 0.709282 0.000000
0.287678 0.711986 0.000000
0.430316 0.714689 0.000000
0.568281 0.717390 0.000000
0.702941 0.720091 0.000000
0.835051 0.722790 0.000000
0.965095 0.725489 0.000000
1.000000 0.728186 0.000000
0.000000 0.833955 0.000000
0.130683 0.836616 0.000000
0.281680 0.839275 0.000000
0.424556 0.841934 0.000000
0.562680 0.844592 0.000000
0.697458 0.847248 0.000000
0.829663 0.849905 0.000000
0.959784 0.852560 0.000000
1.000000 0.855214 0.000000
0.000000 0.959408 0.000000
0.124182 0.962032 0.000000
0.275668 0.964654 0.000000
0.418788 0.967276 0.000000
0.557074 0.969898 0.000000
0.691971 0.972518 0.000000
0.824271 0.975138 0.000000
0.954470 0.977757 0.000000
1.000000 0.980375 0.000000
0.000000 1.000000 0.000000
0.117647 1.000000 0.000000
0.269643 1.000000 0.000000
0.413012 1.000000 0.000000
0.551462 1.000000 0.000000
0.686480 1.000000 0.000000
0.818875 1.000000 0.000000
0.949153 1.000000 0.000000
1.000000 1.000000 0.000000
0.000000 0.000000 0.157148
0.157389 0.000000 0.153173
0.306543 0.000000 0.149188
0.448456 0.000000 0.145192
0.585934 0.000000 0.141185
0.720227 0.000015 0.137167
0.852046 0.004900 0.133137
0.981848 0.009195 0.129094
1.000000 0.013290 0.125039
0.000000 0.147851 0.154992
0.151011 0.151011 0.151011
0.300582 0.154164 0.147020
0.442720 0.157311 0.143019
0.580350 0.160452 0.139006
0.714758 0.163586 0.134981
0.846669 0.166715 0.130944
0.976546 0.169837 0.126895
1.000000 0.172954 0.122833
0.000000 0.292451 0.152833
0.144606 0.295404 0.148846
0.294610 0.298354 0.144850
0.436977 0.301301 0.140842
0.574761 0.304246 0.136823
0.709285 0.307187 0.132792
0.841288 0.310126 0.128748
0.971242 0.313062 0.124692
1.000000 0.315995 0.120623
0.000000 0.429912 0.150670
0.138172 0.432754 0.146679
0.288626 0.435594 0.142676
0.431226 0.438432 0.138662
0.569167 0.441269 0.134636
0.703807 0.444103 0.130599
0.835903 0.446936 0.126548
0.965934 0.449767 0.122485
1.000000 0.452596 0.118409
0.000000 0.563031 0.148505
0.131708 0.565798 0.144508
0.282629 0.568563 0.140499
0.425467 0.571327 0.136479
0.563566 0.574089 0.132446
0.698325 0.576851 0.128402
0.830515 0.579611 0.124345
0.960624 0.582369 0.120274
1.000000 0.585127 0.116190
0.000000 0.693043 0.146337
0.125213 0.695753 0.142333
0.276619 0.698462 0.138318
0.419701 0.701170 0.134292
0.557961 0.703877 0.130253
0.692839 0.706582 0.126202
0.825124 0.709287 0.122137
0.955311 0.711991 0.118059
1.000000 0.714693 0.113967
0.000000 0.820646 0.144165
0.118683 0.823310 0.140156
0.270597 0.825974 0.136134
0.413926 0.828637 0.132101
0.552350 0.831299 0.128056
0.687349 0.833960 0.123997
0.819729 0.836620 0.119926
0.949994 0.839280 0.115840
1.000000 0.841938 0.111740
0.000000 0.946286 0.141991
0.112117 0.948912 0.137975
0.264561 0.951539 0.133947
0.408144 0.954164 0.129907
0.546733 0.956789 0.125855
0.681854 0.959413 0.121789
0.814330 0.962036 0.117710
0.944675 0.964659 0.113617
1.000000 0.967281 0.109509
0.000000 1.000000 0.139812
0.105513 1.000000 0.135790
0.258511 1.000000 0.131756
0.402353 1.000000 0.127709
0.541110 1.000000 0.123650
0.676355 1.000000 0.119577
0.808928 1.000000 0.115490
0.939353 1.000000 0.111389
1.000000 1.000000 0.107273
0.000000 0.000000 0.295101
0.145621 0.000000 0.291372
0.295555 0.000000 0.287637
0.437885 0.000000 0.283898
0.575645 0.000000 0.280154
0.710151 0.000000 0.276405
0.842139 0.000000 0.272650
0.972081 0.000000 0.268891
1.000000 0.000000 0.265126
0.000000 0.131952 0.293078
0.139192 0.135148 0.289346
0.289573 0.138336 0.285608
0.432136 0.141517 0.281866
0.570052 0.144690 0.278120
0.704674 0.147857 0.274368
0.836755 0.151017 0.270610
0.966774 0.154170 0.266848
1.000000 0.157317 0.263080
0.000000 0.277644 0.291053
0.132733 0.280613 0.287318
0.283578 0.283578 0.283578
0.426378 0.286540 0.279833
0.564452 0.289500 0.276084
0.699193 0.292456 0.272329
0.831367 0.295409 0.268569
0.961464 0.298359 0.264804
1.000000 0.301306 0.261033
0.000000 0.415678 0.289026
0.126242 0.418529 0.285289
0.277571 0.421379 0.281546
0.420613 0.424227 0.277799
0.558848 0.427072 0.274047
0.693707 0.429916 0.270289
0.825976 0.432758 0.266526
0.956151 0.435599 0.262758
1.000000 0.438437 0.258985
0.000000 0.549182 0.286998
0.119718 0.551955 0.283258
0.271550 0.554728 0.279513
0.414840 0.557498 0.275763
0.553237 0.560268 0.272008
0.688217 0.563036 0.268247
0.820582 0.565802 0.264482
0.950835 0.568568 0.260711
1.000000 0.571332 0.256934
0.000000 0.679482 0.284969
0.113158 0.682198 0.281226
0.265516 0.684912 0.277478
0.409059 0.687625 0.273726
0.547621 0.690337 0.269968
0.682723 0.693048 0.266204
0.815184 0.695758 0.262436
0.945516 0.698467 0.258662
1.000000 0.701174 0.254882
0.000000 0.807314 0.282938
0.106560 0.809983 0.279193
0.259468 0.812651 0.275442
0.403269 0.815319 0.271687
0.541999 0.817985 0.267926
0.677225 0.820650 0.264160
0.809782 0.823315 0.260388
0.940195 0.825979 0.256611
1.000000 0.828641 0.252829
0.000000 0.933144 0.280906
0.099921 0.935775 0.277158
0.253407 0.938405 0.273405
0.397472 0.941034 0.269646
0.536372 0.943662 0.265882
0.671721 0.946290 0.262113
0.804377 0.948917 0.258339
0.934870 0.951543 0.254559
1.000000 0.954169 0.250773
0.000000 1.000000 0.278872
0.093237 1.000000 0.275121
0.247330 1.000000 0.271365
0.391665 1.000000 0.267604
0.530738 1.000000 0.263837
0.666214 1.000000 0.260065
0.798968 1.000000 0.256288
0.929542 1.000000 0.252505
1.000000 1.000000 0.248716
0.000000 0.000000 0.426633
0.133756 0.000000 0.423039
0.284527 0.000000 0.419442
0.427289 0.000000 0.415842
0.565338 0.000000 0.412239
0.700060 0.000000 0.408632
0.832219 0.000000 0.405023
0.962304 0.000000 0.401410
1.000000 0.000000 0.397794
0.000000 0.115859 0.424683
0.127271 0.119095 0.421087
0.278521 0.122323 0.417488
0.421525 0.125543 0.413887
0.559734 0.128754 0.410282
0.694575 0.131958 0.406674
0.826829 0.135153 0.403062
0.956991 0.138341 0.399448
1.000000 0.141522 0.395830
0.000000 0.262759 0.422732
0.120752 0.265743 0.419134
0.272503 0.268725 0.415534
0.415753 0.271703 0.411930
0.554125 0.274678 0.408324
0.689086 0.277649 0.404714
0.821435 0.280618 0.401101
0.951676 0.283583 0.397485
1.000000 0.286545 0.393865
0.000000 0.401395 0.420780
0.114198 0.404256 0.417181
0.266471 0.407116 0.413579
0.409973 0.409973 0.409973
0.548510 0.412829 0.406365
0.683592 0.415682 0.402754
0.816038 0.418534 0.399139
0.946358 0.421384 0.395521
1.000000 0.424231 0.391899
0.000000 0.535298 0.418827
0.107606 0.538078 0.415226
0.260426 0.540858 0.411622
0.404185 0.543635 0.408015
0.542889 0.546412 0.404405
0.678094 0.549187 0.400792
0.810637 0.551960 0.397175
0.941036 0.554732 0.393556
1.000000 0.557503 0.389932
0.000000 0.665895 0.416873
0.100973 0.668615 0.413271
0.254366 0.671335 0.409665
0.398389 0.674053 0.406056
0.537262 0.676771 0.402445
0.672592 0.679487 0.398830
0.805232 0.682202 0.395211
0.935712 0.684917 0.391590
1.000000 0.687630 0.387965
0.000000 0.793961 0.414918
0.094297 0.796634 0.411314
0.248292 0.799307 0.407707
0.392584 0.801978 0.404097
0.531629 0.804649 0.400483
0.667085 0.807319 0.396866
0.799824 0.809988 0.393246
0.930385 0.812656 0.389623
1.000000 0.815323 0.385996
0.000000 0.919985 0.412962
0.087573 0.922619 0.409357
0.242203 0.925253 0.405748
0.386771 0.927885 0.402136
0.525991 0.930517 0.398520
0.661574 0.933149 0.394902
0.794412 0.935779 0.391280
0.925054 0.938409 0.387655
1.000000 0.941038 0.384026
0.000000 1.000000 0.411006
0.080796 1.000000 0.407398
0.236099 1.000000 0.403788
0.380949 1.000000 0.400174
0.520346 1.000000 0.396557
0.656058 1.000000 0.392936
0.788997 1.000000 0.389313
0.919721 1.000000 0.385686
1.000000 1.000000 0.382055
0.000000 0.000000 0.554160
0.121785 0.000000 0.550659
0.273456 0.000000 0.547156
0.416667 0.000000 0.543651
0.555012 0.000000 0.540143
0.689954 0.000000 0.536633
0.822288 0.000000 0.533121
0.952517 0.000000 0.529607
1.000000 0.000000 0.526090
0.000000 0.099537 0.552260
0.115237 0.102823 0.548758
0.267426 0.106098 0.545254
0.410888 0.109363 0.541747
0.549398 0.112618 0.538238
0.684461 0.115864 0.534727
0.816892 0.119101 0.531214
0.947199 0.122329 0.527698
1.000000 0.125549 0.524180
0.000000 0.247788 0.550360
0.108651 0.250790 0.546856
0.261383 0.253789 0.543351
0.405101 0.256784 0.539843
0.543778 0.259776 0.536333
0.678964 0.262764 0.532821
0.811491 0.265748 0.529306
0.941878 0.268730 0.525789
1.000000 0.271708 0.522270
0.000000 0.387061 0.548458
0.102025 0.389933 0.544954
0.255325 0.392803 0.541447
0.399306 0.395670 0.537938
0.538152 0.398536 0.534427
0.673462 0.401400 0.530914
0.806087 0.404261 0.527398
0.936554 0.407121 0.523880
1.000000 0.409978 0.520359
0.000000 0.521378 0.546557
0.095356 0.524166 0.543051
0.249253 0.526952 0.539543
0.393503 0.529737 0.536033
0.532521 0.532521 0.532521
0.667956 0.535303 0.529006
0.800679 0.538083 0.525489
0.931227 0.540862 0.521969
1.000000 0.543640 0.518447
0.000000 0.652279 0.544654
0.088639 0.655005 0.541148
0.243167 0.657730 0.537638
0.387691 0.660454 0.534127
0.526883 0.663177 0.530613
0.662445 0.665899 0.527097
0.795268 0.668620 0.523579
0.925897 0.671340 0.520058
1.000000 0.674058 0.516535
0.000000 0.780585 0.542751
0.081872 0.783263 0.539243
0.237065 0.785940 0.535733
0.381870 0.788616 0.532220
0.521239 0.791291 0.528705
0.656930 0.793966 0.525188
0.789853 0.796639 0.521668
0.920564 0.799311 0.518146
1.000000 0.801983 0.514622
0.000000 0.906806 0.540848
0.075047 0.909444 0.537338
0.230948 0.912082 0.533827
0.376040 0.914718 0.530313
0.515589 0.917354 0.526796
0.651410 0.919989 0.523278
0.784434 0.922623 0.519757
0.915228 0.925257 0.516233
1.000000 0.927890 0.512708
0.000000 1.000000 0.538943
0.068161 1.000000 0.535433
0.224814 1.000000 0.531920
0.370202 1.000000 0.528405
0.509933 1.000000 0.524887
0.645886 1.000000 0.521367
0.779012 1.000000 0.517845
0.909889 1.000000 0.514320
1.000000 1.000000 0.510793
0.000000 0.000000 0.678789
0.109695 0.000000 0.675359
0.262339 0.000000 0.671927
0.406017 0.000000 0.668493
0.544667 0.000000 0.665058
0.679834 0.000000 0.661620
0.812345 0.000000 0.658181
0.942720 0.000000 0.654740
1.000000 0.000000 0.651298
0.000000 0.082943 0.676928
0.103075 0.086288 0.673496
0.256284 0.089619 0.670064
0.400223 0.092939 0.666629
0.539042 0.096247 0.663192
0.674333 0.099543 0.659754
0.806942 0.102829 0.656314
0.937396 0.106104 0.652872
1.000000 0.109369 0.649428
0.000000 0.232726 0.675066
0.096413 0.235747 0.671633
0.250215 0.238764 0.668200
0.394421 0.241778 0.664764
0.533411 0.244787 0.661326
0.668827 0.247793 0.657887
0.801535 0.250795 0.654446
0.932070 0.253794 0.651003
1.000000 0.256789 0.647559
0.000000 0.372674 0.673203
0.089705 0.375557 0.669770
0.244130 0.378437 0.666335
0.388610 0.381316 0.662898
0.527775 0.384192 0.659460
0.663317 0.387066 0.656020
0.796124 0.389938 0.652578
0.926740 0.392808 0.649134
1.000000 0.395675 0.645688
0.000000 0.507420 0.671340
0.082945 0.510216 0.667906
0.238031 0.513010 0.664470
0.382791 0.515802 0.661033
0.522132 0.518593 0.657593
0.657803 0.521382 0.654152
0.790710 0.524170 0.650709
0.921408 0.526957 0.647264
1.000000 0.529742 0.643817
0.000000 0.638635 0.669476
0.076131 0.641367 0.666041
0.231916 0.644098 0.662605
0.376963 0.646827 0.659166
0.516483 0.649556 0.655726
0.652283 0.652283 0.652283
0.785292 0.655010 0.648839
0.916072 0.657735 0.645394
1.000000 0.660459 0.641946
0.000000 0.767186 0.667612
0.069254 0.769869 0.664176
0.225785 0.772550 0.660739
0.371125 0.775231 0.657299
0.510828 0.777911 0.653858
0.646760 0.780590 0.650415
0.779870 0.783268 0.646970
0.910734 0.785945 0.643523
1.000000 0.788621 0.640074
0.000000 0.893608 0.665748
0.062309 0.896250 0.662311
0.219637 0.898891 0.658872
0.365279 0.901532 0.655431
0.505167 0.904172 0.651989
0.641231 0.906811 0.648545
0.774444 0.909449 0.645099
0.905392 0.912086 0.641651
1.000000 0.914723 0.638202
0.000000 1.000000 0.663883
0.055284 1.000000 0.660445
0.213472 1.000000 0.657005
0.359423 1.000000 0.653563
0.499499 1.000000 0.650120
0.635698 1.000000 0.646675
0.769015 1.000000 0.643228
0.900047 1.000000 0.639779
1.000000 1.000000 0.636328
0.000000 0.000000 0.801157
0.097470 0.000000 0.797784
0.251175 0.000000 0.794409
0.395339 0.000000 0.791032
0.534302 0.000000 0.787654
0.669698 0.000000 0.784274
0.802390 0.000000 0.780893
0.932912 0.000000 0.777511
1.000000 0.000000 0.774127
0.000000 0.066006 0.799327
0.090769 0.069427 0.795952
0.245093 0.072830 0.792576
0.389530 0.076218 0.789199
0.528667 0.079590 0.785820
0.664189 0.082948 0.782440
0.796980 0.086293 0.779058
0.927583 0.089625 0.775675
1.000000 0.092945 0.772290
0.000000 0.217566 0.797495
0.084018 0.220608 0.794120
0.238997 0.223645 0.790743
0.383712 0.226678 0.787365
0.523025 0.229707 0.783985
0.658675 0.232731 0.780604
0.791566 0.235752 0.777222
0.922251 0.238770 0.773838
1.000000 0.241783 0.770452
0.000000 0.358231 0.795664
0.077212 0.361125 0.792287
0.232884 0.364017 0.788910
0.377885 0.366907 0.785531
0.517377 0.369794 0.782151
0.653157 0.372679 0.778769
0.786149 0.375562 0.775385
0.916916 0.378442 0.772001
1.000000 0.381321 0.768614
0.000000 0.493424 0.793831
0.070346 0.496228 0.790455
0.226755 0.499029 0.787076
0.372049 0.501829 0.783697
0.511723 0.504628 0.780315
0.647633 0.507425 0.776933
0.780727 0.510221 0.773549
0.911578 0.513014 0.770163
1.000000 0.515807 0.766776
0.000000 0.624961 0.791999
0.063412 0.627699 0.788621
0.220610 0.630436 0.785242
0.366204 0.633172 0.781862
0.506063 0.635906 0.778480
0.642106 0.638639 0.775096
0.775302 0.641371 0.771711
0.906237 0.644102 0.768325
1.000000 0.646832 0.764937
0.000000 0.753764 0.790166
0.056401 0.756451 0.786787
0.214448 0.759138 0.783408
0.360350 0.761823 0.780026
0.500396 0.764507 0.776643
0.636573 0.767191 0.773259
0.769873 0.769873 0.769873
0.900892 0.772555 0.766486
1.000000 0.775236 0.763097
0.000000 0.880391 0.788332
0.049301 0.883037 0.784953
0.208268 0.885682 0.781573
0.354486 0.888326 0.778190
0.494723 0.890970 0.774807
0.631036 0.893613 0.771422
0.764441 0.896255 0.768035
0.895545 0.898896 0.764647
1.000000 0.901536 0.761258
0.000000 1.000000 0.786499
0.042098 1.000000 0.783119
0.202069 1.000000 0.779737
0.348612 1.000000 0.776354
0.489043 1.000000 0.772970
0.625493 1.000000 0.769584
0.759004 1.000000 0.766197
0.890194 1.000000 0.762808
1.000000 1.000000 0.759417
0.000000 0.000000 0.921677
0.085089 0.000000 0.918350
0.239962 0.000000 0.915022
0.384632 0.000000 0.911693
0.523917 0.000000 0.908363
0.659547 0.000000 0.905031
0.792422 0.000000 0.901698
0.923095 0.000000 0.898364
1.000000 0.000000 0.895029
0.000000 0.048618 0.919871
0.078292 0.052141 0.916544
0.233852 0.055640 0.913215
0.378807 0.059117 0.909886
0.518270 0.062574 0.906555
0.654029 0.066012 0.903222
0.787005 0.069432 0.899889
0.917760 0.072836 0.896554
1.000000 0.076223 0.893218
0.000000 0.202300 0.918066
0.071436 0.205363 0.914738
0.227726 0.208422 0.911408
0.372972 0.211476 0.908078
0.512617 0.214526 0.904746
0.648507 0.217572 0.901413
0.781585 0.220613 0.898079
0.912422 0.223650 0.894744
1.000000 0.226683 0.891407
0.000000 0.343730 0.916259
0.064513 0.346636 0.912931
0.221583 0.349539 0.909601
0.367129 0.352441 0.906270
0.506958 0.355339 0.902938
0.642980 0.358236 0.899604
0.776160 0.361130 0.896269
0.907082 0.364022 0.892933
1.000000 0.366911 0.889596
0.000000 0.479389 0.914453
0.057515 0.482200 0.911124
0.215423 0.485010 0.907793
0.361276 0.487818 0.904461
0.501292 0.490624 0.901128
0.637448 0.493429 0.897794
0.770732 0.496232 0.894459
0.901738 0.499034 0.891122
1.000000 0.501834 0.887784
0.000000 0.611258 0.912646
0.050430 0.614002 0.909316
0.209246 0.616745 0.905985
0.355414 0.619486 0.902653
0.495620 0.622227 0.899319
0.631912 0.624966 0.895984
0.765300 0.627704 0.892648
0.896390 0.630441 0.889311
1.000000 0.633176 0.885972
0.000000 0.740318 0.910839
0.043245 0.743010 0.907508
0.203050 0.745701 0.904177
0.349542 0.748391 0.900843
0.489942 0.751080 0.897509
0.626370 0.753769 0.894174
0.759864 0.756456 0.890837
0.891040 0.759142 0.887499
1.000000 0.761828 0.884159
0.000000 0.867154 0.909032
0.035937 0.869804 0.905700
0.196836 0.872453 0.902368
0.343660 0.875101 0.899034
0.484257 0.877749 0.895699
0.620824 0.880395 0.892363
0.754424 0.883041 0.889025
0.885687 0.885687 0.885687
1.000000 0.888331 0.882347
0.000000 0.992154 0.907224
0.028476 0.994768 0.903892
0.190602 0.997382 0.900559
0.337768 0.999996 0.897224
0.478565 1.000000 0.893888
0.615272 1.000000 0.890552
0.748981 1.000000 0.887213
0.880330 1.000000 0.883874
1.000000 1.000000 0.880533
0.000000 0.000000 1.000000
0.072524 0.000000 1.000000
0.228695 0.000000 1.000000
0.373896 0.000000 1.000000
0.513512 0.000000 1.000000
0.649381 0.000000 1.000000
0.782442 0.000000 1.000000
0.913267 0.000000 1.000000
1.000000 0.000000 1.000000
0.000000 0.030566 1.000000
0.065613 0.034248 1.000000
0.222555 0.037891 1.000000
0.368054 0.041499 1.000000
0.507853 0.045076 1.000000
0.643854 0.048624 1.000000
0.777018 0.052147 1.000000
0.907926 0.055646 1.000000
1.000000 0.059123 1.000000
0.000000 0.186918 1.000000
0.058627 0.190005 1.000000
0.216399 0.193087 1.000000
0.362202 0.196165 1.000000
0.502189 0.199237 1.000000
0.638323 0.202305 1.000000
0.771591 0.205369 1.000000
0.902583 0.208427 1.000000
1.000000 0.211482 1.000000
0.000000 0.329167 1.000000
0.051557 0.332085 1.000000
0.210224 0.335002 1.000000
0.356341 0.337915 1.000000
0.496518 0.340826 1.000000
0.632787 0.343735 1.000000
0.766159 0.346641 1.000000
0.897236 0.349544 1.000000
1.000000 0.352446 1.000000
0.000000 0.465312 1.000000
0.044388 0.468131 1.000000
0.204031 0.470949 1.000000
0.350471 0.473766 1.000000
0.490840 0.476580 1.000000
0.627247 0.479393 1.000000
0.760724 0.482205 1.000000
0.891886 0.485014 1.000000
1.000000 0.487823 1.000000
0.000000 0.597524 1.000000
0.037101 0.600274 1.000000
0.197820 0.603023 1.000000
0.344591 0.605771 1.000000
0.485156 0.608517 1.000000
0.621701 0.611262 1.000000
0.755285 0.614007 1.000000
0.886533 0.616749 1.000000
1.000000 0.619491 1.000000
0.000000 0.726847 1.000000
0.029667 0.729544 1.000000
0.191589 0.732240 1.000000
0.338700 0.734935 1.000000
0.479465 0.737629 1.000000
0.616151 0.740322 1.000000
0.749842 0.743015 1.000000
0.881177 0.745706 1.000000
1.000000 0.748396 1.000000
0.000000 0.853896 1.000000
0.022040 0.856550 1.000000
0.185337 0.859204 1.000000
0.332800 0.861856 1.000000
0.473768 0.864508 1.000000
0.610595 0.867158 1.000000
0.744395 0.869808 1.000000
0.875818 0.872457 1.000000
1.000000 0.875106 1.000000
0.000000 0.979075 1.000000
0.014131 0.981693 1.000000
0.179065 0.984311 1.000000
0.326888 0.986927 1.000000
0.468064 0.989543 1.000000
0.605034 0.992158 1.000000
0.738944 0.994773 1.000000
0.870455 0.997387 1.000000
1.000000 1.000000 1.000000
