presets/film_stocks/Fujiflex_Crystal_Archive_New_Version.cube
# 独寻胶片模拟 -- Fujiflex Crystal Archive New Version
# Fujifilm, ISO 0, 0, negative
TITLE "Fujiflex Crystal Archive New Version"
LUT_3D_SIZE 9
DOMAIN_MIN 0.0 0.0 0.0
DOMAIN_MAX 1.0 1.0 1.0
0.000000 0.000000 0.000000
0.121060 0.000000 0.002511
0.226046 0.000000 0.004689
0.325716 0.000000 0.006756
0.422081 0.000000 0.008755
0.516062 0.000000 0.010704
0.608186 0.000000 0.012615
0.698794 0.000000 0.014494
0.788123 0.000000 0.016347
0.015134 0.173307 0.000000
0.131855 0.171948 0.000000
0.236149 0.170587 0.001791
0.335428 0.169224 0.004023
0.431524 0.167861 0.006118
0.525301 0.166496 0.008136
0.617261 0.165131 0.010099
0.707732 0.163763 0.012021
0.796945 0.162395 0.013910
0.028259 0.323605 0.000000
0.142554 0.322336 0.000000
0.246204 0.321066 0.000000
0.345109 0.319796 0.001036
0.440944 0.318525 0.003344
0.534522 0.317253 0.005472
0.626321 0.315981 0.007511
0.716658 0.314709 0.009490
0.805755 0.313435 0.011424
0.040719 0.466290 0.000000
0.153165 0.465071 0.000000
0.256214 0.463851 0.000000
0.354760 0.462631 0.000000
0.450342 0.461411 0.000204
0.543725 0.460190 0.002650
0.635367 0.458969 0.004819
0.725571 0.457748 0.006881
0.814555 0.456526 0.008876
0.052766 0.604245 0.000000
0.163695 0.603061 0.000000
0.266181 0.601875 0.000000
0.364383 0.600690 0.000000
0.459719 0.599504 0.000000
0.552912 0.598318 0.000000
0.644398 0.597132 0.001935
0.734473 0.595946 0.004155
0.823345 0.594759 0.006244
0.064515 0.738788 0.000000
0.174152 0.737629 0.000000
0.276107 0.736470 0.000000
0.373978 0.735310 0.000000
0.469075 0.734151 0.000000
0.562081 0.732991 0.000000
0.653416 0.731831 0.000000
0.743363 0.730671 0.001189
0.832125 0.729511 0.003479
0.076032 0.870671 0.000000
0.184540 0.869533 0.000000
0.285994 0.868395 0.000000
0.383546 0.867256 0.000000
0.478410 0.866117 0.000000
0.571234 0.864979 0.000000
0.662420 0.863840 0.000000
0.752241 0.862700 0.000000
0.840894 0.861561 0.000381
0.087359 1.000000 0.000000
0.194864 0.999263 0.000000
0.295843 0.998142 0.000000
0.393087 0.997020 0.000000
0.487725 0.995899 0.000000
0.580371 0.994778 0.000000
0.671410 0.993656 0.000000
0.761107 0.992534 0.000000
0.849653 0.991413 0.000000
0.098527 1.000000 0.000000
0.205128 1.000000 0.000000
0.305657 1.000000 0.000000
0.402604 1.000000 0.000000
0.497021 1.000000 0.000000
0.589492 1.000000 0.000000
0.680388 1.000000 0.000000
0.769962 1.000000 0.000000
0.858402 1.000000 0.000000
0.028789 0.000000 0.154055
0.142997 0.000000 0.155493
0.246622 0.000000 0.156929
0.345512 0.000000 0.158363
0.441336 0.000000 0.159797
0.534906 0.000000 0.161229
0.626698 0.000000 0.162659
0.717030 0.000000 0.164088
0.806122 0.000000 0.165516
0.041228 0.154982 0.152165
0.153605 0.153605 0.153605
0.256630 0.152227 0.155043
0.355162 0.150848 0.156480
0.450734 0.149467 0.157915
0.544108 0.148084 0.159349
0.635743 0.146701 0.160781
0.725943 0.145316 0.162212
0.814922 0.143929 0.163641
0.053261 0.306548 0.150273
0.164133 0.305272 0.151715
0.266595 0.303994 0.153155
0.364784 0.302716 0.154593
0.460109 0.301437 0.156030
0.553294 0.300158 0.157466
0.644774 0.298878 0.158900
0.734844 0.297598 0.160333
0.823711 0.296317 0.161764
0.064999 0.449921 0.148379
0.174586 0.448697 0.149822
0.276520 0.447473 0.151264
0.374377 0.446248 0.152705
0.469464 0.445023 0.154144
0.562463 0.443798 0.155581
0.653791 0.442572 0.157017
0.743733 0.441346 0.158452
0.832490 0.440119 0.159885
0.076508 0.588345 0.146481
0.184971 0.587156 0.147927
0.286405 0.585968 0.149371
0.383944 0.584779 0.150813
0.478799 0.583590 0.152254
0.571615 0.582400 0.153694
0.662795 0.581211 0.155132
0.752610 0.580021 0.156568
0.841259 0.578831 0.158003
0.087828 0.723239 0.144581
0.195293 0.722078 0.146029
0.296253 0.720916 0.147475
0.393484 0.719754 0.148919
0.488113 0.718592 0.150362
0.580751 0.717429 0.151804
0.671785 0.716267 0.153244
0.761476 0.715104 0.154682
0.850018 0.713941 0.156119
0.098989 0.855404 0.142678
0.205555 0.854264 0.144128
0.306065 0.853123 0.145576
0.403000 0.851983 0.147023
0.497408 0.850842 0.148468
0.589872 0.849701 0.149911
0.680762 0.848559 0.151353
0.770331 0.847418 0.152793
0.858767 0.846277 0.154232
0.110013 0.985350 0.140772
0.215760 0.984228 0.142224
0.315843 0.983105 0.143675
0.412490 0.981982 0.145123
0.506684 0.980858 0.146570
0.598977 0.979735 0.148016
0.689725 0.978612 0.149460
0.779175 0.977488 0.150902
0.867506 0.976364 0.152343
0.120917 1.000000 0.138864
0.225913 1.000000 0.140318
0.325588 1.000000 0.141770
0.421957 1.000000 0.143221
0.515941 1.000000 0.144670
0.608067 1.000000 0.146118
0.698676 1.000000 0.147564
0.788007 1.000000 0.149008
0.876235 1.000000 0.150451
0.053756 0.000000 0.287656
0.164570 0.000000 0.288999
0.267009 0.000000 0.290341
0.365184 0.000000 0.291682
0.460500 0.000000 0.293022
0.553676 0.000000 0.294362
0.645150 0.000000 0.295701
0.735214 0.000000 0.297040
0.824077 0.000000 0.298378
0.065483 0.136414 0.285893
0.175020 0.135018 0.287236
0.276932 0.133620 0.288579
0.374776 0.132220 0.289921
0.469854 0.130819 0.291262
0.562844 0.129416 0.292603
0.654167 0.128012 0.293943
0.744103 0.126606 0.295283
0.832856 0.125198 0.296621
0.076983 0.289387 0.284128
0.185403 0.288102 0.285473
0.286816 0.286816 0.286816
0.384342 0.285530 0.288159
0.479187 0.284243 0.289501
0.571996 0.282955 0.290843
0.663170 0.281667 0.292184
0.752980 0.280378 0.293524
0.841624 0.279089 0.294864
0.088296 0.433487 0.282362
0.195722 0.432258 0.283708
0.296663 0.431029 0.285052
0.393881 0.429799 0.286396
0.488501 0.428569 0.287739
0.581132 0.427338 0.289082
0.672159 0.426107 0.290423
0.761846 0.424876 0.291765
0.850382 0.423644 0.293105
0.099451 0.572397 0.280595
0.205981 0.571205 0.281941
0.306473 0.570013 0.283287
0.403396 0.568820 0.284632
0.497795 0.567627 0.285976
0.590252 0.566434 0.287319
0.681135 0.565241 0.288662
0.770700 0.564047 0.290004
0.859131 0.562854 0.291345
0.110470 0.707654 0.278827
0.216184 0.706490 0.280174
0.316250 0.705325 0.281520
0.412885 0.704160 0.282866
0.507070 0.702995 0.284211
0.599356 0.701830 0.285555
0.690098 0.700665 0.286899
0.779543 0.699499 0.288242
0.867869 0.698333 0.289584
0.121369 0.840107 0.277057
0.226335 0.838965 0.278405
0.325993 0.837822 0.279753
0.422351 0.836679 0.281099
0.516326 0.835536 0.282445
0.608445 0.834392 0.283790
0.699049 0.833249 0.285135
0.788375 0.832105 0.286479
0.876598 0.830961 0.287822
0.132161 0.970292 0.275286
0.236436 0.969167 0.276635
0.335704 0.968042 0.277984
0.431793 0.966917 0.279331
0.525564 0.965792 0.280678
0.617520 0.964667 0.282024
0.707987 0.963542 0.283370
0.797196 0.962416 0.284714
0.885318 0.961290 0.286058
0.142857 1.000000 0.273514
0.246490 1.000000 0.274864
0.345385 1.000000 0.276213
0.441213 1.000000 0.277562
0.534785 1.000000 0.278910
0.626579 1.000000 0.280257
0.716912 1.000000 0.281603
0.806006 1.000000 0.282949
0.894028 1.000000 0.284294
0.077458 0.000000 0.414491
0.185834 0.000000 0.415780
0.287227 0.000000 0.417070
0.384740 0.000000 0.418359
0.479576 0.000000 0.419647
0.572377 0.000000 0.420935
0.663545 0.000000 0.422223
0.753350 0.000000 0.423510
0.841989 0.000000 0.424797
0.088764 0.117563 0.412797
0.196150 0.116143 0.414087
0.297072 0.114722 0.415377
0.394278 0.113299 0.416667
0.488888 0.111873 0.417956
0.581512 0.110446 0.419244
0.672533 0.109017 0.420532
0.762215 0.107586 0.421820
0.850747 0.106152 0.423107
0.099913 0.272112 0.411102
0.206407 0.270819 0.412393
0.306882 0.269524 0.413684
0.403791 0.268229 0.414974
0.498182 0.266933 0.416263
0.590631 0.265637 0.417552
0.681509 0.264340 0.418841
0.771068 0.263042 0.420129
0.859495 0.261743 0.421417
0.110926 0.416984 0.409407
0.216609 0.415750 0.410698
0.316656 0.414515 0.411989
0.413280 0.413280 0.413280
0.507456 0.412045 0.414570
0.599735 0.410809 0.415860
0.690472 0.409572 0.417149
0.779911 0.408336 0.418438
0.868233 0.407098 0.419726
0.121821 0.556400 0.407711
0.226757 0.555204 0.409003
0.326398 0.554008 0.410294
0.422745 0.552812 0.411586
0.516711 0.551615 0.412876
0.608824 0.550419 0.414167
0.699422 0.549222 0.415457
0.788743 0.548024 0.416746
0.876962 0.546826 0.418035
0.132609 0.692032 0.406014
0.236856 0.690864 0.407306
0.336108 0.689697 0.408599
0.432186 0.688529 0.409890
0.525949 0.687361 0.411182
0.617897 0.686193 0.412473
0.708359 0.685024 0.413763
0.797563 0.683856 0.415053
0.885681 0.682687 0.416343
0.143301 0.824780 0.404316
0.246908 0.823635 0.405609
0.345787 0.822490 0.406902
0.441605 0.821344 0.408194
0.535168 0.820199 0.409486
0.626956 0.819053 0.410778
0.717284 0.817907 0.412069
0.806373 0.816761 0.413359
0.894391 0.815615 0.414650
0.153906 0.955207 0.402617
0.256914 0.954081 0.403911
0.355437 0.952954 0.405205
0.451001 0.951827 0.406498
0.544371 0.950700 0.407790
0.636001 0.949573 0.409082
0.726197 0.948446 0.410374
0.815173 0.947318 0.411665
0.903091 0.946190 0.412956
0.164432 1.000000 0.400918
0.266879 1.000000 0.402213
0.365057 1.000000 0.403507
0.460376 1.000000 0.404800
0.553556 1.000000 0.406093
0.645032 1.000000 0.407386
0.735097 1.000000 0.408678
0.823962 1.000000 0.409970
0.911782 1.000000 0.411261
0.100374 0.000000 0.537121
0.206834 0.000000 0.538375
0.307290 0.000000 0.539628
0.404187 0.000000 0.540881
0.498568 0.000000 0.542133
0.591011 0.000000 0.543386
0.681883 0.000000 0.544638
0.771437 0.000000 0.545889
0.859860 0.000000 0.547141
0.111383 0.098371 0.535475
0.217032 0.096924 0.536729
0.317063 0.095474 0.537983
0.413675 0.094021 0.539236
0.507842 0.092566 0.540489
0.600114 0.091108 0.541742
0.690845 0.089648 0.542994
0.780279 0.088186 0.544246
0.868597 0.086720 0.545498
0.122272 0.254716 0.533828
0.227179 0.253413 0.535083
0.326803 0.252109 0.536337
0.423138 0.250805 0.537590
0.517097 0.249499 0.538844
0.609202 0.248193 0.540097
0.699794 0.246886 0.541350
0.789110 0.245578 0.542602
0.877326 0.244270 0.543854
0.133056 0.400409 0.532181
0.237276 0.399169 0.533436
0.336512 0.397929 0.534690
0.432579 0.396688 0.535944
0.526333 0.395447 0.537198
0.618275 0.394205 0.538452
0.708731 0.392964 0.539705
0.797931 0.391721 0.540958
0.886044 0.390478 0.542211
0.143745 0.540352 0.530533
0.247325 0.539153 0.531788
0.346190 0.537953 0.533043
0.441997 0.536753 0.534298
0.535552 0.535552 0.535552
0.627334 0.534351 0.536806
0.717655 0.533150 0.538060
0.806740 0.531949 0.539313
0.894753 0.530748 0.540566
0.154346 0.676370 0.528885
0.257330 0.675199 0.530140
0.355838 0.674029 0.531396
0.451392 0.672858 0.532651
0.544754 0.671687 0.533905
0.636378 0.670516 0.535160
0.726568 0.669345 0.536414
0.815539 0.668173 0.537668
0.903453 0.667001 0.538921
0.164869 0.809421 0.527236
0.267293 0.808274 0.528492
0.365458 0.807126 0.529748
0.460767 0.805978 0.531003
0.553938 0.804830 0.532258
0.645408 0.803682 0.533513
0.735468 0.802534 0.534768
0.824328 0.801386 0.536022
0.912144 0.800237 0.537276
0.175317 0.940097 0.525586
0.277215 0.938968 0.526843
0.375049 0.937840 0.528099
0.470120 0.936711 0.529355
0.563106 0.935582 0.530610
0.654424 0.934452 0.531866
0.744356 0.933323 0.533121
0.833106 0.932194 0.534375
0.920825 0.931064 0.535629
0.185698 1.000000 0.523936
0.287097 1.000000 0.525193
0.384614 1.000000 0.526450
0.479453 1.000000 0.527706
0.572257 1.000000 0.528962
0.663426 1.000000 0.530218
0.753233 1.000000 0.531473
0.841874 1.000000 0.532728
0.929498 1.000000 0.533983
0.122724 0.000000 0.656717
0.227601 0.000000 0.657944
0.327209 0.000000 0.659170
0.423532 0.000000 0.660395
0.517482 0.000000 0.661621
0.609581 0.000000 0.662846
0.700167 0.000000 0.664071
0.789478 0.000000 0.665295
0.877689 0.000000 0.666520
0.133503 0.078756 0.655107
0.237695 0.077272 0.656334
0.336916 0.075785 0.657560
0.432972 0.074295 0.658786
0.526718 0.072801 0.660012
0.618653 0.071304 0.661237
0.709103 0.069804 0.662463
0.798298 0.068300 0.663688
0.886407 0.066792 0.664912
0.144188 0.237189 0.653497
0.247743 0.235875 0.654724
0.346593 0.234561 0.655950
0.442389 0.233246 0.657177
0.535936 0.231930 0.658403
0.627711 0.230613 0.659628
0.718027 0.229295 0.660854
0.807107 0.227977 0.662079
0.895116 0.226658 0.663304
0.154786 0.383758 0.651886
0.257746 0.382512 0.653113
0.356240 0.381266 0.654340
0.451783 0.380019 0.655567
0.545137 0.378772 0.656793
0.636754 0.377525 0.658019
0.726939 0.376277 0.659245
0.815906 0.375029 0.660471
0.903816 0.373780 0.661696
0.165305 0.524252 0.650274
0.267707 0.523048 0.651502
0.365858 0.521844 0.652729
0.461157 0.520640 0.653956
0.554320 0.519436 0.655183
0.645784 0.518231 0.656409
0.735839 0.517026 0.657636
0.824694 0.515821 0.658862
0.912506 0.514615 0.660087
0.175751 0.660668 0.648663
0.277627 0.659495 0.649890
0.375449 0.658321 0.651118
0.470509 0.657147 0.652345
0.563487 0.655973 0.653572
0.654799 0.654799 0.654799
0.744726 0.653625 0.656026
0.833472 0.652450 0.657252
0.921187 0.651275 0.658478
0.186129 0.794030 0.647050
0.287508 0.792880 0.648278
0.385012 0.791730 0.649506
0.479841 0.790580 0.650734
0.572638 0.789430 0.651961
0.663801 0.788279 0.653189
0.753603 0.787128 0.654415
0.842239 0.785978 0.655642
0.929859 0.784827 0.656868
0.196444 0.924960 0.645437
0.297352 0.923829 0.646666
0.394550 0.922698 0.647894
0.489154 0.921567 0.649122
0.581772 0.920436 0.650350
0.672790 0.919305 0.651577
0.762467 0.918174 0.652805
0.850997 0.917042 0.654032
0.938523 0.915910 0.655258
0.206699 1.000000 0.643824
0.307161 1.000000 0.645053
0.404062 1.000000 0.646282
0.498446 1.000000 0.647510
0.590891 1.000000 0.648738
0.681765 1.000000 0.649966
0.771321 1.000000 0.651194
0.859745 1.000000 0.652421
0.947177 1.000000 0.653648
0.144631 0.000000 0.773950
0.248161 0.000000 0.775154
0.346995 0.000000 0.776358
0.442781 0.000000 0.777562
0.536320 0.000000 0.778766
0.628088 0.000000 0.779969
0.718399 0.000000 0.781173
0.807474 0.000000 0.782376
0.895479 0.000000 0.783578
0.155226 0.058581 0.772369
0.258162 0.057047 0.773573
0.356641 0.055509 0.774778
0.452174 0.053966 0.775982
0.545520 0.052418 0.777186
0.637131 0.050865 0.778389
0.727310 0.049307 0.779593
0.816272 0.047743 0.780796
0.904178 0.046174 0.781999
0.165742 0.219517 0.770787
0.268121 0.218192 0.771992
0.366258 0.216867 0.773197
0.461547 0.215540 0.774401
0.554703 0.214213 0.775605
0.646160 0.212884 0.776809
0.736209 0.211555 0.778013
0.825060 0.210225 0.779216
0.912868 0.208894 0.780420
0.176185 0.367027 0.769205
0.278040 0.365775 0.770410
0.375848 0.364523 0.771615
0.470899 0.363270 0.772820
0.563869 0.362017 0.774024
0.655175 0.360763 0.775229
0.745097 0.359509 0.776433
0.833837 0.358254 0.777636
0.921549 0.356999 0.778840
0.186560 0.508097 0.767623
0.287919 0.506889 0.768828
0.385410 0.505681 0.770034
0.480230 0.504473 0.771238
0.573019 0.503264 0.772443
0.664176 0.502055 0.773648
0.753972 0.500846 0.774852
0.842604 0.499636 0.776056
0.930220 0.498426 0.777260
0.196872 0.644925 0.766040
0.297762 0.643748 0.767246
0.394947 0.642572 0.768451
0.489541 0.641395 0.769657
0.582153 0.640218 0.770862
0.673164 0.639041 0.772066
0.762837 0.637863 0.773271
0.851362 0.636685 0.774475
0.938883 0.635507 0.775679
0.207125 0.778606 0.764457
0.307569 0.777454 0.765663
0.404458 0.776301 0.766869
0.498833 0.775148 0.768074
0.591271 0.773996 0.769280
0.682139 0.772843 0.770485
0.771689 0.771689 0.771689
0.860109 0.770536 0.772894
0.947537 0.769383 0.774099
0.217322 0.909795 0.762874
0.317341 0.908662 0.764080
0.413945 0.907529 0.765286
0.508106 0.906396 0.766492
0.600374 0.905263 0.767697
0.691100 0.904130 0.768903
0.780531 0.902997 0.770108
0.868846 0.901863 0.771313
0.956183 0.900729 0.772517
0.227467 1.000000 0.761290
0.327081 1.000000 0.762497
0.423408 1.000000 0.763703
0.517360 1.000000 0.764909
0.609461 1.000000 0.766115
0.700049 1.000000 0.767320
0.789362 1.000000 0.768526
0.877574 1.000000 0.769731
0.964820 1.000000 0.770936
0.166179 0.000000 0.889253
0.268535 0.000000 0.890439
0.366658 0.000000 0.891625
0.461937 0.000000 0.892811
0.555085 0.000000 0.893996
0.646536 0.000000 0.895181
0.736580 0.000000 0.896367
0.825426 0.000000 0.897552
0.913230 0.000000 0.898736
0.176619 0.037590 0.887696
0.278452 0.035978 0.888882
0.376247 0.034358 0.890068
0.471288 0.032729 0.891254
0.564251 0.031092 0.892440
0.655550 0.029445 0.893625
0.745467 0.027788 0.894811
0.834203 0.026120 0.895996
0.921910 0.024440 0.897181
0.186991 0.201687 0.886138
0.288330 0.200350 0.887325
0.385808 0.199012 0.888511
0.480618 0.197673 0.889697
0.573400 0.196333 0.890883
0.664551 0.194991 0.892069
0.754342 0.193649 0.893255
0.842969 0.192306 0.894440
0.930582 0.190962 0.895625
0.197301 0.350211 0.884581
0.298171 0.348953 0.885767
0.395344 0.347694 0.886954
0.489929 0.346435 0.888140
0.582533 0.345175 0.889326
0.673538 0.343915 0.890512
0.763206 0.342654 0.891698
0.851726 0.341393 0.892884
0.939244 0.340131 0.894069
0.207551 0.491885 0.883022
0.307977 0.490673 0.884209
0.404854 0.489461 0.885396
0.499220 0.488248 0.886583
0.591650 0.487035 0.887769
0.682512 0.485822 0.888955
0.772058 0.484608 0.890141
0.860473 0.483394 0.891327
0.947898 0.482180 0.892513
0.217746 0.629140 0.881464
0.317748 0.627960 0.882651
0.414340 0.626780 0.883838
0.508492 0.625600 0.885025
0.600753 0.624420 0.886211
0.691473 0.623239 0.887398
0.780899 0.622058 0.888584
0.869210 0.620877 0.889770
0.956543 0.619696 0.890956
0.227889 0.763148 0.879905
0.327486 0.761993 0.881093
0.423802 0.760838 0.882280
0.517746 0.759683 0.883467
0.609839 0.758528 0.884654
0.700422 0.757372 0.885840
0.789730 0.756216 0.887027
0.877938 0.755061 0.888213
0.965180 0.753904 0.889399
0.237983 0.894602 0.878346
0.337192 0.893468 0.879534
0.433241 0.892333 0.880721
0.526981 0.891198 0.881908
0.618911 0.890062 0.883095
0.709358 0.888927 0.884282
0.798549 0.887791 0.885469
0.886656 0.886656 0.886656
0.973808 0.885520 0.887842
0.248029 1.000000 0.876787
0.346868 1.000000 0.877975
0.442657 1.000000 0.879162
0.536199 1.000000 0.880350
0.627969 1.000000 0.881537
0.718281 1.000000 0.882724
0.807358 1.000000 0.883911
0.895364 1.000000 0.885098
0.982427 1.000000 0.886285
0.187422 0.000000 1.000000
0.288741 0.000000 1.000000
0.386206 0.000000 1.000000
0.481007 0.000000 1.000000
0.573781 0.000000 1.000000
0.664925 0.000000 1.000000
0.754711 0.000000 1.000000
0.843335 0.000000 1.000000
0.930943 0.000000 1.000000
0.197729 0.015110 1.000000
0.298581 0.013320 1.000000
0.395741 0.011504 1.000000
0.490316 0.009655 1.000000
0.582913 0.007766 1.000000
0.673912 0.005824 1.000000
0.763575 0.003807 1.000000
0.852091 0.001655 1.000000
0.939605 0.000000 1.000000
0.207977 0.183682 0.999856
0.308384 0.182331 1.000000
0.405250 0.180979 1.000000
0.499607 0.179626 1.000000
0.592030 0.178271 1.000000
0.682886 0.176916 1.000000
0.772427 0.175559 1.000000
0.860837 0.174201 1.000000
0.948258 0.172842 1.000000
0.218170 0.333307 0.998318
0.318154 0.332042 0.999489
0.414735 0.330776 1.000000
0.508878 0.329510 1.000000
0.601131 0.328243 1.000000
0.691847 0.326976 1.000000
0.781268 0.325708 1.000000
0.869574 0.324440 1.000000
0.956903 0.323171 1.000000
0.228311 0.475614 0.996781
0.327891 0.474398 0.997952
0.424196 0.473181 0.999123
0.518131 0.471964 1.000000
0.610218 0.470746 1.000000
0.700795 0.469528 1.000000
0.790098 0.468310 1.000000
0.878301 0.467092 1.000000
0.965539 0.465873 1.000000
0.238402 0.613310 0.995243
0.337596 0.612128 0.996415
0.433633 0.610944 0.997586
0.527365 0.609761 0.998757
0.619289 0.608577 0.999928
0.709730 0.607393 1.000000
0.798917 0.606209 1.000000
0.887019 0.605025 1.000000
0.974167 0.603840 1.000000
0.248447 0.747656 0.993705
0.347271 0.746499 0.994877
0.443049 0.745341 0.996048
0.536582 0.744183 0.997219
0.628346 0.743025 0.998391
0.718653 0.741867 0.999562
0.807725 0.740709 1.000000
0.895727 0.739550 1.000000
0.982786 0.738391 1.000000
0.258447 0.879381 0.992167
0.356916 0.878245 0.993339
0.452442 0.877107 0.994510
0.545782 0.875970 0.995682
0.637388 0.874833 0.996853
0.727564 0.873695 0.998024
0.816523 0.872558 0.999195
0.904426 0.871420 1.000000
0.991397 0.870282 1.000000
0.268405 1.000000 0.990628
0.366532 1.000000 0.991800
0.461814 1.000000 0.992972
0.554964 1.000000 0.994144
0.646417 1.000000 0.995315
0.736463 1.000000 0.996487
0.825310 1.000000 0.997658
0.913115 1.000000 0.998829
1.000000 1.000000 1.000000
