presets/film_stocks/Fuji_Crystal_Archive_DPII.cube
# 独寻胶片模拟 -- Fuji Crystal Archive DPII
# Fujifilm, ISO 0, 2006, negative
TITLE "Fuji Crystal Archive DPII"
LUT_3D_SIZE 9
DOMAIN_MIN 0.0 0.0 0.0
DOMAIN_MAX 1.0 1.0 1.0
0.000000 0.000000 0.000000
0.120676 0.000000 0.002482
0.225330 0.000000 0.004634
0.324683 0.000000 0.006677
0.420743 0.000000 0.008652
0.514426 0.000000 0.010579
0.606258 0.000000 0.012467
0.696579 0.000000 0.014324
0.785625 0.000000 0.016155
0.015343 0.173167 0.000000
0.131639 0.171833 0.000000
0.235590 0.170498 0.001712
0.334547 0.169163 0.003923
0.430334 0.167826 0.005996
0.523810 0.166488 0.007991
0.615475 0.165148 0.009933
0.705657 0.163808 0.011833
0.794584 0.162466 0.013700
0.028648 0.323342 0.000000
0.142503 0.322097 0.000000
0.245801 0.320852 0.000000
0.344379 0.319606 0.000901
0.439901 0.318360 0.003197
0.533174 0.317113 0.005306
0.624676 0.315866 0.007325
0.714722 0.314618 0.009283
0.803533 0.313369 0.011196
0.041280 0.465911 0.000000
0.153276 0.464715 0.000000
0.255965 0.463520 0.000000
0.354180 0.462323 0.000000
0.449445 0.461127 0.000000
0.542521 0.459930 0.002453
0.633863 0.458732 0.004607
0.723774 0.457535 0.006651
0.812470 0.456337 0.008627
0.053493 0.603755 0.000000
0.163966 0.602593 0.000000
0.266086 0.601430 0.000000
0.363951 0.600268 0.000000
0.458967 0.599105 0.000000
0.551850 0.597942 0.000000
0.643035 0.596779 0.001683
0.732814 0.595616 0.003896
0.821396 0.594452 0.005970
0.065404 0.738188 0.000000
0.174580 0.737051 0.000000
0.276164 0.735914 0.000000
0.373694 0.734777 0.000000
0.468467 0.733640 0.000000
0.561161 0.732503 0.000000
0.652193 0.731366 0.000000
0.741842 0.730228 0.000869
0.830312 0.729090 0.003169
0.077079 0.869964 0.000000
0.185124 0.868848 0.000000
0.286201 0.867731 0.000000
0.383409 0.866615 0.000000
0.477946 0.865498 0.000000
0.570456 0.864381 0.000000
0.661336 0.863265 0.000000
0.750858 0.862147 0.000000
0.839218 0.861030 0.000000
0.088562 0.999571 0.000000
0.195602 0.998472 0.000000
0.296201 0.997372 0.000000
0.393097 0.996273 0.000000
0.487405 0.995173 0.000000
0.579734 0.994074 0.000000
0.670466 0.992974 0.000000
0.759862 0.991874 0.000000
0.848113 0.990773 0.000000
0.099884 1.000000 0.000000
0.206019 1.000000 0.000000
0.306163 1.000000 0.000000
0.402758 1.000000 0.000000
0.496843 1.000000 0.000000
0.588996 1.000000 0.000000
0.679582 1.000000 0.000000
0.768854 1.000000 0.000000
0.856998 1.000000 0.000000
0.029044 0.000000 0.154084
0.142835 0.000000 0.155503
0.246113 0.000000 0.156921
0.344680 0.000000 0.158337
0.440194 0.000000 0.159751
0.533461 0.000000 0.161165
0.624959 0.000000 0.162577
0.715000 0.000000 0.163987
0.803807 0.000000 0.165396
0.041660 0.154955 0.152184
0.153605 0.153605 0.153605
0.256276 0.152254 0.155024
0.354480 0.150901 0.156442
0.449737 0.149547 0.157859
0.542807 0.148192 0.159274
0.634145 0.146835 0.160688
0.724052 0.145477 0.162100
0.812744 0.144118 0.163511
0.053862 0.306391 0.150281
0.164293 0.305139 0.151704
0.266395 0.303887 0.153126
0.364251 0.302633 0.154545
0.459259 0.301380 0.155964
0.552136 0.300125 0.157381
0.643316 0.298870 0.158796
0.733092 0.297615 0.160211
0.821670 0.296358 0.161623
0.065765 0.449644 0.148376
0.174905 0.448444 0.149801
0.276472 0.447243 0.151224
0.373992 0.446042 0.152646
0.468758 0.444841 0.154066
0.561447 0.443639 0.155485
0.652473 0.442437 0.156903
0.742119 0.441235 0.158319
0.830586 0.440032 0.159733
0.077434 0.587953 0.146468
0.185447 0.586787 0.147895
0.286509 0.585622 0.149320
0.383706 0.584456 0.150744
0.478237 0.583290 0.152166
0.570741 0.582123 0.153587
0.661616 0.580957 0.155006
0.751134 0.579790 0.156424
0.839491 0.578623 0.157841
0.088912 0.722736 0.144557
0.195923 0.721597 0.145986
0.296507 0.720457 0.147413
0.393393 0.719318 0.148839
0.487695 0.718178 0.150263
0.580018 0.717038 0.151686
0.670746 0.715898 0.153107
0.760138 0.714757 0.154527
0.848386 0.713617 0.155946
0.100229 0.854792 0.142643
0.206337 0.853673 0.144074
0.306468 0.852555 0.145504
0.403054 0.851436 0.146932
0.497133 0.850317 0.148358
0.589280 0.849198 0.149783
0.679861 0.848079 0.151206
0.769130 0.846960 0.152628
0.857270 0.845841 0.154048
0.111406 0.984631 0.140727
0.216694 0.983530 0.142160
0.316394 0.982429 0.143591
0.412690 0.981327 0.145021
0.506551 0.980226 0.146450
0.598525 0.979124 0.147876
0.688963 0.978022 0.149302
0.778110 0.976921 0.150726
0.866144 0.975819 0.152148
0.122461 1.000000 0.138808
0.226997 1.000000 0.140243
0.326285 1.000000 0.141676
0.422300 1.000000 0.143108
0.515950 1.000000 0.144539
0.607754 1.000000 0.145968
0.698052 1.000000 0.147395
0.787079 1.000000 0.148821
0.875009 1.000000 0.150245
0.054232 0.000000 0.287711
0.164620 0.000000 0.289036
0.266705 0.000000 0.290361
0.364550 0.000000 0.291684
0.459551 0.000000 0.293007
0.552422 0.000000 0.294330
0.643597 0.000000 0.295651
0.733369 0.000000 0.296972
0.821944 0.000000 0.298293
0.066126 0.136504 0.285938
0.175229 0.135135 0.287264
0.276781 0.133765 0.288589
0.374291 0.132393 0.289914
0.469050 0.131019 0.291237
0.561732 0.129644 0.292561
0.652754 0.128267 0.293883
0.742396 0.126888 0.295205
0.830859 0.125508 0.296527
0.077789 0.289337 0.284163
0.185769 0.288077 0.285490
0.286816 0.286816 0.286816
0.384004 0.285555 0.288142
0.478527 0.284293 0.289466
0.571026 0.283030 0.290791
0.661897 0.281767 0.292114
0.751411 0.280504 0.293437
0.839764 0.279239 0.294759
0.089261 0.433312 0.282387
0.196243 0.432107 0.283715
0.296813 0.430901 0.285042
0.393690 0.429695 0.286369
0.487985 0.428489 0.287694
0.580303 0.427282 0.289019
0.671025 0.426075 0.290344
0.760414 0.424868 0.291667
0.848658 0.423660 0.292990
0.100574 0.572104 0.280610
0.206656 0.570935 0.281939
0.306773 0.569766 0.283267
0.403350 0.568596 0.284594
0.497422 0.567427 0.285921
0.589563 0.566257 0.287247
0.680140 0.565087 0.288572
0.769405 0.563916 0.289897
0.857542 0.562745 0.291221
0.111747 0.707247 0.278832
0.217011 0.706106 0.280162
0.316698 0.704963 0.281490
0.412985 0.703821 0.282819
0.506839 0.702679 0.284146
0.598808 0.701536 0.285473
0.689242 0.700393 0.286799
0.778385 0.699250 0.288125
0.866417 0.698107 0.289450
0.122799 0.839590 0.277052
0.227313 0.838469 0.278383
0.326588 0.837348 0.279713
0.422595 0.836228 0.281042
0.516238 0.835107 0.282370
0.608037 0.833985 0.283698
0.698331 0.832864 0.285025
0.787354 0.831742 0.286352
0.875281 0.830621 0.287677
0.133742 0.969666 0.275272
0.237563 0.968563 0.276603
0.336446 0.967460 0.277934
0.432181 0.966357 0.279264
0.525617 0.965253 0.280593
0.617251 0.964150 0.281922
0.707406 0.963046 0.283250
0.796311 0.961942 0.284577
0.884135 0.960839 0.285904
0.144587 1.000000 0.273490
0.247765 1.000000 0.274822
0.346272 1.000000 0.276154
0.441743 1.000000 0.277485
0.534978 1.000000 0.278815
0.626449 1.000000 0.280145
0.716469 1.000000 0.281473
0.805257 1.000000 0.282802
0.892979 1.000000 0.284129
0.078144 0.000000 0.414570
0.186091 0.000000 0.415843
0.287123 0.000000 0.417115
0.384302 0.000000 0.418387
0.478818 0.000000 0.419659
0.571311 0.000000 0.420930
0.662177 0.000000 0.422201
0.751687 0.000000 0.423471
0.840037 0.000000 0.424741
0.089611 0.117774 0.412866
0.196563 0.116382 0.414140
0.297119 0.114989 0.415413
0.393987 0.113594 0.416686
0.488275 0.112197 0.417958
0.580587 0.110797 0.419230
0.671305 0.109396 0.420501
0.760690 0.107993 0.421772
0.848931 0.106588 0.423043
0.100918 0.272171 0.411162
0.206974 0.270902 0.412436
0.307078 0.269633 0.413710
0.403646 0.268363 0.414983
0.497711 0.267093 0.416256
0.589847 0.265821 0.417528
0.680420 0.264550 0.418800
0.769681 0.263277 0.420072
0.857815 0.262004 0.421343
0.112088 0.416912 0.409457
0.217328 0.415702 0.410732
0.317002 0.414491 0.412006
0.413280 0.413280 0.413280
0.507128 0.412068 0.414553
0.599092 0.410857 0.415826
0.689521 0.409644 0.417099
0.778661 0.408432 0.418371
0.866689 0.407219 0.419643
0.123136 0.556206 0.407752
0.227628 0.555034 0.409027
0.326891 0.553861 0.410302
0.422889 0.552688 0.411576
0.516526 0.551515 0.412850
0.608320 0.550341 0.414124
0.698609 0.549167 0.415397
0.787629 0.547993 0.416669
0.875552 0.546819 0.417942
0.134076 0.691722 0.406045
0.237877 0.690577 0.407321
0.336748 0.689432 0.408596
0.432474 0.688287 0.409871
0.525905 0.687142 0.411146
0.617533 0.685996 0.412420
0.707684 0.684850 0.413694
0.796586 0.683705 0.414967
0.884406 0.682558 0.416240
0.144919 0.824357 0.404338
0.248077 0.823235 0.405614
0.346573 0.822112 0.406890
0.442036 0.820989 0.408166
0.535265 0.819865 0.409441
0.626731 0.818742 0.410716
0.716747 0.817618 0.411990
0.805532 0.816494 0.413264
0.893250 0.815370 0.414537
0.155673 0.954675 0.402630
0.258232 0.953570 0.403907
0.356367 0.952465 0.405183
0.451576 0.951360 0.406460
0.544608 0.950255 0.407735
0.635915 0.949150 0.409011
0.725796 0.948044 0.410285
0.814466 0.946939 0.411560
0.902085 0.945833 0.412834
0.166346 1.000000 0.400921
0.268342 1.000000 0.402199
0.366132 1.000000 0.403476
0.461093 1.000000 0.404752
0.553933 1.000000 0.406029
0.645083 1.000000 0.407305
0.734834 1.000000 0.408580
0.823391 1.000000 0.409855
0.910910 1.000000 0.411130
0.101263 0.000000 0.537223
0.207293 0.000000 0.538461
0.307383 0.000000 0.539698
0.403942 0.000000 0.540934
0.498000 0.000000 0.542170
0.590131 0.000000 0.543406
0.680699 0.000000 0.544642
0.769957 0.000000 0.545877
0.858087 0.000000 0.547113
0.112429 0.098709 0.535568
0.217645 0.097289 0.536806
0.317305 0.095868 0.538043
0.413575 0.094444 0.539280
0.507417 0.093018 0.540517
0.599375 0.091590 0.541753
0.689800 0.090159 0.542989
0.778936 0.088726 0.544225
0.866961 0.087290 0.545460
0.123473 0.254885 0.533912
0.227943 0.253607 0.535150
0.327194 0.252329 0.536388
0.423184 0.251050 0.537625
0.516814 0.249770 0.538862
0.608603 0.248489 0.540099
0.698888 0.247208 0.541336
0.787904 0.245925 0.542572
0.875824 0.244643 0.543808
0.134410 0.400441 0.532256
0.238190 0.399225 0.533494
0.337050 0.398009 0.534732
0.432768 0.396793 0.535970
0.526192 0.395576 0.537208
0.617816 0.394358 0.538445
0.707963 0.393140 0.539682
0.796860 0.391922 0.540918
0.884678 0.390704 0.542155
0.145250 0.540259 0.530598
0.248389 0.539083 0.531837
0.346874 0.537906 0.533076
0.442329 0.536729 0.534314
0.535552 0.535552 0.535552
0.627013 0.534375 0.536790
0.717024 0.533197 0.538027
0.805806 0.532019 0.539264
0.893522 0.530841 0.540501
0.156001 0.676158 0.528941
0.258542 0.675010 0.530180
0.356667 0.673862 0.531419
0.451868 0.672714 0.532658
0.544894 0.671566 0.533896
0.636196 0.670418 0.535134
0.726074 0.669269 0.536372
0.814740 0.668120 0.537610
0.902356 0.666971 0.538847
0.166672 0.809094 0.527283
0.268652 0.807969 0.528522
0.366431 0.806844 0.529762
0.461384 0.805718 0.531001
0.554219 0.804593 0.532240
0.645365 0.803467 0.533478
0.735111 0.802341 0.534716
0.823664 0.801215 0.535954
0.911181 0.800088 0.537192
0.177268 0.939659 0.525624
0.278719 0.938552 0.526864
0.376167 0.937445 0.528104
0.470879 0.936338 0.529343
0.563526 0.935231 0.530583
0.654519 0.934123 0.531822
0.744135 0.933016 0.533060
0.832578 0.931908 0.534298
0.919996 0.930801 0.535536
0.187794 1.000000 0.523964
0.288747 1.000000 0.525205
0.385874 1.000000 0.526445
0.480353 1.000000 0.527685
0.572816 1.000000 0.528925
0.663658 1.000000 0.530164
0.753148 1.000000 0.531403
0.841480 1.000000 0.532642
0.928802 1.000000 0.533880
0.123810 0.000000 0.656842
0.228258 0.000000 0.658053
0.327497 0.000000 0.659263
0.423478 0.000000 0.660472
0.517102 0.000000 0.661682
0.608886 0.000000 0.662891
0.699167 0.000000 0.664100
0.788179 0.000000 0.665309
0.876096 0.000000 0.666517
0.134744 0.079226 0.655223
0.238504 0.077772 0.656434
0.337351 0.076315 0.657644
0.433062 0.074854 0.658854
0.526480 0.073391 0.660064
0.618098 0.071925 0.661274
0.708241 0.070455 0.662483
0.797135 0.068981 0.663692
0.884949 0.067505 0.664901
0.145581 0.237469 0.653604
0.248701 0.236181 0.654815
0.347174 0.234893 0.656025
0.442622 0.233603 0.657236
0.535839 0.232313 0.658446
0.627295 0.231022 0.659656
0.717302 0.229730 0.660865
0.806080 0.228438 0.662075
0.893793 0.227145 0.663284
0.156330 0.383895 0.651984
0.258853 0.382673 0.653195
0.356967 0.381452 0.654406
0.452160 0.380229 0.655617
0.545181 0.379007 0.656827
0.636478 0.377783 0.658037
0.726351 0.376560 0.659247
0.815014 0.375336 0.660457
0.902627 0.374112 0.661666
0.166998 0.524260 0.650363
0.268961 0.523079 0.651575
0.366730 0.521899 0.652786
0.461676 0.520718 0.653997
0.554505 0.519537 0.655208
0.645646 0.518356 0.656418
0.735388 0.517174 0.657629
0.823938 0.515992 0.658839
0.911451 0.514810 0.660049
0.177592 0.660554 0.648742
0.279028 0.659403 0.649954
0.376465 0.658253 0.651166
0.471170 0.657102 0.652377
0.563811 0.655951 0.653588
0.654799 0.654799 0.654799
0.744412 0.653648 0.656010
0.832851 0.652496 0.657220
0.920266 0.651344 0.658430
0.188116 0.793799 0.647121
0.289054 0.792672 0.648333
0.386172 0.791544 0.649545
0.480643 0.790416 0.650757
0.573101 0.789288 0.651968
0.663939 0.788160 0.653179
0.753425 0.787032 0.654390
0.841753 0.785903 0.655601
0.929072 0.784774 0.656812
0.198576 0.924616 0.645499
0.299043 0.923507 0.646712
0.395852 0.922398 0.647924
0.490096 0.921289 0.649136
0.582374 0.920180 0.650348
0.673064 0.919071 0.651559
0.762425 0.917961 0.652771
0.850645 0.916852 0.653982
0.937869 0.915742 0.655192
0.208976 1.000000 0.643877
0.308995 1.000000 0.645090
0.405506 1.000000 0.646302
0.499529 1.000000 0.647515
0.591632 1.000000 0.648727
0.682176 1.000000 0.649939
0.771414 1.000000 0.651150
0.859527 1.000000 0.652362
0.946656 1.000000 0.653573
0.145912 0.000000 0.774098
0.249014 0.000000 0.775286
0.347475 0.000000 0.776474
0.442915 0.000000 0.777663
0.536126 0.000000 0.778851
0.627577 0.000000 0.780038
0.717580 0.000000 0.781226
0.806354 0.000000 0.782413
0.894064 0.000000 0.783600
0.156658 0.059195 0.772507
0.259164 0.057693 0.773696
0.357267 0.056186 0.774885
0.452453 0.054675 0.776073
0.545467 0.053160 0.777262
0.636759 0.051640 0.778450
0.726629 0.050114 0.779637
0.815288 0.048584 0.780825
0.902898 0.047048 0.782012
0.167324 0.219911 0.770917
0.269271 0.218613 0.772106
0.367029 0.217313 0.773295
0.461968 0.216012 0.774484
0.554790 0.214711 0.775672
0.645927 0.213409 0.776860
0.735665 0.212106 0.778048
0.824212 0.210802 0.779236
0.911722 0.209497 0.780424
0.177915 0.367270 0.769326
0.279336 0.366042 0.770516
0.376763 0.364815 0.771705
0.471461 0.363586 0.772894
0.564097 0.362358 0.774082
0.655080 0.361128 0.775271
0.744689 0.359899 0.776459
0.833124 0.358669 0.777647
0.920536 0.357438 0.778835
0.188438 0.508206 0.767735
0.289361 0.507022 0.768925
0.386469 0.505838 0.770114
0.480934 0.504653 0.771303
0.573386 0.503468 0.772492
0.664219 0.502282 0.773681
0.753701 0.501096 0.774870
0.842026 0.499910 0.776058
0.929342 0.498724 0.777246
0.198896 0.644910 0.766143
0.299349 0.643756 0.767333
0.396149 0.642602 0.768523
0.490386 0.641448 0.769713
0.582659 0.640294 0.770902
0.673344 0.639140 0.772091
0.762701 0.637985 0.773280
0.850918 0.636830 0.774468
0.938138 0.635675 0.775657
0.209294 0.778472 0.764551
0.309300 0.777342 0.765742
0.405802 0.776212 0.766932
0.499818 0.775081 0.768121
0.591915 0.773951 0.769311
0.682456 0.772820 0.770500
0.771689 0.771689 0.771689
0.859800 0.770558 0.772878
0.946926 0.769427 0.774067
0.219635 0.909546 0.762959
0.319215 0.908435 0.764150
0.415430 0.907324 0.765340
0.509231 0.906213 0.766530
0.601156 0.905102 0.767720
0.691554 0.903991 0.768909
0.780666 0.902879 0.770099
0.868671 0.901768 0.771288
0.955704 0.900656 0.772477
0.229923 1.000000 0.761367
0.329097 1.000000 0.762557
0.425034 1.000000 0.763748
0.518624 1.000000 0.764938
0.610381 1.000000 0.766128
0.700639 1.000000 0.767318
0.789632 1.000000 0.768508
0.877533 1.000000 0.769697
0.964473 1.000000 0.770887
0.167650 0.000000 0.889423
0.269580 0.000000 0.890593
0.367328 0.000000 0.891763
0.462259 0.000000 0.892934
0.555076 0.000000 0.894104
0.646208 0.000000 0.895274
0.735942 0.000000 0.896443
0.824485 0.000000 0.897613
0.911992 0.000000 0.898782
0.178239 0.038369 0.887857
0.279644 0.036792 0.889027
0.377061 0.035208 0.890198
0.471752 0.033616 0.891368
0.564382 0.032015 0.892539
0.655360 0.030406 0.893709
0.744966 0.028787 0.894879
0.833397 0.027158 0.896048
0.920807 0.025518 0.897218
0.188760 0.202198 0.886290
0.289668 0.200887 0.887461
0.386767 0.199575 0.888632
0.481224 0.198262 0.889803
0.573671 0.196949 0.890973
0.664499 0.195634 0.892144
0.753977 0.194318 0.893314
0.842299 0.193002 0.894484
0.929612 0.191684 0.895654
0.199216 0.350561 0.884724
0.299655 0.349328 0.885895
0.396445 0.348094 0.887066
0.490676 0.346859 0.888237
0.582943 0.345624 0.889408
0.673624 0.344388 0.890578
0.762977 0.343152 0.891748
0.851191 0.341916 0.892919
0.938408 0.340679 0.894089
0.209612 0.492097 0.883157
0.309604 0.490909 0.884328
0.406098 0.489720 0.885500
0.500107 0.488531 0.886671
0.592199 0.487341 0.887842
0.682735 0.486152 0.889012
0.771965 0.484962 0.890183
0.860072 0.483771 0.891353
0.947195 0.482581 0.892524
0.219952 0.629224 0.881590
0.319519 0.628067 0.882761
0.415725 0.626910 0.883933
0.509519 0.625753 0.885104
0.601439 0.624595 0.886275
0.691833 0.623438 0.887446
0.780942 0.622280 0.888617
0.868943 0.621122 0.889788
0.955973 0.619963 0.890958
0.230238 0.763111 0.880022
0.329400 0.761978 0.881194
0.425328 0.760846 0.882366
0.518912 0.759713 0.883537
0.610664 0.758580 0.884709
0.700918 0.757447 0.885880
0.789907 0.756314 0.887051
0.877804 0.755180 0.888222
0.964742 0.754047 0.889393
0.240475 0.894448 0.878454
0.339248 0.893335 0.879626
0.434908 0.892223 0.880798
0.528286 0.891109 0.881970
0.619873 0.889996 0.883142
0.709990 0.888883 0.884313
0.798861 0.887769 0.885485
0.886656 0.886656 0.886656
0.973503 0.885542 0.887827
0.250663 1.000000 0.876886
0.349066 1.000000 0.878059
0.444464 1.000000 0.879231
0.537642 1.000000 0.880403
0.629068 1.000000 0.881575
0.719049 1.000000 0.882746
0.807804 1.000000 0.883918
0.895497 1.000000 0.885089
0.982254 1.000000 0.886260
0.189081 0.000000 1.000000
0.289975 0.000000 1.000000
0.387064 0.000000 1.000000
0.481514 0.000000 1.000000
0.573955 0.000000 1.000000
0.664779 0.000000 1.000000
0.754253 0.000000 1.000000
0.842572 0.000000 1.000000
0.929882 0.000000 1.000000
0.199536 0.016119 1.000000
0.299960 0.014377 1.000000
0.396742 0.012612 1.000000
0.490965 0.010820 1.000000
0.583227 0.008994 1.000000
0.673904 0.007125 1.000000
0.763253 0.005201 1.000000
0.851463 0.003192 1.000000
0.938678 0.001016 1.000000
0.209930 0.184312 1.000000
0.309909 0.182987 1.000000
0.406394 0.181662 1.000000
0.500396 0.180335 1.000000
0.592483 0.179008 1.000000
0.683014 0.177679 1.000000
0.772241 0.176350 1.000000
0.860344 0.175019 1.000000
0.947464 0.173687 1.000000
0.220268 0.333765 0.998484
0.319823 0.332525 0.999639
0.416020 0.331284 1.000000
0.509808 0.330043 1.000000
0.601723 0.328801 1.000000
0.692112 0.327558 1.000000
0.781217 0.326315 1.000000
0.869215 0.325072 1.000000
0.956242 0.323828 1.000000
0.230553 0.475929 0.996937
0.329703 0.474737 0.998093
0.425623 0.473543 0.999249
0.519200 0.472350 1.000000
0.610947 0.471156 1.000000
0.701196 0.469962 1.000000
0.790182 0.468768 1.000000
0.878076 0.467573 1.000000
0.965011 0.466378 1.000000
0.240788 0.613494 0.995391
0.339550 0.612334 0.996547
0.435201 0.611174 0.997703
0.528574 0.610014 0.998859
0.620156 0.608853 1.000000
0.710268 0.607692 1.000000
0.799136 0.606531 1.000000
0.886927 0.605370 1.000000
0.973771 0.604208 1.000000
0.250975 0.747716 0.993844
0.349366 0.746581 0.995001
0.444757 0.745446 0.996157
0.537929 0.744311 0.997313
0.629350 0.743175 0.998469
0.719326 0.742039 0.999625
0.808078 0.740904 1.000000
0.895768 0.739767 1.000000
0.982523 0.738631 1.000000
0.261117 0.879323 0.992297
0.359152 0.878208 0.993454
0.454289 0.877093 0.994610
0.547267 0.875978 0.995767
0.638529 0.874862 0.996923
0.728373 0.873747 0.998079
0.817010 0.872631 0.999234
0.904600 0.871515 1.000000
0.991266 0.870399 1.000000
0.271215 1.000000 0.990750
0.368909 1.000000 0.991907
0.463800 1.000000 0.993064
0.556587 1.000000 0.994220
0.647693 1.000000 0.995376
0.737406 1.000000 0.996532
0.825931 1.000000 0.997688
0.913423 1.000000 0.998844
1.000000 1.000000 1.000000
