presets/film_stocks/Fuji_Natura_1600.cube
# 独寻胶片模拟 -- Fuji Natura 1600
# Fujifilm, ISO 1600, 2003, negative
TITLE "Fuji Natura 1600"
LUT_3D_SIZE 5
DOMAIN_MIN 0.0 0.0 0.0
DOMAIN_MAX 1.0 1.0 1.0
0.000000 0.000000 0.000000
0.344779 0.014422 0.000000
0.611401 0.025574 0.000000
0.854783 0.035754 0.000000
1.000000 0.045350 0.000000
0.000000 0.334039 0.000000
0.333686 0.340188 0.000000
0.601582 0.346314 0.000000
0.845637 0.352417 0.000000
1.000000 0.358497 0.000000
0.000000 0.592356 0.000000
0.322515 0.597813 0.000000
0.591729 0.603260 0.000000
0.836470 0.608696 0.000000
1.000000 0.614122 0.000000
0.000000 0.828157 0.000000
0.311262 0.833245 0.000000
0.581842 0.838327 0.000000
0.827281 0.843401 0.000000
1.000000 0.848470 0.000000
0.000000 1.000000 0.000000
0.299923 1.000000 0.000000
0.571920 1.000000 0.000000
0.818071 1.000000 0.000000
1.000000 1.000000 0.000000
0.000000 0.000000 0.334246
0.329205 0.000000 0.323523
0.597626 0.000000 0.312724
0.841954 0.000000 0.301846
1.000000 0.006903 0.290886
0.000000 0.311764 0.328763
0.318002 0.318002 0.318002
0.587759 0.324214 0.307163
0.832779 0.330401 0.296244
1.000000 0.336564 0.285239
0.000000 0.572677 0.323262
0.306715 0.578173 0.312461
0.577858 0.583658 0.301581
0.823582 0.589132 0.290619
1.000000 0.594595 0.279569
0.000000 0.809838 0.317740
0.295340 0.814949 0.306899
0.567921 0.820054 0.295978
0.814363 0.825153 0.284971
1.000000 0.830244 0.273874
0.000000 1.000000 0.312198
0.283872 1.000000 0.301316
0.557948 1.000000 0.290352
0.805123 1.000000 0.279299
1.000000 1.000000 0.268154
0.000000 0.000000 0.592723
0.313475 0.000000 0.583231
0.583784 0.000000 0.573707
0.829085 0.000000 0.564149
1.000000 0.000000 0.554557
0.000000 0.289150 0.587866
0.302154 0.295485 0.578357
0.573868 0.301793 0.568816
0.819879 0.308072 0.559241
1.000000 0.314325 0.549631
0.000000 0.552856 0.583000
0.290742 0.558392 0.573475
0.563917 0.563917 0.563917
0.810652 0.569430 0.554324
1.000000 0.574932 0.544696
0.000000 0.791430 0.578126
0.279236 0.796567 0.568584
0.553928 0.801696 0.559008
0.801402 0.806819 0.549398
1.000000 0.811934 0.539752
0.000000 1.000000 0.573243
0.267629 1.000000 0.563684
0.543901 1.000000 0.554091
0.792130 1.000000 0.544462
1.000000 1.000000 0.534798
0.000000 0.000000 0.828670
0.297578 0.000000 0.819828
0.569872 0.000000 0.810966
0.816173 0.000000 0.802084
1.000000 0.000000 0.793181
0.000000 0.266157 0.824144
0.286129 0.272602 0.815292
0.559906 0.279016 0.806420
0.806936 0.285398 0.797527
1.000000 0.291751 0.788613
0.000000 0.532883 0.819613
0.274582 0.538462 0.810751
0.549902 0.544029 0.801868
0.797678 0.549584 0.792965
1.000000 0.555127 0.784040
0.000000 0.772933 0.815077
0.262933 0.778095 0.806204
0.539860 0.783249 0.797311
0.788397 0.788397 0.788397
1.000000 0.793537 0.779461
0.000000 0.997993 0.810536
0.251175 1.000000 0.801652
0.529779 1.000000 0.792748
0.779093 1.000000 0.783823
1.000000 1.000000 0.774877
0.000000 0.000000 1.000000
0.281499 0.000000 1.000000
0.555889 0.000000 1.000000
0.803217 0.000000 1.000000
1.000000 0.000000 1.000000
0.000000 0.242738 1.000000
0.269913 0.249308 1.000000
0.545870 0.255841 1.000000
0.793950 0.262339 1.000000
1.000000 0.268804 1.000000
0.000000 0.512753 1.000000
0.258221 0.518377 1.000000
0.535812 0.523988 1.000000
0.784660 0.529586 1.000000
1.000000 0.535172 1.000000
0.000000 0.754342 1.000000
0.246416 0.759530 1.000000
0.525715 0.764711 1.000000
0.775346 0.769884 1.000000
1.000000 0.775050 1.000000
0.000000 0.980385 1.000000
0.234492 0.985297 1.000000
0.515576 0.990203 1.000000
0.766009 0.995104 1.000000
1.000000 1.000000 1.000000
