presets/film_stocks/Fuji_Velvia_50.cube
# 独寻胶片模拟 -- Fuji Velvia 50
# Fujifilm, ISO 50, 2007, positive
TITLE "Fuji Velvia 50"
LUT_3D_SIZE 5
DOMAIN_MIN 0.0 0.0 0.0
DOMAIN_MAX 1.0 1.0 1.0
0.000000 0.000000 0.000000
0.404115 0.004442 0.000000
0.758872 0.008342 0.000000
1.000000 0.012061 0.000000
1.000000 0.015666 0.000000
0.000000 0.320584 0.000000
0.368745 0.323215 0.000000
0.725738 0.325845 0.000000
1.000000 0.328472 0.000000
1.000000 0.331097 0.000000
0.000000 0.602012 0.000000
0.333032 0.604483 0.000000
0.692452 0.606954 0.000000
1.000000 0.609423 0.000000
1.000000 0.611891 0.000000
0.000000 0.870338 0.000000
0.296930 0.872720 0.000000
0.659005 0.875102 0.000000
1.000000 0.877483 0.000000
1.000000 0.879863 0.000000
0.000000 1.000000 0.000000
0.260383 1.000000 0.000000
0.625387 1.000000 0.000000
0.968879 1.000000 0.000000
1.000000 1.000000 0.000000
0.000000 0.000000 0.289106
0.319835 0.000000 0.286667
0.680201 0.000000 0.284226
1.000000 0.000000 0.281782
1.000000 0.000000 0.279337
0.000000 0.280912 0.286020
0.283578 0.283578 0.283578
0.646693 0.286242 0.281134
0.989285 0.288904 0.278688
1.000000 0.291563 0.276240
0.000000 0.564886 0.282930
0.246850 0.567373 0.280486
0.613010 0.569859 0.278039
0.957036 0.572344 0.275591
1.000000 0.574828 0.273140
0.000000 0.834593 0.279837
0.209564 0.836986 0.277390
0.579140 0.839377 0.274941
0.924678 0.841768 0.272490
1.000000 0.844158 0.270036
0.000000 1.000000 0.276741
0.171599 1.000000 0.274291
0.545072 1.000000 0.271839
0.892206 1.000000 0.269385
1.000000 1.000000 0.266928
0.000000 0.000000 0.542901
0.233242 0.000000 0.540612
0.600607 0.000000 0.538321
0.945178 0.000000 0.536029
1.000000 0.000000 0.533737
0.000000 0.240669 0.540004
0.195723 0.243377 0.537713
0.566666 0.246082 0.535422
0.912779 0.248783 0.533129
1.000000 0.251482 0.530835
0.000000 0.527513 0.537106
0.157467 0.530018 0.534814
0.532521 0.532521 0.532521
0.880265 0.535022 0.530226
1.000000 0.537523 0.527931
0.000000 0.798695 0.534206
0.118245 0.801098 0.531912
0.498155 0.803500 0.529618
0.847630 0.805901 0.527323
1.000000 0.808301 0.525026
0.000000 1.000000 0.531304
0.077646 1.000000 0.529009
0.463550 1.000000 0.526714
0.814868 1.000000 0.524417
1.000000 1.000000 0.522120
0.000000 0.000000 0.784881
0.143206 0.000000 0.782674
0.519940 0.000000 0.780467
0.868307 0.000000 0.778259
1.000000 0.000000 0.776051
0.000000 0.199738 0.782089
0.103544 0.202497 0.779882
0.485489 0.205251 0.777674
0.835626 0.208002 0.775465
1.000000 0.210750 0.773256
0.000000 0.489874 0.779296
0.062250 0.492397 0.777088
0.450791 0.494918 0.774879
0.802817 0.497439 0.772670
1.000000 0.499958 0.770460
0.000000 0.762634 0.776502
0.017640 0.765048 0.774293
0.415823 0.767461 0.772084
0.769873 0.769873 0.769873
1.000000 0.772285 0.767662
0.000000 1.000000 0.773708
0.000000 1.000000 0.771498
0.380559 1.000000 0.769287
0.736788 1.000000 0.767076
1.000000 1.000000 0.764864
0.000000 0.000000 1.000000
0.046458 0.000000 1.000000
0.437996 0.000000 1.000000
0.790748 0.000000 1.000000
1.000000 0.000000 1.000000
0.000000 0.157944 1.000000
0.000000 0.160767 1.000000
0.402923 0.163586 1.000000
0.757753 0.166399 1.000000
1.000000 0.169208 1.000000
0.000000 0.451943 1.000000
0.000000 0.454487 1.000000
0.367542 0.457028 1.000000
0.724614 0.459568 1.000000
1.000000 0.462107 1.000000
0.000000 0.726402 1.000000
0.000000 0.728828 1.000000
0.331816 0.731253 1.000000
0.691322 0.733677 1.000000
1.000000 0.736100 1.000000
0.000000 0.990597 1.000000
0.000000 0.992949 1.000000
0.295700 0.995300 1.000000
0.657870 0.997650 1.000000
1.000000 1.000000 1.000000
