presets/film_stocks/Fuji_Crystal_Archive_Pro_PDII.cube
# 独寻胶片模拟 -- Fuji Crystal Archive Pro PDII
# Fujifilm, ISO 0, 2003, negative
TITLE "Fuji Crystal Archive Pro PDII"
LUT_3D_SIZE 33
DOMAIN_MIN 0.0 0.0 0.0
DOMAIN_MAX 1.0 1.0 1.0
0.000000 0.000000 0.000000
0.120089 0.001880 0.000000
0.199917 0.003130 0.000000
0.269357 0.004217 0.000000
0.332809 0.005210 0.000000
0.392151 0.006139 0.000000
0.448409 0.007020 0.000000
0.502227 0.007863 0.000000
0.554040 0.008674 0.000000
0.604162 0.009458 0.000000
0.652828 0.010220 0.000000
0.700220 0.010962 0.000000
0.746483 0.011686 0.000000
0.791736 0.012395 0.000000
0.836076 0.013089 0.000000
0.879584 0.013770 0.000000
0.922331 0.014439 0.000000
0.964376 0.015098 0.000000
1.000000 0.015746 0.000000
1.000000 0.016384 0.000000
1.000000 0.017014 0.000000
1.000000 0.017635 0.000000
1.000000 0.018249 0.000000
1.000000 0.018855 0.000000
1.000000 0.019455 0.000000
1.000000 0.020048 0.000000
1.000000 0.020634 0.000000
1.000000 0.021215 0.000000
1.000000 0.021790 0.000000
1.000000 0.022359 0.000000
1.000000 0.022924 0.000000
1.000000 0.023483 0.000000
1.000000 0.024038 0.000000
0.000000 0.084633 0.000000
0.106244 0.084984 0.000000
0.188519 0.085334 0.000000
0.259156 0.085684 0.000000
0.323372 0.086033 0.000000
0.383264 0.086382 0.000000
0.439947 0.086730 0.000000
0.494107 0.087078 0.000000
0.546205 0.087425 0.000000
0.596570 0.087772 0.000000
0.645446 0.088118 0.000000
0.693023 0.088464 0.000000
0.739452 0.088809 0.000000
0.784853 0.089154 0.000000
0.829327 0.089498 0.000000
0.872958 0.089842 0.000000
0.915818 0.090186 0.000000
0.957967 0.090529 0.000000
0.999458 0.090871 0.000000
1.000000 0.091213 0.000000
1.000000 0.091555 0.000000
1.000000 0.091896 0.000000
1.000000 0.092236 0.000000
1.000000 0.092576 0.000000
1.000000 0.092916 0.000000
1.000000 0.093255 0.000000
1.000000 0.093594 0.000000
1.000000 0.093932 0.000000
1.000000 0.094270 0.000000
1.000000 0.094608 0.000000
1.000000 0.094945 0.000000
1.000000 0.095282 0.000000
1.000000 0.095618 0.000000
0.000000 0.140892 0.000000
0.091713 0.141184 0.000000
0.176867 0.141476 0.000000
0.248807 0.141767 0.000000
0.313835 0.142059 0.000000
0.374303 0.142350 0.000000
0.431426 0.142641 0.000000
0.485939 0.142932 0.000000
0.538330 0.143223 0.000000
0.588943 0.143513 0.000000
0.638034 0.143803 0.000000
0.685800 0.144093 0.000000
0.732396 0.144383 0.000000
0.777948 0.144673 0.000000
0.822558 0.144962 0.000000
0.866314 0.145251 0.000000
0.909288 0.145540 0.000000
0.951542 0.145829 0.000000
0.993131 0.146117 0.000000
1.000000 0.146406 0.000000
1.000000 0.146694 0.000000
1.000000 0.146982 0.000000
1.000000 0.147269 0.000000
1.000000 0.147557 0.000000
1.000000 0.147844 0.000000
1.000000 0.148131 0.000000
1.000000 0.148418 0.000000
1.000000 0.148705 0.000000
1.000000 0.148991 0.000000
1.000000 0.149278 0.000000
1.000000 0.149564 0.000000
1.000000 0.149850 0.000000
1.000000 0.150135 0.000000
0.000000 0.189830 0.000000
0.076296 0.190092 0.000000
0.164932 0.190354 0.000000
0.238302 0.190617 0.000000
0.304192 0.190879 0.000000
0.365263 0.191141 0.000000
0.422844 0.191402 0.000000
0.477721 0.191664 0.000000
0.530412 0.191925 0.000000
0.581280 0.192187 0.000000
0.630590 0.192448 0.000000
0.678549 0.192709 0.000000
0.725316 0.192970 0.000000
0.771021 0.193231 0.000000
0.815770 0.193492 0.000000
0.859652 0.193753 0.000000
0.902741 0.194013 0.000000
0.945102 0.194273 0.000000
0.986790 0.194534 0.000000
1.000000 0.194794 0.000000
1.000000 0.195054 0.000000
1.000000 0.195314 0.000000
1.000000 0.195573 0.000000
1.000000 0.195833 0.000000
1.000000 0.196093 0.000000
1.000000 0.196352 0.000000
1.000000 0.196611 0.000000
1.000000 0.196870 0.000000
1.000000 0.197129 0.000000
1.000000 0.197388 0.000000
1.000000 0.197647 0.000000
1.000000 0.197906 0.000000
1.000000 0.198164 0.000000
0.000000 0.234548 0.000000
0.059655 0.234791 0.000000
0.152678 0.235034 0.000000
0.227626 0.235277 0.000000
0.294438 0.235520 0.000000
0.356143 0.235763 0.000000
0.414199 0.236005 0.000000
0.469452 0.236248 0.000000
0.522453 0.236491 0.000000
0.573580 0.236733 0.000000
0.623115 0.236975 0.000000
0.671270 0.237218 0.000000
0.718211 0.237460 0.000000
0.764071 0.237702 0.000000
0.808961 0.237944 0.000000
0.852971 0.238186 0.000000
0.896177 0.238428 0.000000
0.938646 0.238670 0.000000
0.980434 0.238911 0.000000
1.000000 0.239153 0.000000
1.000000 0.239394 0.000000
1.000000 0.239636 0.000000
1.000000 0.239877 0.000000
1.000000 0.240118 0.000000
1.000000 0.240360 0.000000
1.000000 0.240601 0.000000
1.000000 0.240842 0.000000
1.000000 0.241083 0.000000
1.000000 0.241323 0.000000
1.000000 0.241564 0.000000
1.000000 0.241805 0.000000
1.000000 0.242045 0.000000
1.000000 0.242286 0.000000
0.000000 0.276368 0.000000
0.041104 0.276598 0.000000
0.140057 0.276827 0.000000
0.216768 0.277056 0.000000
0.284566 0.277285 0.000000
0.346937 0.277514 0.000000
0.405488 0.277743 0.000000
0.461131 0.277972 0.000000
0.514449 0.278200 0.000000
0.565844 0.278429 0.000000
0.615608 0.278658 0.000000
0.663963 0.278886 0.000000
0.711080 0.279115 0.000000
0.757099 0.279343 0.000000
0.802131 0.279572 0.000000
0.846271 0.279800 0.000000
0.889596 0.280028 0.000000
0.932174 0.280256 0.000000
0.974064 0.280485 0.000000
1.000000 0.280713 0.000000
1.000000 0.280941 0.000000
1.000000 0.281169 0.000000
1.000000 0.281396 0.000000
1.000000 0.281624 0.000000
1.000000 0.281852 0.000000
1.000000 0.282079 0.000000
1.000000 0.282307 0.000000
1.000000 0.282535 0.000000
1.000000 0.282762 0.000000
1.000000 0.282989 0.000000
1.000000 0.283217 0.000000
1.000000 0.283444 0.000000
1.000000 0.283671 0.000000
0.000000 0.316017 0.000000
0.018613 0.316235 0.000000
0.127013 0.316453 0.000000
0.205709 0.316672 0.000000
0.274569 0.316890 0.000000
0.337643 0.317108 0.000000
0.396709 0.317326 0.000000
0.452755 0.317545 0.000000
0.506400 0.317763 0.000000
0.558069 0.317981 0.000000
0.608067 0.318199 0.000000
0.656626 0.318417 0.000000
0.703924 0.318634 0.000000
0.750103 0.318852 0.000000
0.795280 0.319070 0.000000
0.839551 0.319288 0.000000
0.882997 0.319505 0.000000
0.925686 0.319723 0.000000
0.967678 0.319941 0.000000
1.000000 0.320158 0.000000
1.000000 0.320376 0.000000
1.000000 0.320593 0.000000
1.000000 0.320810 0.000000
1.000000 0.321028 0.000000
1.000000 0.321245 0.000000
1.000000 0.321462 0.000000
1.000000 0.321679 0.000000
1.000000 0.321896 0.000000
1.000000 0.322113 0.000000
1.000000 0.322330 0.000000
1.000000 0.322547 0.000000
1.000000 0.322764 0.000000
1.000000 0.322981 0.000000
0.000000 0.353945 0.000000
0.000000 0.354154 0.000000
0.113467 0.354364 0.000000
0.194433 0.354574 0.000000
0.264439 0.354783 0.000000
0.328256 0.354993 0.000000
0.387860 0.355202 0.000000
0.444322 0.355412 0.000000
0.498304 0.355621 0.000000
0.550254 0.355831 0.000000
0.600493 0.356040 0.000000
0.649260 0.356249 0.000000
0.696741 0.356458 0.000000
0.743084 0.356668 0.000000
0.788408 0.356877 0.000000
0.832813 0.357086 0.000000
0.876381 0.357295 0.000000
0.919182 0.357504 0.000000
0.961277 0.357713 0.000000
1.000000 0.357922 0.000000
1.000000 0.358131 0.000000
1.000000 0.358340 0.000000
1.000000 0.358548 0.000000
1.000000 0.358757 0.000000
1.000000 0.358966 0.000000
1.000000 0.359175 0.000000
1.000000 0.359383 0.000000
1.000000 0.359592 0.000000
1.000000 0.359800 0.000000
1.000000 0.360009 0.000000
1.000000 0.360217 0.000000
1.000000 0.360426 0.000000
1.000000 0.360634 0.000000
0.000000 0.390460 0.000000
0.000000 0.390662 0.000000
0.099309 0.390865 0.000000
0.182915 0.391067 0.000000
0.254168 0.391270 0.000000
0.318771 0.391472 0.000000
0.378938 0.391674 0.000000
0.435832 0.391876 0.000000
0.490161 0.392078 0.000000
0.542400 0.392281 0.000000
0.592884 0.392483 0.000000
0.641864 0.392685 0.000000
0.689532 0.392887 0.000000
0.736041 0.393089 0.000000
0.781515 0.393291 0.000000
0.826055 0.393493 0.000000
0.869746 0.393695 0.000000
0.912661 0.393896 0.000000
0.954860 0.394098 0.000000
0.996399 0.394300 0.000000
1.000000 0.394502 0.000000
1.000000 0.394704 0.000000
1.000000 0.394905 0.000000
1.000000 0.395107 0.000000
1.000000 0.395308 0.000000
1.000000 0.395510 0.000000
1.000000 0.395711 0.000000
1.000000 0.395913 0.000000
1.000000 0.396114 0.000000
1.000000 0.396316 0.000000
1.000000 0.396517 0.000000
1.000000 0.396718 0.000000
1.000000 0.396920 0.000000
0.000000 0.425783 0.000000
0.000000 0.425980 0.000000
0.084381 0.426176 0.000000
0.171131 0.426372 0.000000
0.243745 0.426568 0.000000
0.309183 0.426764 0.000000
0.369939 0.426960 0.000000
0.427282 0.427156 0.000000
0.481970 0.427352 0.000000
0.534504 0.427548 0.000000
0.585240 0.427744 0.000000
0.634436 0.427940 0.000000
0.682295 0.428136 0.000000
0.728974 0.428332 0.000000
0.774599 0.428528 0.000000
0.819277 0.428723 0.000000
0.863093 0.428919 0.000000
0.906123 0.429115 0.000000
0.948428 0.429311 0.000000
0.990065 0.429506 0.000000
1.000000 0.429702 0.000000
1.000000 0.429898 0.000000
1.000000 0.430093 0.000000
1.000000 0.430289 0.000000
1.000000 0.430484 0.000000
1.000000 0.430680 0.000000
1.000000 0.430875 0.000000
1.000000 0.431070 0.000000
1.000000 0.431266 0.000000
1.000000 0.431461 0.000000
1.000000 0.431656 0.000000
1.000000 0.431852 0.000000
1.000000 0.432047 0.000000
0.000000 0.460081 0.000000
0.000000 0.460271 0.000000
0.068428 0.460462 0.000000
0.159046 0.460653 0.000000
0.233159 0.460844 0.000000
0.299487 0.461034 0.000000
0.360861 0.461225 0.000000
0.418669 0.461416 0.000000
0.473727 0.461606 0.000000
0.526567 0.461797 0.000000
0.577559 0.461988 0.000000
0.626978 0.462178 0.000000
0.675031 0.462369 0.000000
0.721881 0.462559 0.000000
0.767661 0.462750 0.000000
0.812478 0.462940 0.000000
0.856422 0.463131 0.000000
0.899568 0.463321 0.000000
0.941981 0.463511 0.000000
0.983717 0.463702 0.000000
1.000000 0.463892 0.000000
1.000000 0.464082 0.000000
1.000000 0.464272 0.000000
1.000000 0.464463 0.000000
1.000000 0.464653 0.000000
1.000000 0.464843 0.000000
1.000000 0.465033 0.000000
1.000000 0.465223 0.000000
1.000000 0.465413 0.000000
1.000000 0.465603 0.000000
1.000000 0.465793 0.000000
1.000000 0.465983 0.000000
1.000000 0.466173 0.000000
0.000000 0.493480 0.000000
0.000000 0.493666 0.000000
0.050986 0.493852 0.000000
0.146621 0.494038 0.000000
0.222397 0.494224 0.000000
0.289677 0.494410 0.000000
0.351700 0.494596 0.000000
0.409993 0.494782 0.000000
0.465433 0.494968 0.000000
0.518586 0.495154 0.000000
0.569842 0.495340 0.000000
0.619487 0.495526 0.000000
0.667738 0.495712 0.000000
0.714764 0.495897 0.000000
0.760701 0.496083 0.000000
0.805659 0.496269 0.000000
0.849731 0.496455 0.000000
0.892995 0.496640 0.000000
0.935517 0.496826 0.000000
0.977354 0.497011 0.000000
1.000000 0.497197 0.000000
1.000000 0.497383 0.000000
1.000000 0.497568 0.000000
1.000000 0.497754 0.000000
1.000000 0.497939 0.000000
1.000000 0.498125 0.000000
1.000000 0.498310 0.000000
1.000000 0.498496 0.000000
1.000000 0.498681 0.000000
1.000000 0.498866 0.000000
1.000000 0.499052 0.000000
1.000000 0.499237 0.000000
1.000000 0.499422 0.000000
0.000000 0.526084 0.000000
0.000000 0.526266 0.000000
0.030985 0.526448 0.000000
0.133804 0.526630 0.000000
0.211443 0.526812 0.000000
0.279745 0.526993 0.000000
0.342452 0.527175 0.000000
0.401249 0.527357 0.000000
0.457085 0.527539 0.000000
0.510560 0.527720 0.000000
0.562087 0.527902 0.000000
0.611964 0.528083 0.000000
0.660417 0.528265 0.000000
0.707621 0.528447 0.000000
0.753717 0.528628 0.000000
0.798819 0.528810 0.000000
0.843022 0.528991 0.000000
0.886406 0.529173 0.000000
0.929037 0.529354 0.000000
0.970976 0.529536 0.000000
1.000000 0.529717 0.000000
1.000000 0.529898 0.000000
1.000000 0.530080 0.000000
1.000000 0.530261 0.000000
1.000000 0.530443 0.000000
1.000000 0.530624 0.000000
1.000000 0.530805 0.000000
1.000000 0.530986 0.000000
1.000000 0.531168 0.000000
1.000000 0.531349 0.000000
1.000000 0.531530 0.000000
1.000000 0.531711 0.000000
1.000000 0.531892 0.000000
0.000000 0.557976 0.000000
0.000000 0.558154 0.000000
0.002429 0.558332 0.000000
0.120528 0.558510 0.000000
0.200282 0.558688 0.000000
0.269685 0.558866 0.000000
0.333113 0.559044 0.000000
0.392437 0.559222 0.000000
0.448682 0.559400 0.000000
0.502489 0.559578 0.000000
0.554293 0.559756 0.000000
0.604407 0.559934 0.000000
0.653066 0.560111 0.000000
0.700452 0.560289 0.000000
0.746710 0.560467 0.000000
0.791958 0.560645 0.000000
0.836294 0.560822 0.000000
0.879798 0.561000 0.000000
0.922541 0.561178 0.000000
0.964583 0.561356 0.000000
1.000000 0.561533 0.000000
1.000000 0.561711 0.000000
1.000000 0.561888 0.000000
1.000000 0.562066 0.000000
1.000000 0.562244 0.000000
1.000000 0.562421 0.000000
1.000000 0.562599 0.000000
1.000000 0.562776 0.000000
1.000000 0.562954 0.000000
1.000000 0.563131 0.000000
1.000000 0.563309 0.000000
1.000000 0.563486 0.000000
1.000000 0.563663 0.000000
0.000000 0.589225 0.000000
0.000000 0.589399 0.000000
0.000000 0.589574 0.000000
0.106702 0.589748 0.000000
0.188892 0.589923 0.000000
0.259488 0.590097 0.000000
0.323679 0.590272 0.000000
0.383553 0.590446 0.000000
0.440222 0.590621 0.000000
0.494371 0.590795 0.000000
0.546459 0.590970 0.000000
0.596816 0.591144 0.000000
0.645685 0.591318 0.000000
0.693257 0.591493 0.000000
0.739680 0.591667 0.000000
0.785076 0.591841 0.000000
0.829546 0.592016 0.000000
0.873173 0.592190 0.000000
0.916029 0.592364 0.000000
0.958174 0.592539 0.000000
0.999663 0.592713 0.000000
1.000000 0.592887 0.000000
1.000000 0.593061 0.000000
1.000000 0.593235 0.000000
1.000000 0.593410 0.000000
1.000000 0.593584 0.000000
1.000000 0.593758 0.000000
1.000000 0.593932 0.000000
1.000000 0.594106 0.000000
1.000000 0.594280 0.000000
1.000000 0.594454 0.000000
1.000000 0.594628 0.000000
1.000000 0.594802 0.000000
0.000000 0.619887 0.000000
0.000000 0.620059 0.000000
0.000000 0.620230 0.000000
0.092196 0.620401 0.000000
0.177249 0.620573 0.000000
0.249145 0.620744 0.000000
0.314145 0.620916 0.000000
0.374594 0.621087 0.000000
0.431703 0.621258 0.000000
0.486204 0.621429 0.000000
0.538585 0.621601 0.000000
0.589190 0.621772 0.000000
0.638274 0.621943 0.000000
0.686034 0.622114 0.000000
0.732625 0.622286 0.000000
0.778172 0.622457 0.000000
0.822778 0.622628 0.000000
0.866529 0.622799 0.000000
0.909499 0.622970 0.000000
0.951750 0.623141 0.000000
0.993336 0.623313 0.000000
1.000000 0.623484 0.000000
1.000000 0.623655 0.000000
1.000000 0.623826 0.000000
1.000000 0.623997 0.000000
1.000000 0.624168 0.000000
1.000000 0.624339 0.000000
1.000000 0.624510 0.000000
1.000000 0.624681 0.000000
1.000000 0.624852 0.000000
1.000000 0.625023 0.000000
1.000000 0.625194 0.000000
1.000000 0.625364 0.000000
0.000000 0.650013 0.000000
0.000000 0.650182 0.000000
0.000000 0.650350 0.000000
0.076812 0.650519 0.000000
0.165323 0.650687 0.000000
0.238644 0.650855 0.000000
0.304506 0.651024 0.000000
0.365557 0.651192 0.000000
0.423123 0.651361 0.000000
0.477988 0.651529 0.000000
0.530669 0.651698 0.000000
0.581528 0.651866 0.000000
0.630832 0.652034 0.000000
0.678784 0.652203 0.000000
0.725545 0.652371 0.000000
0.771245 0.652539 0.000000
0.815990 0.652708 0.000000
0.859868 0.652876 0.000000
0.902953 0.653044 0.000000
0.945311 0.653212 0.000000
0.986996 0.653380 0.000000
1.000000 0.653549 0.000000
1.000000 0.653717 0.000000
1.000000 0.653885 0.000000
1.000000 0.654053 0.000000
1.000000 0.654221 0.000000
1.000000 0.654390 0.000000
1.000000 0.654558 0.000000
1.000000 0.654726 0.000000
1.000000 0.654894 0.000000
1.000000 0.655062 0.000000
1.000000 0.655230 0.000000
1.000000 0.655398 0.000000
0.000000 0.679644 0.000000
0.000000 0.679810 0.000000
0.000000 0.679976 0.000000
0.060218 0.680142 0.000000
0.153080 0.680307 0.000000
0.227975 0.680473 0.000000
0.294755 0.680639 0.000000
0.356439 0.680805 0.000000
0.414480 0.680970 0.000000
0.469721 0.681136 0.000000
0.522711 0.681302 0.000000
0.573830 0.681468 0.000000
0.623358 0.681633 0.000000
0.671506 0.681799 0.000000
0.718441 0.681965 0.000000
0.764297 0.682130 0.000000
0.809182 0.682296 0.000000
0.853187 0.682461 0.000000
0.896390 0.682627 0.000000
0.938855 0.682793 0.000000
0.980640 0.682958 0.000000
1.000000 0.683124 0.000000
1.000000 0.683289 0.000000
1.000000 0.683455 0.000000
1.000000 0.683620 0.000000
1.000000 0.683786 0.000000
1.000000 0.683951 0.000000
1.000000 0.684117 0.000000
1.000000 0.684282 0.000000
1.000000 0.684448 0.000000
1.000000 0.684613 0.000000
1.000000 0.684778 0.000000
1.000000 0.684944 0.000000
0.000000 0.708817 0.000000
0.000000 0.708981 0.000000
0.000000 0.709144 0.000000
0.041747 0.709307 0.000000
0.140472 0.709470 0.000000
0.217122 0.709634 0.000000
0.284887 0.709797 0.000000
0.347237 0.709960 0.000000
0.405771 0.710124 0.000000
0.461401 0.710287 0.000000
0.514708 0.710450 0.000000
0.566095 0.710613 0.000000
0.615851 0.710776 0.000000
0.664200 0.710940 0.000000
0.711311 0.711103 0.000000
0.757325 0.711266 0.000000
0.802353 0.711429 0.000000
0.846488 0.711592 0.000000
0.889809 0.711755 0.000000
0.932384 0.711918 0.000000
0.974270 0.712082 0.000000
1.000000 0.712245 0.000000
1.000000 0.712408 0.000000
1.000000 0.712571 0.000000
1.000000 0.712734 0.000000
1.000000 0.712897 0.000000
1.000000 0.713060 0.000000
1.000000 0.713223 0.000000
1.000000 0.713386 0.000000
1.000000 0.713549 0.000000
1.000000 0.713712 0.000000
1.000000 0.713875 0.000000
1.000000 0.714038 0.000000
0.000000 0.737564 0.000000
0.000000 0.737725 0.000000
0.000000 0.737886 0.000000
0.019464 0.738047 0.000000
0.127443 0.738208 0.000000
0.206071 0.738369 0.000000
0.274895 0.738530 0.000000
0.337945 0.738691 0.000000
0.396995 0.738852 0.000000
0.453027 0.739013 0.000000
0.506661 0.739174 0.000000
0.558321 0.739335 0.000000
0.608312 0.739496 0.000000
0.656864 0.739656 0.000000
0.704156 0.739817 0.000000
0.750330 0.739978 0.000000
0.795503 0.740139 0.000000
0.839769 0.740300 0.000000
0.883211 0.740461 0.000000
0.925896 0.740621 0.000000
0.967885 0.740782 0.000000
1.000000 0.740943 0.000000
1.000000 0.741104 0.000000
1.000000 0.741264 0.000000
1.000000 0.741425 0.000000
1.000000 0.741586 0.000000
1.000000 0.741747 0.000000
1.000000 0.741907 0.000000
1.000000 0.742068 0.000000
1.000000 0.742229 0.000000
1.000000 0.742389 0.000000
1.000000 0.742550 0.000000
1.000000 0.742711 0.000000
0.000000 0.765913 0.000000
0.000000 0.766072 0.000000
0.000000 0.766231 0.000000
0.000000 0.766390 0.000000
0.113914 0.766548 0.000000
0.194801 0.766707 0.000000
0.264769 0.766866 0.000000
0.328561 0.767025 0.000000
0.388148 0.767184 0.000000
0.444596 0.767342 0.000000
0.498567 0.767501 0.000000
0.550508 0.767660 0.000000
0.600739 0.767818 0.000000
0.649499 0.767977 0.000000
0.696974 0.768136 0.000000
0.743312 0.768295 0.000000
0.788631 0.768453 0.000000
0.833031 0.768612 0.000000
0.876595 0.768771 0.000000
0.919392 0.768929 0.000000
0.961484 0.769088 0.000000
1.000000 0.769246 0.000000
1.000000 0.769405 0.000000
1.000000 0.769564 0.000000
1.000000 0.769722 0.000000
1.000000 0.769881 0.000000
1.000000 0.770039 0.000000
1.000000 0.770198 0.000000
1.000000 0.770357 0.000000
1.000000 0.770515 0.000000
1.000000 0.770674 0.000000
1.000000 0.770832 0.000000
1.000000 0.770991 0.000000
0.000000 0.793889 0.000000
0.000000 0.794046 0.000000
0.000000 0.794203 0.000000
0.000000 0.794359 0.000000
0.099778 0.794516 0.000000
0.183292 0.794673 0.000000
0.254503 0.794830 0.000000
0.319079 0.794987 0.000000
0.379228 0.795143 0.000000
0.436108 0.795300 0.000000
0.490426 0.795457 0.000000
0.542655 0.795613 0.000000
0.593131 0.795770 0.000000
0.642103 0.795927 0.000000
0.689766 0.796083 0.000000
0.736269 0.796240 0.000000
0.781738 0.796397 0.000000
0.826274 0.796553 0.000000
0.869961 0.796710 0.000000
0.912872 0.796867 0.000000
0.955068 0.797023 0.000000
0.996604 0.797180 0.000000
1.000000 0.797336 0.000000
1.000000 0.797493 0.000000
1.000000 0.797650 0.000000
1.000000 0.797806 0.000000
1.000000 0.797963 0.000000
1.000000 0.798119 0.000000
1.000000 0.798276 0.000000
1.000000 0.798432 0.000000
1.000000 0.798589 0.000000
1.000000 0.798745 0.000000
1.000000 0.798902 0.000000
0.000000 0.821515 0.000000
0.000000 0.821669 0.000000
0.000000 0.821824 0.000000
0.000000 0.821979 0.000000
0.084878 0.822134 0.000000
0.171516 0.822289 0.000000
0.244085 0.822444 0.000000
0.309495 0.822599 0.000000
0.370232 0.822753 0.000000
0.427559 0.822908 0.000000
0.482236 0.823063 0.000000
0.534761 0.823218 0.000000
0.585488 0.823373 0.000000
0.634677 0.823527 0.000000
0.682530 0.823682 0.000000
0.729203 0.823837 0.000000
0.774823 0.823992 0.000000
0.819496 0.824146 0.000000
0.863309 0.824301 0.000000
0.906334 0.824456 0.000000
0.948637 0.824610 0.000000
0.990271 0.824765 0.000000
1.000000 0.824920 0.000000
1.000000 0.825075 0.000000
1.000000 0.825229 0.000000
1.000000 0.825384 0.000000
1.000000 0.825538 0.000000
1.000000 0.825693 0.000000
1.000000 0.825848 0.000000
1.000000 0.826002 0.000000
1.000000 0.826157 0.000000
1.000000 0.826312 0.000000
1.000000 0.826466 0.000000
0.000000 0.848809 0.000000
0.000000 0.848963 0.000000
0.000000 0.849116 0.000000
0.000000 0.849269 0.000000
0.068964 0.849422 0.000000
0.159442 0.849575 0.000000
0.233504 0.849728 0.000000
0.299803 0.849881 0.000000
0.361156 0.850034 0.000000
0.418949 0.850187 0.000000
0.473995 0.850340 0.000000
0.526824 0.850493 0.000000
0.577808 0.850646 0.000000
0.627220 0.850799 0.000000
0.675266 0.850952 0.000000
0.722111 0.851105 0.000000
0.767886 0.851258 0.000000
0.812698 0.851411 0.000000
0.856638 0.851564 0.000000
0.899780 0.851716 0.000000
0.942190 0.851869 0.000000
0.983923 0.852022 0.000000
1.000000 0.852175 0.000000
1.000000 0.852328 0.000000
1.000000 0.852481 0.000000
1.000000 0.852634 0.000000
1.000000 0.852787 0.000000
1.000000 0.852939 0.000000
1.000000 0.853092 0.000000
1.000000 0.853245 0.000000
1.000000 0.853398 0.000000
1.000000 0.853551 0.000000
1.000000 0.853703 0.000000
0.000000 0.875792 0.000000
0.000000 0.875943 0.000000
0.000000 0.876095 0.000000
0.000000 0.876246 0.000000
0.051582 0.876397 0.000000
0.147029 0.876549 0.000000
0.222748 0.876700 0.000000
0.289996 0.876851 0.000000
0.351998 0.877003 0.000000
0.410274 0.877154 0.000000
0.465702 0.877305 0.000000
0.518845 0.877457 0.000000
0.570092 0.877608 0.000000
0.619730 0.877759 0.000000
0.667975 0.877910 0.000000
0.714995 0.878062 0.000000
0.760926 0.878213 0.000000
0.805880 0.878364 0.000000
0.849948 0.878515 0.000000
0.893208 0.878666 0.000000
0.935727 0.878818 0.000000
0.977560 0.878969 0.000000
1.000000 0.879120 0.000000
1.000000 0.879271 0.000000
1.000000 0.879422 0.000000
1.000000 0.879573 0.000000
1.000000 0.879725 0.000000
1.000000 0.879876 0.000000
1.000000 0.880027 0.000000
1.000000 0.880178 0.000000
1.000000 0.880329 0.000000
1.000000 0.880480 0.000000
1.000000 0.880631 0.000000
0.000000 0.902478 0.000000
0.000000 0.902628 0.000000
0.000000 0.902778 0.000000
0.000000 0.902928 0.000000
0.031696 0.903077 0.000000
0.134225 0.903227 0.000000
0.211801 0.903377 0.000000
0.280069 0.903526 0.000000
0.342753 0.903676 0.000000
0.401533 0.903826 0.000000
0.457356 0.903975 0.000000
0.510821 0.904125 0.000000
0.562338 0.904275 0.000000
0.612208 0.904424 0.000000
0.660654 0.904574 0.000000
0.707853 0.904724 0.000000
0.753944 0.904873 0.000000
0.799041 0.905023 0.000000
0.843240 0.905172 0.000000
0.886619 0.905322 0.000000
0.929247 0.905472 0.000000
0.971183 0.905621 0.000000
1.000000 0.905771 0.000000
1.000000 0.905920 0.000000
1.000000 0.906070 0.000000
1.000000 0.906219 0.000000
1.000000 0.906369 0.000000
1.000000 0.906518 0.000000
1.000000 0.906668 0.000000
1.000000 0.906817 0.000000
1.000000 0.906967 0.000000
1.000000 0.907116 0.000000
1.000000 0.907266 0.000000
0.000000 0.928884 0.000000
0.000000 0.929032 0.000000
0.000000 0.929180 0.000000
0.000000 0.929328 0.000000
0.004044 0.929476 0.000000
0.120965 0.929625 0.000000
0.200647 0.929773 0.000000
0.270013 0.929921 0.000000
0.333417 0.930069 0.000000
0.392723 0.930217 0.000000
0.448955 0.930365 0.000000
0.502751 0.930513 0.000000
0.554546 0.930661 0.000000
0.604652 0.930810 0.000000
0.653304 0.930958 0.000000
0.700685 0.931106 0.000000
0.746937 0.931254 0.000000
0.792181 0.931402 0.000000
0.836512 0.931550 0.000000
0.880012 0.931698 0.000000
0.922752 0.931846 0.000000
0.964790 0.931994 0.000000
1.000000 0.932142 0.000000
1.000000 0.932290 0.000000
