presets/film_stocks/Fuji_Superia_Reala.cube
# 独寻胶片模拟 -- Fuji Superia Reala
# Fujifilm, ISO 100, 1998, negative
TITLE "Fuji Superia Reala"
LUT_3D_SIZE 5
DOMAIN_MIN 0.0 0.0 0.0
DOMAIN_MAX 1.0 1.0 1.0
0.000000 0.000000 0.000000
0.342561 0.013182 0.000000
0.613345 0.023602 0.000000
0.862344 0.033183 0.000000
1.000000 0.042258 0.000000
0.000000 0.331884 0.000000
0.330941 0.337875 0.000000
0.602959 0.343846 0.000000
0.852614 0.349797 0.000000
1.000000 0.355729 0.000000
0.000000 0.594228 0.000000
0.319242 0.599596 0.000000
0.592539 0.604954 0.000000
0.842863 0.610304 0.000000
1.000000 0.615645 0.000000
0.000000 0.835466 0.000000
0.307462 0.840499 0.000000
0.582084 0.845526 0.000000
0.833091 0.850547 0.000000
1.000000 0.855563 0.000000
0.000000 1.000000 0.000000
0.295595 1.000000 0.000000
0.571593 1.000000 0.000000
0.823297 1.000000 0.000000
1.000000 1.000000 0.000000
0.000000 0.000000 0.325505
0.323686 0.000000 0.316656
0.596493 0.000000 0.307760
0.846562 0.000000 0.298815
1.000000 0.000000 0.289819
0.000000 0.305854 0.320811
0.311937 0.311937 0.311937
0.586051 0.317998 0.303015
0.836798 0.324038 0.294043
1.000000 0.330056 0.285019
0.000000 0.571015 0.316104
0.300104 0.576423 0.307205
0.575574 0.581822 0.298256
0.827012 0.587211 0.289257
1.000000 0.592591 0.280204
0.000000 0.813736 0.311383
0.288180 0.818794 0.302458
0.565060 0.823846 0.293483
0.817204 0.828892 0.284455
1.000000 0.833932 0.275373
0.000000 1.000000 0.306649
0.276163 1.000000 0.297698
0.554509 1.000000 0.288695
0.807374 1.000000 0.279638
1.000000 1.000000 0.270526
0.000000 0.000000 0.582806
0.304600 0.000000 0.574895
0.579550 0.000000 0.566962
0.830724 0.000000 0.559009
1.000000 0.000000 0.551034
0.000000 0.279394 0.578607
0.292711 0.285582 0.570684
0.569050 0.291745 0.562741
0.820925 0.297883 0.554776
1.000000 0.303996 0.546790
0.000000 0.547621 0.574401
0.280730 0.553072 0.566468
0.558513 0.558513 0.558513
0.811103 0.563945 0.550537
1.000000 0.569366 0.542539
0.000000 0.791894 0.570190
0.268651 0.796979 0.562246
0.547939 0.802057 0.554280
0.801259 0.807128 0.546292
1.000000 0.812194 0.538282
0.000000 1.000000 0.565974
0.256468 1.000000 0.558018
0.537326 1.000000 0.550040
0.791391 1.000000 0.542041
1.000000 1.000000 0.534018
0.000000 0.000000 0.819407
0.285283 0.000000 0.811995
0.562512 0.000000 0.804570
0.814829 0.000000 0.797132
1.000000 0.000000 0.789680
0.000000 0.252449 0.815472
0.273242 0.258756 0.808053
0.551952 0.265034 0.800621
0.804993 0.271283 0.793176
1.000000 0.277505 0.785717
0.000000 0.524035 0.811533
0.261099 0.529532 0.804107
0.541353 0.535018 0.796668
0.795135 0.540494 0.789216
1.000000 0.545959 0.781751
0.000000 0.769938 0.807591
0.248847 0.775049 0.800158
0.530715 0.780154 0.792712
0.785253 0.785253 0.785253
1.000000 0.790345 0.777780
0.000000 1.000000 0.803645
0.236480 1.000000 0.796205
0.520037 1.000000 0.788752
0.775347 1.000000 0.781286
1.000000 1.000000 0.773806
0.000000 0.000000 1.000000
0.265714 0.000000 1.000000
0.545376 0.000000 1.000000
0.798875 0.000000 1.000000
1.000000 0.000000 1.000000
0.000000 0.224945 1.000000
0.253505 0.231389 1.000000
0.534753 0.237800 1.000000
0.789001 0.244177 1.000000
1.000000 0.250523 1.000000
0.000000 0.500247 1.000000
0.241182 0.505792 1.000000
0.524090 0.511326 1.000000
0.779105 0.516848 1.000000
1.000000 0.522359 1.000000
0.000000 0.747862 1.000000
0.228739 0.753002 1.000000
0.513385 0.758134 1.000000
0.769184 0.763261 1.000000
1.000000 0.768380 1.000000
0.000000 0.980497 1.000000
0.216166 0.985380 1.000000
0.502638 0.990258 1.000000
0.759240 0.995131 1.000000
1.000000 1.000000 1.000000
