presets/film_stocks/Fuji_Eterna-CP_Type_3513DI.cube
# 独寻胶片模拟 -- Fuji Eterna-CP Type 3513DI
# Fujifilm, ISO 0, 2002, negative
TITLE "Fuji Eterna-CP Type 3513DI"
LUT_3D_SIZE 5
DOMAIN_MIN 0.0 0.0 0.0
DOMAIN_MAX 1.0 1.0 1.0
0.000000 0.000000 0.000000
0.000000 0.000000 0.000000
0.000000 0.000000 0.000000
0.000000 0.000000 0.000000
0.000000 0.000000 0.000000
0.007613 0.000000 0.000000
0.000000 0.000000 0.000000
0.000000 0.000000 0.000000
0.000000 0.000000 0.000000
0.000000 0.000000 0.000000
0.012821 0.000000 0.000000
0.000000 0.000000 0.000000
0.000000 0.000000 0.000000
0.000000 0.000000 0.000000
0.000000 0.000000 0.000000
0.017390 0.000000 0.000000
0.000000 0.000000 0.000000
0.000000 0.000000 0.000000
0.000000 0.000000 0.000000
0.000000 0.000000 0.000000
0.021590 0.000000 0.000000
0.000000 0.000000 0.000000
0.000000 0.000000 0.000000
0.000000 0.000000 0.000000
0.000000 0.000000 0.000000
0.372646 0.381760 0.352718
0.351018 0.381428 0.352675
0.328940 0.381095 0.352632
0.306361 0.380762 0.352590
0.283219 0.380430 0.352547
0.374230 0.352975 0.352676
0.352633 0.352633 0.352633
0.330590 0.352292 0.352591
0.308051 0.351951 0.352548
0.284953 0.351609 0.352505
0.375812 0.323391 0.352634
0.354247 0.323040 0.352592
0.332238 0.322689 0.352549
0.309738 0.322337 0.352506
0.286683 0.321985 0.352464
0.377392 0.292885 0.352593
0.355857 0.292522 0.352550
0.333883 0.292159 0.352507
0.311421 0.291796 0.352465
0.288410 0.291432 0.352422
0.378970 0.261289 0.352551
0.357466 0.260912 0.352508
0.335526 0.260535 0.352466
0.313102 0.260158 0.352423
0.290134 0.259781 0.352380
0.627531 0.642879 0.593971
0.609409 0.642599 0.593935
0.591109 0.642319 0.593900
0.572619 0.642039 0.593864
0.553930 0.641759 0.593828
0.628865 0.618798 0.593936
0.610757 0.618515 0.593900
0.592469 0.618231 0.593864
0.573994 0.617947 0.593829
0.555320 0.617664 0.593793
0.630198 0.594404 0.593901
0.612103 0.594117 0.593865
0.593829 0.593829 0.593829
0.575368 0.593542 0.593793
0.556709 0.593255 0.593757
0.631531 0.569675 0.593866
0.613448 0.569383 0.593830
0.595188 0.569092 0.593794
0.576741 0.568801 0.593758
0.558097 0.568509 0.593722
0.632862 0.544586 0.593831
0.614793 0.544290 0.593795
0.596546 0.543995 0.593759
0.578113 0.543699 0.593723
0.559484 0.543403 0.593687
0.851205 0.872024 0.805684
0.834845 0.871771 0.805652
0.818378 0.871518 0.805619
0.801801 0.871265 0.805587
0.785110 0.871011 0.805554
0.852412 0.850294 0.805653
0.836059 0.850039 0.805620
0.819601 0.849784 0.805588
0.803032 0.849528 0.805555
0.786350 0.849273 0.805523
0.853618 0.828379 0.805621
0.837273 0.828122 0.805588
0.820823 0.827864 0.805556
0.804262 0.827607 0.805523
0.787589 0.827349 0.805491
0.854824 0.806271 0.805589
0.838487 0.806011 0.805557
0.822044 0.805752 0.805524
0.805492 0.805492 0.805492
0.788827 0.805232 0.805459
0.856029 0.783961 0.805557
0.839700 0.783699 0.805525
0.823265 0.783437 0.805493
0.806721 0.783175 0.805460
0.790064 0.782912 0.805428
1.000000 1.000000 1.000000
1.000000 1.000000 1.000000
1.000000 1.000000 1.000000
1.000000 1.000000 1.000000
0.995418 1.000000 1.000000
1.000000 1.000000 1.000000
1.000000 1.000000 1.000000
1.000000 1.000000 1.000000
1.000000 1.000000 1.000000
0.996564 1.000000 1.000000
1.000000 1.000000 1.000000
1.000000 1.000000 1.000000
1.000000 1.000000 1.000000
1.000000 1.000000 1.000000
0.997710 1.000000 1.000000
1.000000 1.000000 1.000000
1.000000 1.000000 1.000000
1.000000 1.000000 1.000000
1.000000 1.000000 1.000000
0.998855 1.000000 1.000000
1.000000 1.000000 1.000000
1.000000 1.000000 1.000000
1.000000 1.000000 1.000000
1.000000 1.000000 1.000000
1.000000 1.000000 1.000000
