presets/film_stocks/Fuji_Instax_color.cube
# 独寻胶片模拟 -- Fuji Instax color
# Fujifilm, ISO 1000, 0, positive
TITLE "Fuji Instax color"
LUT_3D_SIZE 5
DOMAIN_MIN 0.0 0.0 0.0
DOMAIN_MAX 1.0 1.0 1.0
0.000000 0.000000 0.000000
0.387507 0.027298 0.000000
0.642702 0.045276 0.000000
0.864058 0.060869 0.000000
1.000000 0.075092 0.000000
0.000000 0.381778 0.000000
0.378377 0.389259 0.000000
0.635147 0.396687 0.000000
0.857293 0.404064 0.000000
1.000000 0.411391 0.000000
0.000000 0.633200 0.000000
0.369165 0.639415 0.000000
0.627559 0.645607 0.000000
0.850507 0.651778 0.000000
1.000000 0.657927 0.000000
0.000000 0.851285 0.000000
0.359867 0.856858 0.000000
0.619937 0.862418 0.000000
0.843701 0.867965 0.000000
1.000000 0.873499 0.000000
0.000000 1.000000 0.000000
0.350480 1.000000 0.000000
0.612281 1.000000 0.000000
0.836875 1.000000 0.000000
1.000000 1.000000 0.000000
0.000000 0.000000 0.379743
0.372794 0.000000 0.368387
0.630544 0.000000 0.356899
0.853175 0.000000 0.345272
1.000000 0.018599 0.333499
0.000000 0.355855 0.374941
0.363530 0.363530 0.363530
0.622935 0.371146 0.351984
0.846377 0.378704 0.340297
1.000000 0.386207 0.328459
0.000000 0.611842 0.370117
0.354178 0.618136 0.358649
0.615292 0.624406 0.347044
0.839559 0.630653 0.335294
1.000000 0.636877 0.323389
0.000000 0.832183 0.365268
0.344734 0.837803 0.353744
0.607614 0.843409 0.342078
0.832720 0.849002 0.330264
1.000000 0.854581 0.318290
0.000000 1.000000 0.360396
0.335193 1.000000 0.348813
0.599900 1.000000 0.337085
0.825860 1.000000 0.325204
1.000000 1.000000 0.313161
0.000000 0.000000 0.629825
0.357862 0.000000 0.620434
0.618299 0.000000 0.610990
0.842239 0.000000 0.601491
1.000000 0.000000 0.591936
0.000000 0.329212 0.625848
0.348455 0.337108 0.616434
0.610634 0.344936 0.606967
0.835409 0.352699 0.597445
1.000000 0.360399 0.587866
0.000000 0.590205 0.621861
0.338952 0.596582 0.612425
0.602934 0.602934 0.602934
0.828557 0.609262 0.593388
1.000000 0.615566 0.583785
0.000000 0.812917 0.617865
0.329350 0.818586 0.608406
0.595198 0.824240 0.598892
0.821685 0.829881 0.589322
1.000000 0.835507 0.579694
0.000000 1.000000 0.613859
0.319644 1.000000 0.604377
0.587424 1.000000 0.594839
0.814791 1.000000 0.585245
1.000000 1.000000 0.575592
0.000000 0.000000 0.846747
0.342697 0.000000 0.838338
0.605963 0.000000 0.829897
0.831251 0.000000 0.821424
1.000000 0.000000 0.812919
0.000000 0.301745 0.843184
0.333134 0.309896 0.834761
0.598241 0.317967 0.826307
0.824387 0.325964 0.817820
1.000000 0.333888 0.809301
0.000000 0.568269 0.839615
0.323469 0.574736 0.831179
0.590482 0.581176 0.822711
0.817502 0.587590 0.814211
1.000000 0.593978 0.805677
0.000000 0.793481 0.836040
0.313696 0.799200 0.827591
0.582685 0.804905 0.819109
0.810595 0.810595 0.810595
1.000000 0.816270 0.802047
0.000000 0.996890 0.832460
0.303809 1.000000 0.823997
0.574849 1.000000 0.815501
0.803666 1.000000 0.806973
1.000000 1.000000 0.798412
0.000000 0.000000 1.000000
0.327278 0.000000 1.000000
0.593534 0.000000 1.000000
0.820209 0.000000 1.000000
1.000000 0.000000 1.000000
0.000000 0.273319 1.000000
0.317548 0.281767 1.000000
0.585752 0.290123 1.000000
0.813310 0.298390 1.000000
1.000000 0.306573 1.000000
0.000000 0.546016 1.000000
0.307707 0.552579 1.000000
0.577932 0.559112 1.000000
0.806390 0.565618 1.000000
1.000000 0.572096 1.000000
0.000000 0.773867 1.000000
0.297748 0.779640 1.000000
0.570072 0.785396 1.000000
0.799448 0.791138 1.000000
1.000000 0.796864 1.000000
0.000000 0.978887 1.000000
0.287663 0.984181 1.000000
0.562171 0.989464 1.000000
0.792484 0.994737 1.000000
1.000000 1.000000 1.000000
