presets/film_stocks/Fuji_Pro_160C.cube
# 独寻胶片模拟 -- Fuji Pro 160C
# Fujifilm, ISO 160, 2004, negative
TITLE "Fuji Pro 160C"
LUT_3D_SIZE 33
DOMAIN_MIN 0.0 0.0 0.0
DOMAIN_MAX 1.0 1.0 1.0
0.000000 0.000000 0.000000
0.045961 0.000810 0.000000
0.087848 0.001549 0.000000
0.128322 0.002262 0.000000
0.167906 0.002960 0.000000
0.206841 0.003647 0.000000
0.245267 0.004324 0.000000
0.283273 0.004994 0.000000
0.320925 0.005658 0.000000
0.358269 0.006316 0.000000
0.395343 0.006970 0.000000
0.432174 0.007619 0.000000
0.468786 0.008265 0.000000
0.505199 0.008907 0.000000
0.541429 0.009545 0.000000
0.577491 0.010181 0.000000
0.613395 0.010814 0.000000
0.649152 0.011445 0.000000
0.684772 0.012073 0.000000
0.720263 0.012698 0.000000
0.755632 0.013322 0.000000
0.790885 0.013943 0.000000
0.826028 0.014563 0.000000
0.861067 0.015181 0.000000
0.896007 0.015797 0.000000
0.930851 0.016411 0.000000
0.965604 0.017024 0.000000
1.000000 0.017635 0.000000
1.000000 0.018244 0.000000
1.000000 0.018853 0.000000
1.000000 0.019460 0.000000
1.000000 0.020065 0.000000
1.000000 0.020669 0.000000
0.000000 0.042308 0.000000
0.043395 0.042881 0.000000
0.085398 0.043455 0.000000
0.125937 0.044028 0.000000
0.165566 0.044600 0.000000
0.204535 0.045172 0.000000
0.242988 0.045743 0.000000
0.281017 0.046314 0.000000
0.318689 0.046884 0.000000
0.356051 0.047454 0.000000
0.393139 0.048023 0.000000
0.429984 0.048592 0.000000
0.466609 0.049160 0.000000
0.503033 0.049728 0.000000
0.539274 0.050296 0.000000
0.575345 0.050863 0.000000
0.611258 0.051429 0.000000
0.647024 0.051995 0.000000
0.682652 0.052561 0.000000
0.718150 0.053126 0.000000
0.753526 0.053691 0.000000
0.788786 0.054256 0.000000
0.823936 0.054820 0.000000
0.858981 0.055383 0.000000
0.893926 0.055946 0.000000
0.928776 0.056509 0.000000
0.963535 0.057072 0.000000
0.998206 0.057634 0.000000
1.000000 0.058195 0.000000
1.000000 0.058757 0.000000
1.000000 0.059318 0.000000
1.000000 0.059878 0.000000
1.000000 0.060438 0.000000
0.000000 0.080864 0.000000
0.040818 0.081412 0.000000
0.082943 0.081961 0.000000
0.123549 0.082509 0.000000
0.163223 0.083057 0.000000
0.202227 0.083604 0.000000
0.240708 0.084151 0.000000
0.278761 0.084698 0.000000
0.316452 0.085245 0.000000
0.353831 0.085792 0.000000
0.390935 0.086338 0.000000
0.427793 0.086884 0.000000
0.464431 0.087430 0.000000
0.500867 0.087975 0.000000
0.537118 0.088521 0.000000
0.573199 0.089066 0.000000
0.609121 0.089611 0.000000
0.644895 0.090155 0.000000
0.680531 0.090700 0.000000
0.716037 0.091244 0.000000
0.751420 0.091788 0.000000
0.786687 0.092332 0.000000
0.821843 0.092875 0.000000
0.856894 0.093419 0.000000
0.891845 0.093962 0.000000
0.926701 0.094504 0.000000
0.961465 0.095047 0.000000
0.996141 0.095589 0.000000
1.000000 0.096132 0.000000
1.000000 0.096674 0.000000
1.000000 0.097215 0.000000
1.000000 0.097757 0.000000
1.000000 0.098298 0.000000
0.000000 0.118121 0.000000
0.038230 0.118655 0.000000
0.080483 0.119189 0.000000
0.121157 0.119723 0.000000
0.160878 0.120257 0.000000
0.199917 0.120790 0.000000
0.238426 0.121324 0.000000
0.276502 0.121857 0.000000
0.314214 0.122390 0.000000
0.351610 0.122923 0.000000
0.388730 0.123456 0.000000
0.425602 0.123988 0.000000
0.462252 0.124521 0.000000
0.498700 0.125053 0.000000
0.534962 0.125585 0.000000
0.571052 0.126117 0.000000
0.606983 0.126649 0.000000
0.642766 0.127180 0.000000
0.678410 0.127712 0.000000
0.713924 0.128243 0.000000
0.749314 0.128774 0.000000
0.784587 0.129305 0.000000
0.819750 0.129836 0.000000
0.854807 0.130367 0.000000
0.889764 0.130898 0.000000
0.924625 0.131428 0.000000
0.959394 0.131958 0.000000
0.994076 0.132488 0.000000
1.000000 0.133018 0.000000
1.000000 0.133548 0.000000
1.000000 0.134078 0.000000
1.000000 0.134607 0.000000
1.000000 0.135137 0.000000
0.000000 0.154558 0.000000
0.035629 0.155082 0.000000
0.078017 0.155606 0.000000
0.118762 0.156130 0.000000
0.158531 0.156654 0.000000
0.197606 0.157178 0.000000
0.236143 0.157702 0.000000
0.274243 0.158225 0.000000
0.311974 0.158749 0.000000
0.349388 0.159272 0.000000
0.386524 0.159795 0.000000
0.423410 0.160318 0.000000
0.460073 0.160841 0.000000
0.496532 0.161364 0.000000
0.532804 0.161887 0.000000
0.568905 0.162409 0.000000
0.604845 0.162932 0.000000
0.640637 0.163454 0.000000
0.676289 0.163977 0.000000
0.711810 0.164499 0.000000
0.747207 0.165021 0.000000
0.782487 0.165543 0.000000
0.817656 0.166064 0.000000
0.852719 0.166586 0.000000
0.887682 0.167108 0.000000
0.922549 0.167629 0.000000
0.957324 0.168150 0.000000
0.992010 0.168672 0.000000
1.000000 0.169193 0.000000
1.000000 0.169714 0.000000
1.000000 0.170235 0.000000
1.000000 0.170755 0.000000
1.000000 0.171276 0.000000
0.000000 0.190397 0.000000
0.033015 0.190914 0.000000
0.075546 0.191431 0.000000
0.116364 0.191947 0.000000
0.156181 0.192464 0.000000
0.195292 0.192980 0.000000
0.233858 0.193496 0.000000
0.271982 0.194012 0.000000
0.309734 0.194528 0.000000
0.347166 0.195044 0.000000
0.384317 0.195560 0.000000
0.421217 0.196076 0.000000
0.457893 0.196592 0.000000
0.494363 0.197107 0.000000
0.530647 0.197623 0.000000
0.566757 0.198138 0.000000
0.602706 0.198653 0.000000
0.638507 0.199168 0.000000
0.674167 0.199683 0.000000
0.709695 0.200198 0.000000
0.745100 0.200713 0.000000
0.780386 0.201228 0.000000
0.815562 0.201743 0.000000
0.850632 0.202258 0.000000
0.885600 0.202772 0.000000
0.920473 0.203287 0.000000
0.955253 0.203801 0.000000
0.989944 0.204315 0.000000
1.000000 0.204829 0.000000
1.000000 0.205343 0.000000
1.000000 0.205857 0.000000
1.000000 0.206371 0.000000
1.000000 0.206885 0.000000
0.000000 0.225768 0.000000
0.030386 0.226278 0.000000
0.073070 0.226789 0.000000
0.113962 0.227299 0.000000
0.153829 0.227810 0.000000
0.192977 0.228320 0.000000
0.231572 0.228830 0.000000
0.269720 0.229340 0.000000
0.307492 0.229850 0.000000
0.344942 0.230360 0.000000
0.382109 0.230870 0.000000
0.419024 0.231380 0.000000
0.455712 0.231890 0.000000
0.492194 0.232399 0.000000
0.528488 0.232909 0.000000
0.564608 0.233418 0.000000
0.600567 0.233928 0.000000
0.636376 0.234437 0.000000
0.672044 0.234946 0.000000
0.707580 0.235456 0.000000
0.742992 0.235965 0.000000
0.778286 0.236474 0.000000
0.813468 0.236983 0.000000
0.848544 0.237492 0.000000
0.883518 0.238000 0.000000
0.918396 0.238509 0.000000
0.953181 0.239018 0.000000
0.987878 0.239526 0.000000
1.000000 0.240035 0.000000
1.000000 0.240543 0.000000
1.000000 0.241051 0.000000
1.000000 0.241560 0.000000
1.000000 0.242068 0.000000
0.000000 0.260753 0.000000
0.027741 0.261258 0.000000
0.070588 0.261764 0.000000
0.111557 0.262269 0.000000
0.151474 0.262774 0.000000
0.190659 0.263280 0.000000
0.229284 0.263785 0.000000
0.267456 0.264290 0.000000
0.305250 0.264795 0.000000
0.342717 0.265300 0.000000
0.379900 0.265805 0.000000
0.416829 0.266309 0.000000
0.453530 0.266814 0.000000
0.490024 0.267319 0.000000
0.526329 0.267823 0.000000
0.562459 0.268328 0.000000
0.598427 0.268832 0.000000
0.634245 0.269337 0.000000
0.669921 0.269841 0.000000
0.705465 0.270345 0.000000
0.740884 0.270850 0.000000
0.776184 0.271354 0.000000
0.811373 0.271858 0.000000
0.846455 0.272362 0.000000
0.881435 0.272866 0.000000
0.916319 0.273370 0.000000
0.951110 0.273874 0.000000
0.985812 0.274377 0.000000
1.000000 0.274881 0.000000
1.000000 0.275385 0.000000
1.000000 0.275888 0.000000
1.000000 0.276392 0.000000
1.000000 0.276895 0.000000
0.000000 0.295411 0.000000
0.025079 0.295912 0.000000
0.068099 0.296414 0.000000
0.109148 0.296914 0.000000
0.149117 0.297415 0.000000
0.188340 0.297916 0.000000
0.226995 0.298417 0.000000
0.265192 0.298918 0.000000
0.303006 0.299418 0.000000
0.340492 0.299919 0.000000
0.377690 0.300420 0.000000
0.414634 0.300920 0.000000
0.451348 0.301421 0.000000
0.487854 0.301921 0.000000
0.524169 0.302421 0.000000
0.560310 0.302922 0.000000
0.596287 0.303422 0.000000
0.632113 0.303922 0.000000
0.667798 0.304422 0.000000
0.703349 0.304922 0.000000
0.738775 0.305422 0.000000
0.774083 0.305922 0.000000
0.809278 0.306422 0.000000
0.844366 0.306922 0.000000
0.879352 0.307421 0.000000
0.914242 0.307921 0.000000
0.949038 0.308421 0.000000
0.983745 0.308920 0.000000
1.000000 0.309420 0.000000
1.000000 0.309919 0.000000
1.000000 0.310419 0.000000
1.000000 0.310918 0.000000
1.000000 0.311417 0.000000
0.000000 0.329787 0.000000
0.022396 0.330284 0.000000
0.065604 0.330781 0.000000
0.106736 0.331278 0.000000
0.146757 0.331776 0.000000
0.186018 0.332273 0.000000
0.224703 0.332770 0.000000
0.262925 0.333266 0.000000
0.300761 0.333763 0.000000
0.338265 0.334260 0.000000
0.375480 0.334757 0.000000
0.412438 0.335254 0.000000
0.449165 0.335750 0.000000
0.485683 0.336247 0.000000
0.522009 0.336744 0.000000
0.558159 0.337240 0.000000
0.594146 0.337737 0.000000
0.629981 0.338233 0.000000
0.665674 0.338729 0.000000
0.701233 0.339226 0.000000
0.736666 0.339722 0.000000
0.771981 0.340218 0.000000
0.807182 0.340714 0.000000
0.842277 0.341210 0.000000
0.877269 0.341706 0.000000
0.912164 0.342202 0.000000
0.946966 0.342698 0.000000
0.981678 0.343194 0.000000
1.000000 0.343690 0.000000
1.000000 0.344186 0.000000
1.000000 0.344682 0.000000
1.000000 0.345177 0.000000
1.000000 0.345673 0.000000
0.000000 0.363913 0.000000
0.019691 0.364407 0.000000
0.063103 0.364900 0.000000
0.104319 0.365394 0.000000
0.144394 0.365888 0.000000
0.183695 0.366382 0.000000
0.222411 0.366875 0.000000
0.260658 0.367369 0.000000
0.298515 0.367862 0.000000
0.336037 0.368356 0.000000
0.373268 0.368849 0.000000
0.410241 0.369342 0.000000
0.446981 0.369836 0.000000
0.483511 0.370329 0.000000
0.519848 0.370822 0.000000
0.556009 0.371315 0.000000
0.592005 0.371809 0.000000
0.627849 0.372302 0.000000
0.663550 0.372795 0.000000
0.699116 0.373288 0.000000
0.734557 0.373781 0.000000
0.769878 0.374274 0.000000
0.805087 0.374766 0.000000
0.840187 0.375259 0.000000
0.875186 0.375752 0.000000
0.910086 0.376245 0.000000
0.944893 0.376737 0.000000
0.979611 0.377230 0.000000
1.000000 0.377723 0.000000
1.000000 0.378215 0.000000
1.000000 0.378708 0.000000
1.000000 0.379200 0.000000
1.000000 0.379693 0.000000
0.000000 0.397816 0.000000
0.016959 0.398307 0.000000
0.060594 0.398797 0.000000
0.101899 0.399288 0.000000
0.142029 0.399779 0.000000
0.181369 0.400269 0.000000
0.220116 0.400760 0.000000
0.258389 0.401250 0.000000
0.296267 0.401741 0.000000
0.333809 0.402231 0.000000
0.371056 0.402722 0.000000
0.408043 0.403212 0.000000
0.444796 0.403702 0.000000
0.481338 0.404193 0.000000
0.517687 0.404683 0.000000
0.553857 0.405173 0.000000
0.589863 0.405663 0.000000
0.625716 0.406153 0.000000
0.661425 0.406643 0.000000
0.696999 0.407133 0.000000
0.732447 0.407623 0.000000
0.767776 0.408113 0.000000
0.802990 0.408603 0.000000
0.838097 0.409093 0.000000
0.873102 0.409583 0.000000
0.908008 0.410072 0.000000
0.942820 0.410562 0.000000
0.977543 0.411052 0.000000
1.000000 0.411541 0.000000
1.000000 0.412031 0.000000
1.000000 0.412521 0.000000
1.000000 0.413010 0.000000
1.000000 0.413500 0.000000
0.000000 0.431518 0.000000
0.014197 0.432006 0.000000
0.058078 0.432494 0.000000
0.099475 0.432981 0.000000
0.139661 0.433469 0.000000
0.179042 0.433957 0.000000
0.217820 0.434445 0.000000
0.256119 0.434933 0.000000
0.294019 0.435420 0.000000
0.331579 0.435908 0.000000
0.368843 0.436396 0.000000
0.405844 0.436883 0.000000
0.442611 0.437371 0.000000
0.479165 0.437858 0.000000
0.515525 0.438346 0.000000
0.551705 0.438833 0.000000
0.587721 0.439321 0.000000
0.623582 0.439808 0.000000
0.659299 0.440295 0.000000
0.694882 0.440783 0.000000
0.730337 0.441270 0.000000
0.765672 0.441757 0.000000
0.800894 0.442244 0.000000
0.836007 0.442731 0.000000
0.871017 0.443219 0.000000
0.905929 0.443706 0.000000
0.940747 0.444193 0.000000
0.975475 0.444680 0.000000
1.000000 0.445167 0.000000
1.000000 0.445654 0.000000
1.000000 0.446140 0.000000
1.000000 0.446627 0.000000
1.000000 0.447114 0.000000
0.000000 0.465036 0.000000
0.011395 0.465521 0.000000
0.055555 0.466007 0.000000
0.097046 0.466492 0.000000
0.137290 0.466977 0.000000
0.176712 0.467463 0.000000
0.215522 0.467948 0.000000
0.253847 0.468433 0.000000
0.291769 0.468918 0.000000
0.329348 0.469404 0.000000
0.366628 0.469889 0.000000
0.403645 0.470374 0.000000
0.440425 0.470859 0.000000
0.476991 0.471344 0.000000
0.513362 0.471829 0.000000
0.549553 0.472314 0.000000
0.585578 0.472799 0.000000
0.621448 0.473283 0.000000
0.657174 0.473768 0.000000
0.692764 0.474253 0.000000
0.728227 0.474738 0.000000
0.763569 0.475223 0.000000
0.798797 0.475707 0.000000
0.833916 0.476192 0.000000
0.868932 0.476677 0.000000
0.903850 0.477161 0.000000
0.938674 0.477646 0.000000
0.973407 0.478130 0.000000
1.000000 0.478615 0.000000
1.000000 0.479099 0.000000
1.000000 0.479584 0.000000
1.000000 0.480068 0.000000
1.000000 0.480552 0.000000
0.000000 0.498386 0.000000
0.008544 0.498869 0.000000
0.053023 0.499352 0.000000
0.094613 0.499835 0.000000
0.134916 0.500318 0.000000
0.174380 0.500801 0.000000
0.213223 0.501284 0.000000
0.251574 0.501767 0.000000
0.289518 0.502250 0.000000
0.327116 0.502732 0.000000
0.364413 0.503215 0.000000
0.401445 0.503698 0.000000
0.438238 0.504181 0.000000
0.474816 0.504663 0.000000
0.511198 0.505146 0.000000
0.547400 0.505629 0.000000
0.583434 0.506111 0.000000
0.619313 0.506594 0.000000
0.655047 0.507076 0.000000
0.690645 0.507559 0.000000
0.726115 0.508041 0.000000
0.761465 0.508524 0.000000
0.796699 0.509006 0.000000
0.831825 0.509489 0.000000
0.866847 0.509971 0.000000
0.901771 0.510453 0.000000
0.936600 0.510935 0.000000
0.971338 0.511418 0.000000
1.000000 0.511900 0.000000
1.000000 0.512382 0.000000
1.000000 0.512864 0.000000
1.000000 0.513346 0.000000
1.000000 0.513828 0.000000
0.000000 0.531580 0.000000
0.005623 0.532061 0.000000
0.050483 0.532542 0.000000
0.092176 0.533023 0.000000
0.132540 0.533503 0.000000
0.172046 0.533984 0.000000
0.210922 0.534465 0.000000
0.249299 0.534946 0.000000
0.287266 0.535426 0.000000
0.324883 0.535907 0.000000
0.362197 0.536388 0.000000
0.399244 0.536868 0.000000
0.436051 0.537349 0.000000
0.472641 0.537829 0.000000
0.509034 0.538310 0.000000
0.545246 0.538790 0.000000
0.581290 0.539271 0.000000
0.617178 0.539751 0.000000
0.652920 0.540232 0.000000
0.688527 0.540712 0.000000
0.724004 0.541192 0.000000
0.759360 0.541673 0.000000
0.794601 0.542153 0.000000
0.829734 0.542633 0.000000
0.864762 0.543114 0.000000
0.899691 0.543594 0.000000
0.934526 0.544074 0.000000
0.969270 0.544554 0.000000
1.000000 0.545034 0.000000
1.000000 0.545514 0.000000
1.000000 0.545994 0.000000
1.000000 0.546474 0.000000
1.000000 0.546954 0.000000
0.000000 0.564630 0.000000
0.002586 0.565109 0.000000
0.047934 0.565587 0.000000
0.089734 0.566066 0.000000
0.130160 0.566545 0.000000
0.169710 0.567024 0.000000
0.208619 0.567503 0.000000
0.247023 0.567981 0.000000
0.285012 0.568460 0.000000
0.322649 0.568939 0.000000
0.359980 0.569417 0.000000
0.397042 0.569896 0.000000
0.433862 0.570374 0.000000
0.470465 0.570853 0.000000
0.506869 0.571332 0.000000
0.543092 0.571810 0.000000
0.579145 0.572288 0.000000
0.615042 0.572767 0.000000
0.650793 0.573245 0.000000
0.686407 0.573724 0.000000
0.721892 0.574202 0.000000
0.757255 0.574680 0.000000
0.792503 0.575159 0.000000
0.827642 0.575637 0.000000
0.862676 0.576115 0.000000
0.897611 0.576593 0.000000
0.932451 0.577072 0.000000
0.967201 0.577550 0.000000
1.000000 0.578028 0.000000
1.000000 0.578506 0.000000
1.000000 0.578984 0.000000
1.000000 0.579462 0.000000
1.000000 0.579940 0.000000
0.000000 0.597544 0.000000
0.000000 0.598021 0.000000
0.045376 0.598498 0.000000
0.087288 0.598975 0.000000
0.127777 0.599452 0.000000
0.167371 0.599929 0.000000
0.206314 0.600406 0.000000
0.244746 0.600883 0.000000
0.282757 0.601360 0.000000
0.320414 0.601836 0.000000
0.357762 0.602313 0.000000
0.394839 0.602790 0.000000
0.431673 0.603267 0.000000
0.468288 0.603743 0.000000
0.504704 0.604220 0.000000
0.540937 0.604696 0.000000
0.577000 0.605173 0.000000
0.612906 0.605650 0.000000
0.648665 0.606126 0.000000
0.684287 0.606603 0.000000
0.719780 0.607079 0.000000
0.755150 0.607556 0.000000
0.790405 0.608032 0.000000
0.825550 0.608509 0.000000
0.860590 0.608985 0.000000
0.895531 0.609461 0.000000
0.930377 0.609938 0.000000
0.965131 0.610414 0.000000
0.999798 0.610890 0.000000
1.000000 0.611366 0.000000
1.000000 0.611843 0.000000
1.000000 0.612319 0.000000
1.000000 0.612795 0.000000
0.000000 0.630333 0.000000
0.000000 0.630808 0.000000
0.042807 0.631283 0.000000
0.084837 0.631758 0.000000
0.125391 0.632233 0.000000
0.165031 0.632708 0.000000
0.204008 0.633184 0.000000
0.242467 0.633659 0.000000
0.280502 0.634134 0.000000
0.318178 0.634609 0.000000
0.355543 0.635084 0.000000
0.392635 0.635559 0.000000
0.429483 0.636034 0.000000
0.466111 0.636508 0.000000
0.502538 0.636983 0.000000
0.538781 0.637458 0.000000
0.574854 0.637933 0.000000
0.610769 0.638408 0.000000
0.646537 0.638883 0.000000
0.682167 0.639357 0.000000
0.717667 0.639832 0.000000
0.753044 0.640307 0.000000
0.788306 0.640782 0.000000
0.823457 0.641256 0.000000
0.858504 0.641731 0.000000
0.893450 0.642205 0.000000
0.928301 0.642680 0.000000
0.963061 0.643155 0.000000
0.997733 0.643629 0.000000
1.000000 0.644104 0.000000
1.000000 0.644578 0.000000
1.000000 0.645053 0.000000
1.000000 0.645527 0.000000
0.000000 0.663002 0.000000
0.000000 0.663475 0.000000
0.040227 0.663949 0.000000
0.082381 0.664422 0.000000
0.123002 0.664896 0.000000
0.162687 0.665369 0.000000
0.201699 0.665843 0.000000
0.240186 0.666316 0.000000
0.278244 0.666789 0.000000
0.315940 0.667263 0.000000
0.353323 0.667736 0.000000
0.390431 0.668209 0.000000
0.427292 0.668683 0.000000
0.463933 0.669156 0.000000
0.500371 0.669629 0.000000
0.536625 0.670102 0.000000
0.572708 0.670576 0.000000
0.608632 0.671049 0.000000
0.644409 0.671522 0.000000
0.680046 0.671995 0.000000
0.715554 0.672468 0.000000
0.750938 0.672941 0.000000
0.786206 0.673414 0.000000
0.821364 0.673887 0.000000
0.856417 0.674360 0.000000
0.891369 0.674833 0.000000
0.926226 0.675306 0.000000
0.960991 0.675779 0.000000
0.995669 0.676252 0.000000
1.000000 0.676725 0.000000
1.000000 0.677198 0.000000
1.000000 0.677671 0.000000
1.000000 0.678143 0.000000
0.000000 0.695559 0.000000
0.000000 0.696031 0.000000
0.037636 0.696503 0.000000
0.079919 0.696974 0.000000
0.120610 0.697446 0.000000
0.160342 0.697918 0.000000
0.199389 0.698390 0.000000
0.237904 0.698862 0.000000
0.275986 0.699334 0.000000
0.313702 0.699805 0.000000
0.351102 0.700277 0.000000
0.388225 0.700749 0.000000
0.425101 0.701221 0.000000
0.461754 0.701692 0.000000
0.498204 0.702164 0.000000
0.534468 0.702636 0.000000
0.570561 0.703107 0.000000
0.606494 0.703579 0.000000
0.642279 0.704050 0.000000
0.677925 0.704522 0.000000
0.713440 0.704993 0.000000
0.748832 0.705465 0.000000
0.784107 0.705936 0.000000
0.819271 0.706408 0.000000
0.854330 0.706879 0.000000
0.889288 0.707351 0.000000
0.924150 0.707822 0.000000
0.958921 0.708294 0.000000
0.993603 0.708765 0.000000
1.000000 0.709236 0.000000
1.000000 0.709708 0.000000
1.000000 0.710179 0.000000
1.000000 0.710650 0.000000
0.000000 0.728009 0.000000
0.000000 0.728480 0.000000
0.035033 0.728950 0.000000
0.077453 0.729420 0.000000
0.118214 0.729891 0.000000
0.157994 0.730361 0.000000
0.197077 0.730832 0.000000
0.235621 0.731302 0.000000
0.273726 0.731772 0.000000
0.311462 0.732242 0.000000
0.348880 0.732713 0.000000
0.386019 0.733183 0.000000
0.422909 0.733653 0.000000
0.459574 0.734123 0.000000
0.496036 0.734594 0.000000
0.532311 0.735064 0.000000
0.568414 0.735534 0.000000
0.604356 0.736004 0.000000
0.640150 0.736474 0.000000
0.675803 0.736944 0.000000
0.711326 0.737414 0.000000
0.746725 0.737884 0.000000
0.782007 0.738354 0.000000
0.817177 0.738824 0.000000
0.852242 0.739294 0.000000
0.887206 0.739764 0.000000
0.922074 0.740234 0.000000
0.956850 0.740704 0.000000
0.991538 0.741174 0.000000
1.000000 0.741644 0.000000
1.000000 0.742113 0.000000
1.000000 0.742583 0.000000
1.000000 0.743053 0.000000
0.000000 0.760359 0.000000
0.000000 0.760828 0.000000
0.032415 0.761297 0.000000
0.074981 0.761766 0.000000
0.115815 0.762235 0.000000
0.155644 0.762704 0.000000
0.194763 0.763173 0.000000
0.233336 0.763641 0.000000
0.271465 0.764110 0.000000
0.309222 0.764579 0.000000
0.346657 0.765048 0.000000
0.383812 0.765517 0.000000
0.420716 0.765986 0.000000
0.457394 0.766454 0.000000
0.493867 0.766923 0.000000
0.530153 0.767392 0.000000
0.566265 0.767861 0.000000
0.602217 0.768329 0.000000
0.638019 0.768798 0.000000
0.673681 0.769267 0.000000
0.709212 0.769735 0.000000
0.744618 0.770204 0.000000
0.779906 0.770672 0.000000
0.815083 0.771141 0.000000
0.850154 0.771610 0.000000
0.885124 0.772078 0.000000
0.919998 0.772547 0.000000
0.954779 0.773015 0.000000
0.989472 0.773484 0.000000
1.000000 0.773952 0.000000
1.000000 0.774421 0.000000
1.000000 0.774889 0.000000
1.000000 0.775357 0.000000
0.000000 0.792612 0.000000
0.000000 0.793080 0.000000
0.029783 0.793547 0.000000
0.072503 0.794015 0.000000
0.113413 0.794483 0.000000
0.153291 0.794950 0.000000
0.192447 0.795418 0.000000
0.231049 0.795885 0.000000
0.269202 0.796353 0.000000
0.306980 0.796820 0.000000
0.344433 0.797288 0.000000
0.381604 0.797755 0.000000
0.418522 0.798223 0.000000
0.455213 0.798690 0.000000
0.491698 0.799158 0.000000
0.527994 0.799625 0.000000
0.564117 0.800092 0.000000
0.600078 0.800560 0.000000
0.635889 0.801027 0.000000
0.671559 0.801494 0.000000
0.707097 0.801962 0.000000
0.742510 0.802429 0.000000
0.777805 0.802896 0.000000
0.812989 0.803363 0.000000
0.848066 0.803831 0.000000
0.883042 0.804298 0.000000
0.917921 0.804765 0.000000
0.952708 0.805232 0.000000
0.987406 0.805699 0.000000
1.000000 0.806166 0.000000
1.000000 0.806634 0.000000
1.000000 0.807101 0.000000
1.000000 0.807568 0.000000
0.000000 0.824774 0.000000
0.000000 0.825240 0.000000
0.027134 0.825707 0.000000
0.070019 0.826173 0.000000
0.111007 0.826639 0.000000
0.150935 0.827106 0.000000
0.190129 0.827572 0.000000
0.228761 0.828038 0.000000
0.266939 0.828504 0.000000
0.304737 0.828971 0.000000
0.342209 0.829437 0.000000
0.379395 0.829903 0.000000
0.416327 0.830369 0.000000
0.453031 0.830835 0.000000
0.489528 0.831301 0.000000
0.525835 0.831767 0.000000
0.561968 0.832233 0.000000
0.597938 0.832700 0.000000
0.633758 0.833166 0.000000
0.669436 0.833632 0.000000
0.704981 0.834098 0.000000
0.740402 0.834564 0.000000
0.775704 0.835030 0.000000
0.810894 0.835496 0.000000
0.845977 0.835961 0.000000
0.880959 0.836427 0.000000
0.915844 0.836893 0.000000
0.950636 0.837359 0.000000
0.985339 0.837825 0.000000
1.000000 0.838291 0.000000
1.000000 0.838757 0.000000
1.000000 0.839222 0.000000
1.000000 0.839688 0.000000
0.000000 0.856848 0.000000
0.000000 0.857313 0.000000
0.024467 0.857778 0.000000
0.067529 0.858244 0.000000
0.108597 0.858709 0.000000
0.148578 0.859174 0.000000
0.187809 0.859639 0.000000
0.226471 0.860104 0.000000
0.264673 0.860569 0.000000
0.302493 0.861034 0.000000
0.339983 0.861499 0.000000
0.377185 0.861963 0.000000
0.414132 0.862428 0.000000
0.450849 0.862893 0.000000
0.487357 0.863358 0.000000
0.523675 0.863823 0.000000
0.559818 0.864288 0.000000
0.595798 0.864753 0.000000
0.631626 0.865218 0.000000
0.667312 0.865682 0.000000
0.702865 0.866147 0.000000
0.738293 0.866612 0.000000
0.773602 0.867077 0.000000
0.808799 0.867541 0.000000
0.843888 0.868006 0.000000
0.878876 0.868471 0.000000
0.913767 0.868935 0.000000
0.948564 0.869400 0.000000
0.983272 0.869865 0.000000
1.000000 0.870329 0.000000
1.000000 0.870794 0.000000
1.000000 0.871259 0.000000
1.000000 0.871723 0.000000
0.000000 0.888839 0.000000
0.000000 0.889303 0.000000
0.021780 0.889766 0.000000
0.065033 0.890230 0.000000
0.106183 0.890694 0.000000
0.146217 0.891158 0.000000
0.185487 0.891622 0.000000
0.224179 0.892086 0.000000
0.262407 0.892549 0.000000
0.300247 0.893013 0.000000
0.337756 0.893477 0.000000
0.374974 0.893941 0.000000
0.411935 0.894405 0.000000
0.448665 0.894868 0.000000
0.485186 0.895332 0.000000
0.521515 0.895796 0.000000
0.557668 0.896259 0.000000
0.593657 0.896723 0.000000
0.629494 0.897187 0.000000
0.665188 0.897650 0.000000
0.700749 0.898114 0.000000
0.736184 0.898577 0.000000
0.771500 0.899041 0.000000
0.806703 0.899505 0.000000
0.841799 0.899968 0.000000
