presets/film_stocks/Fuji_FP-100C.cube
# 独寻胶片模拟 -- Fuji FP-100C
# Fujifilm, ISO 128, 2002, positive
TITLE "Fuji FP-100C"
LUT_3D_SIZE 33
DOMAIN_MIN 0.0 0.0 0.0
DOMAIN_MAX 1.0 1.0 1.0
0.000000 0.000000 0.000000
0.075357 0.004170 0.000000
0.128435 0.007108 0.000000
0.175444 0.009709 0.000000
0.218899 0.012114 0.000000
0.259891 0.014383 0.000000
0.299019 0.016548 0.000000
0.336664 0.018632 0.000000
0.373083 0.020647 0.000000
0.408464 0.022605 0.000000
0.442947 0.024514 0.000000
0.476642 0.026378 0.000000
0.509637 0.028204 0.000000
0.542002 0.029996 0.000000
0.573797 0.031755 0.000000
0.605072 0.033486 0.000000
0.635869 0.035190 0.000000
0.666224 0.036870 0.000000
0.696171 0.038528 0.000000
0.725735 0.040164 0.000000
0.754942 0.041780 0.000000
0.783814 0.043378 0.000000
0.812371 0.044958 0.000000
0.840629 0.046522 0.000000
0.868605 0.048071 0.000000
0.896313 0.049604 0.000000
0.923767 0.051123 0.000000
0.950978 0.052629 0.000000
0.977957 0.054122 0.000000
1.000000 0.055603 0.000000
1.000000 0.057072 0.000000
1.000000 0.058530 0.000000
1.000000 0.059977 0.000000
0.000000 0.073846 0.000000
0.073243 0.075197 0.000000
0.126637 0.076541 0.000000
0.173808 0.077877 0.000000
0.217369 0.079207 0.000000
0.258438 0.080530 0.000000
0.297626 0.081846 0.000000
0.335320 0.083157 0.000000
0.371780 0.084461 0.000000
0.407196 0.085759 0.000000
0.441710 0.087051 0.000000
0.475432 0.088338 0.000000
0.508450 0.089618 0.000000
0.540837 0.090894 0.000000
0.572652 0.092164 0.000000
0.603945 0.093429 0.000000
0.634759 0.094688 0.000000
0.665130 0.095943 0.000000
0.695090 0.097193 0.000000
0.724668 0.098438 0.000000
0.753888 0.099678 0.000000
0.782772 0.100914 0.000000
0.811339 0.102145 0.000000
0.839608 0.103372 0.000000
0.867594 0.104594 0.000000
0.895312 0.105812 0.000000
0.922774 0.107026 0.000000
0.949994 0.108236 0.000000
0.976982 0.109442 0.000000
1.000000 0.110643 0.000000
1.000000 0.111841 0.000000
1.000000 0.113035 0.000000
1.000000 0.114225 0.000000
0.000000 0.125860 0.000000
0.071111 0.127013 0.000000
0.124832 0.128163 0.000000
0.172168 0.129309 0.000000
0.215836 0.130453 0.000000
0.256982 0.131593 0.000000
0.296232 0.132731 0.000000
0.333974 0.133865 0.000000
0.370476 0.134997 0.000000
0.405927 0.136126 0.000000
0.440471 0.137252 0.000000
0.474220 0.138375 0.000000
0.507263 0.139496 0.000000
0.539672 0.140614 0.000000
0.571506 0.141729 0.000000
0.602817 0.142842 0.000000
0.633648 0.143952 0.000000
0.664034 0.145059 0.000000
0.694009 0.146164 0.000000
0.723600 0.147266 0.000000
0.752833 0.148366 0.000000
0.781728 0.149464 0.000000
0.810307 0.150559 0.000000
0.838587 0.151652 0.000000
0.866583 0.152742 0.000000
0.894310 0.153830 0.000000
0.921782 0.154916 0.000000
0.949010 0.155999 0.000000
0.976006 0.157080 0.000000
1.000000 0.158159 0.000000
1.000000 0.159236 0.000000
1.000000 0.160311 0.000000
1.000000 0.161383 0.000000
0.000000 0.171927 0.000000
0.068959 0.172977 0.000000
0.123020 0.174026 0.000000
0.170523 0.175072 0.000000
0.214299 0.176117 0.000000
0.255524 0.177159 0.000000
0.294835 0.178200 0.000000
0.332627 0.179239 0.000000
0.369170 0.180276 0.000000
0.404656 0.181312 0.000000
0.439231 0.182346 0.000000
0.473008 0.183378 0.000000
0.506075 0.184408 0.000000
0.538505 0.185436 0.000000
0.570360 0.186463 0.000000
0.601689 0.187488 0.000000
0.632536 0.188511 0.000000
0.662938 0.189533 0.000000
0.692928 0.190553 0.000000
0.722532 0.191572 0.000000
0.751777 0.192588 0.000000
0.780685 0.193604 0.000000
0.809275 0.194617 0.000000
0.837565 0.195629 0.000000
0.865571 0.196640 0.000000
0.893308 0.197649 0.000000
0.920789 0.198656 0.000000
0.948025 0.199662 0.000000
0.975029 0.200666 0.000000
1.000000 0.201669 0.000000
1.000000 0.202670 0.000000
1.000000 0.203670 0.000000
1.000000 0.204669 0.000000
0.000000 0.214512 0.000000
0.066788 0.215495 0.000000
0.121199 0.216476 0.000000
0.168873 0.217457 0.000000
0.212760 0.218436 0.000000
0.254064 0.219413 0.000000
0.293436 0.220390 0.000000
0.331278 0.221365 0.000000
0.367862 0.222339 0.000000
0.403384 0.223311 0.000000
0.437990 0.224282 0.000000
0.471794 0.225252 0.000000
0.504885 0.226221 0.000000
0.537338 0.227189 0.000000
0.569213 0.228155 0.000000
0.600560 0.229120 0.000000
0.631424 0.230084 0.000000
0.661842 0.231046 0.000000
0.691846 0.232008 0.000000
0.721464 0.232968 0.000000
0.750722 0.233927 0.000000
0.779641 0.234885 0.000000
0.808242 0.235841 0.000000
0.836543 0.236797 0.000000
0.864559 0.237751 0.000000
0.892305 0.238705 0.000000
0.919795 0.239657 0.000000
0.947041 0.240608 0.000000
0.974053 0.241557 0.000000
1.000000 0.242506 0.000000
1.000000 0.243454 0.000000
1.000000 0.244400 0.000000
1.000000 0.245346 0.000000
0.000000 0.254681 0.000000
0.064594 0.255615 0.000000
0.119369 0.256548 0.000000
0.167218 0.257480 0.000000
0.211216 0.258410 0.000000
0.252601 0.259340 0.000000
0.292035 0.260269 0.000000
0.329927 0.261197 0.000000
0.366554 0.262123 0.000000
0.402111 0.263049 0.000000
0.436749 0.263974 0.000000
0.470580 0.264898 0.000000
0.503696 0.265821 0.000000
0.536170 0.266742 0.000000
0.568065 0.267663 0.000000
0.599431 0.268583 0.000000
0.630312 0.269502 0.000000
0.660745 0.270421 0.000000
0.690763 0.271338 0.000000
0.720395 0.272254 0.000000
0.749665 0.273169 0.000000
0.778597 0.274084 0.000000
0.807209 0.274997 0.000000
0.835520 0.275910 0.000000
0.863546 0.276822 0.000000
0.891302 0.277732 0.000000
0.918801 0.278642 0.000000
0.946055 0.279551 0.000000
0.973076 0.280459 0.000000
0.999873 0.281367 0.000000
1.000000 0.282273 0.000000
1.000000 0.283178 0.000000
1.000000 0.284083 0.000000
0.000000 0.293026 0.000000
0.062379 0.293921 0.000000
0.117532 0.294816 0.000000
0.165559 0.295709 0.000000
0.209670 0.296602 0.000000
0.251136 0.297495 0.000000
0.290632 0.298386 0.000000
0.328575 0.299276 0.000000
0.365243 0.300166 0.000000
0.400837 0.301055 0.000000
0.435506 0.301943 0.000000
0.469364 0.302831 0.000000
0.502505 0.303717 0.000000
0.535002 0.304603 0.000000
0.566916 0.305488 0.000000
0.598301 0.306373 0.000000
0.629198 0.307256 0.000000
0.659647 0.308139 0.000000
0.689680 0.309021 0.000000
0.719325 0.309902 0.000000
0.748609 0.310783 0.000000
0.777552 0.311662 0.000000
0.806176 0.312541 0.000000
0.834497 0.313420 0.000000
0.862534 0.314297 0.000000
0.890299 0.315174 0.000000
0.917807 0.316050 0.000000
0.945070 0.316926 0.000000
0.972099 0.317800 0.000000
0.998904 0.318674 0.000000
1.000000 0.319547 0.000000
1.000000 0.320420 0.000000
1.000000 0.321291 0.000000
0.000000 0.329916 0.000000
0.060139 0.330780 0.000000
0.115685 0.331643 0.000000
0.163894 0.332506 0.000000
0.208120 0.333368 0.000000
0.249668 0.334230 0.000000
0.289227 0.335091 0.000000
0.327221 0.335951 0.000000
0.363932 0.336810 0.000000
0.399562 0.337669 0.000000
0.434262 0.338527 0.000000
0.468148 0.339385 0.000000
0.501313 0.340242 0.000000
0.533832 0.341098 0.000000
0.565767 0.341954 0.000000
0.597170 0.342809 0.000000
0.628085 0.343663 0.000000
0.658549 0.344516 0.000000
0.688597 0.345369 0.000000
0.718256 0.346222 0.000000
0.747551 0.347074 0.000000
0.776507 0.347925 0.000000
0.805142 0.348775 0.000000
0.833474 0.349625 0.000000
0.861521 0.350475 0.000000
0.889296 0.351323 0.000000
0.916813 0.352171 0.000000
0.944084 0.353019 0.000000
0.971122 0.353865 0.000000
0.997935 0.354712 0.000000
1.000000 0.355557 0.000000
1.000000 0.356402 0.000000
1.000000 0.357247 0.000000
0.000000 0.365605 0.000000
0.057874 0.366443 0.000000
0.113830 0.367281 0.000000
0.162225 0.368117 0.000000
0.206566 0.368954 0.000000
0.248197 0.369789 0.000000
0.287820 0.370625 0.000000
0.325865 0.371459 0.000000
0.362619 0.372293 0.000000
0.398285 0.373127 0.000000
0.433017 0.373959 0.000000
0.466931 0.374792 0.000000
0.500121 0.375624 0.000000
0.532662 0.376455 0.000000
0.564617 0.377285 0.000000
0.596038 0.378116 0.000000
0.626970 0.378945 0.000000
0.657451 0.379774 0.000000
0.687513 0.380603 0.000000
0.717185 0.381431 0.000000
0.746494 0.382258 0.000000
0.775461 0.383085 0.000000
0.804107 0.383911 0.000000
0.832451 0.384737 0.000000
0.860507 0.385562 0.000000
0.888292 0.386387 0.000000
0.915818 0.387211 0.000000
0.943098 0.388035 0.000000
0.970144 0.388858 0.000000
0.996965 0.389681 0.000000
1.000000 0.390503 0.000000
1.000000 0.391325 0.000000
1.000000 0.392146 0.000000
0.000000 0.400277 0.000000
0.055582 0.401092 0.000000
0.111966 0.401907 0.000000
0.160550 0.402722 0.000000
0.205009 0.403536 0.000000
0.246724 0.404350 0.000000
0.286411 0.405163 0.000000
0.324508 0.405975 0.000000
0.361305 0.406787 0.000000
0.397007 0.407599 0.000000
0.431771 0.408410 0.000000
0.465713 0.409221 0.000000
0.498927 0.410031 0.000000
0.531491 0.410841 0.000000
0.563467 0.411650 0.000000
0.594906 0.412458 0.000000
0.625855 0.413267 0.000000
0.656351 0.414075 0.000000
0.686428 0.414882 0.000000
0.716114 0.415689 0.000000
0.745436 0.416495 0.000000
0.774415 0.417301 0.000000
0.803073 0.418106 0.000000
0.831427 0.418911 0.000000
0.859493 0.419716 0.000000
0.887287 0.420520 0.000000
0.914823 0.421323 0.000000
0.942112 0.422127 0.000000
0.969166 0.422929 0.000000
0.995995 0.423731 0.000000
1.000000 0.424533 0.000000
1.000000 0.425334 0.000000
1.000000 0.426135 0.000000
0.000000 0.434069 0.000000
0.053261 0.434865 0.000000
0.110092 0.435660 0.000000
0.158870 0.436455 0.000000
0.203448 0.437250 0.000000
0.245248 0.438044 0.000000
0.285000 0.438838 0.000000
0.323149 0.439631 0.000000
0.359989 0.440424 0.000000
0.395728 0.441217 0.000000
0.430523 0.442009 0.000000
0.464493 0.442801 0.000000
0.497733 0.443592 0.000000
0.530319 0.444383 0.000000
0.562315 0.445173 0.000000
0.593774 0.445963 0.000000
0.624740 0.446753 0.000000
0.655252 0.447542 0.000000
0.685343 0.448331 0.000000
0.715043 0.449119 0.000000
0.744377 0.449907 0.000000
0.773369 0.450694 0.000000
0.802038 0.451481 0.000000
0.830402 0.452268 0.000000
0.858479 0.453054 0.000000
0.886283 0.453840 0.000000
0.913828 0.454625 0.000000
0.941125 0.455410 0.000000
0.968188 0.456195 0.000000
0.995025 0.456979 0.000000
1.000000 0.457763 0.000000
1.000000 0.458546 0.000000
1.000000 0.459329 0.000000
0.000000 0.467088 0.000000
0.050910 0.467867 0.000000
0.108209 0.468645 0.000000
0.157184 0.469423 0.000000
0.201884 0.470201 0.000000
0.243769 0.470978 0.000000
0.283587 0.471755 0.000000
0.321788 0.472531 0.000000
0.358671 0.473307 0.000000
0.394448 0.474083 0.000000
0.429275 0.474858 0.000000
0.463273 0.475633 0.000000
0.496538 0.476407 0.000000
0.529147 0.477181 0.000000
0.561163 0.477955 0.000000
0.592640 0.478728 0.000000
0.623623 0.479501 0.000000
0.654151 0.480274 0.000000
0.684257 0.481046 0.000000
0.713971 0.481818 0.000000
0.743318 0.482589 0.000000
0.772322 0.483360 0.000000
0.801002 0.484131 0.000000
0.829377 0.484901 0.000000
0.857464 0.485671 0.000000
0.885278 0.486441 0.000000
0.912832 0.487210 0.000000
0.940138 0.487979 0.000000
0.967209 0.488748 0.000000
0.994054 0.489516 0.000000
1.000000 0.490284 0.000000
1.000000 0.491051 0.000000
1.000000 0.491818 0.000000
0.000000 0.499421 0.000000
0.048526 0.500185 0.000000
0.106316 0.500947 0.000000
0.155493 0.501710 0.000000
0.200316 0.502472 0.000000
0.242288 0.503234 0.000000
0.282172 0.503995 0.000000
0.320426 0.504757 0.000000
0.357353 0.505517 0.000000
0.393166 0.506278 0.000000
0.428026 0.507038 0.000000
0.462052 0.507798 0.000000
0.495342 0.508557 0.000000
0.527974 0.509316 0.000000
0.560010 0.510075 0.000000
0.591506 0.510833 0.000000
0.622507 0.511591 0.000000
0.653050 0.512349 0.000000
0.683171 0.513107 0.000000
0.712899 0.513864 0.000000
0.742259 0.514620 0.000000
0.771274 0.515377 0.000000
0.799966 0.516133 0.000000
0.828352 0.516889 0.000000
0.856449 0.517644 0.000000
0.884273 0.518399 0.000000
0.911836 0.519154 0.000000
0.939151 0.519908 0.000000
0.966230 0.520662 0.000000
0.993083 0.521416 0.000000
1.000000 0.522169 0.000000
1.000000 0.522922 0.000000
1.000000 0.523675 0.000000
0.000000 0.531138 0.000000
0.046106 0.531887 0.000000
0.104412 0.532636 0.000000
0.153797 0.533385 0.000000
0.198745 0.534133 0.000000
0.240804 0.534881 0.000000
0.280754 0.535629 0.000000
0.319062 0.536376 0.000000
0.356033 0.537123 0.000000
0.391884 0.537870 0.000000
0.426775 0.538616 0.000000
0.460830 0.539362 0.000000
0.494145 0.540108 0.000000
0.526800 0.540854 0.000000
0.558857 0.541599 0.000000
0.590372 0.542344 0.000000
0.621389 0.543088 0.000000
0.651949 0.543833 0.000000
0.682085 0.544577 0.000000
0.711826 0.545320 0.000000
0.741199 0.546064 0.000000
0.770227 0.546807 0.000000
0.798930 0.547550 0.000000
0.827327 0.548292 0.000000
0.855434 0.549034 0.000000
0.883267 0.549776 0.000000
0.910839 0.550518 0.000000
0.938163 0.551259 0.000000
0.965251 0.552000 0.000000
0.992112 0.552740 0.000000
1.000000 0.553481 0.000000
1.000000 0.554221 0.000000
1.000000 0.554961 0.000000
0.000000 0.562296 0.000000
0.043647 0.563032 0.000000
0.102498 0.563768 0.000000
0.152095 0.564504 0.000000
0.197170 0.565240 0.000000
0.239317 0.565976 0.000000
0.279335 0.566711 0.000000
0.317696 0.567446 0.000000
0.354711 0.568180 0.000000
0.390600 0.568914 0.000000
0.425524 0.569648 0.000000
0.459607 0.570382 0.000000
0.492948 0.571115 0.000000
0.525625 0.571849 0.000000
0.557703 0.572581 0.000000
0.589236 0.573314 0.000000
0.620271 0.574046 0.000000
0.650847 0.574778 0.000000
0.680998 0.575510 0.000000
0.710753 0.576242 0.000000
0.740139 0.576973 0.000000
0.769179 0.577704 0.000000
0.797893 0.578434 0.000000
0.826301 0.579165 0.000000
0.854418 0.579895 0.000000
0.882261 0.580625 0.000000
0.909843 0.581354 0.000000
0.937176 0.582083 0.000000
0.964271 0.582812 0.000000
0.991141 0.583541 0.000000
1.000000 0.584269 0.000000
1.000000 0.584998 0.000000
1.000000 0.585725 0.000000
0.000000 0.592943 0.000000
0.041146 0.593668 0.000000
0.100574 0.594393 0.000000
0.150387 0.595118 0.000000
0.195590 0.595842 0.000000
0.237828 0.596566 0.000000
0.277913 0.597289 0.000000
0.316328 0.598013 0.000000
0.353388 0.598736 0.000000
0.389314 0.599458 0.000000
0.424271 0.600181 0.000000
0.458383 0.600903 0.000000
0.491749 0.601625 0.000000
0.524449 0.602347 0.000000
0.556548 0.603069 0.000000
0.588100 0.603790 0.000000
0.619153 0.604511 0.000000
0.649745 0.605232 0.000000
0.679910 0.605952 0.000000
0.709679 0.606673 0.000000
0.739078 0.607393 0.000000
0.768130 0.608112 0.000000
0.796856 0.608832 0.000000
0.825275 0.609551 0.000000
0.853402 0.610270 0.000000
0.881255 0.610989 0.000000
0.908846 0.611707 0.000000
0.936187 0.612425 0.000000
0.963292 0.613143 0.000000
0.990169 0.613861 0.000000
1.000000 0.614578 0.000000
1.000000 0.615296 0.000000
1.000000 0.616013 0.000000
0.000000 0.623123 0.000000
0.038598 0.623837 0.000000
0.098638 0.624551 0.000000
0.148674 0.625265 0.000000
0.194008 0.625979 0.000000
0.236335 0.626692 0.000000
0.276489 0.627405 0.000000
0.314958 0.628118 0.000000
0.352063 0.628830 0.000000
0.388028 0.629542 0.000000
0.423017 0.630255 0.000000
0.457158 0.630966 0.000000
0.490550 0.631678 0.000000
0.523273 0.632389 0.000000
0.555392 0.633100 0.000000
0.586964 0.633811 0.000000
0.618034 0.634522 0.000000
0.648641 0.635232 0.000000
0.678822 0.635942 0.000000
0.708605 0.636652 0.000000
0.738017 0.637362 0.000000
0.767081 0.638071 0.000000
0.795818 0.638780 0.000000
0.824248 0.639489 0.000000
0.852386 0.640198 0.000000
0.880248 0.640906 0.000000
0.907848 0.641615 0.000000
0.935199 0.642323 0.000000
0.962311 0.643030 0.000000
0.989197 0.643738 0.000000
1.000000 0.644445 0.000000
1.000000 0.645152 0.000000
1.000000 0.645859 0.000000
0.000000 0.652870 0.000000
0.035999 0.653575 0.000000
0.096691 0.654279 0.000000
0.146954 0.654983 0.000000
0.192421 0.655686 0.000000
0.234840 0.656390 0.000000
0.275063 0.657093 0.000000
0.313587 0.657796 0.000000
0.350737 0.658498 0.000000
0.386740 0.659201 0.000000
0.421762 0.659903 0.000000
0.455932 0.660605 0.000000
0.489350 0.661307 0.000000
0.522095 0.662009 0.000000
0.554236 0.662710 0.000000
0.585827 0.663411 0.000000
0.616914 0.664112 0.000000
0.647538 0.664813 0.000000
0.677733 0.665514 0.000000
0.707530 0.666214 0.000000
0.736955 0.666914 0.000000
0.766031 0.667614 0.000000
0.794781 0.668313 0.000000
0.823221 0.669013 0.000000
0.851369 0.669712 0.000000
0.879241 0.670411 0.000000
0.906851 0.671110 0.000000
0.934210 0.671808 0.000000
0.961331 0.672506 0.000000
0.988224 0.673205 0.000000
1.000000 0.673902 0.000000
1.000000 0.674600 0.000000
1.000000 0.675298 0.000000
0.000000 0.682216 0.000000
0.033342 0.682911 0.000000
0.094732 0.683606 0.000000
0.145229 0.684301 0.000000
0.190830 0.684995 0.000000
0.233342 0.685689 0.000000
0.273635 0.686384 0.000000
0.312214 0.687077 0.000000
0.349409 0.687771 0.000000
0.385450 0.688464 0.000000
0.420506 0.689158 0.000000
0.454705 0.689851 0.000000
0.488148 0.690543 0.000000
0.520917 0.691236 0.000000
0.553079 0.691928 0.000000
0.584689 0.692620 0.000000
0.615793 0.693312 0.000000
0.646434 0.694004 0.000000
0.676644 0.694696 0.000000
0.706455 0.695387 0.000000
0.735893 0.696078 0.000000
0.764982 0.696769 0.000000
0.793742 0.697460 0.000000
0.822193 0.698150 0.000000
0.850352 0.698841 0.000000
0.878234 0.699531 0.000000
0.905853 0.700221 0.000000
0.933221 0.700910 0.000000
0.960350 0.701600 0.000000
0.987252 0.702289 0.000000
1.000000 0.702978 0.000000
1.000000 0.703667 0.000000
1.000000 0.704356 0.000000
0.000000 0.711188 0.000000
0.030620 0.711874 0.000000
0.092761 0.712561 0.000000
0.143497 0.713247 0.000000
0.189235 0.713933 0.000000
0.231841 0.714618 0.000000
0.272204 0.715304 0.000000
0.310839 0.715989 0.000000
0.348080 0.716674 0.000000
0.384160 0.717359 0.000000
0.419249 0.718044 0.000000
0.453477 0.718728 0.000000
0.486946 0.719413 0.000000
0.519739 0.720097 0.000000
0.551921 0.720781 0.000000
0.583550 0.721464 0.000000
0.614672 0.722148 0.000000
0.645329 0.722831 0.000000
0.675554 0.723514 0.000000
0.705379 0.724197 0.000000
0.734830 0.724880 0.000000
0.763931 0.725563 0.000000
0.792703 0.726245 0.000000
0.821166 0.726927 0.000000
0.849335 0.727609 0.000000
0.877226 0.728291 0.000000
0.904854 0.728973 0.000000
0.932231 0.729654 0.000000
0.959369 0.730335 0.000000
0.986279 0.731016 0.000000
1.000000 0.731697 0.000000
1.000000 0.732378 0.000000
1.000000 0.733058 0.000000
0.000000 0.739810 0.000000
0.027823 0.740488 0.000000
0.090777 0.741166 0.000000
0.141759 0.741844 0.000000
0.187637 0.742522 0.000000
0.230338 0.743200 0.000000
0.270771 0.743877 0.000000
0.309462 0.744555 0.000000
0.346749 0.745232 0.000000
0.382868 0.745909 0.000000
0.417991 0.746585 0.000000
0.452248 0.747262 0.000000
0.485743 0.747938 0.000000
0.518559 0.748615 0.000000
0.550763 0.749291 0.000000
0.582411 0.749966 0.000000
0.613551 0.750642 0.000000
0.644223 0.751318 0.000000
0.674464 0.751993 0.000000
0.704303 0.752668 0.000000
0.733767 0.753343 0.000000
0.762881 0.754018 0.000000
0.791664 0.754692 0.000000
0.820137 0.755366 0.000000
0.848317 0.756041 0.000000
0.876218 0.756715 0.000000
0.903856 0.757389 0.000000
0.931242 0.758062 0.000000
0.958388 0.758736 0.000000
0.985306 0.759409 0.000000
1.000000 0.760082 0.000000
1.000000 0.760755 0.000000
1.000000 0.761428 0.000000
0.000000 0.768103 0.000000
0.024939 0.768774 0.000000
0.088780 0.769445 0.000000
0.140014 0.770115 0.000000
0.186034 0.770785 0.000000
0.228831 0.771455 0.000000
0.269336 0.772125 0.000000
0.308084 0.772795 0.000000
0.345417 0.773465 0.000000
0.381575 0.774134 0.000000
0.416731 0.774803 0.000000
0.451018 0.775472 0.000000
0.484540 0.776141 0.000000
0.517379 0.776810 0.000000
0.549603 0.777479 0.000000
0.581271 0.778147 0.000000
0.612428 0.778815 0.000000
0.643117 0.779483 0.000000
0.673373 0.780151 0.000000
0.703226 0.780819 0.000000
0.732704 0.781486 0.000000
0.761829 0.782154 0.000000
0.790625 0.782821 0.000000
0.819109 0.783488 0.000000
0.847299 0.784155 0.000000
0.875210 0.784821 0.000000
0.902857 0.785488 0.000000
0.930252 0.786154 0.000000
0.957407 0.786820 0.000000
0.984332 0.787486 0.000000
1.000000 0.788152 0.000000
1.000000 0.788818 0.000000
1.000000 0.789483 0.000000
0.000000 0.796087 0.000000
0.021951 0.796751 0.000000
0.086769 0.797414 0.000000
0.138263 0.798078 0.000000
0.184427 0.798741 0.000000
0.227321 0.799404 0.000000
0.267899 0.800067 0.000000
0.306703 0.800729 0.000000
0.344084 0.801392 0.000000
0.380281 0.802054 0.000000
0.415471 0.802716 0.000000
0.449787 0.803378 0.000000
0.483335 0.804040 0.000000
0.516197 0.804702 0.000000
0.548443 0.805363 0.000000
0.580130 0.806025 0.000000
0.611306 0.806686 0.000000
0.642011 0.807347 0.000000
0.672282 0.808008 0.000000
0.702149 0.808668 0.000000
0.731640 0.809329 0.000000
0.760778 0.809989 0.000000
0.789585 0.810650 0.000000
0.818080 0.811310 0.000000
0.846280 0.811970 0.000000
0.874201 0.812629 0.000000
0.901857 0.813289 0.000000
0.929261 0.813948 0.000000
0.956425 0.814608 0.000000
0.983359 0.815267 0.000000
1.000000 0.815926 0.000000
1.000000 0.816584 0.000000
1.000000 0.817243 0.000000
0.000000 0.823779 0.000000
0.018836 0.824436 0.000000
0.084745 0.825093 0.000000
0.136505 0.825749 0.000000
0.182816 0.826406 0.000000
0.225808 0.827062 0.000000
0.266459 0.827718 0.000000
0.305321 0.828374 0.000000
0.342748 0.829030 0.000000
0.378985 0.829685 0.000000
0.414209 0.830341 0.000000
0.448555 0.830996 0.000000
0.482129 0.831651 0.000000
0.515015 0.832306 0.000000
0.547283 0.832961 0.000000
0.578989 0.833616 0.000000
0.610182 0.834270 0.000000
0.640904 0.834925 0.000000
0.671190 0.835579 0.000000
0.701071 0.836233 0.000000
0.730575 0.836887 0.000000
0.759726 0.837541 0.000000
0.788544 0.838195 0.000000
0.817050 0.838848 0.000000
0.845261 0.839501 0.000000
0.873192 0.840155 0.000000
0.900858 0.840808 0.000000
0.928270 0.841460 0.000000
0.955442 0.842113 0.000000
0.982385 0.842766 0.000000
1.000000 0.843418 0.000000
1.000000 0.844070 0.000000
1.000000 0.844723 0.000000
0.000000 0.851194 0.000000
0.015556 0.851845 0.000000
0.082705 0.852495 0.000000
0.134741 0.853145 0.000000
0.181200 0.853795 0.000000
0.224293 0.854445 0.000000
0.265017 0.855095 0.000000
0.303937 0.855744 0.000000
0.341411 0.856394 0.000000
0.377688 0.857043 0.000000
0.412946 0.857692 0.000000
0.447322 0.858341 0.000000
0.480923 0.858990 0.000000
0.513833 0.859639 0.000000
0.546121 0.860287 0.000000
0.577847 0.860936 0.000000
0.609058 0.861584 0.000000
0.639796 0.862232 0.000000
0.670097 0.862880 0.000000
0.699993 0.863528 0.000000
0.729510 0.864176 0.000000
0.758673 0.864823 0.000000
0.787504 0.865471 0.000000
0.816021 0.866118 0.000000
0.844242 0.866765 0.000000
0.872183 0.867412 0.000000
0.899858 0.868059 0.000000
0.927279 0.868705 0.000000
0.954460 0.869352 0.000000
0.981410 0.869998 0.000000
1.000000 0.870644 0.000000
1.000000 0.871290 0.000000
1.000000 0.871936 0.000000
0.000000 0.878347 0.000000
0.012052 0.878992 0.000000
0.080651 0.879636 0.000000
0.132969 0.880280 0.000000
0.179580 0.880924 0.000000
0.222774 0.881568 0.000000
0.263572 0.882211 0.000000
0.302551 0.882855 0.000000
0.340073 0.883498 0.000000
0.376389 0.884141 0.000000
0.411682 0.884785 0.000000
0.446088 0.885428 0.000000
0.479715 0.886070 0.000000
0.512649 0.886713 0.000000
0.544959 0.887356 0.000000
0.576704 0.887998 0.000000
0.607933 0.888640 0.000000
0.638688 0.889282 0.000000
0.669005 0.889924 0.000000
0.698914 0.890566 0.000000
0.728445 0.891208 0.000000
0.757620 0.891850 0.000000
0.786462 0.892491 0.000000
0.814991 0.893132 0.000000
0.843222 0.893773 0.000000
0.871173 0.894414 0.000000
0.898857 0.895055 0.000000
0.926288 0.895696 0.000000
0.953477 0.896337 0.000000
0.980436 0.896977 0.000000
1.000000 0.897618 0.000000
1.000000 0.898258 0.000000
1.000000 0.898898 0.000000
0.000000 0.905250 0.000000
0.008204 0.905889 0.000000
0.078581 0.906527 0.000000
0.131191 0.907166 0.000000
0.177956 0.907804 0.000000
0.221252 0.908442 0.000000
0.262126 0.909080 0.000000
0.301163 0.909718 0.000000
0.338733 0.910355 0.000000
0.375090 0.910993 0.000000
0.410417 0.911630 0.000000
0.444853 0.912267 0.000000
0.478507 0.912905 0.000000
0.511464 0.913541 0.000000
0.543796 0.914178 0.000000
0.575561 0.914815 0.000000
0.606808 0.915452 0.000000
0.637579 0.916088 0.000000
0.667911 0.916724 0.000000
0.697835 0.917360 0.000000
0.727379 0.917997 0.000000
0.756567 0.918632 0.000000
0.785421 0.919268 0.000000
0.813960 0.919904 0.000000
0.842202 0.920539 0.000000
