presets/film_stocks/Fuji_Instax_color.cube
# 独寻胶片模拟 -- Fuji Instax color
# Fujifilm, ISO 1000, 0, positive
TITLE "Fuji Instax color"
LUT_3D_SIZE 9
DOMAIN_MIN 0.0 0.0 0.0
DOMAIN_MAX 1.0 1.0 1.0
0.000000 0.000000 0.000000
0.233641 0.016459 0.000000
0.387507 0.027298 0.000000
0.520971 0.036700 0.000000
0.642702 0.045276 0.000000
0.756391 0.053285 0.000000
0.864058 0.060869 0.000000
0.966962 0.068118 0.000000
1.000000 0.075092 0.000000
0.000000 0.230187 0.000000
0.228137 0.234698 0.000000
0.382952 0.239176 0.000000
0.516891 0.243624 0.000000
0.638928 0.248042 0.000000
0.752840 0.252431 0.000000
0.860678 0.256792 0.000000
0.963720 0.261126 0.000000
1.000000 0.265433 0.000000
0.000000 0.381778 0.000000
0.222582 0.385525 0.000000
0.378377 0.389259 0.000000
0.512800 0.392979 0.000000
0.635147 0.396687 0.000000
0.749282 0.400382 0.000000
0.857293 0.404064 0.000000
0.960473 0.407734 0.000000
1.000000 0.411391 0.000000
0.000000 0.513269 0.000000
0.216976 0.516629 0.000000
0.373782 0.519982 0.000000
0.508696 0.523326 0.000000
0.631357 0.526663 0.000000
0.745718 0.529991 0.000000
0.853902 0.533312 0.000000
0.957223 0.536626 0.000000
1.000000 0.539932 0.000000
0.000000 0.633200 0.000000
0.211316 0.636310 0.000000
0.369165 0.639415 0.000000
0.504581 0.642514 0.000000
0.627559 0.645607 0.000000
0.742147 0.648695 0.000000
0.850507 0.651778 0.000000
0.953968 0.654855 0.000000
1.000000 0.657927 0.000000
0.000000 0.745209 0.000000
0.205599 0.748138 0.000000
0.364527 0.751063 0.000000
0.500452 0.753983 0.000000
0.623753 0.756899 0.000000
0.738571 0.759811 0.000000
0.847106 0.762719 0.000000
0.950710 0.765623 0.000000
1.000000 0.768523 0.000000
0.000000 0.851285 0.000000
0.199823 0.854073 0.000000
0.359867 0.856858 0.000000
0.496312 0.859640 0.000000
0.619937 0.862418 0.000000
0.734987 0.865193 0.000000
0.843701 0.867965 0.000000
0.947447 0.870734 0.000000
1.000000 0.873499 0.000000
0.000000 0.952667 0.000000
0.193984 0.955342 0.000000
0.355185 0.958014 0.000000
0.492158 0.960683 0.000000
0.616113 0.963350 0.000000
0.731398 0.966014 0.000000
0.840290 0.968675 0.000000
0.944180 0.971334 0.000000
1.000000 0.973990 0.000000
0.000000 1.000000 0.000000
0.188080 1.000000 0.000000
0.350480 1.000000 0.000000
0.487991 1.000000 0.000000
0.612281 1.000000 0.000000
0.727801 1.000000 0.000000
0.836875 1.000000 0.000000
0.940909 1.000000 0.000000
1.000000 1.000000 0.000000
0.000000 0.000000 0.228960
0.224770 0.000000 0.222113
0.380177 0.000000 0.215187
0.514408 0.000000 0.208177
0.636633 0.011214 0.201078
0.750680 0.023101 0.193886
0.858623 0.032978 0.186593
0.961749 0.041849 0.179194
1.000000 0.050068 0.171679
0.000000 0.214557 0.226065
0.219185 0.219185 0.219185
0.375589 0.223776 0.212223
0.510310 0.228334 0.205177
0.632847 0.232857 0.198039
0.747119 0.237349 0.190805
0.855234 0.241809 0.183468
0.958500 0.246239 0.176021
1.000000 0.250640 0.168455
0.000000 0.368901 0.223156
0.213546 0.372695 0.216242
0.370981 0.376476 0.209245
0.506199 0.380242 0.202160
0.629052 0.383995 0.194983
0.743551 0.387734 0.187706
0.851841 0.391460 0.180323
0.955247 0.395173 0.172826
1.000000 0.398873 0.165208
0.000000 0.501751 0.220233
0.207852 0.505140 0.213284
0.366352 0.508520 0.206251
0.502075 0.511892 0.199127
0.625249 0.515256 0.191908
0.739976 0.518612 0.184587
0.848443 0.521960 0.177157
0.951990 0.525299 0.169610
1.000000 0.528631 0.161936
0.000000 0.622555 0.217295
0.202099 0.625685 0.210311
0.361700 0.628809 0.203240
0.497940 0.631927 0.196077
0.621437 0.635039 0.188816
0.736396 0.638146 0.181449
0.845039 0.641248 0.173971
0.948729 0.644343 0.166371
1.000000 0.647434 0.158641
0.000000 0.735193 0.214343
0.196286 0.738136 0.207323
0.357027 0.741076 0.200213
0.493791 0.744011 0.193009
0.617617 0.746941 0.185704
0.732809 0.749867 0.178291
0.841631 0.752790 0.170762
0.945464 0.755707 0.163108
1.000000 0.758621 0.155319
0.000000 0.841754 0.211375
0.190407 0.844554 0.204318
0.352331 0.847350 0.197169
0.489629 0.850143 0.189923
0.613787 0.852933 0.182573
0.729215 0.855720 0.175112
0.838217 0.858503 0.167531
0.942194 0.861283 0.159821
1.000000 0.864059 0.151971
0.000000 0.943527 0.208393
0.184461 0.946212 0.201297
0.347611 0.948893 0.194108
0.485455 0.951572 0.186818
0.609949 0.954248 0.179422
0.725615 0.956922 0.171911
0.834798 0.959592 0.164277
0.938921 0.962260 0.156509
1.000000 0.964925 0.148596
0.000000 1.000000 0.205394
0.178443 1.000000 0.198259
0.342868 1.000000 0.191028
0.481267 1.000000 0.183694
0.606102 1.000000 0.176251
0.722008 1.000000 0.168689
0.831374 1.000000 0.160999
0.935643 1.000000 0.153171
1.000000 1.000000 0.145192
0.000000 0.000000 0.379743
0.215767 0.000000 0.374081
0.372794 0.000000 0.368387
0.507815 0.000000 0.362660
0.630544 0.000000 0.356899
0.744953 0.000000 0.351103
0.853175 0.000000 0.345272
0.956525 0.004752 0.339405
1.000000 0.018599 0.333499
0.000000 0.198493 0.377345
0.210095 0.203254 0.371669
0.368173 0.207974 0.365961
0.503697 0.212654 0.360220
0.626744 0.217297 0.354445
0.741381 0.221903 0.348634
0.849778 0.226475 0.342788
0.953270 0.231012 0.336904
1.000000 0.235516 0.330983
0.000000 0.355855 0.374941
0.204366 0.359700 0.369252
0.363530 0.363530 0.363530
0.499566 0.367345 0.357774
0.622935 0.371146 0.351984
0.737803 0.374932 0.346159
0.846377 0.378704 0.340297
0.950011 0.382462 0.334397
1.000000 0.386207 0.328459
0.000000 0.490136 0.372532
0.198577 0.493554 0.366829
0.358865 0.496963 0.361093
0.495422 0.500364 0.355322
0.619118 0.503756 0.349518
0.734218 0.507139 0.343677
0.842970 0.510515 0.337799
0.946747 0.513882 0.331883
1.000000 0.517241 0.325928
0.000000 0.611842 0.370117
0.192724 0.614992 0.364400
0.354178 0.618136 0.358649
0.491266 0.621274 0.352864
0.615292 0.624406 0.347044
0.730627 0.627532 0.341188
0.839559 0.630653 0.335294
0.943479 0.633768 0.329362
1.000000 0.636877 0.323389
0.000000 0.725126 0.367695
0.186805 0.728085 0.361964
0.349468 0.731039 0.356199
0.487096 0.733988 0.350400
0.611458 0.736934 0.344564
0.727030 0.739875 0.338692
0.836142 0.742811 0.332782
0.940207 0.745743 0.326833
1.000000 0.748672 0.320844
0.000000 0.832183 0.365268
0.180816 0.834994 0.359523
0.344734 0.837803 0.353744
0.482913 0.840608 0.347929
0.607614 0.843409 0.342078
0.723425 0.846207 0.336190
0.832720 0.849002 0.330264
0.936931 0.851793 0.324297
1.000000 0.854581 0.318290
0.000000 0.934355 0.362835
0.174752 0.937049 0.357076
0.339976 0.939740 0.351281
0.478717 0.942429 0.345452
0.603762 0.945114 0.339585
0.719815 0.947797 0.333681
0.829293 0.950477 0.327738
0.933650 0.953155 0.321754
1.000000 0.955829 0.315730
0.000000 1.000000 0.360396
0.168610 1.000000 0.354622
0.335193 1.000000 0.348813
0.474507 1.000000 0.342967
0.599900 1.000000 0.337085
0.716197 1.000000 0.331165
0.825860 1.000000 0.325204
0.930366 1.000000 0.319204
1.000000 1.000000 0.313161
0.000000 0.000000 0.510533
0.206624 0.000000 0.505463
0.365356 0.000000 0.500373
0.501190 0.000000 0.495265
0.624432 0.000000 0.490137
0.739209 0.000000 0.484989
0.847713 0.000000 0.479821
0.951291 0.000000 0.474632
1.000000 0.000000 0.469421
0.000000 0.181933 0.508385
0.200858 0.186847 0.503306
0.360700 0.191713 0.498209
0.497051 0.196535 0.493092
0.620619 0.201313 0.487956
0.735627 0.206049 0.482799
0.844309 0.210745 0.477622
0.948029 0.215403 0.472424
1.000000 0.220024 0.467205
0.000000 0.342629 0.506233
0.195031 0.346528 0.501146
0.356022 0.350411 0.496041
0.492900 0.354278 0.490916
0.616796 0.358130 0.485771
0.732039 0.361966 0.480605
0.840899 0.365787 0.475420
0.944763 0.369594 0.470213
1.000000 0.373386 0.464984
0.000000 0.478417 0.504077
0.189138 0.481865 0.498983
0.351321 0.485305 0.493869
0.488736 0.488736 0.488736
0.612965 0.492157 0.483582
0.728444 0.495570 0.478408
0.837485 0.498974 0.473213
0.941493 0.502370 0.467998
1.000000 0.505757 0.462760
0.000000 0.601059 0.501919
0.183177 0.604230 0.496816
0.346596 0.607394 0.491694
0.484558 0.610553 0.486552
0.609125 0.613705 0.481390
0.724842 0.616851 0.476207
0.834065 0.619992 0.471003
0.938218 0.623126 0.465778
1.000000 0.626255 0.460532
0.000000 0.715007 0.499756
0.177143 0.717981 0.494646
0.341848 0.720950 0.489515
0.480367 0.723915 0.484365
0.605276 0.726876 0.479194
0.721234 0.729831 0.474002
0.830640 0.732783 0.468790
0.934939 0.735730 0.463555
1.000000 0.738673 0.458299
0.000000 0.822571 0.497591
0.171032 0.825395 0.492472
0.337075 0.828215 0.487333
0.476163 0.831032 0.482174
0.601418 0.833845 0.476994
0.717619 0.836655 0.471794
0.827209 0.839461 0.466572
0.931656 0.842264 0.461329
1.000000 0.845064 0.456063
0.000000 0.925149 0.495422
0.164839 0.927853 0.490294
0.332276 0.930554 0.485147
0.471944 0.933252 0.479979
0.597551 0.935948 0.474791
0.713997 0.938640 0.469581
0.823774 0.941330 0.464350
0.928369 0.944017 0.459098
1.000000 0.946701 0.453822
0.000000 1.000000 0.493249
0.158559 1.000000 0.488113
0.327452 1.000000 0.482957
0.467712 1.000000 0.477781
0.593674 1.000000 0.472583
0.710369 1.000000 0.467365
0.820333 1.000000 0.462125
0.925077 1.000000 0.456863
1.000000 1.000000 0.451578
0.000000 0.000000 0.629825
0.197327 0.000000 0.625136
0.357862 0.000000 0.620434
0.494532 0.000000 0.615718
0.618299 0.000000 0.610990
0.733449 0.000000 0.606247
0.842239 0.000000 0.601491
0.946047 0.000000 0.596721
1.000000 0.000000 0.591936
0.000000 0.164794 0.627838
0.191461 0.169887 0.623143
0.353170 0.174925 0.618435
0.490373 0.179909 0.613714
0.614471 0.184843 0.608979
0.729856 0.189729 0.604231
0.838826 0.194569 0.599469
0.942778 0.199364 0.594693
1.000000 0.204117 0.589902
0.000000 0.329212 0.625848
0.185527 0.333169 0.621148
0.348455 0.337108 0.616434
0.486201 0.341030 0.611707
0.610634 0.344936 0.606967
0.726257 0.348826 0.602213
0.835409 0.352699 0.597445
0.939505 0.356557 0.592663
1.000000 0.360399 0.587866
0.000000 0.466591 0.623856
0.179522 0.470071 0.619150
0.343716 0.473543 0.614431
0.482015 0.477004 0.609698
0.606789 0.480457 0.604952
0.722652 0.483900 0.600192
0.831986 0.487334 0.595418
0.936228 0.490759 0.590630
1.000000 0.494176 0.585827
0.000000 0.590205 0.621861
0.173442 0.593397 0.617150
0.338952 0.596582 0.612425
0.477816 0.599761 0.607686
0.602934 0.602934 0.602934
0.719040 0.606101 0.598168
0.828557 0.609262 0.593388
0.932947 0.612417 0.588594
1.000000 0.615566 0.583785
0.000000 0.704835 0.619864
0.167282 0.707825 0.615147
0.334164 0.710810 0.610416
0.473603 0.713790 0.605672
0.599071 0.716766 0.600914
0.715420 0.719737 0.596143
0.825124 0.722704 0.591356
0.929661 0.725666 0.586556
1.000000 0.728623 0.581741
0.000000 0.812917 0.617865
0.161037 0.815753 0.613142
0.329350 0.818586 0.608406
0.469376 0.821415 0.603656
0.595198 0.824240 0.598892
0.711795 0.827062 0.594114
0.821685 0.829881 0.589322
0.926371 0.832695 0.584515
1.000000 0.835507 0.579694
0.000000 0.915909 0.615863
0.154701 0.918623 0.611134
0.324511 0.921334 0.606392
0.465135 0.924042 0.601637
0.591316 0.926748 0.596867
0.708162 0.929450 0.592083
0.818241 0.932150 0.587285
0.923077 0.934846 0.582472
1.000000 0.937540 0.577644
0.000000 1.000000 0.613859
0.148267 1.000000 0.609125
0.319644 1.000000 0.604377
0.460880 1.000000 0.599615
0.587424 1.000000 0.594839
0.704522 1.000000 0.590049
0.814791 1.000000 0.585245
0.919778 1.000000 0.580426
1.000000 1.000000 0.575592
0.000000 0.000000 0.741237
0.187866 0.000000 0.736824
0.350310 0.000000 0.732400
0.487841 0.000000 0.727967
0.612143 0.000000 0.723523
0.727672 0.000000 0.719070
0.836752 0.000000 0.714606
0.940791 0.000000 0.710132
1.000000 0.000000 0.705647
0.000000 0.146966 0.739366
0.181890 0.152275 0.734948
0.345580 0.157517 0.730521
0.483661 0.162694 0.726083
0.608301 0.167812 0.721635
0.724069 0.172872 0.717177
0.833331 0.177878 0.712709
0.937516 0.182832 0.708231
1.000000 0.187737 0.703742
0.000000 0.315589 0.737493
0.175840 0.319608 0.733071
0.340826 0.323608 0.728639
0.479467 0.327589 0.724198
0.604450 0.331553 0.719746
0.720459 0.335499 0.715283
0.829905 0.339429 0.710811
0.934236 0.343341 0.706328
1.000000 0.347237 0.701834
0.000000 0.454653 0.735619
0.169712 0.458167 0.731193
0.336048 0.461671 0.726756
0.475259 0.465165 0.722310
0.600589 0.468650 0.717854
0.716843 0.472125 0.713387
0.826473 0.475590 0.708910
0.930952 0.479046 0.704423
1.000000 0.482493 0.699925
0.000000 0.579275 0.733742
0.163501 0.582489 0.729312
0.331244 0.585697 0.724872
0.471038 0.588898 0.720421
0.596720 0.592092 0.715960
0.713220 0.595280 0.711489
0.823036 0.598462 0.707008
0.927664 0.601638 0.702516
1.000000 0.604807 0.698013
0.000000 0.694608 0.731864
0.157201 0.697614 0.727430
0.326415 0.700615 0.722985
0.466803 0.703611 0.718530
0.592842 0.706603 0.714065
0.709590 0.709590 0.709590
0.819594 0.712572 0.705104
0.924371 0.715550 0.700607
1.000000 0.718523 0.696100
0.000000 0.803221 0.729984
0.150806 0.806069 0.725545
0.321559 0.808915 0.721097
0.462553 0.811756 0.716637
0.588954 0.814594 0.712168
0.705953 0.817428 0.707688
0.816147 0.820259 0.703198
0.921074 0.823086 0.698697
1.000000 0.825909 0.694185
0.000000 0.906634 0.728103
0.144310 0.909359 0.723659
0.316675 0.912080 0.719206
0.458289 0.914798 0.714743
0.585056 0.917514 0.710269
0.702309 0.920226 0.705785
0.812694 0.922935 0.701290
0.917773 0.925642 0.696784
1.000000 0.928346 0.692268
0.000000 1.000000 0.726219
0.137703 1.000000 0.721772
0.311764 1.000000 0.717314
0.454011 1.000000 0.712846
0.581149 1.000000 0.708368
0.698658 1.000000 0.703879
0.809236 1.000000 0.699380
0.914467 1.000000 0.694870
1.000000 1.000000 0.690349
0.000000 0.000000 0.846747
0.178225 0.000000 0.842547
0.342697 0.000000 0.838338
0.481116 0.000000 0.834121
0.605963 0.000000 0.829897
0.721878 0.000000 0.825665
0.831251 0.000000 0.821424
0.935525 0.000000 0.817176
1.000000 0.000000 0.812919
0.000000 0.128298 0.844966
0.172128 0.133873 0.840762
0.337928 0.139364 0.836550
0.476914 0.144775 0.832330
0.602107 0.150113 0.828103
0.718264 0.155382 0.823867
0.827822 0.160585 0.819623
0.932242 0.165726 0.815371
1.000000 0.170810 0.811111
0.000000 0.301745 0.843184
0.165951 0.305831 0.838976
0.333134 0.309896 0.834761
0.472698 0.313941 0.830538
0.598241 0.317967 0.826307
0.714644 0.321975 0.822068
0.824387 0.325964 0.817820
0.928956 0.329935 0.813565
1.000000 0.333888 0.809301
0.000000 0.442598 0.841400
0.159686 0.446147 0.837189
0.328315 0.449685 0.832971
0.468468 0.453213 0.828744
0.594366 0.456732 0.824510
0.711016 0.460240 0.820267
0.820947 0.463738 0.816016
0.925665 0.467226 0.811757
1.000000 0.470705 0.807490
0.000000 0.568269 0.839615
0.153330 0.571506 0.835401
0.323469 0.574736 0.831179
0.464224 0.577960 0.826949
0.590482 0.581176 0.822711
0.707382 0.584386 0.818465
0.817502 0.587590 0.814211
0.922370 0.590787 0.809948
1.000000 0.593978 0.805677
0.000000 0.684325 0.837828
0.146874 0.687348 0.833611
0.318597 0.690365 0.829385
0.459966 0.693378 0.825152
0.586588 0.696386 0.820911
0.703741 0.699389 0.816661
0.814051 0.702387 0.812403
0.919070 0.705380 0.808137
1.000000 0.708369 0.803863
0.000000 0.793481 0.836040
0.140312 0.796342 0.831819
0.313696 0.799200 0.827591
0.455693 0.802055 0.823354
0.582685 0.804905 0.819109
0.700093 0.807752 0.814856
0.810595 0.810595 0.810595
0.915766 0.813434 0.806325
1.000000 0.816270 0.802047
0.000000 0.897325 0.834251
0.133634 0.900059 0.830026
0.308768 0.902791 0.825794
0.451405 0.905520 0.821554
0.578772 0.908245 0.817306
0.696438 0.910968 0.813049
0.807133 0.913687 0.808785
0.912458 0.916404 0.804512
1.000000 0.919117 0.800230
0.000000 0.996890 0.832460
0.126830 0.999521 0.828232
0.303809 1.000000 0.823997
0.447102 1.000000 0.819753
0.574849 1.000000 0.815501
0.692776 1.000000 0.811241
0.803666 1.000000 0.806973
0.909145 1.000000 0.802697
1.000000 1.000000 0.798412
0.000000 0.000000 0.947589
0.168387 0.000000 0.943560
0.335020 0.000000 0.939525
0.474356 0.000000 0.935483
0.599761 0.000000 0.931435
0.716067 0.000000 0.927380
0.825737 0.000000 0.923318
0.930247 0.000000 0.919250
1.000000 0.000000 0.915176
0.000000 0.108560 0.945881
0.162158 0.114479 0.941849
0.330211 0.120287 0.937811
0.470131 0.125992 0.933766
0.595889 0.131604 0.929715
0.712442 0.137129 0.925658
0.822299 0.142572 0.921594
0.926958 0.147939 0.917523
1.000000 0.153236 0.913445
0.000000 0.287662 0.944171
0.155838 0.291820 0.940137
0.325376 0.295955 0.936096
0.465893 0.300069 0.932049
0.592009 0.304163 0.927995
0.708811 0.308236 0.923935
0.818856 0.312289 0.919867
0.923665 0.316323 0.915794
1.000000 0.320338 0.911713
0.000000 0.430420 0.942461
0.149422 0.434006 0.938424
0.320514 0.437580 0.934380
0.461641 0.441144 0.930330
0.588119 0.444697 0.926273
0.705172 0.448240 0.922210
0.815407 0.451772 0.918140
0.920367 0.455294 0.914064
1.000000 0.458807 0.909980
0.000000 0.557184 0.940749
0.142903 0.560444 0.936709
0.315625 0.563698 0.932663
0.457373 0.566944 0.928610
0.584219 0.570184 0.924551
0.701527 0.573416 0.920484
0.811953 0.576642 0.916412
0.917065 0.579862 0.912332
1.000000 0.583075 0.908246
0.000000 0.673985 0.939036
0.136272 0.677024 0.934993
0.310707 0.680059 0.930944
0.453091 0.683088 0.926889
0.580310 0.686113 0.922827
0.697875 0.689132 0.918758
0.808494 0.692147 0.914682
0.913758 0.695156 0.910600
1.000000 0.698161 0.906511
0.000000 0.783696 0.937322
0.129519 0.786571 0.933277
0.305760 0.789442 0.929225
0.448794 0.792310 0.925166
0.576391 0.795173 0.921101
0.694215 0.798032 0.917030
0.805029 0.800888 0.912951
0.910447 0.803740 0.908866
1.000000 0.806588 0.904774
0.000000 0.887979 0.935607
0.122633 0.890724 0.931559
0.300784 0.893466 0.927504
0.444482 0.896206 0.923443
0.572462 0.898942 0.919375
0.690549 0.901675 0.915300
0.801558 0.904404 0.911219
0.907131 0.907131 0.907131
1.000000 0.909855 0.903036
0.000000 0.987904 0.933890
0.115600 0.990543 0.929839
0.295777 0.993180 0.925782
0.440154 0.995814 0.921718
0.568523 0.998446 0.917647
0.686875 1.000000 0.913570
0.798082 1.000000 0.909486
0.903811 1.000000 0.905395
1.000000 1.000000 0.901297
0.000000 0.000000 1.000000
0.158332 0.000000 1.000000
0.327278 0.000000 1.000000
0.467560 0.000000 1.000000
0.593534 0.000000 1.000000
0.710238 0.000000 1.000000
0.820209 0.000000 1.000000
0.924959 0.000000 1.000000
1.000000 0.000000 1.000000
0.000000 0.087383 1.000000
0.151954 0.093776 1.000000
0.322427 0.100011 1.000000
0.463313 0.106105 1.000000
0.589648 0.112073 1.000000
0.706602 0.117925 1.000000
0.816762 0.123671 1.000000
0.921663 0.129321 1.000000
1.000000 0.134880 1.000000
0.000000 0.273319 1.000000
0.145477 0.277555 1.000000
0.317548 0.281767 1.000000
0.459051 0.285956 1.000000
0.585752 0.290123 1.000000
0.702960 0.294267 1.000000
0.813310 0.298390 1.000000
0.918362 0.302492 1.000000
1.000000 0.306573 1.000000
0.000000 0.418114 1.000000
0.138890 0.421738 1.000000
0.312642 0.425350 1.000000
0.454775 0.428951 1.000000
0.581847 0.432541 1.000000
0.699310 0.436120 1.000000
0.809853 0.439688 1.000000
0.915057 0.443246 1.000000
1.000000 0.446793 1.000000
0.000000 0.546016 1.000000
0.132186 0.549301 1.000000
0.307707 0.552579 1.000000
0.450484 0.555849 1.000000
0.577932 0.559112 1.000000
0.695653 0.562368 1.000000
0.806390 0.565618 1.000000
0.911748 0.568860 1.000000
1.000000 0.572096 1.000000
0.000000 0.663586 1.000000
0.125354 0.666642 1.000000
0.302742 0.669694 1.000000
0.446178 0.672741 1.000000
0.574007 0.675782 1.000000
0.691990 0.678819 1.000000
0.802922 0.681850 1.000000
0.908434 0.684877 1.000000
1.000000 0.687898 1.000000
0.000000 0.773867 1.000000
0.118381 0.776755 1.000000
0.297748 0.779640 1.000000
0.441856 0.782520 1.000000
0.570072 0.785396 1.000000
0.688319 0.788269 1.000000
0.799448 0.791138 1.000000
0.905116 0.794003 1.000000
1.000000 0.796864 1.000000
0.000000 0.878597 1.000000
0.111253 0.881353 1.000000
0.292722 0.884106 1.000000
0.437519 0.886856 1.000000
0.566127 0.889602 1.000000
0.684641 0.892346 1.000000
0.795969 0.895086 1.000000
0.901793 0.897823 1.000000
1.000000 0.900558 1.000000
0.000000 0.978887 1.000000
0.103951 0.981535 1.000000
0.287663 0.984181 1.000000
0.433166 0.986824 1.000000
0.562171 0.989464 1.000000
0.680955 0.992102 1.000000
0.792484 0.994737 1.000000
0.898466 0.997370 1.000000
1.000000 1.000000 1.000000
