presets/film_stocks/Fujiflex_Crystal_Archive_Old_Version.cube
# 独寻胶片模拟 -- Fujiflex Crystal Archive Old Version
# Fujifilm, ISO 0, 0, negative
TITLE "Fujiflex Crystal Archive Old Version"
LUT_3D_SIZE 33
DOMAIN_MIN 0.0 0.0 0.0
DOMAIN_MAX 1.0 1.0 1.0
0.000000 0.000000 0.000000
0.075125 0.000667 0.000000
0.137261 0.001218 0.000000
0.195286 0.001733 0.000000
0.250791 0.002226 0.000000
0.304497 0.002702 0.000000
0.356809 0.003167 0.000000
0.407991 0.003621 0.000000
0.458224 0.004067 0.000000
0.507643 0.004505 0.000000
0.556349 0.004938 0.000000
0.604423 0.005364 0.000000
0.651930 0.005786 0.000000
0.698922 0.006203 0.000000
0.745445 0.006616 0.000000
0.791536 0.007025 0.000000
0.837227 0.007430 0.000000
0.882547 0.007833 0.000000
0.927521 0.008232 0.000000
0.972170 0.008628 0.000000
1.000000 0.009022 0.000000
1.000000 0.009413 0.000000
1.000000 0.009801 0.000000
1.000000 0.010187 0.000000
1.000000 0.010572 0.000000
1.000000 0.010954 0.000000
1.000000 0.011334 0.000000
1.000000 0.011712 0.000000
1.000000 0.012088 0.000000
1.000000 0.012462 0.000000
1.000000 0.012835 0.000000
1.000000 0.013207 0.000000
1.000000 0.013576 0.000000
0.000000 0.053825 0.000000
0.066220 0.054125 0.000000
0.129165 0.054425 0.000000
0.187618 0.054724 0.000000
0.243412 0.055023 0.000000
0.297332 0.055322 0.000000
0.349815 0.055621 0.000000
0.401137 0.055919 0.000000
0.451490 0.056218 0.000000
0.501013 0.056516 0.000000
0.549810 0.056813 0.000000
0.597965 0.057111 0.000000
0.645545 0.057408 0.000000
0.692604 0.057705 0.000000
0.739188 0.058002 0.000000
0.785335 0.058299 0.000000
0.831079 0.058595 0.000000
0.876447 0.058891 0.000000
0.921466 0.059187 0.000000
0.966158 0.059483 0.000000
1.000000 0.059778 0.000000
1.000000 0.060073 0.000000
1.000000 0.060368 0.000000
1.000000 0.060663 0.000000
1.000000 0.060958 0.000000
1.000000 0.061252 0.000000
1.000000 0.061547 0.000000
1.000000 0.061840 0.000000
1.000000 0.062134 0.000000
1.000000 0.062428 0.000000
1.000000 0.062721 0.000000
1.000000 0.063014 0.000000
1.000000 0.063307 0.000000
0.000000 0.098344 0.000000
0.057132 0.098618 0.000000
0.120992 0.098892 0.000000
0.179904 0.099166 0.000000
0.235999 0.099440 0.000000
0.290141 0.099713 0.000000
0.342800 0.099987 0.000000
0.394266 0.100260 0.000000
0.444741 0.100534 0.000000
0.494369 0.100807 0.000000
0.543259 0.101080 0.000000
0.591497 0.101353 0.000000
0.639151 0.101626 0.000000
0.686277 0.101898 0.000000
0.732923 0.102171 0.000000
0.779127 0.102443 0.000000
0.824923 0.102716 0.000000
0.870341 0.102988 0.000000
0.915406 0.103260 0.000000
0.960141 0.103532 0.000000
1.000000 0.103804 0.000000
1.000000 0.104076 0.000000
1.000000 0.104348 0.000000
1.000000 0.104619 0.000000
1.000000 0.104891 0.000000
1.000000 0.105162 0.000000
1.000000 0.105434 0.000000
1.000000 0.105705 0.000000
1.000000 0.105976 0.000000
1.000000 0.106247 0.000000
1.000000 0.106518 0.000000
1.000000 0.106789 0.000000
1.000000 0.107059 0.000000
0.000000 0.139917 0.000000
0.047820 0.140177 0.000000
0.112735 0.140437 0.000000
0.172139 0.140697 0.000000
0.228551 0.140957 0.000000
0.282924 0.141216 0.000000
0.335763 0.141476 0.000000
0.387377 0.141736 0.000000
0.437977 0.141995 0.000000
0.487712 0.142254 0.000000
0.536696 0.142514 0.000000
0.585018 0.142773 0.000000
0.632747 0.143032 0.000000
0.679942 0.143291 0.000000
0.726650 0.143550 0.000000
0.772911 0.143809 0.000000
0.818761 0.144068 0.000000
0.864229 0.144327 0.000000
0.909340 0.144586 0.000000
0.954118 0.144844 0.000000
0.998582 0.145103 0.000000
1.000000 0.145362 0.000000
1.000000 0.145620 0.000000
1.000000 0.145879 0.000000
1.000000 0.146137 0.000000
1.000000 0.146395 0.000000
1.000000 0.146653 0.000000
1.000000 0.146911 0.000000
1.000000 0.147170 0.000000
1.000000 0.147428 0.000000
1.000000 0.147685 0.000000
1.000000 0.147943 0.000000
1.000000 0.148201 0.000000
0.000000 0.179686 0.000000
0.038226 0.179936 0.000000
0.104386 0.180187 0.000000
0.164321 0.180437 0.000000
0.221066 0.180687 0.000000
0.275679 0.180937 0.000000
0.328704 0.181188 0.000000
0.380470 0.181438 0.000000
0.431196 0.181688 0.000000
0.481041 0.181938 0.000000
0.530121 0.182188 0.000000
0.578528 0.182437 0.000000
0.626333 0.182687 0.000000
0.673597 0.182937 0.000000
0.720369 0.183187 0.000000
0.766688 0.183436 0.000000
0.812592 0.183686 0.000000
0.858109 0.183936 0.000000
0.903267 0.184185 0.000000
0.948089 0.184435 0.000000
0.992595 0.184684 0.000000
1.000000 0.184933 0.000000
1.000000 0.185183 0.000000
1.000000 0.185432 0.000000
1.000000 0.185681 0.000000
1.000000 0.185930 0.000000
1.000000 0.186180 0.000000
1.000000 0.186429 0.000000
1.000000 0.186678 0.000000
1.000000 0.186927 0.000000
1.000000 0.187175 0.000000
1.000000 0.187424 0.000000
1.000000 0.187673 0.000000
0.000000 0.218164 0.000000
0.028251 0.218408 0.000000
0.095936 0.218651 0.000000
0.156448 0.218894 0.000000
0.213543 0.219137 0.000000
0.268405 0.219380 0.000000
0.321622 0.219623 0.000000
0.373543 0.219866 0.000000
0.424400 0.220109 0.000000
0.474356 0.220352 0.000000
0.523534 0.220595 0.000000
0.572027 0.220837 0.000000
0.619910 0.221080 0.000000
0.667244 0.221323 0.000000
0.714079 0.221566 0.000000
0.760458 0.221808 0.000000
0.806416 0.222051 0.000000
0.851984 0.222294 0.000000
0.897189 0.222536 0.000000
0.942055 0.222779 0.000000
0.986602 0.223021 0.000000
1.000000 0.223263 0.000000
1.000000 0.223506 0.000000
1.000000 0.223748 0.000000
1.000000 0.223990 0.000000
1.000000 0.224233 0.000000
1.000000 0.224475 0.000000
1.000000 0.224717 0.000000
1.000000 0.224959 0.000000
1.000000 0.225201 0.000000
1.000000 0.225443 0.000000
1.000000 0.225685 0.000000
1.000000 0.225927 0.000000
0.000000 0.255645 0.000000
0.017701 0.255882 0.000000
0.087373 0.256120 0.000000
0.148514 0.256357 0.000000
0.205980 0.256595 0.000000
0.261102 0.256832 0.000000
0.314517 0.257069 0.000000
0.366598 0.257307 0.000000
0.417588 0.257544 0.000000
0.467657 0.257781 0.000000
0.516934 0.258018 0.000000
0.565515 0.258256 0.000000
0.613477 0.258493 0.000000
0.660882 0.258730 0.000000
0.707782 0.258967 0.000000
0.754220 0.259204 0.000000
0.800232 0.259441 0.000000
0.845851 0.259678 0.000000
0.891104 0.259915 0.000000
0.936014 0.260152 0.000000
0.980604 0.260389 0.000000
1.000000 0.260626 0.000000
1.000000 0.260862 0.000000
1.000000 0.261099 0.000000
1.000000 0.261336 0.000000
1.000000 0.261573 0.000000
1.000000 0.261809 0.000000
1.000000 0.262046 0.000000
1.000000 0.262283 0.000000
1.000000 0.262519 0.000000
1.000000 0.262756 0.000000
1.000000 0.262992 0.000000
1.000000 0.263229 0.000000
0.000000 0.292315 0.000000
0.005997 0.292548 0.000000
0.078681 0.292781 0.000000
0.140516 0.293014 0.000000
0.198375 0.293246 0.000000
0.253768 0.293479 0.000000
0.307388 0.293712 0.000000
0.359632 0.293944 0.000000
0.410758 0.294177 0.000000
0.460944 0.294409 0.000000
0.510322 0.294642 0.000000
0.558992 0.294874 0.000000
0.607033 0.295107 0.000000
0.654510 0.295339 0.000000
0.701476 0.295572 0.000000
0.747974 0.295804 0.000000
0.794042 0.296036 0.000000
0.839712 0.296269 0.000000
0.885013 0.296501 0.000000
0.929968 0.296733 0.000000
0.974600 0.296966 0.000000
1.000000 0.297198 0.000000
1.000000 0.297430 0.000000
1.000000 0.297662 0.000000
1.000000 0.297894 0.000000
1.000000 0.298127 0.000000
1.000000 0.298359 0.000000
1.000000 0.298591 0.000000
1.000000 0.298823 0.000000
1.000000 0.299055 0.000000
1.000000 0.299287 0.000000
1.000000 0.299519 0.000000
1.000000 0.299751 0.000000
0.000000 0.328306 0.000000
0.000000 0.328535 0.000000
0.069843 0.328764 0.000000
0.132449 0.328993 0.000000
0.190726 0.329221 0.000000
0.246401 0.329450 0.000000
0.300233 0.329679 0.000000
0.352647 0.329907 0.000000
0.403912 0.330136 0.000000
0.454216 0.330364 0.000000
0.503696 0.330593 0.000000
0.552457 0.330821 0.000000
0.600579 0.331050 0.000000
0.648129 0.331278 0.000000
0.695161 0.331507 0.000000
0.741720 0.331735 0.000000
0.787844 0.331964 0.000000
0.833567 0.332192 0.000000
0.878916 0.332420 0.000000
0.923916 0.332649 0.000000
0.968591 0.332877 0.000000
1.000000 0.333105 0.000000
1.000000 0.333334 0.000000
1.000000 0.333562 0.000000
1.000000 0.333790 0.000000
1.000000 0.334018 0.000000
1.000000 0.334247 0.000000
1.000000 0.334475 0.000000
1.000000 0.334703 0.000000
1.000000 0.334931 0.000000
1.000000 0.335159 0.000000
1.000000 0.335387 0.000000
1.000000 0.335615 0.000000
0.000000 0.363714 0.000000
0.000000 0.363939 0.000000
0.060833 0.364164 0.000000
0.124308 0.364390 0.000000
0.183030 0.364615 0.000000
0.239002 0.364840 0.000000
0.293054 0.365065 0.000000
0.345640 0.365290 0.000000
0.397048 0.365515 0.000000
0.447473 0.365741 0.000000
0.497058 0.365966 0.000000
0.545911 0.366191 0.000000
0.594115 0.366416 0.000000
0.641739 0.366641 0.000000
0.688838 0.366866 0.000000
0.735458 0.367091 0.000000
0.781639 0.367316 0.000000
0.827414 0.367541 0.000000
0.872812 0.367766 0.000000
0.917859 0.367991 0.000000
0.962576 0.368215 0.000000
1.000000 0.368440 0.000000
1.000000 0.368665 0.000000
1.000000 0.368890 0.000000
1.000000 0.369115 0.000000
1.000000 0.369340 0.000000
1.000000 0.369564 0.000000
1.000000 0.369789 0.000000
1.000000 0.370014 0.000000
1.000000 0.370238 0.000000
1.000000 0.370463 0.000000
1.000000 0.370688 0.000000
1.000000 0.370912 0.000000
0.000000 0.398611 0.000000
0.000000 0.398833 0.000000
0.051617 0.399055 0.000000
0.116086 0.399277 0.000000
0.175286 0.399499 0.000000
0.231568 0.399722 0.000000
0.285847 0.399944 0.000000
0.338612 0.400166 0.000000
0.390166 0.400388 0.000000
0.440715 0.400610 0.000000
0.490406 0.400832 0.000000
0.539352 0.401054 0.000000
0.587640 0.401276 0.000000
0.635339 0.401498 0.000000
0.682506 0.401720 0.000000
0.729188 0.401942 0.000000
0.775427 0.402164 0.000000
0.821255 0.402386 0.000000
0.866702 0.402608 0.000000
0.911795 0.402829 0.000000
0.956555 0.403051 0.000000
1.000000 0.403273 0.000000
1.000000 0.403495 0.000000
1.000000 0.403717 0.000000
1.000000 0.403938 0.000000
1.000000 0.404160 0.000000
1.000000 0.404382 0.000000
1.000000 0.404604 0.000000
1.000000 0.404825 0.000000
1.000000 0.405047 0.000000
1.000000 0.405269 0.000000
1.000000 0.405490 0.000000
1.000000 0.405712 0.000000
0.000000 0.433055 0.000000
0.000000 0.433274 0.000000
0.042146 0.433493 0.000000
0.107775 0.433713 0.000000
0.167490 0.433932 0.000000
0.224098 0.434152 0.000000
0.278613 0.434371 0.000000
0.331562 0.434590 0.000000
0.383266 0.434810 0.000000
0.433941 0.435029 0.000000
0.483741 0.435248 0.000000
0.532782 0.435468 0.000000
0.581154 0.435687 0.000000
0.628929 0.435906 0.000000
0.676165 0.436125 0.000000
0.722911 0.436345 0.000000
0.769207 0.436564 0.000000
0.815088 0.436783 0.000000
0.860586 0.437002 0.000000
0.905725 0.437221 0.000000
0.950529 0.437441 0.000000
0.995018 0.437660 0.000000
1.000000 0.437879 0.000000
1.000000 0.438098 0.000000
1.000000 0.438317 0.000000
1.000000 0.438536 0.000000
1.000000 0.438755 0.000000
1.000000 0.438974 0.000000
1.000000 0.439193 0.000000
1.000000 0.439412 0.000000
1.000000 0.439631 0.000000
1.000000 0.439850 0.000000
1.000000 0.440069 0.000000
0.000000 0.467092 0.000000
0.000000 0.467309 0.000000
0.032341 0.467526 0.000000
0.099368 0.467743 0.000000
0.159640 0.467960 0.000000
0.216591 0.468177 0.000000
0.271351 0.468393 0.000000
0.324490 0.468610 0.000000
0.376348 0.468827 0.000000
0.427152 0.469044 0.000000
0.477062 0.469261 0.000000
0.526200 0.469478 0.000000
0.574658 0.469695 0.000000
0.622510 0.469911 0.000000
0.669815 0.470128 0.000000
0.716625 0.470345 0.000000
0.762979 0.470562 0.000000
0.808915 0.470778 0.000000
0.854463 0.470995 0.000000
0.899649 0.471212 0.000000
0.944497 0.471429 0.000000
0.989027 0.471645 0.000000
1.000000 0.471862 0.000000
1.000000 0.472079 0.000000
1.000000 0.472295 0.000000
1.000000 0.472512 0.000000
1.000000 0.472728 0.000000
1.000000 0.472945 0.000000
1.000000 0.473162 0.000000
1.000000 0.473378 0.000000
1.000000 0.473595 0.000000
1.000000 0.473811 0.000000
1.000000 0.474028 0.000000
0.000000 0.500761 0.000000
0.000000 0.500975 0.000000
0.022058 0.501190 0.000000
0.090852 0.501405 0.000000
0.151731 0.501619 0.000000
0.209044 0.501834 0.000000
0.264060 0.502049 0.000000
0.317394 0.502263 0.000000
0.369410 0.502478 0.000000
0.420346 0.502693 0.000000
0.470369 0.502907 0.000000
0.519605 0.503122 0.000000
0.568151 0.503336 0.000000
0.616080 0.503551 0.000000
0.663457 0.503766 0.000000
0.710330 0.503980 0.000000
0.756744 0.504195 0.000000
0.802735 0.504409 0.000000
0.848333 0.504624 0.000000
0.893566 0.504838 0.000000
0.938459 0.505053 0.000000
0.983031 0.505267 0.000000
1.000000 0.505481 0.000000
1.000000 0.505696 0.000000
1.000000 0.505910 0.000000
1.000000 0.506125 0.000000
1.000000 0.506339 0.000000
1.000000 0.506553 0.000000
1.000000 0.506768 0.000000
1.000000 0.506982 0.000000
1.000000 0.507196 0.000000
1.000000 0.507411 0.000000
1.000000 0.507625 0.000000
0.000000 0.534093 0.000000
0.000000 0.534306 0.000000
0.010957 0.534518 0.000000
0.082214 0.534731 0.000000
0.143759 0.534943 0.000000
0.201456 0.535156 0.000000
0.256738 0.535369 0.000000
0.310275 0.535581 0.000000
0.362453 0.535794 0.000000
0.413523 0.536006 0.000000
0.463662 0.536219 0.000000
0.512998 0.536431 0.000000
0.561632 0.536644 0.000000
0.609641 0.536857 0.000000
0.657089 0.537069 0.000000
0.704028 0.537282 0.000000
0.750501 0.537494 0.000000
0.796547 0.537706 0.000000
0.842197 0.537919 0.000000
0.887478 0.538131 0.000000
0.932415 0.538344 0.000000
0.977029 0.538556 0.000000
1.000000 0.538769 0.000000
1.000000 0.538981 0.000000
1.000000 0.539193 0.000000
1.000000 0.539406 0.000000
1.000000 0.539618 0.000000
1.000000 0.539830 0.000000
1.000000 0.540043 0.000000
1.000000 0.540255 0.000000
1.000000 0.540467 0.000000
1.000000 0.540680 0.000000
1.000000 0.540892 0.000000
0.000000 0.567116 0.000000
0.000000 0.567327 0.000000
0.000000 0.567537 0.000000
0.073437 0.567748 0.000000
0.135721 0.567959 0.000000
0.193825 0.568170 0.000000
0.249385 0.568380 0.000000
0.303131 0.568591 0.000000
0.355475 0.568802 0.000000
0.406684 0.569012 0.000000
0.456940 0.569223 0.000000
0.506378 0.569434 0.000000
0.555102 0.569644 0.000000
0.603191 0.569855 0.000000
0.650712 0.570065 0.000000
0.697717 0.570276 0.000000
0.744251 0.570487 0.000000
0.790352 0.570697 0.000000
0.836054 0.570908 0.000000
0.881383 0.571118 0.000000
0.926365 0.571329 0.000000
0.971022 0.571539 0.000000
1.000000 0.571750 0.000000
1.000000 0.571960 0.000000
1.000000 0.572171 0.000000
1.000000 0.572381 0.000000
1.000000 0.572592 0.000000
1.000000 0.572802 0.000000
1.000000 0.573013 0.000000
1.000000 0.573223 0.000000
1.000000 0.573434 0.000000
1.000000 0.573644 0.000000
1.000000 0.573854 0.000000
0.000000 0.599853 0.000000
0.000000 0.600062 0.000000
0.000000 0.600271 0.000000
0.064500 0.600480 0.000000
0.127611 0.600689 0.000000
0.186149 0.600897 0.000000
0.241999 0.601106 0.000000
0.295961 0.601315 0.000000
0.348477 0.601524 0.000000
0.399827 0.601733 0.000000
0.450203 0.601942 0.000000
0.499745 0.602151 0.000000
0.548560 0.602360 0.000000
0.596731 0.602569 0.000000
0.644325 0.602778 0.000000
0.691397 0.602986 0.000000
0.737992 0.603195 0.000000
0.784150 0.603404 0.000000
0.829904 0.603613 0.000000
0.875282 0.603822 0.000000
0.920310 0.604030 0.000000
0.965010 0.604239 0.000000
1.000000 0.604448 0.000000
1.000000 0.604657 0.000000
1.000000 0.604865 0.000000
1.000000 0.605074 0.000000
1.000000 0.605283 0.000000
1.000000 0.605492 0.000000
1.000000 0.605700 0.000000
1.000000 0.605909 0.000000
1.000000 0.606118 0.000000
1.000000 0.606326 0.000000
1.000000 0.606535 0.000000
0.000000 0.632323 0.000000
0.000000 0.632531 0.000000
0.000000 0.632738 0.000000
0.055373 0.632945 0.000000
0.119422 0.633153 0.000000
0.178425 0.633360 0.000000
0.234580 0.633567 0.000000
0.288766 0.633775 0.000000
0.341458 0.633982 0.000000
0.392952 0.634189 0.000000
0.443451 0.634396 0.000000
0.493099 0.634604 0.000000
0.542007 0.634811 0.000000
0.590261 0.635018 0.000000
0.637929 0.635225 0.000000
0.685068 0.635433 0.000000
0.731726 0.635640 0.000000
0.777941 0.635847 0.000000
0.823747 0.636054 0.000000
0.869175 0.636261 0.000000
0.914249 0.636468 0.000000
0.958991 0.636676 0.000000
1.000000 0.636883 0.000000
1.000000 0.637090 0.000000
1.000000 0.637297 0.000000
1.000000 0.637504 0.000000
1.000000 0.637711 0.000000
1.000000 0.637918 0.000000
1.000000 0.638125 0.000000
1.000000 0.638332 0.000000
1.000000 0.638539 0.000000
1.000000 0.638747 0.000000
1.000000 0.638954 0.000000
0.000000 0.664546 0.000000
0.000000 0.664752 0.000000
0.000000 0.664958 0.000000
0.046013 0.665163 0.000000
0.111149 0.665369 0.000000
0.170651 0.665575 0.000000
0.227125 0.665781 0.000000
0.281543 0.665986 0.000000
0.334417 0.666192 0.000000
0.386060 0.666398 0.000000
0.436683 0.666604 0.000000
0.486439 0.666809 0.000000
0.535442 0.667015 0.000000
0.583779 0.667221 0.000000
0.631523 0.667426 0.000000
0.678731 0.667632 0.000000
0.725451 0.667838 0.000000
0.771724 0.668043 0.000000
0.817584 0.668249 0.000000
0.863061 0.668455 0.000000
0.908181 0.668660 0.000000
0.952967 0.668866 0.000000
0.997440 0.669072 0.000000
1.000000 0.669277 0.000000
1.000000 0.669483 0.000000
1.000000 0.669688 0.000000
1.000000 0.669894 0.000000
1.000000 0.670099 0.000000
1.000000 0.670305 0.000000
1.000000 0.670511 0.000000
1.000000 0.670716 0.000000
1.000000 0.670922 0.000000
1.000000 0.671127 0.000000
0.000000 0.696536 0.000000
0.000000 0.696740 0.000000
0.000000 0.696944 0.000000
0.036355 0.697149 0.000000
0.102781 0.697353 0.000000
0.162823 0.697557 0.000000
0.219632 0.697762 0.000000
0.274293 0.697966 0.000000
0.327354 0.698170 0.000000
0.379149 0.698375 0.000000
0.429900 0.698579 0.000000
0.479766 0.698783 0.000000
0.528864 0.698987 0.000000
0.577287 0.699192 0.000000
0.625108 0.699396 0.000000
0.672385 0.699600 0.000000
0.719169 0.699804 0.000000
0.765500 0.700009 0.000000
0.811413 0.700213 0.000000
0.856940 0.700417 0.000000
0.902107 0.700621 0.000000
0.946937 0.700825 0.000000
0.991451 0.701030 0.000000
1.000000 0.701234 0.000000
1.000000 0.701438 0.000000
1.000000 0.701642 0.000000
1.000000 0.701846 0.000000
1.000000 0.702050 0.000000
1.000000 0.702254 0.000000
1.000000 0.702459 0.000000
1.000000 0.702663 0.000000
1.000000 0.702867 0.000000
1.000000 0.703071 0.000000
0.000000 0.728306 0.000000
0.000000 0.728509 0.000000
0.000000 0.728712 0.000000
0.026290 0.728915 0.000000
0.094311 0.729118 0.000000
0.154938 0.729321 0.000000
0.212102 0.729524 0.000000
0.267013 0.729727 0.000000
0.320268 0.729930 0.000000
0.372219 0.730133 0.000000
0.423101 0.730336 0.000000
0.473079 0.730539 0.000000
0.522275 0.730742 0.000000
0.570784 0.730945 0.000000
0.618683 0.731148 0.000000
0.666030 0.731351 0.000000
0.712878 0.731553 0.000000
0.759268 0.731756 0.000000
0.805236 0.731959 0.000000
0.850813 0.732162 0.000000
0.896028 0.732365 0.000000
0.940902 0.732568 0.000000
0.985457 0.732770 0.000000
1.000000 0.732973 0.000000
1.000000 0.733176 0.000000
1.000000 0.733379 0.000000
1.000000 0.733582 0.000000
1.000000 0.733784 0.000000
1.000000 0.733987 0.000000
1.000000 0.734190 0.000000
1.000000 0.734393 0.000000
1.000000 0.734595 0.000000
1.000000 0.734798 0.000000
0.000000 0.759871 0.000000
0.000000 0.760072 0.000000
0.000000 0.760274 0.000000
0.015589 0.760476 0.000000
0.085724 0.760677 0.000000
0.146992 0.760879 0.000000
0.204531 0.761081 0.000000
0.259704 0.761282 0.000000
0.313158 0.761484 0.000000
0.365270 0.761686 0.000000
0.416285 0.761887 0.000000
0.466377 0.762089 0.000000
0.515673 0.762291 0.000000
0.564270 0.762492 0.000000
0.612247 0.762694 0.000000
0.659666 0.762895 0.000000
0.706578 0.763097 0.000000
0.753028 0.763299 0.000000
0.799051 0.763500 0.000000
0.844680 0.763702 0.000000
0.889942 0.763903 0.000000
0.934861 0.764105 0.000000
0.979458 0.764306 0.000000
1.000000 0.764508 0.000000
1.000000 0.764709 0.000000
1.000000 0.764911 0.000000
1.000000 0.765112 0.000000
1.000000 0.765314 0.000000
1.000000 0.765515 0.000000
1.000000 0.765717 0.000000
1.000000 0.765918 0.000000
1.000000 0.766120 0.000000
1.000000 0.766321 0.000000
0.000000 0.791239 0.000000
0.000000 0.791440 0.000000
0.000000 0.791640 0.000000
0.003442 0.791841 0.000000
0.077006 0.792041 0.000000
0.138981 0.792242 0.000000
0.196918 0.792442 0.000000
0.252364 0.792642 0.000000
0.306024 0.792843 0.000000
0.358300 0.793043 0.000000
0.409453 0.793244 0.000000
0.459661 0.793444 0.000000
0.509058 0.793645 0.000000
0.557745 0.793845 0.000000
0.605802 0.794045 0.000000
0.653293 0.794246 0.000000
0.700271 0.794446 0.000000
0.746780 0.794647 0.000000
0.792859 0.794847 0.000000
0.838540 0.795047 0.000000
0.883850 0.795248 0.000000
0.928814 0.795448 0.000000
0.973453 0.795648 0.000000
1.000000 0.795849 0.000000
1.000000 0.796049 0.000000
1.000000 0.796249 0.000000
1.000000 0.796449 0.000000
1.000000 0.796650 0.000000
1.000000 0.796850 0.000000
1.000000 0.797050 0.000000
1.000000 0.797251 0.000000
1.000000 0.797451 0.000000
1.000000 0.797651 0.000000
0.000000 0.822422 0.000000
0.000000 0.822622 0.000000
0.000000 0.822821 0.000000
0.000000 0.823020 0.000000
0.068137 0.823220 0.000000
0.130901 0.823419 0.000000
0.189260 0.823618 0.000000
0.244991 0.823817 0.000000
0.298865 0.824017 0.000000
0.351311 0.824216 0.000000
0.402603 0.824415 0.000000
0.452930 0.824615 0.000000
0.502430 0.824814 0.000000
0.551208 0.825013 0.000000
0.599346 0.825212 0.000000
0.646910 0.825412 0.000000
0.693955 0.825611 0.000000
0.740525 0.825810 0.000000
0.786660 0.826009 0.000000
0.832393 0.826208 0.000000
0.877751 0.826408 0.000000
0.922760 0.826607 0.000000
0.967443 0.826806 0.000000
1.000000 0.827005 0.000000
1.000000 0.827204 0.000000
1.000000 0.827403 0.000000
1.000000 0.827603 0.000000
1.000000 0.827802 0.000000
1.000000 0.828001 0.000000
1.000000 0.828200 0.000000
1.000000 0.828399 0.000000
1.000000 0.828598 0.000000
1.000000 0.828797 0.000000
0.000000 0.853429 0.000000
0.000000 0.853627 0.000000
0.000000 0.853825 0.000000
0.000000 0.854024 0.000000
0.059091 0.854222 0.000000
0.122745 0.854420 0.000000
0.181556 0.854618 0.000000
0.237585 0.854816 0.000000
0.291680 0.855015 0.000000
0.344300 0.855213 0.000000
0.395736 0.855411 0.000000
0.446184 0.855609 0.000000
0.495789 0.855807 0.000000
0.544659 0.856005 0.000000
0.592880 0.856204 0.000000
0.640518 0.856402 0.000000
0.687630 0.856600 0.000000
0.734262 0.856798 0.000000
0.780454 0.856996 0.000000
0.826239 0.857194 0.000000
0.871646 0.857392 0.000000
0.916701 0.857590 0.000000
0.961427 0.857788 0.000000
1.000000 0.857987 0.000000
1.000000 0.858185 0.000000
1.000000 0.858383 0.000000
1.000000 0.858581 0.000000
1.000000 0.858779 0.000000
1.000000 0.858977 0.000000
1.000000 0.859175 0.000000
1.000000 0.859373 0.000000
1.000000 0.859571 0.000000
1.000000 0.859769 0.000000
0.000000 0.884268 0.000000
0.000000 0.884465 0.000000
0.000000 0.884662 0.000000
0.000000 0.884859 0.000000
0.049831 0.885056 0.000000
0.114506 0.885253 0.000000
0.173802 0.885451 0.000000
0.230145 0.885648 0.000000
0.284468 0.885845 0.000000
0.337268 0.886042 0.000000
0.388851 0.886239 0.000000
0.439423 0.886436 0.000000
0.489135 0.886633 0.000000
0.538099 0.886830 0.000000
0.586403 0.887027 0.000000
0.634116 0.887225 0.000000
0.681296 0.887422 0.000000
0.727991 0.887619 0.000000
0.774240 0.887816 0.000000
0.820078 0.888013 0.000000
0.865535 0.888210 0.000000
0.910636 0.888407 0.000000
0.955405 0.888604 0.000000
0.999861 0.888801 0.000000
1.000000 0.888998 0.000000
1.000000 0.889195 0.000000
1.000000 0.889392 0.000000
1.000000 0.889589 0.000000
1.000000 0.889786 0.000000
1.000000 0.889983 0.000000
1.000000 0.890180 0.000000
1.000000 0.890377 0.000000
1.000000 0.890574 0.000000
0.000000 0.914946 0.000000
0.000000 0.915142 0.000000
0.000000 0.915338 0.000000
0.000000 0.915534 0.000000
0.040303 0.915730 0.000000
0.106178 0.915926 0.000000
0.165996 0.916123 0.000000
0.222668 0.916319 0.000000
0.277229 0.916515 0.000000
0.330214 0.916711 0.000000
0.381947 0.916907 0.000000
0.432646 0.917103 0.000000
0.482467 0.917299 0.000000
0.531527 0.917495 0.000000
0.579915 0.917692 0.000000
0.627704 0.917888 0.000000
0.674954 0.918084 0.000000
0.721711 0.918280 0.000000
0.768019 0.918476 0.000000
0.813910 0.918672 0.000000
0.859417 0.918868 0.000000
0.904565 0.919064 0.000000
0.949377 0.919260 0.000000
0.993875 0.919456 0.000000
