presets/film_stocks/Fuji_Instax_color.cube
# 独寻胶片模拟 -- Fuji Instax color
# Fujifilm, ISO 1000, 0, positive
TITLE "Fuji Instax color"
LUT_3D_SIZE 33
DOMAIN_MIN 0.0 0.0 0.0
DOMAIN_MAX 1.0 1.0 1.0
0.000000 0.000000 0.000000
0.084936 0.005983 0.000000
0.140870 0.009924 0.000000
0.189388 0.013342 0.000000
0.233641 0.016459 0.000000
0.274971 0.019371 0.000000
0.314111 0.022128 0.000000
0.351520 0.024763 0.000000
0.387507 0.027298 0.000000
0.422296 0.029749 0.000000
0.456054 0.032127 0.000000
0.488912 0.034442 0.000000
0.520971 0.036700 0.000000
0.552315 0.038908 0.000000
0.583015 0.041071 0.000000
0.613127 0.043192 0.000000
0.642702 0.045276 0.000000
0.671781 0.047324 0.000000
0.700401 0.049340 0.000000
0.728595 0.051327 0.000000
0.756391 0.053285 0.000000
0.783814 0.055216 0.000000
0.810887 0.057124 0.000000
0.837629 0.059007 0.000000
0.864058 0.060869 0.000000
0.890192 0.062710 0.000000
0.916045 0.064532 0.000000
0.941631 0.066334 0.000000
0.966962 0.068118 0.000000
0.992050 0.069886 0.000000
1.000000 0.071637 0.000000
1.000000 0.073372 0.000000
1.000000 0.075092 0.000000
0.000000 0.083680 0.000000
0.082934 0.085320 0.000000
0.139215 0.086948 0.000000
0.187905 0.088565 0.000000
0.232270 0.090171 0.000000
0.273680 0.091766 0.000000
0.312882 0.093352 0.000000
0.350341 0.094927 0.000000
0.386370 0.096493 0.000000
0.421195 0.098049 0.000000
0.454984 0.099597 0.000000
0.487869 0.101135 0.000000
0.519952 0.102665 0.000000
0.551318 0.104187 0.000000
0.582037 0.105700 0.000000
0.612168 0.107205 0.000000
0.641759 0.108703 0.000000
0.670854 0.110193 0.000000
0.699488 0.111676 0.000000
0.727696 0.113151 0.000000
0.755504 0.114619 0.000000
0.782939 0.116080 0.000000
0.810022 0.117535 0.000000
0.836774 0.118983 0.000000
0.863214 0.120424 0.000000
0.889357 0.121859 0.000000
0.915219 0.123288 0.000000
0.940813 0.124711 0.000000
0.966152 0.126128 0.000000
0.991247 0.127539 0.000000
1.000000 0.128944 0.000000
1.000000 0.130343 0.000000
1.000000 0.131737 0.000000
0.000000 0.138788 0.000000
0.080915 0.140150 0.000000
0.137551 0.141507 0.000000
0.186418 0.142860 0.000000
0.230895 0.144208 0.000000
0.272386 0.145551 0.000000
0.311651 0.146889 0.000000
0.349161 0.148223 0.000000
0.385232 0.149553 0.000000
0.420093 0.150878 0.000000
0.453913 0.152199 0.000000
0.486825 0.153516 0.000000
0.518932 0.154829 0.000000
0.550321 0.156137 0.000000
0.581060 0.157442 0.000000
0.611208 0.158742 0.000000
0.640816 0.160039 0.000000
0.669926 0.161331 0.000000
0.698575 0.162620 0.000000
0.726796 0.163905 0.000000
0.754616 0.165186 0.000000
0.782063 0.166464 0.000000
0.809157 0.167738 0.000000
0.835920 0.169009 0.000000
0.862369 0.170276 0.000000
0.888521 0.171539 0.000000
0.914392 0.172799 0.000000
0.939994 0.174056 0.000000
0.965341 0.175309 0.000000
0.990444 0.176559 0.000000
1.000000 0.177806 0.000000
1.000000 0.179050 0.000000
1.000000 0.180290 0.000000
0.000000 0.186589 0.000000
0.078877 0.187810 0.000000
0.135881 0.189029 0.000000
0.184926 0.190245 0.000000
0.229517 0.191458 0.000000
0.271091 0.192668 0.000000
0.310419 0.193875 0.000000
0.347979 0.195080 0.000000
0.384093 0.196281 0.000000
0.418989 0.197480 0.000000
0.452841 0.198677 0.000000
0.485780 0.199870 0.000000
0.517912 0.201061 0.000000
0.549322 0.202250 0.000000
0.580081 0.203436 0.000000
0.610248 0.204619 0.000000
0.639873 0.205800 0.000000
0.668998 0.206978 0.000000
0.697661 0.208154 0.000000
0.725895 0.209328 0.000000
0.753728 0.210498 0.000000
0.781186 0.211667 0.000000
0.808291 0.212833 0.000000
0.835064 0.213997 0.000000
0.861524 0.215158 0.000000
0.887685 0.216318 0.000000
0.913565 0.217474 0.000000
0.939176 0.218629 0.000000
0.964531 0.219781 0.000000
0.989641 0.220932 0.000000
1.000000 0.222079 0.000000
1.000000 0.223225 0.000000
1.000000 0.224369 0.000000
0.000000 0.230187 0.000000
0.076820 0.231318 0.000000
0.134203 0.232446 0.000000
0.183430 0.233573 0.000000
0.228137 0.234698 0.000000
0.269793 0.235820 0.000000
0.309185 0.236941 0.000000
0.346796 0.238059 0.000000
0.382952 0.239176 0.000000
0.417885 0.240291 0.000000
0.451768 0.241404 0.000000
0.484735 0.242515 0.000000
0.516891 0.243624 0.000000
0.548323 0.244731 0.000000
0.579102 0.245837 0.000000
0.609287 0.246940 0.000000
0.638928 0.248042 0.000000
0.668069 0.249142 0.000000
0.696747 0.250240 0.000000
0.724994 0.251336 0.000000
0.752840 0.252431 0.000000
0.780309 0.253524 0.000000
0.807426 0.254615 0.000000
0.834209 0.255704 0.000000
0.860678 0.256792 0.000000
0.886849 0.257878 0.000000
0.912737 0.258962 0.000000
0.938357 0.260045 0.000000
0.963720 0.261126 0.000000
0.988838 0.262205 0.000000
1.000000 0.263282 0.000000
1.000000 0.264358 0.000000
1.000000 0.265433 0.000000
0.000000 0.270906 0.000000
0.074742 0.271971 0.000000
0.132517 0.273034 0.000000
0.181929 0.274095 0.000000
0.226753 0.275156 0.000000
0.268493 0.276214 0.000000
0.307949 0.277271 0.000000
0.345611 0.278327 0.000000
0.381810 0.279381 0.000000
0.416779 0.280434 0.000000
0.450694 0.281485 0.000000
0.483688 0.282535 0.000000
0.515869 0.283583 0.000000
0.547324 0.284630 0.000000
0.578123 0.285675 0.000000
0.608326 0.286720 0.000000
0.637984 0.287762 0.000000
0.667140 0.288803 0.000000
0.695832 0.289843 0.000000
0.724093 0.290882 0.000000
0.751951 0.291919 0.000000
0.779432 0.292955 0.000000
0.806560 0.293989 0.000000
0.833353 0.295022 0.000000
0.859832 0.296054 0.000000
0.886012 0.297084 0.000000
0.911910 0.298113 0.000000
0.937537 0.299141 0.000000
0.962908 0.300168 0.000000
0.988035 0.301193 0.000000
1.000000 0.302217 0.000000
1.000000 0.303239 0.000000
1.000000 0.304261 0.000000
0.000000 0.309467 0.000000
0.072642 0.310481 0.000000
0.130822 0.311494 0.000000
0.180424 0.312505 0.000000
0.225366 0.313515 0.000000
0.267190 0.314524 0.000000
0.306711 0.315531 0.000000
0.344425 0.316538 0.000000
0.380667 0.317543 0.000000
0.415673 0.318547 0.000000
0.449619 0.319550 0.000000
0.482641 0.320552 0.000000
0.514847 0.321552 0.000000
0.546324 0.322552 0.000000
0.577143 0.323550 0.000000
0.607364 0.324547 0.000000
0.637039 0.325543 0.000000
0.666211 0.326538 0.000000
0.694917 0.327532 0.000000
0.723191 0.328525 0.000000
0.751062 0.329516 0.000000
0.778555 0.330507 0.000000
0.805693 0.331496 0.000000
0.832497 0.332484 0.000000
0.858986 0.333472 0.000000
0.885176 0.334458 0.000000
0.911082 0.335443 0.000000
0.936718 0.336427 0.000000
0.962097 0.337410 0.000000
0.987231 0.338391 0.000000
1.000000 0.339372 0.000000
1.000000 0.340352 0.000000
1.000000 0.341331 0.000000
0.000000 0.346323 0.000000
0.070519 0.347295 0.000000
0.129120 0.348267 0.000000
0.178914 0.349237 0.000000
0.223976 0.350207 0.000000
0.265885 0.351175 0.000000
0.305471 0.352142 0.000000
0.343238 0.353109 0.000000
0.379523 0.354074 0.000000
0.414565 0.355039 0.000000
0.448543 0.356002 0.000000
0.481593 0.356965 0.000000
0.513824 0.357927 0.000000
0.545323 0.358887 0.000000
0.576162 0.359847 0.000000
0.606402 0.360806 0.000000
0.636093 0.361764 0.000000
0.665280 0.362721 0.000000
0.694001 0.363677 0.000000
0.722289 0.364632 0.000000
0.750172 0.365586 0.000000
0.777677 0.366539 0.000000
0.804826 0.367491 0.000000
0.831641 0.368443 0.000000
0.858139 0.369393 0.000000
0.884338 0.370343 0.000000
0.910253 0.371291 0.000000
0.935898 0.372239 0.000000
0.961285 0.373186 0.000000
0.986427 0.374132 0.000000
1.000000 0.375077 0.000000
1.000000 0.376021 0.000000
1.000000 0.376964 0.000000
0.000000 0.381778 0.000000
0.068373 0.382716 0.000000
0.127410 0.383653 0.000000
0.177399 0.384590 0.000000
0.222582 0.385525 0.000000
0.264578 0.386460 0.000000
0.304229 0.387394 0.000000
0.342049 0.388327 0.000000
0.378377 0.389259 0.000000
0.413456 0.390190 0.000000
0.447466 0.391121 0.000000
0.480544 0.392051 0.000000
0.512800 0.392979 0.000000
0.544321 0.393908 0.000000
0.575180 0.394835 0.000000
0.605439 0.395761 0.000000
0.635147 0.396687 0.000000
0.664350 0.397612 0.000000
0.693085 0.398536 0.000000
0.721386 0.399459 0.000000
0.749282 0.400382 0.000000
0.776799 0.401303 0.000000
0.803959 0.402224 0.000000
0.830784 0.403144 0.000000
0.857293 0.404064 0.000000
0.883501 0.404982 0.000000
0.909425 0.405900 0.000000
0.935078 0.406817 0.000000
0.960473 0.407734 0.000000
0.985623 0.408649 0.000000
1.000000 0.409564 0.000000
1.000000 0.410478 0.000000
1.000000 0.411391 0.000000
0.000000 0.416053 0.000000
0.066201 0.416962 0.000000
0.125691 0.417870 0.000000
0.175880 0.418777 0.000000
0.221186 0.419684 0.000000
0.263268 0.420589 0.000000
0.302985 0.421494 0.000000
0.340858 0.422399 0.000000
0.377230 0.423302 0.000000
0.412347 0.424205 0.000000
0.446388 0.425108 0.000000
0.479495 0.426009 0.000000
0.511775 0.426910 0.000000
0.543319 0.427810 0.000000
0.574198 0.428710 0.000000
0.604475 0.429608 0.000000
0.634200 0.430506 0.000000
0.663419 0.431404 0.000000
0.692169 0.432300 0.000000
0.720483 0.433196 0.000000
0.748391 0.434091 0.000000
0.775920 0.434986 0.000000
0.803092 0.435880 0.000000
0.829927 0.436773 0.000000
0.856445 0.437666 0.000000
0.882663 0.438558 0.000000
0.908596 0.439449 0.000000
0.934258 0.440339 0.000000
0.959661 0.441229 0.000000
0.984818 0.442119 0.000000
1.000000 0.443007 0.000000
1.000000 0.443895 0.000000
1.000000 0.444782 0.000000
0.000000 0.449312 0.000000
0.064003 0.450196 0.000000
0.123963 0.451078 0.000000
0.174356 0.451960 0.000000
0.219786 0.452842 0.000000
0.261956 0.453722 0.000000
0.301740 0.454602 0.000000
0.339666 0.455482 0.000000
0.376082 0.456361 0.000000
0.411236 0.457239 0.000000
0.445310 0.458116 0.000000
0.478444 0.458993 0.000000
0.510750 0.459870 0.000000
0.542316 0.460745 0.000000
0.573216 0.461621 0.000000
0.603511 0.462495 0.000000
0.633253 0.463369 0.000000
0.662487 0.464242 0.000000
0.691252 0.465115 0.000000
0.719580 0.465987 0.000000
0.747501 0.466858 0.000000
0.775041 0.467729 0.000000
0.802224 0.468599 0.000000
0.829070 0.469469 0.000000
0.855598 0.470338 0.000000
0.881825 0.471207 0.000000
0.907767 0.472075 0.000000
0.933437 0.472942 0.000000
0.958849 0.473809 0.000000
0.984013 0.474675 0.000000
1.000000 0.475540 0.000000
1.000000 0.476405 0.000000
1.000000 0.477269 0.000000
0.000000 0.481684 0.000000
0.061776 0.482545 0.000000
0.122226 0.483405 0.000000
0.172826 0.484265 0.000000
0.218383 0.485124 0.000000
0.260641 0.485982 0.000000
0.300493 0.486840 0.000000
0.338472 0.487698 0.000000
0.374932 0.488555 0.000000
0.410124 0.489411 0.000000
0.444230 0.490267 0.000000
0.477393 0.491122 0.000000
0.509723 0.491977 0.000000
0.541312 0.492831 0.000000
0.572232 0.493685 0.000000
0.602546 0.494538 0.000000
0.632306 0.495390 0.000000
0.661555 0.496242 0.000000
0.690334 0.497094 0.000000
0.718676 0.497944 0.000000
0.746609 0.498795 0.000000
0.774162 0.499645 0.000000
0.801355 0.500494 0.000000
0.828212 0.501343 0.000000
0.854750 0.502191 0.000000
0.880987 0.503039 0.000000
0.906937 0.503886 0.000000
0.932616 0.504732 0.000000
0.958036 0.505578 0.000000
0.983208 0.506424 0.000000
1.000000 0.507269 0.000000
1.000000 0.508114 0.000000
1.000000 0.508958 0.000000
0.000000 0.513269 0.000000
0.059519 0.514110 0.000000
0.120480 0.514950 0.000000
0.171292 0.515790 0.000000
0.216976 0.516629 0.000000
0.259324 0.517468 0.000000
0.299243 0.518306 0.000000
0.337277 0.519144 0.000000
0.373782 0.519982 0.000000
0.409010 0.520818 0.000000
0.443149 0.521655 0.000000
0.476340 0.522491 0.000000
0.508696 0.523326 0.000000
0.540308 0.524161 0.000000
0.571248 0.524995 0.000000
0.601581 0.525829 0.000000
0.631357 0.526663 0.000000
0.660623 0.527496 0.000000
0.689416 0.528328 0.000000
0.717771 0.529160 0.000000
0.745718 0.529991 0.000000
0.773282 0.530822 0.000000
0.800487 0.531653 0.000000
0.827354 0.532483 0.000000
0.853902 0.533312 0.000000
0.880148 0.534141 0.000000
0.906108 0.534970 0.000000
0.931795 0.535798 0.000000
0.957223 0.536626 0.000000
0.982403 0.537453 0.000000
1.000000 0.538280 0.000000
1.000000 0.539106 0.000000
1.000000 0.539932 0.000000
0.000000 0.544150 0.000000
0.057230 0.544973 0.000000
0.118725 0.545795 0.000000
0.169752 0.546617 0.000000
0.215566 0.547439 0.000000
0.258005 0.548260 0.000000
0.297992 0.549081 0.000000
0.336080 0.549901 0.000000
0.372629 0.550721 0.000000
0.407896 0.551540 0.000000
0.442068 0.552359 0.000000
0.475287 0.553177 0.000000
0.507669 0.553995 0.000000
0.539302 0.554812 0.000000
0.570264 0.555629 0.000000
0.600615 0.556446 0.000000
0.630409 0.557262 0.000000
0.659690 0.558078 0.000000
0.688498 0.558893 0.000000
0.716867 0.559708 0.000000
0.744826 0.560522 0.000000
0.772402 0.561336 0.000000
0.799618 0.562150 0.000000
0.826496 0.562963 0.000000
0.853054 0.563776 0.000000
0.879309 0.564588 0.000000
0.905278 0.565400 0.000000
0.930974 0.566211 0.000000
0.956410 0.567022 0.000000
0.981598 0.567832 0.000000
1.000000 0.568642 0.000000
1.000000 0.569452 0.000000
1.000000 0.570261 0.000000
0.000000 0.574396 0.000000
0.054907 0.575202 0.000000
0.116960 0.576008 0.000000
0.168208 0.576814 0.000000
0.214153 0.577620 0.000000
0.256683 0.578425 0.000000
0.296739 0.579229 0.000000
0.334881 0.580033 0.000000
0.371476 0.580837 0.000000
0.406781 0.581640 0.000000
0.440985 0.582443 0.000000
0.474233 0.583246 0.000000
0.506640 0.584048 0.000000
0.538297 0.584849 0.000000
0.569279 0.585651 0.000000
0.599649 0.586452 0.000000
0.629459 0.587252 0.000000
0.658757 0.588052 0.000000
0.687579 0.588852 0.000000
0.715962 0.589651 0.000000
0.743933 0.590450 0.000000
0.771521 0.591248 0.000000
0.798749 0.592046 0.000000
0.825637 0.592844 0.000000
0.852205 0.593641 0.000000
0.878470 0.594438 0.000000
0.904448 0.595235 0.000000
0.930152 0.596031 0.000000
0.955596 0.596826 0.000000
0.980792 0.597622 0.000000
1.000000 0.598416 0.000000
1.000000 0.599211 0.000000
1.000000 0.600005 0.000000
0.000000 0.604063 0.000000
0.052547 0.604854 0.000000
0.115185 0.605646 0.000000
0.166658 0.606437 0.000000
0.212736 0.607227 0.000000
0.255358 0.608018 0.000000
0.295484 0.608808 0.000000
0.333681 0.609597 0.000000
0.370321 0.610386 0.000000
0.405664 0.611175 0.000000
0.439901 0.611963 0.000000
0.473178 0.612751 0.000000
0.505611 0.613539 0.000000
0.537290 0.614326 0.000000
0.568293 0.615113 0.000000
0.598682 0.615899 0.000000
0.628510 0.616685 0.000000
0.657823 0.617471 0.000000
0.686660 0.618256 0.000000
0.715056 0.619041 0.000000
0.743041 0.619826 0.000000
0.770640 0.620610 0.000000
0.797879 0.621394 0.000000
0.824778 0.622178 0.000000
0.851356 0.622961 0.000000
0.877631 0.623743 0.000000
0.903617 0.624526 0.000000
0.929330 0.625308 0.000000
0.954782 0.626090 0.000000
0.979986 0.626871 0.000000
1.000000 0.627652 0.000000
1.000000 0.628433 0.000000
1.000000 0.629213 0.000000
0.000000 0.633200 0.000000
0.050146 0.633978 0.000000
0.113400 0.634756 0.000000
0.165103 0.635533 0.000000
0.211316 0.636310 0.000000
0.254031 0.637087 0.000000
0.294227 0.637863 0.000000
0.332479 0.638639 0.000000
0.369165 0.639415 0.000000
0.404546 0.640190 0.000000
0.438817 0.640965 0.000000
0.472123 0.641740 0.000000
0.504581 0.642514 0.000000
0.536283 0.643288 0.000000
0.567306 0.644061 0.000000
0.597714 0.644835 0.000000
0.627559 0.645607 0.000000
0.656888 0.646380 0.000000
0.685740 0.647152 0.000000
0.714150 0.647924 0.000000
0.742147 0.648695 0.000000
0.769759 0.649467 0.000000
0.797009 0.650237 0.000000
0.823919 0.651008 0.000000
0.850507 0.651778 0.000000
0.876791 0.652548 0.000000
0.902786 0.653317 0.000000
0.928508 0.654086 0.000000
0.953968 0.654855 0.000000
0.979180 0.655624 0.000000
1.000000 0.656392 0.000000
1.000000 0.657160 0.000000
1.000000 0.657927 0.000000
0.000000 0.661849 0.000000
0.047703 0.662615 0.000000
0.111604 0.663380 0.000000
0.163542 0.664145 0.000000
0.209892 0.664909 0.000000
0.252701 0.665673 0.000000
0.292968 0.666437 0.000000
0.331276 0.667201 0.000000
0.368008 0.667964 0.000000
0.403428 0.668727 0.000000
0.437731 0.669489 0.000000
0.471066 0.670252 0.000000
0.503550 0.671013 0.000000
0.535275 0.671775 0.000000
0.566319 0.672536 0.000000
0.596746 0.673297 0.000000
0.626608 0.674058 0.000000
0.655953 0.674818 0.000000
0.684820 0.675578 0.000000
0.713244 0.676338 0.000000
0.741254 0.677097 0.000000
0.768878 0.677856 0.000000
0.796139 0.678615 0.000000
0.823059 0.679373 0.000000
0.849657 0.680131 0.000000
0.875951 0.680889 0.000000
0.901955 0.681647 0.000000
0.927685 0.682404 0.000000
0.953154 0.683161 0.000000
0.978373 0.683917 0.000000
1.000000 0.684673 0.000000
1.000000 0.685429 0.000000
1.000000 0.686185 0.000000
0.000000 0.690047 0.000000
0.045212 0.690801 0.000000
0.109798 0.691554 0.000000
0.161976 0.692307 0.000000
0.208465 0.693060 0.000000
0.251369 0.693813 0.000000
0.291706 0.694565 0.000000
0.330071 0.695317 0.000000
0.366849 0.696068 0.000000
0.402308 0.696820 0.000000
0.436644 0.697571 0.000000
0.470009 0.698321 0.000000
0.502518 0.699072 0.000000
0.534267 0.699822 0.000000
0.565332 0.700572 0.000000
0.595777 0.701321 0.000000
0.625657 0.702071 0.000000
0.655018 0.702819 0.000000
0.683900 0.703568 0.000000
0.712337 0.704316 0.000000
0.740360 0.705064 0.000000
0.767996 0.705812 0.000000
0.795268 0.706560 0.000000
0.822199 0.707307 0.000000
0.848807 0.708054 0.000000
0.875110 0.708800 0.000000
0.901124 0.709547 0.000000
0.926863 0.710293 0.000000
0.952340 0.711038 0.000000
0.977567 0.711784 0.000000
1.000000 0.712529 0.000000
1.000000 0.713274 0.000000
1.000000 0.714018 0.000000
0.000000 0.717824 0.000000
0.042670 0.718567 0.000000
0.107981 0.719310 0.000000
0.160404 0.720052 0.000000
0.207034 0.720794 0.000000
0.250034 0.721535 0.000000
0.290443 0.722277 0.000000
0.328865 0.723018 0.000000
0.365689 0.723759 0.000000
0.401186 0.724499 0.000000
0.435557 0.725240 0.000000
0.468950 0.725980 0.000000
0.501486 0.726719 0.000000
0.533257 0.727459 0.000000
0.564343 0.728198 0.000000
0.594808 0.728937 0.000000
0.624705 0.729675 0.000000
0.654082 0.730414 0.000000
0.682979 0.731152 0.000000
0.711430 0.731890 0.000000
0.739465 0.732627 0.000000
0.767113 0.733364 0.000000
0.794397 0.734101 0.000000
0.821339 0.734838 0.000000
0.847957 0.735574 0.000000
0.874270 0.736311 0.000000
0.900292 0.737046 0.000000
0.926040 0.737782 0.000000
0.951525 0.738517 0.000000
0.976760 0.739252 0.000000
1.000000 0.739987 0.000000
1.000000 0.740722 0.000000
1.000000 0.741456 0.000000
0.000000 0.745209 0.000000
0.040070 0.745942 0.000000
0.106152 0.746674 0.000000
0.158826 0.747406 0.000000
0.205599 0.748138 0.000000
0.248697 0.748870 0.000000
0.289178 0.749601 0.000000
0.327657 0.750332 0.000000
0.364527 0.751063 0.000000
0.400064 0.751793 0.000000
0.434468 0.752523 0.000000
0.467891 0.753253 0.000000
0.500452 0.753983 0.000000
0.532247 0.754712 0.000000
0.563354 0.755442 0.000000
0.593838 0.756171 0.000000
0.623753 0.756899 0.000000
0.653146 0.757628 0.000000
0.682057 0.758356 0.000000
0.710522 0.759084 0.000000
0.738571 0.759811 0.000000
0.766231 0.760539 0.000000
0.793526 0.761266 0.000000
0.820478 0.761993 0.000000
0.847106 0.762719 0.000000
0.873429 0.763446 0.000000
0.899460 0.764172 0.000000
0.925216 0.764898 0.000000
0.950710 0.765623 0.000000
0.975953 0.766348 0.000000
1.000000 0.767074 0.000000
1.000000 0.767798 0.000000
1.000000 0.768523 0.000000
0.000000 0.772227 0.000000
0.037406 0.772950 0.000000
0.104311 0.773673 0.000000
0.157243 0.774395 0.000000
0.204161 0.775117 0.000000
0.247357 0.775839 0.000000
0.287911 0.776561 0.000000
0.326447 0.777283 0.000000
0.363364 0.778004 0.000000
0.398941 0.778725 0.000000
0.433378 0.779446 0.000000
0.466831 0.780166 0.000000
0.499418 0.780887 0.000000
0.531237 0.781607 0.000000
0.562365 0.782326 0.000000
0.592867 0.783046 0.000000
0.622800 0.783765 0.000000
0.652209 0.784484 0.000000
0.681135 0.785203 0.000000
0.709614 0.785922 0.000000
0.737675 0.786640 0.000000
0.765347 0.787358 0.000000
0.792654 0.788076 0.000000
0.819617 0.788794 0.000000
0.846256 0.789511 0.000000
0.872587 0.790228 0.000000
0.898628 0.790945 0.000000
0.924393 0.791662 0.000000
0.949894 0.792378 0.000000
0.975145 0.793094 0.000000
1.000000 0.793810 0.000000
1.000000 0.794526 0.000000
1.000000 0.795241 0.000000
0.000000 0.798899 0.000000
0.034669 0.799613 0.000000
0.102459 0.800327 0.000000
0.155653 0.801040 0.000000
0.202719 0.801754 0.000000
0.246014 0.802467 0.000000
0.286642 0.803179 0.000000
0.325235 0.803892 0.000000
0.362200 0.804604 0.000000
0.397816 0.805317 0.000000
0.432288 0.806028 0.000000
0.465770 0.806740 0.000000
0.498384 0.807452 0.000000
0.530225 0.808163 0.000000
0.561374 0.808874 0.000000
0.591896 0.809584 0.000000
0.621846 0.810295 0.000000
0.651271 0.811005 0.000000
0.680213 0.811715 0.000000
0.708705 0.812425 0.000000
0.736780 0.813135 0.000000
0.764464 0.813844 0.000000
0.791782 0.814553 0.000000
0.818756 0.815262 0.000000
0.845404 0.815971 0.000000
0.871746 0.816679 0.000000
0.897796 0.817387 0.000000
0.923569 0.818095 0.000000
0.949079 0.818803 0.000000
0.974337 0.819511 0.000000
0.999356 0.820218 0.000000
1.000000 0.820925 0.000000
1.000000 0.821632 0.000000
0.000000 0.825246 0.000000
0.031851 0.825951 0.000000
0.100594 0.826656 0.000000
0.154058 0.827361 0.000000
0.201273 0.828066 0.000000
0.244668 0.828771 0.000000
0.285370 0.829475 0.000000
0.324022 0.830179 0.000000
0.361034 0.830883 0.000000
0.396690 0.831587 0.000000
0.431196 0.832290 0.000000
0.464708 0.832994 0.000000
0.497348 0.833697 0.000000
0.529213 0.834400 0.000000
0.560383 0.835102 0.000000
0.590924 0.835805 0.000000
0.620892 0.836507 0.000000
0.650334 0.837209 0.000000
0.679290 0.837911 0.000000
0.707796 0.838612 0.000000
0.735884 0.839313 0.000000
0.763580 0.840014 0.000000
0.790910 0.840715 0.000000
0.817894 0.841416 0.000000
0.844553 0.842116 0.000000
0.870904 0.842817 0.000000
0.896963 0.843517 0.000000
0.922745 0.844216 0.000000
0.948263 0.844916 0.000000
0.973530 0.845615 0.000000
0.998556 0.846315 0.000000
1.000000 0.847014 0.000000
1.000000 0.847712 0.000000
0.000000 0.851285 0.000000
0.028936 0.851982 0.000000
0.098716 0.852679 0.000000
0.152457 0.853376 0.000000
0.199823 0.854073 0.000000
0.243320 0.854770 0.000000
0.284097 0.855466 0.000000
0.322807 0.856162 0.000000
0.359867 0.856858 0.000000
0.395563 0.857554 0.000000
0.430103 0.858249 0.000000
0.463645 0.858945 0.000000
0.496312 0.859640 0.000000
0.528200 0.860335 0.000000
0.559392 0.861029 0.000000
0.589952 0.861724 0.000000
0.619937 0.862418 0.000000
0.649395 0.863112 0.000000
0.678366 0.863806 0.000000
0.706887 0.864500 0.000000
0.734987 0.865193 0.000000
0.762696 0.865887 0.000000
0.790037 0.866580 0.000000
0.817032 0.867273 0.000000
0.843701 0.867965 0.000000
0.870062 0.868658 0.000000
0.896130 0.869350 0.000000
0.921921 0.870042 0.000000
0.947447 0.870734 0.000000
0.972721 0.871425 0.000000
0.997755 0.872117 0.000000
1.000000 0.872808 0.000000
1.000000 0.873499 0.000000
0.000000 0.877032 0.000000
0.025909 0.877722 0.000000
0.096825 0.878411 0.000000
0.150849 0.879101 0.000000
0.198369 0.879790 0.000000
0.241969 0.880479 0.000000
0.282821 0.881168 0.000000
0.321591 0.881856 0.000000
0.358699 0.882545 0.000000
0.394435 0.883233 0.000000
0.429010 0.883921 0.000000
0.462582 0.884609 0.000000
0.495274 0.885296 0.000000
0.527187 0.885984 0.000000
0.558400 0.886671 0.000000
0.588979 0.887358 0.000000
0.618982 0.888045 0.000000
0.648456 0.888731 0.000000
0.677443 0.889418 0.000000
0.705977 0.890104 0.000000
0.734091 0.890790 0.000000
0.761811 0.891476 0.000000
0.789164 0.892161 0.000000
0.816170 0.892847 0.000000
0.842849 0.893532 0.000000
0.869219 0.894217 0.000000
0.895297 0.894902 0.000000
0.921096 0.895587 0.000000
0.946631 0.896271 0.000000
0.971913 0.896955 0.000000
0.996954 0.897639 0.000000
1.000000 0.898323 0.000000
1.000000 0.899007 0.000000
0.000000 0.902503 0.000000
0.022744 0.903185 0.000000
0.094919 0.903868 0.000000
0.149235 0.904550 0.000000
0.196912 0.905232 0.000000
0.240615 0.905913 0.000000
0.281544 0.906595 0.000000
0.320373 0.907276 0.000000
0.357529 0.907958 0.000000
0.393306 0.908639 0.000000
0.427915 0.909319 0.000000
0.461517 0.910000 0.000000
0.494236 0.910680 0.000000
0.526173 0.911361 0.000000
0.557407 0.912041 0.000000
0.588006 0.912721 0.000000
0.618027 0.913400 0.000000
0.647517 0.914080 0.000000
0.676518 0.914759 0.000000
0.705067 0.915438 0.000000
0.733193 0.916117 0.000000
0.760926 0.916796 0.000000
0.788290 0.917475 0.000000
0.815307 0.918153 0.000000
0.841996 0.918831 0.000000
