presets/film_stocks/Fuji_Eterna_500_Vivid.cube
# 独寻胶片模拟 -- Fuji Eterna 500 Vivid
# Fujifilm, ISO 500, 2007, negative
TITLE "Fuji Eterna 500 Vivid"
LUT_3D_SIZE 5
DOMAIN_MIN 0.0 0.0 0.0
DOMAIN_MAX 1.0 1.0 1.0
0.000000 0.000000 0.000000
0.322092 0.005841 0.000000
0.615625 0.011165 0.000000
0.899264 0.016309 0.000000
1.000000 0.021340 0.000000
0.000000 0.297487 0.000000
0.304582 0.301631 0.000000
0.598907 0.305771 0.000000
0.882990 0.309907 0.000000
1.000000 0.314040 0.000000
0.000000 0.568596 0.000000
0.287001 0.572558 0.000000
0.582157 0.576517 0.000000
0.866694 0.580475 0.000000
1.000000 0.584431 0.000000
0.000000 0.830568 0.000000
0.269344 0.834426 0.000000
0.565373 0.838283 0.000000
0.850377 0.842139 0.000000
1.000000 0.845993 0.000000
0.000000 1.000000 0.000000
0.251606 1.000000 0.000000
0.548554 1.000000 0.000000
0.834038 1.000000 0.000000
1.000000 1.000000 0.000000
0.000000 0.000000 0.283425
0.291370 0.000000 0.277941
0.586317 0.000000 0.272449
0.870740 0.000000 0.266949
1.000000 0.000000 0.261442
0.000000 0.269560 0.279223
0.273733 0.273733 0.273733
0.569541 0.277901 0.268235
0.854428 0.282065 0.262729
1.000000 0.286225 0.257215
0.000000 0.541954 0.275016
0.256016 0.545929 0.269520
0.552731 0.549901 0.264016
0.838094 0.553872 0.258504
1.000000 0.557841 0.252984
0.000000 0.804638 0.270805
0.238212 0.808504 0.265303
0.535885 0.812370 0.259793
0.821739 0.816234 0.254275
1.000000 0.820097 0.248748
0.000000 1.000000 0.266589
0.220315 1.000000 0.261081
0.519002 1.000000 0.255565
0.805360 1.000000 0.250040
1.000000 1.000000 0.244507
0.000000 0.000000 0.541720
0.260420 0.000000 0.536481
0.556906 0.000000 0.531238
0.842150 0.000000 0.525991
1.000000 0.000000 0.520741
0.000000 0.241429 0.537706
0.242638 0.245634 0.532463
0.540069 0.249834 0.527218
0.825799 0.254029 0.521968
1.000000 0.258218 0.516715
0.000000 0.515220 0.533689
0.224765 0.519208 0.528444
0.523195 0.523195 0.523195
0.809426 0.527179 0.517943
1.000000 0.531162 0.512687
0.000000 0.778649 0.529669
0.206792 0.782524 0.524422
0.506283 0.786398 0.519170
0.793030 0.790271 0.513915
1.000000 0.794143 0.508656
0.000000 1.000000 0.525648
0.188708 1.000000 0.520398
0.489331 1.000000 0.515143
0.776610 1.000000 0.509885
1.000000 1.000000 0.504623
0.000000 0.000000 0.791310
0.229209 0.000000 0.786208
0.527386 0.000000 0.781104
0.813492 0.000000 0.775998
1.000000 0.000000 0.770889
0.000000 0.213067 0.787400
0.211262 0.217308 0.782297
0.510483 0.221543 0.777191
0.797101 0.225773 0.772083
1.000000 0.229998 0.766972
0.000000 0.488388 0.783489
0.193206 0.492391 0.778384
0.493542 0.496393 0.773276
0.780687 0.500392 0.768167
1.000000 0.504389 0.763054
0.000000 0.752599 0.779577
0.175032 0.756484 0.774470
0.476559 0.760367 0.769361
0.764249 0.764249 0.764249
1.000000 0.768129 0.759135
0.000000 1.000000 0.775664
0.156724 1.000000 0.770555
0.459534 1.000000 0.765444
0.747786 1.000000 0.760330
1.000000 1.000000 0.755214
0.000000 0.000000 1.000000
0.197697 0.000000 1.000000
0.497749 0.000000 1.000000
0.784762 0.000000 1.000000
1.000000 0.000000 1.000000
0.000000 0.184436 1.000000
0.179554 0.188720 1.000000
0.480777 0.192997 1.000000
0.768330 0.197268 1.000000
1.000000 0.201532 1.000000
0.000000 0.461452 1.000000
0.161281 0.465472 1.000000
0.463763 0.469489 1.000000
0.751874 0.473503 1.000000
1.000000 0.477516 1.000000
0.000000 0.726486 1.000000
0.142861 0.730380 1.000000
0.446705 0.734273 1.000000
0.735392 0.738164 1.000000
1.000000 0.742054 1.000000
0.000000 0.984756 1.000000
0.124273 0.988569 1.000000
0.429601 0.992380 1.000000
0.718884 0.996191 1.000000
1.000000 1.000000 1.000000
