presets/film_stocks/Fuji_Pro_400H.cube
# 独寻胶片模拟 -- Fuji Pro 400H
# Fujifilm, ISO 400, 2004, negative
TITLE "Fuji Pro 400H"
LUT_3D_SIZE 9
DOMAIN_MIN 0.0 0.0 0.0
DOMAIN_MAX 1.0 1.0 1.0
0.000000 0.000000 0.000000
0.170906 0.003413 0.000000
0.322799 0.006447 0.000000
0.468257 0.009352 0.000000
0.609687 0.012177 0.000000
0.748195 0.014943 0.000000
0.884420 0.017664 0.000000
1.000000 0.020347 0.000000
1.000000 0.022999 0.000000
0.000000 0.158762 0.000000
0.161964 0.160977 0.000000
0.314365 0.163189 0.000000
0.460103 0.165399 0.000000
0.601726 0.167606 0.000000
0.740381 0.169811 0.000000
0.876723 0.172012 0.000000
1.000000 0.174212 0.000000
1.000000 0.176409 0.000000
0.000000 0.299861 0.000000
0.152978 0.301954 0.000000
0.305910 0.304045 0.000000
0.451937 0.306135 0.000000
0.593757 0.308224 0.000000
0.732560 0.310311 0.000000
0.869020 0.312397 0.000000
1.000000 0.314482 0.000000
1.000000 0.316566 0.000000
0.000000 0.434982 0.000000
0.143943 0.437006 0.000000
0.297434 0.439029 0.000000
0.443757 0.441051 0.000000
0.585777 0.443073 0.000000
0.724731 0.445093 0.000000
0.861311 0.447113 0.000000
0.995961 0.449132 0.000000
1.000000 0.451150 0.000000
0.000000 0.566362 0.000000
0.134858 0.568339 0.000000
0.288937 0.570315 0.000000
0.435564 0.572290 0.000000
0.577788 0.574264 0.000000
0.716894 0.576238 0.000000
0.853596 0.578212 0.000000
0.988346 0.580185 0.000000
1.000000 0.582157 0.000000
0.000000 0.695028 0.000000
0.125716 0.696969 0.000000
0.280417 0.698909 0.000000
0.427357 0.700848 0.000000
0.569788 0.702787 0.000000
0.709049 0.704726 0.000000
0.845874 0.706664 0.000000
0.980726 0.708601 0.000000
1.000000 0.710539 0.000000
0.000000 0.821572 0.000000
0.116515 0.823484 0.000000
0.271873 0.825395 0.000000
0.419135 0.827306 0.000000
0.561779 0.829216 0.000000
0.701197 0.831126 0.000000
0.838146 0.833036 0.000000
0.973101 0.834945 0.000000
1.000000 0.836853 0.000000
0.000000 0.946379 0.000000
0.107247 0.948266 0.000000
0.263305 0.950153 0.000000
0.410899 0.952040 0.000000
0.553759 0.953926 0.000000
0.693337 0.955812 0.000000
0.830412 0.957698 0.000000
0.965470 0.959583 0.000000
1.000000 0.961468 0.000000
0.000000 1.000000 0.000000
0.097907 1.000000 0.000000
0.254712 1.000000 0.000000
0.402649 1.000000 0.000000
0.545729 1.000000 0.000000
0.685469 1.000000 0.000000
0.822671 1.000000 0.000000
0.957834 1.000000 0.000000
1.000000 1.000000 0.000000
0.000000 0.000000 0.154523
0.157425 0.000000 0.151037
0.310091 0.000000 0.147544
0.455975 0.000000 0.144044
0.597697 0.000000 0.140535
0.736426 0.000000 0.137019
0.872828 0.001289 0.133495
1.000000 0.004483 0.129962
1.000000 0.007463 0.126420
0.000000 0.146183 0.151906
0.148415 0.148415 0.148415
0.301626 0.150643 0.144916
0.447802 0.152869 0.141410
0.589722 0.155092 0.137895
0.728601 0.157311 0.134373
0.865122 0.159528 0.130842
0.999722 0.161743 0.127303
1.000000 0.163954 0.123755
0.000000 0.288004 0.149285
0.139355 0.290104 0.145788
0.293139 0.292203 0.142283
0.439615 0.294301 0.138771
0.581738 0.296397 0.135251
0.720768 0.298492 0.131722
0.857410 0.300585 0.128185
0.992110 0.302677 0.124639
1.000000 0.304768 0.121084
0.000000 0.423523 0.146659
0.130242 0.425552 0.143157
0.284630 0.427580 0.139646
0.431415 0.429607 0.136128
0.573743 0.431633 0.132602
0.712927 0.433658 0.129067
0.849691 0.435682 0.125523
0.984493 0.437706 0.121970
1.000000 0.439729 0.118408
0.000000 0.555175 0.144030
0.121070 0.557155 0.140521
0.276099 0.559135 0.137005
0.423201 0.561113 0.133481
0.565739 0.563092 0.129948
0.705079 0.565069 0.126406
0.841967 0.567046 0.122856
0.976870 0.569022 0.119296
1.000000 0.570998 0.115727
0.000000 0.684047 0.141396
0.111836 0.685991 0.137881
0.267543 0.687933 0.134359
0.414972 0.689876 0.130828
0.557724 0.691818 0.127289
0.697223 0.693759 0.123741
0.834235 0.695700 0.120184
0.969242 0.697640 0.116617
1.000000 0.699580 0.113040
0.000000 0.810757 0.138757
0.102533 0.812671 0.135237
0.258962 0.814584 0.131708
0.406728 0.816497 0.128171
0.549699 0.818410 0.124625
0.689359 0.820322 0.121070
0.826498 0.822234 0.117506
0.961609 0.824145 0.113932
1.000000 0.826056 0.110347
0.000000 0.935701 0.136114
0.093153 0.937590 0.132588
0.250356 0.939479 0.129053
0.398470 0.941368 0.125509
0.541664 0.943256 0.121956
0.681486 0.945144 0.118394
0.818754 0.947032 0.114823
0.953970 0.948919 0.111241
1.000000 0.950806 0.107649
0.000000 1.000000 0.133467
0.083687 1.000000 0.129934
0.241724 1.000000 0.126392
0.390196 1.000000 0.122842
0.533617 1.000000 0.119282
0.673606 1.000000 0.115713
0.811003 1.000000 0.112134
0.946326 1.000000 0.108544
1.000000 1.000000 0.104944
0.000000 0.000000 0.291856
0.143839 0.000000 0.288566
0.297337 0.000000 0.285272
0.443663 0.000000 0.281975
0.585685 0.000000 0.278674
0.724640 0.000000 0.275370
0.861222 0.000000 0.272062
0.995873 0.000000 0.268751
1.000000 0.000000 0.265436
0.000000 0.133506 0.289385
0.134753 0.135756 0.286092
0.288839 0.138002 0.282796
0.435470 0.140246 0.279496
0.577696 0.142485 0.276193
0.716804 0.144722 0.272886
0.853507 0.146956 0.269576
0.988258 0.149186 0.266262
1.000000 0.151414 0.262944
0.000000 0.276103 0.286913
0.125611 0.278212 0.283617
0.280318 0.280318 0.280318
0.427262 0.282424 0.277016
0.569696 0.284527 0.273710
0.708959 0.286630 0.270400
0.845785 0.288731 0.267087
0.980638 0.290831 0.263770
1.000000 0.292929 0.260450
0.000000 0.412035 0.284438
0.116408 0.414069 0.281140
0.271774 0.416102 0.277839
0.419041 0.418134 0.274533
0.561687 0.420165 0.271225
0.701107 0.422195 0.267913
0.838057 0.424225 0.264597
0.973013 0.426253 0.261277
1.000000 0.428281 0.257953
0.000000 0.543968 0.281962
0.107140 0.545951 0.278661
0.263206 0.547934 0.275357
0.410805 0.549917 0.272049
0.553667 0.551899 0.268738
0.693246 0.553880 0.265423
0.830323 0.555860 0.262104
0.965382 0.557840 0.258781
1.000000 0.559819 0.255455
0.000000 0.673051 0.279483
0.097799 0.674997 0.276180
0.254613 0.676942 0.272873
0.402553 0.678888 0.269563
0.545636 0.680832 0.266249
0.685378 0.682776 0.262931
0.822582 0.684720 0.259609
0.957746 0.686663 0.256284
1.000000 0.688605 0.252954
0.000000 0.799928 0.277003
0.088377 0.801845 0.273697
0.245994 0.803760 0.270387
0.394287 0.805676 0.267074
0.537596 0.807590 0.263757
0.677502 0.809505 0.260437
0.814835 0.811419 0.257112
0.950105 0.813333 0.253784
1.000000 0.815246 0.250451
0.000000 0.925012 0.274520
0.078863 0.926903 0.271212
0.237347 0.928794 0.267899
0.386005 0.930685 0.264584
0.529544 0.932575 0.261264
0.669617 0.934465 0.257940
0.807081 0.936354 0.254613
0.942458 0.938244 0.251282
1.000000 0.940132 0.247946
0.000000 1.000000 0.272036
0.069245 1.000000 0.268725
0.228672 1.000000 0.265410
0.377707 1.000000 0.262091
0.521481 1.000000 0.258768
0.661724 1.000000 0.255442
0.799320 1.000000 0.252111
0.934805 1.000000 0.248777
1.000000 1.000000 0.245439
0.000000 0.000000 0.423370
0.130136 0.000000 0.420189
0.284532 0.000000 0.417005
0.431320 0.000000 0.413819
0.573651 0.000000 0.410631
0.712837 0.000000 0.407441
0.849602 0.000000 0.404248
0.984405 0.000000 0.401053
1.000000 0.000000 0.397856
0.000000 0.120720 0.420981
0.120964 0.122990 0.417798
0.276000 0.125256 0.414613
0.423106 0.127519 0.411425
0.565646 0.129778 0.408235
0.704989 0.132033 0.405043
0.841878 0.134285 0.401849
0.976782 0.136534 0.398653
1.000000 0.138779 0.395454
0.000000 0.264156 0.418591
0.111730 0.266273 0.415406
0.267444 0.268388 0.412219
0.414877 0.270501 0.409030
0.557632 0.272613 0.405838
0.697132 0.274724 0.402645
0.834146 0.276833 0.399449
0.969154 0.278941 0.396251
1.000000 0.281047 0.393050
0.000000 0.400519 0.416199
0.102425 0.402558 0.413013
0.258863 0.404596 0.409824
0.406633 0.406633 0.406633
0.549607 0.408670 0.403440
0.689268 0.410705 0.400245
0.826409 0.412739 0.397047
0.961521 0.414773 0.393847
1.000000 0.416805 0.390645
0.000000 0.532740 0.413806
0.093044 0.534727 0.410618
0.250257 0.536714 0.407428
0.398375 0.538700 0.404236
0.541571 0.540685 0.401041
0.681395 0.542670 0.397844
0.818665 0.544654 0.394644
0.953882 0.546638 0.391443
1.000000 0.548620 0.388238
0.000000 0.662038 0.411412
0.083577 0.663987 0.408223
0.241624 0.665935 0.405031
0.390101 0.667883 0.401837
0.533525 0.669831 0.398640
0.673515 0.671778 0.395441
0.810914 0.673724 0.392240
0.946238 0.675670 0.389037
1.000000 0.677615 0.385831
0.000000 0.789087 0.409017
0.074013 0.791005 0.405826
0.232963 0.792923 0.402632
0.381811 0.794841 0.399436
0.525467 0.796758 0.396238
0.665626 0.798675 0.393037
0.803156 0.800591 0.389834
0.938588 0.802507 0.386629
1.000000 0.804423 0.383421
0.000000 0.914312 0.406621
0.064335 0.916205 0.403428
0.224273 0.918098 0.400232
0.373504 0.919991 0.397035
0.517399 0.921883 0.393835
0.657729 0.923775 0.390632
0.795392 0.925666 0.387428
0.930932 0.927558 0.384220
1.000000 0.929448 0.381011
0.000000 1.000000 0.404223
0.054524 1.000000 0.401028
0.215553 1.000000 0.397831
0.365182 1.000000 0.394632
0.509319 1.000000 0.391430
0.649823 1.000000 0.388226
0.787621 1.000000 0.385019
0.923271 1.000000 0.381810
1.000000 1.000000 0.378599
0.000000 0.000000 0.551243
0.116302 0.000000 0.548136
0.271676 0.000000 0.545028
0.418946 0.000000 0.541918
0.561594 0.000000 0.538807
0.701016 0.000000 0.535694
0.837968 0.000000 0.532579
0.972925 0.000000 0.529463
1.000000 0.000000 0.526345
0.000000 0.107811 0.548910
0.107033 0.110104 0.545802
0.263108 0.112392 0.542693
0.410710 0.114677 0.539582
0.553574 0.116957 0.536469
0.693156 0.119234 0.533355
0.830234 0.121506 0.530239
0.965294 0.123775 0.527122
1.000000 0.126040 0.524003
0.000000 0.252160 0.546576
0.097691 0.254286 0.543467
0.254514 0.256409 0.540357
0.402458 0.258531 0.537245
0.545544 0.260652 0.534131
0.685287 0.262771 0.531015
0.822493 0.264889 0.527898
0.957658 0.267005 0.524780
1.000000 0.269119 0.521659
0.000000 0.388973 0.544241
0.088268 0.391017 0.541131
0.245894 0.393061 0.538020
0.394192 0.395103 0.534906
0.537503 0.397145 0.531791
0.677411 0.399185 0.528675
0.814745 0.401225 0.525556
0.950017 0.403263 0.522436
1.000000 0.405301 0.519315
0.000000 0.521490 0.541906
0.078753 0.523481 0.538795
0.237247 0.525472 0.535682
0.385910 0.527462 0.532567
0.529451 0.529451 0.529451
0.669526 0.531439 0.526333
0.806991 0.533427 0.523214
0.942369 0.535414 0.520092
1.000000 0.537401 0.516969
0.000000 0.651008 0.539570
0.069133 0.652960 0.536457
0.228572 0.654912 0.533343
0.377612 0.656863 0.530227
0.521388 0.658813 0.527110
0.661633 0.660763 0.523990
0.799230 0.662712 0.520870
0.934717 0.664661 0.517747
1.000000 0.666609 0.514623
0.000000 0.778232 0.537232
0.059391 0.780153 0.534118
0.219866 0.782073 0.531003
0.369297 0.783993 0.527886
0.513314 0.785913 0.524767
0.653731 0.787832 0.521647
0.791463 0.789751 0.518525
0.927058 0.791669 0.515401
1.000000 0.793587 0.512276
0.000000 0.903601 0.534894
0.049502 0.905496 0.531779
0.211130 0.907391 0.528662
0.360966 0.909286 0.525544
0.505228 0.911180 0.522424
0.645821 0.913074 0.519302
0.783688 0.914967 0.516179
0.919394 0.916860 0.513054
1.000000 0.918753 0.509927
0.000000 1.000000 0.532555
0.039431 1.000000 0.529439
0.202361 1.000000 0.526321
0.352617 1.000000 0.523201
0.497131 1.000000 0.520080
0.637902 1.000000 0.516957
0.775907 1.000000 0.513832
0.911724 1.000000 0.510706
1.000000 1.000000 0.507578
0.000000 0.000000 0.676474
0.102318 0.000000 0.673424
0.258764 0.000000 0.670373
0.406538 0.000000 0.667321
0.549514 0.000000 0.664268
0.689177 0.000000 0.661213
0.826320 0.000000 0.658157
0.961433 0.000000 0.655100
1.000000 0.000000 0.652041
0.000000 0.094760 0.674184
0.092936 0.097080 0.671133
0.250158 0.099394 0.668081
0.398279 0.101704 0.665028
0.541478 0.104008 0.661974
0.681305 0.106309 0.658918
0.818575 0.108604 0.655861
0.953794 0.110896 0.652803
1.000000 0.113183 0.649744
0.000000 0.240113 0.671893
0.083468 0.242247 0.668841
0.241524 0.244380 0.665789
0.390005 0.246512 0.662735
0.533432 0.248641 0.659679
0.673424 0.250769 0.656623
0.810824 0.252896 0.653565
0.946150 0.255020 0.650506
1.000000 0.257144 0.647445
0.000000 0.377396 0.669601
0.073902 0.379446 0.666549
0.232863 0.381495 0.663495
0.381715 0.383543 0.660440
0.525374 0.385590 0.657384
0.665535 0.387636 0.654326
0.803067 0.389680 0.651268
0.938500 0.391724 0.648207
1.000000 0.393767 0.645146
0.000000 0.510219 0.667309
0.064223 0.512214 0.664256
0.224173 0.514208 0.661201
0.373409 0.516202 0.658145
0.517306 0.518195 0.655088
0.657638 0.520187 0.652029
0.795303 0.522179 0.648970
0.930844 0.524170 0.645908
1.000000 0.526160 0.642846
0.000000 0.639962 0.665016
0.054410 0.641917 0.661962
0.215452 0.643872 0.658906
0.365086 0.645825 0.655849
0.509226 0.647779 0.652791
0.649732 0.649732 0.649732
0.787531 0.651684 0.646671
0.923183 0.653636 0.643609
1.000000 0.655587 0.640545
0.000000 0.767363 0.662722
0.044434 0.769286 0.659667
0.206699 0.771209 0.656611
0.356745 0.773132 0.653553
0.501134 0.775054 0.650494
0.641817 0.776975 0.647433
0.779753 0.778896 0.644371
0.915516 0.780817 0.641308
1.000000 0.782737 0.638244
0.000000 0.892879 0.660428
0.034250 0.894776 0.657372
0.197913 0.896673 0.654314
0.348388 0.898569 0.651255
0.493031 0.900465 0.648195
0.633893 0.902361 0.645134
0.771968 0.904257 0.642071
0.907843 0.906152 0.639007
1.000000 0.908047 0.635942
0.000000 1.000000 0.658133
0.023782 1.000000 0.655076
0.189092 1.000000 0.652017
0.340012 1.000000 0.648957
0.484916 1.000000 0.645896
0.625961 1.000000 0.642834
0.764176 1.000000 0.639770
0.900164 1.000000 0.636705
1.000000 1.000000 0.633639
0.000000 0.000000 0.799640
0.088159 0.000000 0.796636
0.245795 0.000000 0.793631
0.394097 0.000000 0.790625
0.537410 0.000000 0.787618
0.677320 0.000000 0.784610
0.814656 0.000000 0.781600
0.949929 0.000000 0.778590
1.000000 0.000000 0.775579
0.000000 0.081545 0.797384
0.078643 0.083896 0.794379
0.237147 0.086240 0.791373
0.385814 0.088579 0.788367
0.529358 0.090912 0.785359
0.669435 0.093240 0.782350
0.806902 0.095563 0.779340
0.942281 0.097881 0.776329
1.000000 0.100194 0.773317
0.000000 0.228010 0.795127
0.069022 0.230155 0.792122
0.228472 0.232298 0.789115
0.377516 0.234439 0.786108
0.521295 0.236578 0.783099
0.661542 0.238715 0.780090
0.799141 0.240851 0.777079
0.934629 0.242985 0.774067
1.000000 0.245118 0.771054
0.000000 0.365787 0.792870
0.059278 0.367843 0.789864
0.219766 0.369897 0.786857
0.369201 0.371951 0.783848
0.513221 0.374003 0.780839
0.653640 0.376055 0.777829
0.791373 0.378105 0.774817
0.926970 0.380155 0.771805
1.000000 0.382203 0.768791
0.000000 0.498925 0.790613
0.049387 0.500924 0.787606
0.211029 0.502922 0.784598
0.360870 0.504920 0.781589
0.505135 0.506917 0.778578
0.645730 0.508913 0.775567
0.783599 0.510909 0.772555
0.919306 0.512904 0.769541
1.000000 0.514898 0.766527
0.000000 0.628899 0.788355
0.039313 0.630857 0.785347
0.202260 0.632814 0.782338
0.352521 0.634771 0.779328
0.497037 0.636728 0.776317
0.637811 0.638683 0.773305
0.775817 0.640639 0.770292
0.911636 0.642593 0.767278
1.000000 0.644548 0.764263
0.000000 0.756480 0.786096
0.028998 0.758406 0.783087
0.193456 0.760332 0.780078
0.344154 0.762256 0.777067
0.488928 0.764181 0.774055
0.629883 0.766105 0.771042
0.768028 0.768028 0.768028
0.903960 0.769952 0.765014
1.000000 0.771874 0.761997
0.000000 0.882144 0.783837
0.018333 0.884044 0.780827
0.184616 0.885943 0.777817
0.335769 0.887841 0.774805
0.480807 0.889740 0.771793
0.621946 0.891637 0.768779
0.760233 0.893535 0.765764
0.896279 0.895432 0.762749
1.000000 0.897329 0.759732
0.000000 1.000000 0.781577
0.007027 1.000000 0.778566
0.175738 1.000000 0.775555
0.327365 1.000000 0.772543
0.472673 1.000000 0.769530
0.614000 1.000000 0.766515
0.752430 1.000000 0.763500
0.888591 1.000000 0.760483
1.000000 1.000000 0.757466
0.000000 0.000000 0.921114
0.073791 0.000000 0.918148
0.232763 0.000000 0.915181
0.381619 0.000000 0.912214
0.525281 0.000000 0.909245
0.665444 0.000000 0.906276
0.802977 0.000000 0.903306
0.938412 0.000000 0.900334
1.000000 0.000000 0.897362
0.000000 0.068134 0.918887
0.064110 0.070522 0.915920
0.224072 0.072903 0.912953
0.373313 0.075277 0.909985
0.517213 0.077644 0.907015
0.657547 0.080005 0.904045
0.795213 0.082359 0.901074
0.930756 0.084707 0.898103
1.000000 0.087050 0.895130
0.000000 0.215850 0.916659
0.054296 0.218005 0.913692
0.215351 0.220158 0.910724
0.364990 0.222310 0.907755
0.509133 0.224459 0.904785
0.649640 0.226607 0.901814
0.787442 0.228752 0.898843
0.923095 0.230896 0.895870
1.000000 0.233039 0.892897
0.000000 0.354145 0.914431
0.044318 0.356206 0.911463
0.206598 0.358267 0.908494
0.356649 0.360326 0.905525
0.501041 0.362385 0.902554
0.641726 0.364442 0.899583
0.779664 0.366498 0.896610
0.915427 0.368553 0.893637
1.000000 0.370608 0.890663
0.000000 0.487608 0.912202
0.034132 0.489611 0.909234
0.197812 0.491614 0.906264
0.348291 0.493616 0.903294
0.492938 0.495617 0.900323
0.633802 0.497617 0.897351
0.771879 0.499617 0.894378
0.907755 0.501615 0.891404
1.000000 0.503614 0.888429
0.000000 0.617818 0.909973
0.023659 0.619779 0.907004
0.188990 0.621740 0.904034
0.339915 0.623700 0.901063
0.484822 0.625659 0.898091
0.625870 0.627618 0.895118
0.764087 0.629576 0.892144
0.900076 0.631534 0.889170
1.000000 0.633491 0.886195
0.000000 0.745584 0.907743
0.012732 0.747512 0.904773
0.180131 0.749440 0.901802
0.331521 0.751367 0.898831
0.476695 0.753294 0.895858
0.617928 0.755221 0.892885
0.756287 0.757147 0.889911
0.892391 0.759072 0.886936
1.000000 0.760998 0.883960
0.000000 0.871398 0.905513
0.000591 0.873300 0.902542
0.171232 0.875201 0.899571
0.323107 0.877102 0.896599
0.468554 0.879002 0.893626
0.609977 0.880902 0.890651
0.748481 0.882801 0.887677
0.884701 0.884701 0.884701
1.000000 0.886600 0.881724
0.000000 0.995593 0.903282
0.000000 0.997472 0.900311
0.162292 0.999350 0.897339
0.314673 1.000000 0.894366
0.460401 1.000000 0.891392
0.602017 1.000000 0.888417
0.740667 1.000000 0.885442
0.877004 1.000000 0.882465
1.000000 1.000000 0.879488
0.000000 0.000000 1.000000
0.059165 0.000000 1.000000
0.219666 0.000000 1.000000
0.369105 0.000000 1.000000
0.513128 0.000000 1.000000
0.653549 0.000000 1.000000
0.791284 0.000000 1.000000
0.926882 0.000000 1.000000
1.000000 0.000000 1.000000
0.000000 0.054478 1.000000
0.049272 0.056914 1.000000
0.210928 0.059340 1.000000
0.360774 0.061758 1.000000
0.505042 0.064167 1.000000
0.645639 0.066568 1.000000
0.783509 0.068961 1.000000
0.919218 0.071346 1.000000
1.000000 0.073725 1.000000
0.000000 0.203627 1.000000
0.039196 0.205794 1.000000
0.202159 0.207958 1.000000
0.352424 0.210121 1.000000
0.496944 0.212281 1.000000
0.637719 0.214439 1.000000
0.775727 0.216596 1.000000
0.911548 0.218750 1.000000
1.000000 0.220903 1.000000
0.000000 0.342468 1.000000
0.028878 0.344535 1.000000
0.193354 0.346602 1.000000
0.344057 0.348668 1.000000
0.488835 0.350732 1.000000
0.629791 0.352796 1.000000
0.767939 0.354858 1.000000
0.903872 0.356919 1.000000
1.000000 0.358979 1.000000
0.000000 0.476267 1.000000
0.018207 0.478275 1.000000
0.184514 0.480282 1.000000
0.335672 0.482288 1.000000
0.480713 0.484293 1.000000
0.621854 0.486297 1.000000
0.760143 0.488301 1.000000
0.896190 0.490304 1.000000
1.000000 0.492306 1.000000
0.000000 0.606719 1.000000
0.006890 0.608683 1.000000
0.175635 0.610647 1.000000
0.327268 0.612610 1.000000
0.472579 0.614573 1.000000
0.613908 0.616535 1.000000
0.752340 0.618496 1.000000
0.888502 0.620457 1.000000
1.000000 0.622418 1.000000
0.000000 0.734673 1.000000
0.000000 0.736604 1.000000
0.166716 0.738534 1.000000
0.318844 0.740464 1.000000
0.464433 0.742393 1.000000
0.605953 0.744322 1.000000
0.744530 0.746251 1.000000
0.880809 0.748179 1.000000
1.000000 0.750107 1.000000
0.000000 0.860641 1.000000
0.000000 0.862544 1.000000
0.157753 0.864447 1.000000
0.310400 0.866350 1.000000
0.456273 0.868253 1.000000
0.597988 0.870155 1.000000
0.736712 0.872056 1.000000
0.873109 0.873958 1.000000
1.000000 0.875859 1.000000
0.000000 0.984964 1.000000
0.000000 0.986845 1.000000
0.148745 0.988725 1.000000
0.301936 0.990605 1.000000
0.448100 0.992485 1.000000
0.590013 0.994364 1.000000
0.728887 0.996243 1.000000
0.865403 0.998122 1.000000
1.000000 1.000000 1.000000
