presets/film_stocks/Fuji_Velvia_50.cube
# 独寻胶片模拟 -- Fuji Velvia 50
# Fujifilm, ISO 50, 2007, positive
TITLE "Fuji Velvia 50"
LUT_3D_SIZE 9
DOMAIN_MIN 0.0 0.0 0.0
DOMAIN_MAX 1.0 1.0 1.0
0.000000 0.000000 0.000000
0.215200 0.002366 0.000000
0.404115 0.004442 0.000000
0.584236 0.006423 0.000000
0.758872 0.008342 0.000000
0.929541 0.010218 0.000000
1.000000 0.012061 0.000000
1.000000 0.013875 0.000000
1.000000 0.015666 0.000000
0.000000 0.170717 0.000000
0.196364 0.172119 0.000000
0.386470 0.173519 0.000000
0.567242 0.174918 0.000000
0.742324 0.176316 0.000000
0.913329 0.177713 0.000000
1.000000 0.179109 0.000000
1.000000 0.180504 0.000000
1.000000 0.181897 0.000000
0.000000 0.320584 0.000000
0.177346 0.321900 0.000000
0.368745 0.323215 0.000000
0.550198 0.324530 0.000000
0.725738 0.325845 0.000000
0.897087 0.327159 0.000000
1.000000 0.328472 0.000000
1.000000 0.329785 0.000000
1.000000 0.331097 0.000000
0.000000 0.463473 0.000000
0.158121 0.464741 0.000000
0.350934 0.466010 0.000000
0.533100 0.467277 0.000000
0.709115 0.468545 0.000000
0.880816 0.469812 0.000000
1.000000 0.471079 0.000000
1.000000 0.472345 0.000000
1.000000 0.473612 0.000000
0.000000 0.602012 0.000000
0.138659 0.603248 0.000000
0.333032 0.604483 0.000000
0.515948 0.605719 0.000000
0.692452 0.606954 0.000000
0.864515 0.608188 0.000000
1.000000 0.609423 0.000000
1.000000 0.610657 0.000000
1.000000 0.611891 0.000000
0.000000 0.737403 0.000000
0.118919 0.738614 0.000000
0.315033 0.739825 0.000000
0.498738 0.741036 0.000000
0.675749 0.742246 0.000000
0.848183 0.743456 0.000000
1.000000 0.744666 0.000000
1.000000 0.745876 0.000000
1.000000 0.747086 0.000000
0.000000 0.870338 0.000000
0.098844 0.871529 0.000000
0.296930 0.872720 0.000000
0.481469 0.873911 0.000000
0.659005 0.875102 0.000000
0.831820 0.876292 0.000000
1.000000 0.877483 0.000000
1.000000 0.878673 0.000000
1.000000 0.879863 0.000000
0.000000 1.000000 0.000000
0.078349 1.000000 0.000000
0.278717 1.000000 0.000000
0.464137 1.000000 0.000000
0.642218 1.000000 0.000000
0.815424 1.000000 0.000000
0.984997 1.000000 0.000000
1.000000 1.000000 0.000000
1.000000 1.000000 0.000000
0.000000 1.000000 0.000000
0.057296 1.000000 0.000000
0.260383 1.000000 0.000000
0.446741 1.000000 0.000000
0.625387 1.000000 0.000000
0.798995 1.000000 0.000000
0.968879 1.000000 0.000000
1.000000 1.000000 0.000000
1.000000 1.000000 0.000000
0.000000 0.000000 0.153955
0.170319 0.000000 0.152656
0.362221 0.000000 0.151356
0.543932 0.000000 0.150055
0.719644 0.000000 0.148753
0.891122 0.000000 0.147449
1.000000 0.000000 0.146145
1.000000 0.000000 0.144839
1.000000 0.000000 0.143532
0.000000 0.149591 0.152311
0.151011 0.151011 0.151011
0.344377 0.152430 0.149710
0.526814 0.153847 0.148407
0.703006 0.155263 0.147104
0.874840 0.156678 0.145799
1.000000 0.158091 0.144493
1.000000 0.159503 0.143186
1.000000 0.160914 0.141877
0.000000 0.300813 0.150666
0.131453 0.302138 0.149365
0.326440 0.303461 0.148062
0.509641 0.304785 0.146758
0.686329 0.306107 0.145453
0.858527 0.307430 0.144146
1.000000 0.308751 0.142839
1.000000 0.310072 0.141530
1.000000 0.311393 0.140220
0.000000 0.444438 0.149019
0.111597 0.445712 0.147716
0.308404 0.446986 0.146412
0.492410 0.448259 0.145106
0.669611 0.449531 0.143800
0.842184 0.450804 0.142492
1.000000 0.452076 0.141183
1.000000 0.453348 0.139873
1.000000 0.454619 0.138561
0.000000 0.583478 0.147370
0.091380 0.584718 0.146066
0.290262 0.585957 0.144760
0.475118 0.587197 0.143453
0.652852 0.588435 0.142145
0.825809 0.589674 0.140836
0.995189 0.590912 0.139525
1.000000 0.592151 0.138213
1.000000 0.593388 0.136900
0.000000 0.719247 0.145720
0.070700 0.720462 0.144414
0.272005 0.721675 0.143106
0.457763 0.722889 0.141798
0.636049 0.724102 0.140488
0.809401 0.725316 0.139177
0.979087 0.726529 0.137865
1.000000 0.727742 0.136552
1.000000 0.728954 0.135237
0.000000 0.852485 0.144067
0.049387 0.853678 0.142759
0.253625 0.854872 0.141451
0.440342 0.856065 0.140141
0.619201 0.857258 0.138829
0.792960 0.858451 0.137517
0.962959 0.859644 0.136203
1.000000 0.860836 0.134888
1.000000 0.862029 0.133572
0.000000 0.983662 0.142413
0.027070 0.984838 0.141103
0.235111 0.986015 0.139793
0.422852 0.987191 0.138482
0.602308 0.988368 0.137169
0.776485 0.989544 0.135855
0.946804 0.990720 0.134539
1.000000 0.991895 0.133223
1.000000 0.993071 0.131905
0.000000 1.000000 0.140756
0.002178 1.000000 0.139446
0.216450 1.000000 0.138134
0.405289 1.000000 0.136821
0.585367 1.000000 0.135506
0.759975 1.000000 0.134191
0.930622 1.000000 0.132874
1.000000 1.000000 0.131555
1.000000 1.000000 0.130236
0.000000 0.000000 0.289106
0.124206 0.000000 0.287887
0.319835 0.000000 0.286667
0.503327 0.000000 0.285447
0.680201 0.000000 0.284226
0.852535 0.000000 0.283004
1.000000 0.000000 0.281782
1.000000 0.000000 0.280560
1.000000 0.000000 0.279337
0.000000 0.128161 0.287563
0.104227 0.129603 0.286343
0.301761 0.131044 0.285123
0.486074 0.132482 0.283902
0.663468 0.133919 0.282680
0.836180 0.135355 0.281458
1.000000 0.136789 0.280236
1.000000 0.138222 0.279013
1.000000 0.139653 0.277789
0.000000 0.280912 0.286020
0.083854 0.282245 0.284799
0.283578 0.283578 0.283578
0.468759 0.284910 0.282356
0.646693 0.286242 0.281134
0.819793 0.287573 0.279912
0.989285 0.288904 0.278688
1.000000 0.290233 0.277465
1.000000 0.291563 0.276240
0.000000 0.425322 0.284476
0.062968 0.426601 0.283254
0.265278 0.427880 0.282032
0.451380 0.429159 0.280810
0.629874 0.430437 0.279587
0.803374 0.431715 0.278364
0.973174 0.432993 0.277140
1.000000 0.434270 0.275915
1.000000 0.435547 0.274690
0.000000 0.564886 0.282930
0.041348 0.566129 0.281708
0.246850 0.567373 0.280486
0.433934 0.568616 0.279263
0.613010 0.569859 0.278039
0.786920 0.571101 0.276815
0.957036 0.572344 0.275591
1.000000 0.573586 0.274366
1.000000 0.574828 0.273140
0.000000 0.701046 0.281384
0.018454 0.702263 0.280162
0.228283 0.703480 0.278939
0.416418 0.704697 0.277715
0.596099 0.705913 0.276491
0.770432 0.707130 0.275266
0.940871 0.708346 0.274041
1.000000 0.709562 0.272815
1.000000 0.710777 0.271588
0.000000 0.834593 0.279837
0.000000 0.835790 0.278614
0.209564 0.836986 0.277390
0.398827 0.838181 0.276166
0.579140 0.839377 0.274941
0.753909 0.840572 0.273716
0.924678 0.841768 0.272490
1.000000 0.842963 0.271263
1.000000 0.844158 0.270036
0.000000 0.966028 0.278290
0.000000 0.967206 0.277066
0.190676 0.968385 0.275841
0.381159 0.969564 0.274616
0.562132 0.970742 0.273391
0.737349 0.971920 0.272164
0.908457 0.973098 0.270938
1.000000 0.974276 0.269710
1.000000 0.975454 0.268483
0.000000 1.000000 0.276741
0.000000 1.000000 0.275516
0.171599 1.000000 0.274291
0.363408 1.000000 0.273066
0.545072 1.000000 0.271839
0.720753 1.000000 0.270612
0.892206 1.000000 0.269385
1.000000 1.000000 0.268157
1.000000 1.000000 0.266928
0.000000 0.000000 0.417965
0.076260 0.000000 0.416790
0.276879 0.000000 0.415615
0.462391 0.000000 0.414439
0.640528 0.000000 0.413263
0.813774 0.000000 0.412086
0.983377 0.000000 0.410910
1.000000 0.000000 0.409733
1.000000 0.000000 0.408555
0.000000 0.106365 0.416479
0.055139 0.107834 0.415303
0.258533 0.109301 0.414127
0.444988 0.110765 0.412951
0.623692 0.112228 0.411774
0.797342 0.113690 0.410598
0.967257 0.115149 0.409420
1.000000 0.116606 0.408243
1.000000 0.118062 0.407065
0.000000 0.260868 0.414991
0.033149 0.262212 0.413815
0.240055 0.263554 0.412639
0.427517 0.264896 0.411462
0.606811 0.266238 0.410286
0.780876 0.267578 0.409108
0.951109 0.268918 0.407931
1.000000 0.270258 0.406753
1.000000 0.271596 0.405574
0.000000 0.406119 0.413503
0.009394 0.407404 0.412327
0.221435 0.408689 0.411150
0.409973 0.409973 0.409973
0.589883 0.411258 0.408796
0.764375 0.412541 0.407618
0.934934 0.413825 0.406440
1.000000 0.415108 0.405262
1.000000 0.416390 0.404083
0.000000 0.546231 0.412015
0.000000 0.547479 0.410838
0.202656 0.548727 0.409661
0.392355 0.549974 0.408484
0.572907 0.551221 0.407306
0.747838 0.552468 0.406128
0.918731 0.553714 0.404949
1.000000 0.554961 0.403771
1.000000 0.556207 0.402591
0.000000 0.682797 0.410526
0.000000 0.684017 0.409349
0.183701 0.685237 0.408172
0.374657 0.686457 0.406994
0.555879 0.687677 0.405815
0.731265 0.688896 0.404637
0.902499 0.690116 0.403458
1.000000 0.691335 0.402279
1.000000 0.692554 0.401099
0.000000 0.816664 0.409037
0.000000 0.817863 0.407859
0.164548 0.819061 0.406681
0.356875 0.820260 0.405503
0.538800 0.821458 0.404324
0.714654 0.822656 0.403145
0.886238 0.823854 0.401966
1.000000 0.825052 0.400786
1.000000 0.826249 0.399606
0.000000 0.948361 0.407547
0.000000 0.949542 0.406369
0.145169 0.950723 0.405190
0.339003 0.951904 0.404012
0.521666 0.953084 0.402833
0.698005 0.954265 0.401653
0.869947 0.955445 0.400473
1.000000 0.956625 0.399293
1.000000 0.957805 0.398113
0.000000 1.000000 0.406056
0.000000 1.000000 0.404878
0.125527 1.000000 0.403699
0.321037 1.000000 0.402520
0.504475 1.000000 0.401340
0.681316 1.000000 0.400161
0.853625 1.000000 0.398980
1.000000 1.000000 0.397800
1.000000 1.000000 0.396619
0.000000 0.000000 0.542901
0.024740 0.000000 0.541757
0.233242 0.000000 0.540612
0.421089 0.000000 0.539466
0.600607 0.000000 0.538321
0.774826 0.000000 0.537175
0.945178 0.000000 0.536029
1.000000 0.000000 0.534883
1.000000 0.000000 0.533737
0.000000 0.084108 0.541453
0.000000 0.085612 0.540308
0.214565 0.087113 0.539163
0.403519 0.088611 0.538017
0.583661 0.090107 0.536871
0.758313 0.091600 0.535725
0.928993 0.093091 0.534579
1.000000 0.094579 0.533433
1.000000 0.096065 0.532286
0.000000 0.240669 0.540004
0.000000 0.242023 0.538859
0.195723 0.243377 0.537713
0.385872 0.244730 0.536568
0.566666 0.246082 0.535422
0.741763 0.247433 0.534275
0.912779 0.248783 0.533129
1.000000 0.250133 0.531982
1.000000 0.251482 0.530835
0.000000 0.386824 0.538555
0.000000 0.388116 0.537410
0.176699 0.389407 0.536264
0.368143 0.390698 0.535118
0.549620 0.391988 0.533971
0.725176 0.393278 0.532825
0.896537 0.394568 0.531678
1.000000 0.395857 0.530531
1.000000 0.397145 0.529383
0.000000 0.527513 0.537106
0.000000 0.528766 0.535960
0.157467 0.530018 0.534814
0.350329 0.531269 0.533667
0.532521 0.532521 0.532521
0.708551 0.533772 0.531374
0.880265 0.535022 0.530226
1.000000 0.536273 0.529079
1.000000 0.537523 0.527931
0.000000 0.664499 0.535656
0.000000 0.665722 0.534510
0.137996 0.666946 0.533363
0.332424 0.668169 0.532216
0.515366 0.669392 0.531069
0.691887 0.670615 0.529922
0.863963 0.671838 0.528775
1.000000 0.673060 0.527627
1.000000 0.674282 0.526479
0.000000 0.798695 0.534206
0.000000 0.799896 0.533059
0.118245 0.801098 0.531912
0.314421 0.802299 0.530765
0.498155 0.803500 0.529618
0.675183 0.804700 0.528470
0.847630 0.805901 0.527323
1.000000 0.807101 0.526175
1.000000 0.808301 0.525026
0.000000 0.930662 0.532755
0.000000 0.931845 0.531608
0.098157 0.933028 0.530461
0.296315 0.934211 0.529314
0.480883 0.935394 0.528166
0.658437 0.936577 0.527018
0.831265 0.937759 0.525870
1.000000 0.938941 0.524722
1.000000 0.940123 0.523573
0.000000 1.000000 0.531304
0.000000 1.000000 0.530157
0.077646 1.000000 0.529009
0.278098 1.000000 0.527862
0.463550 1.000000 0.526714
0.641649 1.000000 0.525566
0.814868 1.000000 0.524417
0.984452 1.000000 0.523268
1.000000 1.000000 0.522120
0.000000 0.000000 0.664999
0.000000 0.000000 0.663877
0.188767 0.000000 0.662755
0.379378 0.000000 0.661633
0.560419 0.000000 0.660511
0.735682 0.000000 0.659388
0.906824 0.000000 0.658266
1.000000 0.000000 0.657143
1.000000 0.000000 0.656020
0.000000 0.061238 0.663580
0.000000 0.062790 0.662458
0.169669 0.064337 0.661336
0.361618 0.065881 0.660213
0.543353 0.067421 0.659091
0.719082 0.068958 0.657968
0.890571 0.070491 0.656845
1.000000 0.072021 0.655722
1.000000 0.073548 0.654599
0.000000 0.220299 0.662160
0.000000 0.221665 0.661038
0.150353 0.223031 0.659916
0.343771 0.224395 0.658793
0.526234 0.225759 0.657670
0.702442 0.227122 0.656547
0.874288 0.228484 0.655424
1.000000 0.229845 0.654301
1.000000 0.231206 0.653177
0.000000 0.367433 0.660740
0.000000 0.368731 0.659618
0.130785 0.370029 0.658495
0.325831 0.371327 0.657373
0.509059 0.372624 0.656250
0.685764 0.373920 0.655126
0.857974 0.375216 0.654003
1.000000 0.376512 0.652879
1.000000 0.377807 0.651756
0.000000 0.508729 0.659320
0.000000 0.509985 0.658198
0.110919 0.511242 0.657075
0.307792 0.512498 0.655952
0.491826 0.513754 0.654829
0.669045 0.515009 0.653705
0.841630 0.516265 0.652581
1.000000 0.517520 0.651458
1.000000 0.518774 0.650334
0.000000 0.646150 0.657900
0.000000 0.647377 0.656777
0.090688 0.648604 0.655654
0.289646 0.649831 0.654531
0.474532 0.651057 0.653407
0.652283 0.652283 0.652283
0.825254 0.653509 0.651160
0.994644 0.654735 0.650036
1.000000 0.655961 0.648911
0.000000 0.780686 0.656479
0.000000 0.781890 0.655356
0.069991 0.783094 0.654233
0.271385 0.784297 0.653109
0.457175 0.785501 0.651986
0.635479 0.786704 0.650862
0.808845 0.787908 0.649737
0.978542 0.789111 0.648613
1.000000 0.790314 0.647489
0.000000 0.912929 0.655058
0.000000 0.914114 0.653935
0.048651 0.915300 0.652811
0.253001 0.916485 0.651688
0.439751 0.917670 0.650564
0.618630 0.918855 0.649439
0.792403 0.920040 0.648315
0.962413 0.921224 0.647190
1.000000 0.922408 0.646066
0.000000 1.000000 0.653637
0.000000 1.000000 0.652513
0.026288 1.000000 0.651390
0.234482 1.000000 0.650265
0.422259 1.000000 0.649141
0.601735 1.000000 0.648017
0.775927 1.000000 0.646892
0.946257 1.000000 0.645767
1.000000 1.000000 0.644642
0.000000 0.000000 0.784881
0.000000 0.000000 0.783778
0.143206 0.000000 0.782674
0.337201 0.000000 0.781571
0.519940 0.000000 0.780467
0.696329 0.000000 0.779363
0.868307 0.000000 0.778259
1.000000 0.000000 0.777155
1.000000 0.000000 0.776051
0.000000 0.037453 0.783485
0.000000 0.039081 0.782382
0.123535 0.040703 0.781278
0.319225 0.042317 0.780174
0.502744 0.043926 0.779070
0.679635 0.045529 0.777966
0.851982 0.047126 0.776862
1.000000 0.048718 0.775758
1.000000 0.050305 0.774653
0.000000 0.199738 0.782089
0.000000 0.201118 0.780985
0.103544 0.202497 0.779882
0.301148 0.203875 0.778778
0.485489 0.205251 0.777674
0.662901 0.206627 0.776569
0.835626 0.208002 0.775465
1.000000 0.209376 0.774360
1.000000 0.210750 0.773256
0.000000 0.347939 0.780693
0.000000 0.349245 0.779589
0.083156 0.350549 0.778485
0.282961 0.351854 0.777381
0.468172 0.353158 0.776277
0.646124 0.354461 0.775172
0.819238 0.355764 0.774067
0.988740 0.357067 0.772963
1.000000 0.358369 0.771858
0.000000 0.489874 0.779296
0.000000 0.491136 0.778192
0.062250 0.492397 0.777088
0.264656 0.493658 0.775984
0.450791 0.494918 0.774879
0.629303 0.496179 0.773775
0.802817 0.497439 0.772670
0.972628 0.498698 0.771565
1.000000 0.499958 0.770460
0.000000 0.627749 0.777899
0.000000 0.628980 0.776795
0.040599 0.630210 0.775691
0.246223 0.631441 0.774586
0.433342 0.632671 0.773482
0.612438 0.633900 0.772377
0.786363 0.635130 0.771272
0.956489 0.636359 0.770166
1.000000 0.637588 0.769061
0.000000 0.762634 0.776502
0.000000 0.763841 0.775398
0.017640 0.765048 0.774293
0.227652 0.766255 0.773189
0.415823 0.767461 0.772084
0.595526 0.768667 0.770979
0.769873 0.769873 0.769873
0.940323 0.771079 0.768768
1.000000 0.772285 0.767662
0.000000 0.895161 0.775105
0.000000 0.896349 0.774000
0.000000 0.897537 0.772896
0.208927 0.898724 0.771791
0.398230 0.899912 0.770686
0.578565 0.901099 0.769580
0.753349 0.902286 0.768475
0.924129 0.903473 0.767369
1.000000 0.904660 0.766264
0.000000 1.000000 0.773708
0.000000 1.000000 0.772603
0.000000 1.000000 0.771498
0.190033 1.000000 0.770393
0.380559 1.000000 0.769287
0.561555 1.000000 0.768182
0.736788 1.000000 0.767076
0.907907 1.000000 0.765970
1.000000 1.000000 0.764864
0.000000 0.000000 0.902952
0.000000 0.000000 0.901864
0.096116 0.000000 0.900776
0.294489 0.000000 0.899688
0.479143 0.000000 0.898599
0.656751 0.000000 0.897511
0.829618 0.000000 0.896422
0.998927 0.000000 0.895334
1.000000 0.000000 0.894245
0.000000 0.011870 0.901575
0.000000 0.013687 0.900487
0.075556 0.015480 0.899399
0.276260 0.017253 0.898311
0.461803 0.019007 0.897222
0.639958 0.020746 0.896134
0.813218 0.022469 0.895045
0.982832 0.024180 0.893956
1.000000 0.025879 0.892867
0.000000 0.178964 0.900199
0.000000 0.180358 0.899111
0.054411 0.181752 0.898022
0.257909 0.183145 0.896934
0.444398 0.184536 0.895845
0.623122 0.185927 0.894756
0.796785 0.187316 0.893667
0.966710 0.188705 0.892578
1.000000 0.190092 0.891489
0.000000 0.328335 0.898822
0.000000 0.329648 0.897734
0.032383 0.330961 0.896645
0.239427 0.332273 0.895556
0.426924 0.333584 0.894468
0.606239 0.334895 0.893379
0.780318 0.336205 0.892290
0.950562 0.337515 0.891201
1.000000 0.338824 0.890111
0.000000 0.470947 0.897445
0.000000 0.472214 0.896356
0.008521 0.473480 0.895268
0.220801 0.474746 0.894179
0.409378 0.476011 0.893090
0.589309 0.477276 0.892001
0.763816 0.478541 0.890912
0.934386 0.479806 0.889822
1.000000 0.481070 0.888733
0.000000 0.609294 0.896068
0.000000 0.610529 0.894979
0.000000 0.611763 0.893890
0.202017 0.612997 0.892801
0.391757 0.614230 0.891712
0.572331 0.615464 0.890623
0.747278 0.616697 0.889533
0.918181 0.617930 0.888444
1.000000 0.619162 0.887354
0.000000 0.744541 0.894690
0.000000 0.745750 0.893601
0.000000 0.746960 0.892512
0.183056 0.748170 0.891423
0.374056 0.749379 0.890334
0.555302 0.750588 0.889245
0.730703 0.751797 0.888155
0.901949 0.753005 0.887065
1.000000 0.754214 0.885976
0.000000 0.877359 0.893313
0.000000 0.878549 0.892224
0.000000 0.879739 0.891135
0.163896 0.880929 0.890045
0.356271 0.882118 0.888956
0.538221 0.883308 0.887866
0.714091 0.884497 0.886776
0.885687 0.885687 0.885687
1.000000 0.886876 0.884597
0.000000 1.000000 0.891935
0.000000 1.000000 0.890846
0.000000 1.000000 0.889756
0.144508 1.000000 0.888667
0.338397 1.000000 0.887577
0.521085 1.000000 0.886487
0.697441 1.000000 0.885398
0.869395 1.000000 0.884308
1.000000 1.000000 0.883217
0.000000 0.000000 1.000000
0.000000 0.000000 1.000000
0.046458 0.000000 1.000000
0.251145 0.000000 1.000000
0.437996 0.000000 1.000000
0.616934 0.000000 1.000000
0.790748 0.000000 1.000000
0.960789 0.000000 1.000000
1.000000 0.000000 1.000000
0.000000 0.000000 1.000000
0.000000 0.000000 1.000000
0.023950 0.000000 1.000000
0.232612 0.000000 1.000000
0.420496 0.000000 1.000000
0.600034 0.000000 1.000000
0.774268 0.000000 1.000000
0.944631 0.000000 1.000000
1.000000 0.000000 1.000000
0.000000 0.157944 1.000000
0.000000 0.159356 1.000000
0.000000 0.160767 1.000000
0.213930 0.162177 1.000000
0.402923 0.163586 1.000000
0.583087 0.164993 1.000000
0.757753 0.166399 1.000000
0.928444 0.167804 1.000000
1.000000 0.169208 1.000000
0.000000 0.308614 1.000000
0.000000 0.309935 1.000000
0.000000 0.311255 1.000000
0.195082 0.312575 1.000000
0.385273 0.313895 1.000000
0.566090 0.315213 1.000000
0.741202 0.316532 1.000000
0.912230 0.317849 1.000000
1.000000 0.319167 1.000000
0.000000 0.451943 1.000000
0.000000 0.453215 1.000000
0.000000 0.454487 1.000000
0.176051 0.455758 1.000000
0.367542 0.457028 1.000000
0.549042 0.458299 1.000000
0.724614 0.459568 1.000000
0.895986 0.460838 1.000000
1.000000 0.462107 1.000000
0.000000 0.590784 1.000000
0.000000 0.592022 1.000000
0.000000 0.593260 1.000000
0.156811 0.594497 1.000000
0.349724 0.595735 1.000000
0.531941 0.596972 1.000000
0.707988 0.598209 1.000000
0.879713 0.599445 1.000000
1.000000 0.600682 1.000000
0.000000 0.726402 1.000000
0.000000 0.727615 1.000000
0.000000 0.728828 1.000000
0.137332 0.730040 1.000000
0.331816 0.731253 1.000000
0.514784 0.732465 1.000000
0.691322 0.733677 1.000000
0.863410 0.734888 1.000000
1.000000 0.736100 1.000000
0.000000 0.859520 1.000000
0.000000 0.860712 1.000000
0.000000 0.861905 1.000000
0.117571 0.863097 1.000000
0.313810 0.864289 1.000000
0.497571 0.865481 1.000000
0.674617 0.866673 1.000000
0.847076 0.867865 1.000000
1.000000 0.869056 1.000000
0.000000 0.990597 1.000000
0.000000 0.991773 1.000000
0.000000 0.992949 1.000000
0.097471 0.994124 1.000000
0.295700 0.995300 1.000000
0.480297 0.996475 1.000000
0.657870 0.997650 1.000000
0.830711 0.998825 1.000000
1.000000 1.000000 1.000000
