presets/film_stocks/Ilfochrome_Micrographic_M.cube
# 独寻胶片模拟 -- Ilfochrome Micrographic M
# Ilford, ISO 0, 0, positive
TITLE "Ilfochrome Micrographic M"
LUT_3D_SIZE 33
DOMAIN_MIN 0.0 0.0 0.0
DOMAIN_MAX 1.0 1.0 1.0
0.000000 0.000000 0.000000
0.084106 0.002775 0.000000
0.141633 0.004673 0.000000
0.192116 0.006339 0.000000
0.238508 0.007869 0.000000
0.282077 0.009307 0.000000
0.323521 0.010674 0.000000
0.363277 0.011986 0.000000
0.401644 0.013252 0.000000
0.438836 0.014479 0.000000
0.475014 0.015672 0.000000
0.510303 0.016837 0.000000
0.544805 0.017975 0.000000
0.578599 0.019090 0.000000
0.611754 0.020184 0.000000
0.644326 0.021259 0.000000
0.676363 0.022316 0.000000
0.707907 0.023356 0.000000
0.738993 0.024382 0.000000
0.769654 0.025394 0.000000
0.799916 0.026392 0.000000
0.829805 0.027378 0.000000
0.859343 0.028353 0.000000
0.888550 0.029316 0.000000
0.917443 0.030270 0.000000
0.946039 0.031213 0.000000
0.974353 0.032147 0.000000
1.000000 0.033073 0.000000
1.000000 0.033990 0.000000
1.000000 0.034898 0.000000
1.000000 0.035799 0.000000
1.000000 0.036693 0.000000
1.000000 0.037579 0.000000
0.000000 0.077160 0.000000
0.079502 0.077855 0.000000
0.137775 0.078548 0.000000
0.188633 0.079240 0.000000
0.235267 0.079929 0.000000
0.279012 0.080616 0.000000
0.320592 0.081302 0.000000
0.360459 0.081985 0.000000
0.398918 0.082667 0.000000
0.436189 0.083347 0.000000
0.472435 0.084025 0.000000
0.507785 0.084701 0.000000
0.542341 0.085375 0.000000
0.576184 0.086048 0.000000
0.609383 0.086719 0.000000
0.641995 0.087388 0.000000
0.674069 0.088055 0.000000
0.705647 0.088721 0.000000
0.736765 0.089385 0.000000
0.767456 0.090048 0.000000
0.797746 0.090709 0.000000
0.827661 0.091368 0.000000
0.857224 0.092026 0.000000
0.886454 0.092682 0.000000
0.915369 0.093337 0.000000
0.943986 0.093990 0.000000
0.972319 0.094642 0.000000
1.000000 0.095292 0.000000
1.000000 0.095941 0.000000
1.000000 0.096588 0.000000
1.000000 0.097234 0.000000
1.000000 0.097879 0.000000
1.000000 0.098522 0.000000
0.000000 0.129936 0.000000
0.074809 0.130522 0.000000
0.133881 0.131107 0.000000
0.185128 0.131691 0.000000
0.232011 0.132274 0.000000
0.275936 0.132857 0.000000
0.317655 0.133438 0.000000
0.357634 0.134019 0.000000
0.396186 0.134599 0.000000
0.433536 0.135178 0.000000
0.469852 0.135757 0.000000
0.505263 0.136334 0.000000
0.539873 0.136911 0.000000
0.573765 0.137487 0.000000
0.607008 0.138062 0.000000
0.639661 0.138636 0.000000
0.671773 0.139210 0.000000
0.703385 0.139782 0.000000
0.734535 0.140354 0.000000
0.765256 0.140926 0.000000
0.795574 0.141496 0.000000
0.825516 0.142066 0.000000
0.855103 0.142635 0.000000
0.884356 0.143203 0.000000
0.913294 0.143770 0.000000
0.941932 0.144337 0.000000
0.970285 0.144903 0.000000
0.998367 0.145468 0.000000
1.000000 0.146033 0.000000
1.000000 0.146597 0.000000
1.000000 0.147160 0.000000
1.000000 0.147722 0.000000
1.000000 0.148284 0.000000
0.000000 0.176250 0.000000
0.070017 0.176780 0.000000
0.129949 0.177309 0.000000
0.181601 0.177838 0.000000
0.228740 0.178366 0.000000
0.272848 0.178894 0.000000
0.314708 0.179422 0.000000
0.354801 0.179948 0.000000
0.393448 0.180475 0.000000
0.430879 0.181001 0.000000
0.467264 0.181526 0.000000
0.502737 0.182051 0.000000
0.537401 0.182575 0.000000
0.571343 0.183099 0.000000
0.604631 0.183622 0.000000
0.637324 0.184145 0.000000
0.669474 0.184668 0.000000
0.701121 0.185189 0.000000
0.732303 0.185711 0.000000
0.763054 0.186232 0.000000
0.793400 0.186752 0.000000
0.823368 0.187272 0.000000
0.852980 0.187792 0.000000
0.882257 0.188311 0.000000
0.911217 0.188829 0.000000
0.939876 0.189347 0.000000
0.968249 0.189865 0.000000
0.996351 0.190382 0.000000
1.000000 0.190899 0.000000
1.000000 0.191415 0.000000
1.000000 0.191930 0.000000
1.000000 0.192446 0.000000
1.000000 0.192961 0.000000
0.000000 0.218810 0.000000
0.065113 0.219303 0.000000
0.125978 0.219797 0.000000
0.178051 0.220289 0.000000
0.225454 0.220782 0.000000
0.269749 0.221274 0.000000
0.311753 0.221766 0.000000
0.351961 0.222257 0.000000
0.390703 0.222748 0.000000
0.428216 0.223238 0.000000
0.464672 0.223729 0.000000
0.500206 0.224219 0.000000
0.534926 0.224708 0.000000
0.568917 0.225197 0.000000
0.602250 0.225686 0.000000
0.634985 0.226175 0.000000
0.667172 0.226663 0.000000
0.698854 0.227151 0.000000
0.730069 0.227638 0.000000
0.760849 0.228125 0.000000
0.791224 0.228612 0.000000
0.821219 0.229099 0.000000
0.850856 0.229585 0.000000
0.880156 0.230070 0.000000
0.909138 0.230556 0.000000
0.937818 0.231041 0.000000
0.966212 0.231526 0.000000
0.994332 0.232010 0.000000
1.000000 0.232494 0.000000
1.000000 0.232978 0.000000
1.000000 0.233461 0.000000
1.000000 0.233944 0.000000
1.000000 0.234427 0.000000
0.000000 0.258781 0.000000
0.060085 0.259248 0.000000
0.121965 0.259714 0.000000
0.174478 0.260181 0.000000
0.222151 0.260647 0.000000
0.266638 0.261113 0.000000
0.308788 0.261578 0.000000
0.349113 0.262044 0.000000
0.387952 0.262509 0.000000
0.425547 0.262973 0.000000
0.462074 0.263438 0.000000
0.497672 0.263902 0.000000
0.532447 0.264366 0.000000
0.566488 0.264830 0.000000
0.599867 0.265293 0.000000
0.632643 0.265756 0.000000
0.664868 0.266219 0.000000
0.696585 0.266682 0.000000
0.727832 0.267144 0.000000
0.758643 0.267606 0.000000
0.789046 0.268068 0.000000
0.819067 0.268530 0.000000
0.848730 0.268991 0.000000
0.878054 0.269452 0.000000
0.907058 0.269913 0.000000
0.935759 0.270373 0.000000
0.964173 0.270834 0.000000
0.992313 0.271294 0.000000
1.000000 0.271753 0.000000
1.000000 0.272213 0.000000
1.000000 0.272672 0.000000
1.000000 0.273131 0.000000
1.000000 0.273590 0.000000
0.000000 0.296802 0.000000
0.054913 0.297248 0.000000
0.117907 0.297694 0.000000
0.170881 0.298140 0.000000
0.218833 0.298586 0.000000
0.263515 0.299031 0.000000
0.305814 0.299476 0.000000
0.346257 0.299921 0.000000
0.385195 0.300366 0.000000
0.422873 0.300811 0.000000
0.459472 0.301255 0.000000
0.495133 0.301699 0.000000
0.529964 0.302143 0.000000
0.564056 0.302587 0.000000
0.597480 0.303031 0.000000
0.630298 0.303474 0.000000
0.662561 0.303917 0.000000
0.694313 0.304360 0.000000
0.725593 0.304802 0.000000
0.756435 0.305245 0.000000
0.786866 0.305687 0.000000
0.816914 0.306129 0.000000
0.846602 0.306571 0.000000
0.875949 0.307012 0.000000
0.904976 0.307454 0.000000
0.933699 0.307895 0.000000
0.962133 0.308336 0.000000
0.990292 0.308777 0.000000
1.000000 0.309217 0.000000
1.000000 0.309658 0.000000
1.000000 0.310098 0.000000
1.000000 0.310538 0.000000
1.000000 0.310977 0.000000
0.000000 0.333275 0.000000
0.049575 0.333704 0.000000
0.113803 0.334134 0.000000
0.167258 0.334563 0.000000
0.215497 0.334992 0.000000
0.260380 0.335421 0.000000
0.302830 0.335850 0.000000
0.343394 0.336278 0.000000
0.382431 0.336706 0.000000
0.420193 0.337135 0.000000
0.456865 0.337563 0.000000
0.492589 0.337990 0.000000
0.527478 0.338418 0.000000
0.561620 0.338845 0.000000
0.595090 0.339273 0.000000
0.627950 0.339700 0.000000
0.660251 0.340127 0.000000
0.692039 0.340553 0.000000
0.723352 0.340980 0.000000
0.754224 0.341406 0.000000
0.784684 0.341833 0.000000
0.814759 0.342259 0.000000
0.844472 0.342684 0.000000
0.873844 0.343110 0.000000
0.902893 0.343536 0.000000
0.931637 0.343961 0.000000
0.960091 0.344386 0.000000
0.988270 0.344811 0.000000
1.000000 0.345236 0.000000
1.000000 0.345660 0.000000
1.000000 0.346085 0.000000
1.000000 0.346509 0.000000
1.000000 0.346933 0.000000
0.000000 0.368473 0.000000
0.044040 0.368888 0.000000
0.109650 0.369304 0.000000
0.163609 0.369719 0.000000
0.212145 0.370134 0.000000
0.257232 0.370549 0.000000
0.299836 0.370964 0.000000
0.340523 0.371379 0.000000
0.379661 0.371793 0.000000
0.417508 0.372208 0.000000
0.454253 0.372622 0.000000
0.490042 0.373036 0.000000
0.524987 0.373450 0.000000
0.559180 0.373864 0.000000
0.592697 0.374277 0.000000
0.625599 0.374691 0.000000
0.657939 0.375104 0.000000
0.689763 0.375517 0.000000
0.721109 0.375930 0.000000
0.752011 0.376343 0.000000
0.782500 0.376756 0.000000
0.812602 0.377169 0.000000
0.842340 0.377581 0.000000
0.871736 0.377993 0.000000
0.900808 0.378405 0.000000
0.929574 0.378817 0.000000
0.958048 0.379229 0.000000
0.986246 0.379641 0.000000
1.000000 0.380052 0.000000
1.000000 0.380464 0.000000
1.000000 0.380875 0.000000
1.000000 0.381286 0.000000
1.000000 0.381697 0.000000
0.000000 0.402593 0.000000
0.038264 0.402996 0.000000
0.105444 0.403400 0.000000
0.159934 0.403803 0.000000
0.208775 0.404207 0.000000
0.254071 0.404610 0.000000
0.296832 0.405013 0.000000
0.337643 0.405415 0.000000
0.376883 0.405818 0.000000
0.414817 0.406221 0.000000
0.451636 0.406623 0.000000
0.487490 0.407026 0.000000
0.522493 0.407428 0.000000
0.556738 0.407830 0.000000
0.590301 0.408232 0.000000
0.623245 0.408634 0.000000
0.655624 0.409035 0.000000
0.687484 0.409437 0.000000
0.718863 0.409838 0.000000
0.749797 0.410239 0.000000
0.780314 0.410641 0.000000
0.810443 0.411042 0.000000
0.840207 0.411443 0.000000
0.869627 0.411843 0.000000
0.898721 0.412244 0.000000
0.927509 0.412644 0.000000
0.956004 0.413045 0.000000
0.984221 0.413445 0.000000
1.000000 0.413845 0.000000
1.000000 0.414245 0.000000
1.000000 0.414645 0.000000
1.000000 0.415045 0.000000
1.000000 0.415444 0.000000
0.000000 0.435783 0.000000
0.032184 0.436176 0.000000
0.101182 0.436569 0.000000
0.156230 0.436962 0.000000
0.205386 0.437355 0.000000
0.250898 0.437748 0.000000
0.293819 0.438140 0.000000
0.334756 0.438533 0.000000
0.374099 0.438925 0.000000
0.412120 0.439318 0.000000
0.449014 0.439710 0.000000
0.484933 0.440102 0.000000
0.519994 0.440494 0.000000
0.554291 0.440886 0.000000
0.587901 0.441278 0.000000
0.620888 0.441669 0.000000
0.653306 0.442061 0.000000
0.685202 0.442452 0.000000
0.716615 0.442843 0.000000
0.747580 0.443234 0.000000
0.778127 0.443626 0.000000
0.808283 0.444016 0.000000
0.838072 0.444407 0.000000
0.867516 0.444798 0.000000
0.896633 0.445189 0.000000
0.925442 0.445579 0.000000
0.953958 0.445969 0.000000
0.982195 0.446360 0.000000
1.000000 0.446750 0.000000
1.000000 0.447140 0.000000
1.000000 0.447530 0.000000
1.000000 0.447920 0.000000
1.000000 0.448309 0.000000
0.000000 0.468158 0.000000
0.025694 0.468542 0.000000
0.096860 0.468926 0.000000
0.152497 0.469310 0.000000
0.201980 0.469694 0.000000
0.247711 0.470077 0.000000
0.290795 0.470461 0.000000
0.331860 0.470844 0.000000
0.371309 0.471227 0.000000
0.409417 0.471611 0.000000
0.446387 0.471994 0.000000
0.482373 0.472377 0.000000
0.517492 0.472760 0.000000
0.551841 0.473143 0.000000
0.585498 0.473525 0.000000
0.618528 0.473908 0.000000
0.650986 0.474290 0.000000
0.682918 0.474673 0.000000
0.714364 0.475055 0.000000
0.745360 0.475437 0.000000
0.775937 0.475819 0.000000
0.806120 0.476201 0.000000
0.835935 0.476583 0.000000
0.865403 0.476965 0.000000
0.894544 0.477347 0.000000
0.923374 0.477728 0.000000
0.951910 0.478110 0.000000
0.980167 0.478491 0.000000
1.000000 0.478873 0.000000
1.000000 0.479254 0.000000
1.000000 0.479635 0.000000
1.000000 0.480016 0.000000
1.000000 0.480397 0.000000
0.000000 0.499810 0.000000
0.018603 0.500186 0.000000
0.092473 0.500562 0.000000
0.148733 0.500937 0.000000
0.198554 0.501313 0.000000
0.244510 0.501688 0.000000
0.287761 0.502064 0.000000
0.328956 0.502439 0.000000
0.368511 0.502814 0.000000
0.406708 0.503189 0.000000
0.443755 0.503564 0.000000
0.479807 0.503939 0.000000
0.514986 0.504314 0.000000
0.549388 0.504689 0.000000
0.583092 0.505063 0.000000
0.616166 0.505438 0.000000
0.648663 0.505812 0.000000
0.680631 0.506187 0.000000
0.712112 0.506561 0.000000
0.743139 0.506935 0.000000
0.773745 0.507309 0.000000
0.803956 0.507683 0.000000
0.833796 0.508057 0.000000
0.863289 0.508431 0.000000
0.892452 0.508805 0.000000
0.921305 0.509179 0.000000
0.949862 0.509552 0.000000
0.978138 0.509926 0.000000
1.000000 0.510299 0.000000
1.000000 0.510672 0.000000
1.000000 0.511045 0.000000
1.000000 0.511419 0.000000
1.000000 0.511792 0.000000
0.000000 0.530813 0.000000
0.010434 0.531182 0.000000
0.088016 0.531550 0.000000
0.144938 0.531918 0.000000
0.195109 0.532287 0.000000
0.241296 0.532655 0.000000
0.284716 0.533023 0.000000
0.326044 0.533391 0.000000
0.365706 0.533759 0.000000
0.403994 0.534126 0.000000
0.441118 0.534494 0.000000
0.477237 0.534862 0.000000
0.512475 0.535229 0.000000
0.546930 0.535597 0.000000
0.580683 0.535964 0.000000
0.613800 0.536331 0.000000
0.646337 0.536699 0.000000
0.678342 0.537066 0.000000
0.709857 0.537433 0.000000
0.740915 0.537800 0.000000
0.771550 0.538167 0.000000
0.801789 0.538534 0.000000
0.831656 0.538900 0.000000
0.861173 0.539267 0.000000
0.890359 0.539633 0.000000
0.919234 0.540000 0.000000
0.947811 0.540366 0.000000
0.976108 0.540733 0.000000
1.000000 0.541099 0.000000
1.000000 0.541465 0.000000
1.000000 0.541831 0.000000
1.000000 0.542197 0.000000
1.000000 0.542563 0.000000
0.000000 0.561230 0.000000
0.000000 0.561592 0.000000
0.083484 0.561953 0.000000
0.141110 0.562315 0.000000
0.191643 0.562676 0.000000
0.238068 0.563038 0.000000
0.281660 0.563399 0.000000
0.323123 0.563761 0.000000
0.362894 0.564122 0.000000
0.401273 0.564483 0.000000
0.438476 0.564844 0.000000
0.474663 0.565205 0.000000
0.509961 0.565566 0.000000
0.544469 0.565927 0.000000
0.578270 0.566288 0.000000
0.611431 0.566648 0.000000
0.644009 0.567009 0.000000
0.676051 0.567369 0.000000
0.707599 0.567730 0.000000
0.738690 0.568090 0.000000
0.769354 0.568451 0.000000
0.799621 0.568811 0.000000
0.829514 0.569171 0.000000
0.859055 0.569531 0.000000
0.888265 0.569891 0.000000
0.917161 0.570251 0.000000
0.945760 0.570611 0.000000
0.974076 0.570971 0.000000
1.000000 0.571330 0.000000
1.000000 0.571690 0.000000
1.000000 0.572049 0.000000
1.000000 0.572409 0.000000
1.000000 0.572768 0.000000
0.000000 0.591112 0.000000
0.000000 0.591467 0.000000
0.078869 0.591823 0.000000
0.137247 0.592178 0.000000
0.188157 0.592534 0.000000
0.234825 0.592889 0.000000
0.278594 0.593244 0.000000
0.320193 0.593600 0.000000
0.360075 0.593955 0.000000
0.398547 0.594310 0.000000
0.435828 0.594665 0.000000
0.472084 0.595020 0.000000
0.507442 0.595374 0.000000
0.542005 0.595729 0.000000
0.575855 0.596084 0.000000
0.609059 0.596439 0.000000
0.641677 0.596793 0.000000
0.673756 0.597148 0.000000
0.705339 0.597502 0.000000
0.736462 0.597856 0.000000
0.767156 0.598211 0.000000
0.797450 0.598565 0.000000
0.827369 0.598919 0.000000
0.856935 0.599273 0.000000
0.886169 0.599627 0.000000
0.915087 0.599981 0.000000
0.943706 0.600335 0.000000
0.972042 0.600689 0.000000
1.000000 0.601043 0.000000
1.000000 0.601396 0.000000
1.000000 0.601750 0.000000
1.000000 0.602103 0.000000
1.000000 0.602457 0.000000
0.000000 0.620503 0.000000
0.000000 0.620853 0.000000
0.074163 0.621203 0.000000
0.133348 0.621553 0.000000
0.184649 0.621902 0.000000
0.231567 0.622252 0.000000
0.275516 0.622602 0.000000
0.317254 0.622951 0.000000
0.357249 0.623301 0.000000
0.395814 0.623650 0.000000
0.433175 0.624000 0.000000
0.469500 0.624349 0.000000
0.504919 0.624698 0.000000
0.539537 0.625047 0.000000
0.573435 0.625397 0.000000
0.606685 0.625746 0.000000
0.639343 0.626095 0.000000
0.671460 0.626444 0.000000
0.703077 0.626792 0.000000
0.734232 0.627141 0.000000
0.764956 0.627490 0.000000
0.795278 0.627839 0.000000
0.825223 0.628187 0.000000
0.854814 0.628536 0.000000
0.884071 0.628884 0.000000
0.913011 0.629233 0.000000
0.941652 0.629581 0.000000
0.970008 0.629929 0.000000
0.998093 0.630278 0.000000
1.000000 0.630626 0.000000
1.000000 0.630974 0.000000
1.000000 0.631322 0.000000
1.000000 0.631670 0.000000
0.000000 0.649441 0.000000
0.000000 0.649786 0.000000
0.069356 0.650131 0.000000
0.129411 0.650475 0.000000
0.181119 0.650820 0.000000
0.228294 0.651165 0.000000
0.272427 0.651509 0.000000
0.314306 0.651853 0.000000
0.354415 0.652198 0.000000
0.393075 0.652542 0.000000
0.430516 0.652886 0.000000
0.466912 0.653230 0.000000
0.502393 0.653574 0.000000
0.537065 0.653918 0.000000
0.571013 0.654262 0.000000
0.604307 0.654606 0.000000
0.637006 0.654950 0.000000
0.669160 0.655294 0.000000
0.700812 0.655638 0.000000
0.731999 0.655981 0.000000
0.762753 0.656325 0.000000
0.793104 0.656669 0.000000
0.823076 0.657012 0.000000
0.852691 0.657355 0.000000
0.881971 0.657699 0.000000
0.910934 0.658042 0.000000
0.939596 0.658385 0.000000
0.967972 0.658729 0.000000
0.996076 0.659072 0.000000
1.000000 0.659415 0.000000
1.000000 0.659758 0.000000
1.000000 0.660101 0.000000
1.000000 0.660444 0.000000
0.000000 0.677960 0.000000
0.000000 0.678300 0.000000
0.064436 0.678640 0.000000
0.125434 0.678980 0.000000
0.177566 0.679320 0.000000
0.225005 0.679659 0.000000
0.269326 0.679999 0.000000
0.311350 0.680338 0.000000
0.351573 0.680678 0.000000
0.390329 0.681017 0.000000
0.427852 0.681357 0.000000
0.464318 0.681696 0.000000
0.499862 0.682035 0.000000
0.534589 0.682375 0.000000
0.568587 0.682714 0.000000
0.601926 0.683053 0.000000
0.634666 0.683392 0.000000
0.666858 0.683731 0.000000
0.698545 0.684070 0.000000
0.729764 0.684409 0.000000
0.760549 0.684748 0.000000
0.790928 0.685086 0.000000
0.820926 0.685425 0.000000
0.850566 0.685764 0.000000
0.879870 0.686102 0.000000
0.908855 0.686441 0.000000
0.937538 0.686780 0.000000
0.965934 0.687118 0.000000
0.994058 0.687456 0.000000
1.000000 0.687795 0.000000
1.000000 0.688133 0.000000
1.000000 0.688471 0.000000
1.000000 0.688809 0.000000
0.000000 0.706089 0.000000
0.000000 0.706424 0.000000
0.059390 0.706759 0.000000
0.121415 0.707095 0.000000
0.173990 0.707430 0.000000
0.221700 0.707765 0.000000
0.266213 0.708100 0.000000
0.308383 0.708435 0.000000
0.348725 0.708770 0.000000
0.387577 0.709105 0.000000
0.425183 0.709440 0.000000
0.461720 0.709775 0.000000
0.497326 0.710110 0.000000
0.532109 0.710444 0.000000
0.566157 0.710779 0.000000
0.599542 0.711114 0.000000
0.632324 0.711448 0.000000
0.664554 0.711783 0.000000
0.696276 0.712117 0.000000
0.727528 0.712452 0.000000
0.758342 0.712786 0.000000
0.788749 0.713120 0.000000
0.818774 0.713455 0.000000
0.848440 0.713789 0.000000
0.877767 0.714123 0.000000
0.906775 0.714457 0.000000
0.935479 0.714791 0.000000
0.963895 0.715125 0.000000
0.992038 0.715459 0.000000
1.000000 0.715793 0.000000
1.000000 0.716127 0.000000
1.000000 0.716461 0.000000
1.000000 0.716795 0.000000
0.000000 0.733852 0.000000
0.000000 0.734183 0.000000
0.054197 0.734514 0.000000
0.117351 0.734845 0.000000
0.170389 0.735176 0.000000
0.218379 0.735507 0.000000
0.263089 0.735838 0.000000
0.305408 0.736169 0.000000
0.345868 0.736500 0.000000
0.384819 0.736830 0.000000
0.422508 0.737161 0.000000
0.459118 0.737492 0.000000
0.494787 0.737822 0.000000
0.529626 0.738153 0.000000
0.563724 0.738483 0.000000
0.597155 0.738814 0.000000
0.629978 0.739144 0.000000
0.662246 0.739474 0.000000
0.694004 0.739805 0.000000
0.725288 0.740135 0.000000
0.756134 0.740465 0.000000
0.786569 0.740795 0.000000
0.816621 0.741125 0.000000
0.846312 0.741455 0.000000
0.875663 0.741785 0.000000
0.904693 0.742115 0.000000
0.933418 0.742445 0.000000
0.961855 0.742775 0.000000
0.990017 0.743105 0.000000
1.000000 0.743435 0.000000
1.000000 0.743764 0.000000
1.000000 0.744094 0.000000
1.000000 0.744424 0.000000
0.000000 0.761273 0.000000
0.000000 0.761600 0.000000
0.048834 0.761927 0.000000
0.113241 0.762254 0.000000
0.166763 0.762581 0.000000
0.215042 0.762908 0.000000
0.259952 0.763235 0.000000
0.302423 0.763562 0.000000
0.343003 0.763889 0.000000
0.382054 0.764215 0.000000
0.419828 0.764542 0.000000
0.456510 0.764869 0.000000
0.492243 0.765195 0.000000
0.527139 0.765522 0.000000
0.561288 0.765848 0.000000
0.594764 0.766175 0.000000
0.627630 0.766501 0.000000
0.659936 0.766828 0.000000
0.691729 0.767154 0.000000
0.723047 0.767481 0.000000
0.753923 0.767807 0.000000
0.784387 0.768133 0.000000
0.814466 0.768459 0.000000
0.844182 0.768785 0.000000
0.873557 0.769111 0.000000
0.902609 0.769437 0.000000
0.931356 0.769763 0.000000
0.959813 0.770089 0.000000
0.987994 0.770415 0.000000
1.000000 0.770741 0.000000
1.000000 0.771067 0.000000
1.000000 0.771393 0.000000
1.000000 0.771718 0.000000
0.000000 0.788371 0.000000
0.000000 0.788695 0.000000
0.043269 0.789018 0.000000
0.109080 0.789341 0.000000
0.163111 0.789665 0.000000
0.211687 0.789988 0.000000
0.256802 0.790311 0.000000
0.299428 0.790634 0.000000
0.340131 0.790957 0.000000
0.379283 0.791280 0.000000
0.417142 0.791603 0.000000
0.453897 0.791926 0.000000
0.489695 0.792249 0.000000
0.524648 0.792572 0.000000
0.558848 0.792895 0.000000
0.592371 0.793217 0.000000
0.625278 0.793540 0.000000
0.657624 0.793863 0.000000
0.689452 0.794186 0.000000
0.720803 0.794508 0.000000
0.751710 0.794831 0.000000
0.782203 0.795153 0.000000
0.812308 0.795476 0.000000
0.842050 0.795798 0.000000
0.871449 0.796121 0.000000
0.900524 0.796443 0.000000
0.929292 0.796765 0.000000
0.957770 0.797088 0.000000
0.985971 0.797410 0.000000
1.000000 0.797732 0.000000
1.000000 0.798054 0.000000
1.000000 0.798376 0.000000
1.000000 0.798698 0.000000
0.000000 0.815166 0.000000
0.000000 0.815486 0.000000
0.037456 0.815805 0.000000
0.104867 0.816125 0.000000
0.159431 0.816445 0.000000
0.208314 0.816765 0.000000
0.253640 0.817084 0.000000
0.296423 0.817404 0.000000
0.337251 0.817723 0.000000
0.376505 0.818043 0.000000
0.414450 0.818362 0.000000
0.451280 0.818682 0.000000
0.487142 0.819001 0.000000
0.522153 0.819320 0.000000
0.556405 0.819640 0.000000
0.589974 0.819959 0.000000
0.622924 0.820278 0.000000
0.655309 0.820597 0.000000
0.687173 0.820917 0.000000
0.718557 0.821236 0.000000
0.749495 0.821555 0.000000
0.780017 0.821874 0.000000
0.810149 0.822193 0.000000
0.839916 0.822512 0.000000
0.869339 0.822831 0.000000
0.898437 0.823149 0.000000
0.927227 0.823468 0.000000
0.955725 0.823787 0.000000
0.983945 0.824106 0.000000
1.000000 0.824425 0.000000
1.000000 0.824743 0.000000
1.000000 0.825062 0.000000
1.000000 0.825380 0.000000
0.000000 0.841673 0.000000
0.000000 0.841989 0.000000
0.031327 0.842306 0.000000
0.100597 0.842622 0.000000
0.155723 0.842938 0.000000
0.204924 0.843255 0.000000
0.250465 0.843571 0.000000
0.293408 0.843887 0.000000
0.334362 0.844203 0.000000
0.373720 0.844520 0.000000
0.411752 0.844836 0.000000
0.448657 0.845152 0.000000
0.484585 0.845468 0.000000
0.519654 0.845784 0.000000
0.553958 0.846100 0.000000
0.587574 0.846416 0.000000
0.620567 0.846732 0.000000
0.652991 0.847048 0.000000
0.684891 0.847363 0.000000
0.716309 0.847679 0.000000
0.747278 0.847995 0.000000
0.777828 0.848311 0.000000
0.807988 0.848626 0.000000
0.837781 0.848942 0.000000
0.867228 0.849258 0.000000
0.896349 0.849573 0.000000
0.925161 0.849889 0.000000
0.953679 0.850204 0.000000
0.981919 0.850519 0.000000
1.000000 0.850835 0.000000
1.000000 0.851150 0.000000
1.000000 0.851466 0.000000
1.000000 0.851781 0.000000
0.000000 0.867907 0.000000
0.000000 0.868220 0.000000
0.024770 0.868533 0.000000
0.096266 0.868847 0.000000
0.151986 0.869160 0.000000
0.201514 0.869473 0.000000
0.247276 0.869786 0.000000
0.290382 0.870099 0.000000
0.331465 0.870412 0.000000
0.370928 0.870725 0.000000
0.409049 0.871038 0.000000
0.446029 0.871351 0.000000
0.482024 0.871664 0.000000
0.517151 0.871977 0.000000
0.551507 0.872290 0.000000
0.585171 0.872602 0.000000
0.618207 0.872915 0.000000
0.650670 0.873228 0.000000
0.682607 0.873540 0.000000
0.714058 0.873853 0.000000
0.745058 0.874166 0.000000
0.775638 0.874478 0.000000
0.805825 0.874791 0.000000
0.835644 0.875103 0.000000
0.865115 0.875416 0.000000
0.894259 0.875728 0.000000
0.923092 0.876041 0.000000
0.951632 0.876353 0.000000
0.979891 0.876665 0.000000
1.000000 0.876977 0.000000
1.000000 0.877290 0.000000
1.000000 0.877602 0.000000
1.000000 0.877914 0.000000
0.000000 0.893882 0.000000
0.000000 0.894192 0.000000
0.017572 0.894502 0.000000
0.091870 0.894813 0.000000
0.148218 0.895123 0.000000
0.198086 0.895433 0.000000
0.244074 0.895743 0.000000
0.287347 0.896053 0.000000
0.328560 0.896363 0.000000
0.368129 0.896673 0.000000
0.406339 0.896983 0.000000
0.443397 0.897293 0.000000
0.479458 0.897603 0.000000
0.514644 0.897913 0.000000
0.549053 0.898222 0.000000
0.582764 0.898532 0.000000
0.615844 0.898842 0.000000
0.648346 0.899152 0.000000
0.680320 0.899461 0.000000
0.711805 0.899771 0.000000
0.742836 0.900080 0.000000
0.773446 0.900390 0.000000
0.803661 0.900700 0.000000
0.833505 0.901009 0.000000
