presets/film_stocks/Ilfochrome_Micrographic_M.cube
# 独寻胶片模拟 -- Ilfochrome Micrographic M
# Ilford, ISO 0, 0, positive
TITLE "Ilfochrome Micrographic M"
LUT_3D_SIZE 9
DOMAIN_MIN 0.0 0.0 0.0
DOMAIN_MAX 1.0 1.0 1.0
0.000000 0.000000 0.000000
0.238508 0.007869 0.000000
0.401644 0.013252 0.000000
0.544805 0.017975 0.000000
0.676363 0.022316 0.000000
0.799916 0.026392 0.000000
0.917443 0.030270 0.000000
1.000000 0.033990 0.000000
1.000000 0.037579 0.000000
0.000000 0.218810 0.000000
0.225454 0.220782 0.000000
0.390703 0.222748 0.000000
0.534926 0.224708 0.000000
0.667172 0.226663 0.000000
0.791224 0.228612 0.000000
0.909138 0.230556 0.000000
1.000000 0.232494 0.000000
1.000000 0.234427 0.000000
0.000000 0.368473 0.000000
0.212145 0.370134 0.000000
0.379661 0.371793 0.000000
0.524987 0.373450 0.000000
0.657939 0.375104 0.000000
0.782500 0.376756 0.000000
0.900808 0.378405 0.000000
1.000000 0.380052 0.000000
1.000000 0.381697 0.000000
0.000000 0.499810 0.000000
0.198554 0.501313 0.000000
0.368511 0.502814 0.000000
0.514986 0.504314 0.000000
0.648663 0.505812 0.000000
0.773745 0.507309 0.000000
0.892452 0.508805 0.000000
1.000000 0.510299 0.000000
1.000000 0.511792 0.000000
0.000000 0.620503 0.000000
0.184649 0.621902 0.000000
0.357249 0.623301 0.000000
0.504919 0.624698 0.000000
0.639343 0.626095 0.000000
0.764956 0.627490 0.000000
0.884071 0.628884 0.000000
0.998093 0.630278 0.000000
1.000000 0.631670 0.000000
0.000000 0.733852 0.000000
0.170389 0.735176 0.000000
0.345868 0.736500 0.000000
0.494787 0.737822 0.000000
0.629978 0.739144 0.000000
0.756134 0.740465 0.000000
0.875663 0.741785 0.000000
0.990017 0.743105 0.000000
1.000000 0.744424 0.000000
0.000000 0.841673 0.000000
0.155723 0.842938 0.000000
0.334362 0.844203 0.000000
0.484585 0.845468 0.000000
0.620567 0.846732 0.000000
0.747278 0.847995 0.000000
0.867228 0.849258 0.000000
0.981919 0.850519 0.000000
1.000000 0.851781 0.000000
0.000000 0.945103 0.000000
0.140586 0.946321 0.000000
0.322724 0.947539 0.000000
0.474312 0.948756 0.000000
0.611108 0.949973 0.000000
0.738387 0.951189 0.000000
0.858766 0.952405 0.000000
0.973799 0.953620 0.000000
1.000000 0.954835 0.000000
0.000000 1.000000 0.000000
0.124889 1.000000 0.000000
0.310946 1.000000 0.000000
0.463965 1.000000 0.000000
0.601601 1.000000 0.000000
0.729460 1.000000 0.000000
0.850277 1.000000 0.000000
0.965657 1.000000 0.000000
1.000000 1.000000 0.000000
0.000000 0.000000 0.217178
0.222768 0.000000 0.213207
0.388466 0.000000 0.209212
0.532909 0.000000 0.205191
0.665297 0.000000 0.201145
0.789452 0.000000 0.197071
0.907446 0.002949 0.192969
1.000000 0.009424 0.188838
1.000000 0.014581 0.184677
0.000000 0.207397 0.213398
0.209404 0.209404 0.209404
0.377402 0.211404 0.205385
0.522958 0.213399 0.201339
0.656056 0.215387 0.197266
0.780722 0.217369 0.193166
0.899110 0.219345 0.189036
1.000000 0.221315 0.184877
1.000000 0.223280 0.180686
0.000000 0.358906 0.209596
0.195752 0.360582 0.205578
0.366229 0.362255 0.201533
0.512943 0.363926 0.197462
0.646771 0.365594 0.193363
0.771960 0.367260 0.189235
0.890749 0.368923 0.185077
1.000000 0.370584 0.180888
1.000000 0.372243 0.176667
0.000000 0.491171 0.205771
0.181779 0.492683 0.201728
0.354943 0.494193 0.197658
0.502864 0.495701 0.193560
0.637442 0.497208 0.189433
0.763164 0.498713 0.185277
0.882363 0.500217 0.181089
0.996452 0.501720 0.176869
1.000000 0.503221 0.172616
0.000000 0.612465 0.201922
0.167441 0.613870 0.197853
0.343538 0.615275 0.193757
0.492717 0.616678 0.189631
0.628068 0.618081 0.185476
0.754335 0.619482 0.181290
0.873949 0.620882 0.177072
0.988371 0.622281 0.172821
1.000000 0.623680 0.168534
0.000000 0.726250 0.198049
0.152685 0.727579 0.193953
0.332006 0.728907 0.189830
0.482501 0.730234 0.185676
0.618647 0.731561 0.181492
0.745472 0.732886 0.177275
0.865509 0.734211 0.173025
0.980269 0.735535 0.168740
1.000000 0.736858 0.164419
0.000000 0.834409 0.194150
0.137442 0.835679 0.190028
0.320340 0.836947 0.185876
0.472213 0.838215 0.181693
0.609179 0.839483 0.177478
0.736574 0.840750 0.173229
0.857042 0.842016 0.168946
0.972145 0.843281 0.164627
1.000000 0.844546 0.160270
0.000000 0.938114 0.190226
0.121617 0.939335 0.186075
0.308533 0.940556 0.181894
0.461851 0.941776 0.177680
0.599662 0.942995 0.173434
0.727640 0.944215 0.169152
0.848547 0.945433 0.164835
0.963998 0.946651 0.160480
1.000000 0.947869 0.156085
0.000000 1.000000 0.186275
0.105080 1.000000 0.182095
0.296574 1.000000 0.177883
0.451411 1.000000 0.173638
0.590094 1.000000 0.169358
0.718670 1.000000 0.165042
0.840024 1.000000 0.160689
0.955828 1.000000 0.156297
1.000000 1.000000 0.151863
0.000000 0.000000 0.365725
0.206651 0.000000 0.362387
0.375138 0.000000 0.359038
0.520926 0.000000 0.355679
0.654170 0.000000 0.352310
0.778942 0.000000 0.348930
0.897412 0.000000 0.345539
1.000000 0.000000 0.342138
1.000000 0.000000 0.338725
0.000000 0.195773 0.362547
0.192937 0.197818 0.359199
0.363943 0.199856 0.355841
0.510898 0.201888 0.352472
0.644877 0.203912 0.349092
0.770173 0.205930 0.345702
0.889046 0.207942 0.342301
1.000000 0.209947 0.338888
1.000000 0.211946 0.335464
0.000000 0.349254 0.359359
0.178893 0.350945 0.356002
0.352633 0.352633 0.352633
0.500805 0.354319 0.349254
0.635539 0.356002 0.345865
0.761371 0.357682 0.342464
0.880653 0.359360 0.339052
0.994810 0.361036 0.335629
1.000000 0.362708 0.332194
0.000000 0.482482 0.356163
0.164475 0.484002 0.352795
0.341203 0.485521 0.349416
0.490645 0.487038 0.346027
0.626155 0.488554 0.342627
0.752535 0.490068 0.339216
0.872235 0.491581 0.335793
0.986725 0.493092 0.332359
1.000000 0.494602 0.328912
0.000000 0.604392 0.352956
0.149626 0.605804 0.349578
0.329644 0.607214 0.346190
0.480414 0.608624 0.342790
0.616725 0.610032 0.339379
0.743665 0.611440 0.335957
0.863789 0.612846 0.332523
0.978618 0.614251 0.329078
1.000000 0.615655 0.325620
0.000000 0.718622 0.349740
0.134274 0.719956 0.346352
0.317950 0.721288 0.342953
0.470112 0.722620 0.339543
0.607247 0.723951 0.336121
0.734759 0.725281 0.332688
0.855316 0.726611 0.329243
0.970489 0.727939 0.325786
1.000000 0.729267 0.322317
0.000000 0.827125 0.346515
0.118317 0.828398 0.343116
0.306113 0.829670 0.339706
0.459734 0.830942 0.336285
0.597720 0.832213 0.332853
0.725818 0.833484 0.329408
0.846815 0.834753 0.325952
0.962338 0.836023 0.322484
1.000000 0.837291 0.319003
0.000000 0.931107 0.343279
0.101612 0.932331 0.339870
0.294122 0.933555 0.336449
0.449278 0.934778 0.333017
0.588142 0.936001 0.329573
0.716841 0.937223 0.326118
0.838286 0.938445 0.322650
0.954163 0.939666 0.319170
1.000000 0.940886 0.315677
0.000000 1.000000 0.340033
0.083943 1.000000 0.336613
0.281968 1.000000 0.333182
0.438741 1.000000 0.329739
0.578513 1.000000 0.326283
0.707826 1.000000 0.322816
0.829729 1.000000 0.319337
0.945966 1.000000 0.315845
1.000000 1.000000 0.312340
0.000000 0.000000 0.496083
0.190109 0.000000 0.493065
0.361652 0.000000 0.490042
0.508851 0.000000 0.487013
0.642981 0.000000 0.483977
0.768385 0.000000 0.480935
0.887341 0.000000 0.477886
1.000000 0.000000 0.474832
1.000000 0.000000 0.471770
0.000000 0.183917 0.493210
0.175992 0.186004 0.490187
0.350318 0.188084 0.487158
0.498744 0.190156 0.484122
0.633634 0.192221 0.481081
0.759576 0.194278 0.478032
0.878943 0.196328 0.474978
0.993167 0.198371 0.471917
1.000000 0.200408 0.468849
0.000000 0.339513 0.490332
0.161492 0.341220 0.487303
0.338862 0.342924 0.484268
0.488570 0.344625 0.481226
0.624241 0.346324 0.478179
0.750733 0.348019 0.475124
0.870519 0.349713 0.472064
0.985078 0.351403 0.468996
1.000000 0.353090 0.465922
0.000000 0.473741 0.487448
0.146547 0.475270 0.484413
0.327277 0.476798 0.481372
0.478325 0.478325 0.478325
0.614801 0.479849 0.475271
0.741856 0.481373 0.472210
0.862068 0.482894 0.469143
0.976967 0.484414 0.466070
1.000000 0.485933 0.462989
0.000000 0.596284 0.484559
0.131081 0.597702 0.481518
0.315554 0.599118 0.478471
0.468007 0.600534 0.475417
0.605313 0.601949 0.472357
0.732944 0.603362 0.469290
0.853589 0.604775 0.466217
0.968833 0.606186 0.463137
1.000000 0.607597 0.460050
0.000000 0.710967 0.481664
0.114985 0.712306 0.478617
0.303686 0.713643 0.475563
0.457613 0.714979 0.472504
0.595776 0.716315 0.469437
0.723995 0.717650 0.466364
0.845083 0.718984 0.463285
0.960677 0.720317 0.460198
1.000000 0.721649 0.457105
0.000000 0.819820 0.478763
0.098106 0.821096 0.475710
0.291663 0.822372 0.472650
0.447141 0.823648 0.469584
0.586188 0.824923 0.466512
0.715010 0.826197 0.463432
0.836548 0.827470 0.460346
0.952498 0.828743 0.457253
1.000000 0.830015 0.454153
0.000000 0.924083 0.475856
0.080201 0.925310 0.472797
0.279474 0.926537 0.469731
0.436588 0.927763 0.466659
0.576548 0.928989 0.463580
0.705987 0.930214 0.460494
0.827984 0.931439 0.457402
0.944295 0.932663 0.454302
1.000000 0.933887 0.451196
0.000000 1.000000 0.472944
0.060851 1.000000 0.469878
0.267107 1.000000 0.466806
0.425949 1.000000 0.463728
0.566854 1.000000 0.460642
0.696927 1.000000 0.457550
0.819391 1.000000 0.454451
0.936069 1.000000 0.451344
1.000000 1.000000 0.448231
0.000000 0.000000 0.615876
0.173075 0.000000 0.613067
0.347998 0.000000 0.610254
0.496680 0.000000 0.607437
0.631727 0.000000 0.604615
0.757780 0.000000 0.601789
0.877232 0.000000 0.598959
0.991523 0.000000 0.596124
1.000000 0.000000 0.593285
0.000000 0.171802 0.613201
0.158490 0.173937 0.610389
0.336516 0.176062 0.607572
0.486491 0.178180 0.604750
0.622324 0.180289 0.601925
0.748931 0.182390 0.599095
0.868802 0.184483 0.596260
0.983430 0.186569 0.593421
1.000000 0.188646 0.590578
0.000000 0.329679 0.610524
0.143446 0.331403 0.607707
0.324903 0.333123 0.604886
0.476232 0.334841 0.602060
0.612875 0.336555 0.599230
0.740046 0.338267 0.596396
0.860345 0.339976 0.593557
0.975314 0.341682 0.590714
1.000000 0.343385 0.587866
0.000000 0.464946 0.607842
0.127862 0.466485 0.605021
0.313152 0.468022 0.602196
0.465899 0.469558 0.599366
0.603377 0.471092 0.596532
0.731126 0.472625 0.593693
0.851861 0.474155 0.590850
0.967176 0.475685 0.588003
1.000000 0.477212 0.585151
0.000000 0.588138 0.605156
0.111621 0.589563 0.602331
0.301253 0.590986 0.599501
0.455490 0.592408 0.596668
0.593829 0.593829 0.593829
0.722170 0.595249 0.590987
0.843349 0.596668 0.588139
0.959015 0.598086 0.585287
1.000000 0.599502 0.582431
0.000000 0.703285 0.602466
0.094557 0.704628 0.599637
0.289198 0.705970 0.596803
0.445001 0.707312 0.593965
0.584231 0.708652 0.591123
0.713178 0.709992 0.588276
0.834808 0.711330 0.585424
0.950831 0.712668 0.582568
1.000000 0.714005 0.579707
0.000000 0.812492 0.599773
0.076401 0.813773 0.596939
0.276973 0.815053 0.594101
0.434431 0.816332 0.591259
0.574580 0.817611 0.588412
0.704147 0.818888 0.585561
0.826239 0.820166 0.582705
0.942624 0.821442 0.579844
1.000000 0.822718 0.576979
0.000000 0.917041 0.597075
0.056673 0.918272 0.594237
0.264568 0.919502 0.591395
0.423774 0.920731 0.588549
0.564876 0.921960 0.585697
0.695079 0.923188 0.582842
0.817640 0.924416 0.579981
0.934393 0.925643 0.577116
1.000000 0.926870 0.574246
0.000000 1.000000 0.594373
0.034272 1.000000 0.591531
0.251968 1.000000 0.588685
0.413029 1.000000 0.585834
0.555116 1.000000 0.582978
0.685971 1.000000 0.580118
0.809011 1.000000 0.577253
0.926138 1.000000 0.574384
1.000000 1.000000 0.571510
0.000000 0.000000 0.728379
0.155469 0.000000 0.725722
0.334165 0.000000 0.723062
0.484410 0.000000 0.720399
0.620406 0.000000 0.717732
0.747126 0.000000 0.715062
0.867084 0.000000 0.712389
0.981781 0.000000 0.709712
1.000000 0.000000 0.707032
0.000000 0.159399 0.725850
0.140323 0.161586 0.723190
0.322525 0.163764 0.720526
0.474136 0.165932 0.717860
0.610947 0.168091 0.715190
0.738235 0.170241 0.712517
0.858622 0.172382 0.709840
0.973660 0.174514 0.707161
1.000000 0.176637 0.704478
0.000000 0.319748 0.723317
0.124616 0.321488 0.720654
0.310744 0.323226 0.717988
0.463788 0.324961 0.715318
0.601439 0.326692 0.712645
0.729307 0.328421 0.709969
0.850132 0.330147 0.707289
0.965518 0.331869 0.704606
1.000000 0.333589 0.701920
0.000000 0.456096 0.720782
0.108224 0.457645 0.718115
0.298814 0.459192 0.715446
0.453363 0.460737 0.712773
0.591881 0.462281 0.710097
0.720344 0.463823 0.707417
0.841614 0.465363 0.704735
0.957352 0.466902 0.702049
1.000000 0.468439 0.699359
0.000000 0.579956 0.718243
0.090963 0.581387 0.715574
0.286725 0.582817 0.712901
0.442858 0.584245 0.710225
0.582272 0.585673 0.707546
0.711344 0.587099 0.704863
0.833068 0.588525 0.702177
0.949164 0.589949 0.699488
1.000000 0.591372 0.696795
0.000000 0.695575 0.715702
0.072538 0.696923 0.713029
0.274465 0.698270 0.710353
0.432270 0.699616 0.707674
0.572611 0.700962 0.704992
0.702306 0.702306 0.702306
0.824492 0.703649 0.699617
0.940952 0.704992 0.696924
1.000000 0.706334 0.694228
0.000000 0.805144 0.713157
0.052391 0.806428 0.710482
0.262022 0.807712 0.707803
0.421596 0.808995 0.705120
0.562895 0.810277 0.702435
0.693229 0.811559 0.699746
0.815887 0.812840 0.697053
0.932716 0.814120 0.694357
1.000000 0.815400 0.691658
0.000000 0.909982 0.710610
0.029150 0.911215 0.707931
0.249380 0.912448 0.705249
0.410832 0.913681 0.702563
0.553124 0.914913 0.699874
0.684113 0.916144 0.697182
0.807252 0.917375 0.694486
0.924456 0.918605 0.691787
1.000000 0.919835 0.689084
0.000000 1.000000 0.708059
0.000000 1.000000 0.705377
0.236523 1.000000 0.702692
0.399974 1.000000 0.700003
0.543295 1.000000 0.697311
0.674957 1.000000 0.694615
0.798586 1.000000 0.691916
0.916172 1.000000 0.689214
1.000000 1.000000 0.686508
0.000000 0.000000 0.835396
0.137177 0.000000 0.832857
0.320140 0.000000 0.830315
0.472037 0.000000 0.827771
0.609017 0.000000 0.825224
0.736422 0.000000 0.822674
0.856897 0.000000 0.820122
0.972006 0.000000 0.817567
1.000000 0.000000 0.815010
0.000000 0.146668 0.832978
0.121342 0.148915 0.830437
0.308330 0.151152 0.827893
0.461673 0.153378 0.825346
0.599499 0.155593 0.822796
0.727487 0.157798 0.820244
0.848402 0.159992 0.817690
0.963858 0.162177 0.815132
1.000000 0.164352 0.812573
0.000000 0.309713 0.830559
0.104791 0.311472 0.828014
0.296368 0.313228 0.825468
0.451232 0.314981 0.822918
0.589931 0.316730 0.820367
0.718516 0.318477 0.817812
0.839878 0.320220 0.815255
0.955688 0.321960 0.812695
1.000000 0.323697 0.810133
0.000000 0.447189 0.828136
0.087323 0.448748 0.825590
0.284245 0.450305 0.823041
0.440711 0.451860 0.820489
0.580311 0.453414 0.817934
0.709509 0.454966 0.815377
0.831326 0.456516 0.812818
0.947495 0.458064 0.810255
1.000000 0.459611 0.807690
0.000000 0.571735 0.825712
0.068605 0.573173 0.823163
0.271949 0.574609 0.820611
0.430106 0.576045 0.818057
0.570639 0.577479 0.815500
0.700463 0.578912 0.812940
0.822744 0.580344 0.810378
0.939278 0.581775 0.807813
1.000000 0.583204 0.805246
0.000000 0.687837 0.823285
0.047990 0.689190 0.820733
0.259467 0.690542 0.818179
0.419414 0.691893 0.815622
0.560912 0.693243 0.813063
0.691378 0.694592 0.810501
0.814133 0.695941 0.807936
0.931038 0.697288 0.805369
1.000000 0.698635 0.802799
0.000000 0.797772 0.820856
0.023710 0.799061 0.818302
0.246783 0.800348 0.815745
0.408631 0.801635 0.813186
0.551129 0.802921 0.810624
0.682254 0.804207 0.808059
0.805492 0.805492 0.805492
0.922773 0.806776 0.802922
1.000000 0.808059 0.800349
0.000000 0.902904 0.818424
0.000000 0.904141 0.815867
0.233880 0.905377 0.813308
0.397754 0.906613 0.810746
0.541289 0.907848 0.808182
0.673090 0.909082 0.805615
0.796820 0.910316 0.803045
0.914484 0.911550 0.800472
1.000000 0.912782 0.797897
0.000000 1.000000 0.815990
0.000000 1.000000 0.813431
0.220738 1.000000 0.810869
0.386777 1.000000 0.808305
0.531389 1.000000 0.805738
0.663884 1.000000 0.803168
0.788117 1.000000 0.800596
0.906170 1.000000 0.798020
1.000000 1.000000 0.795442
0.000000 0.000000 0.938055
0.118038 0.000000 0.935611
0.305909 0.000000 0.933165
0.459556 0.000000 0.930717
0.597557 0.000000 0.928267
0.725665 0.000000 0.925815
0.846670 0.000000 0.923361
0.962198 0.000000 0.920904
1.000000 0.000000 0.918445
0.000000 0.133560 0.935728
0.101320 0.135878 0.933283
0.293916 0.138183 0.930835
0.449099 0.140474 0.928385
0.587978 0.142754 0.925933
0.716687 0.145022 0.923478
0.838141 0.147278 0.921022
0.954024 0.149523 0.918563
1.000000 0.151756 0.916102
0.000000 0.299570 0.933400
0.083631 0.301349 0.930952
0.281759 0.303124 0.928502
0.438561 0.304895 0.926050
0.578348 0.306664 0.923596
0.707672 0.308429 0.921140
0.829582 0.310190 0.918681
0.945826 0.311948 0.916220
1.000000 0.313704 0.913757
0.000000 0.438223 0.931069
0.064596 0.439792 0.928619
0.269426 0.441360 0.926167
0.427938 0.442926 0.923713
0.568665 0.444489 0.921257
0.698618 0.446051 0.918799
0.820995 0.447612 0.916338
0.937604 0.449170 0.913875
1.000000 0.450727 0.911411
0.000000 0.563475 0.928737
0.043451 0.564920 0.926285
0.256904 0.566363 0.923831
0.417228 0.567806 0.921375
0.558927 0.569247 0.918917
0.689526 0.570686 0.916456
0.812378 0.572125 0.913993
0.929359 0.573562 0.911529
1.000000 0.574999 0.909062
0.000000 0.680070 0.926402
0.017817 0.681428 0.923949
0.244177 0.682785 0.921492
0.406426 0.684141 0.919034
0.549132 0.685496 0.916574
0.680393 0.686851 0.914111
0.803730 0.688204 0.911647
0.921089 0.689557 0.909180
1.000000 0.690908 0.906711
0.000000 0.790379 0.924066
0.000000 0.791671 0.921610
0.231227 0.792963 0.919152
0.395529 0.794253 0.916692
0.539280 0.795543 0.914229
0.671221 0.796833 0.911765
0.795052 0.798122 0.909298
0.912795 0.799410 0.906829
1.000000 0.800697 0.904358
0.000000 0.895808 0.921728
0.000000 0.897048 0.919270
0.218033 0.898287 0.916810
0.384532 0.899526 0.914347
0.529367 0.900765 0.911883
0.662006 0.902002 0.909416
0.786342 0.903239 0.906947
0.904476 0.904476 0.904476
1.000000 0.905712 0.902003
0.000000 0.997283 0.919388
0.000000 0.998479 0.916927
0.204570 0.999676 0.914465
0.373430 1.000000 0.912001
0.519394 1.000000 0.909534
0.652749 1.000000 0.907065
0.777601 1.000000 0.904594
0.896132 1.000000 0.902121
1.000000 1.000000 0.899646
0.000000 0.000000 1.000000
0.097810 0.000000 1.000000
0.291457 0.000000 1.000000
0.446962 0.000000 1.000000
0.586024 0.000000 1.000000
0.714856 0.000000 1.000000
0.836402 0.000000 1.000000
0.952358 0.000000 1.000000
1.000000 0.000000 1.000000
0.000000 0.120013 1.000000
0.079885 0.122413 1.000000
0.279265 0.124797 1.000000
0.436407 0.127167 1.000000
0.576383 0.129522 1.000000
0.705833 0.131863 1.000000
0.827838 0.134190 1.000000
0.944155 0.136504 1.000000
1.000000 0.138805 1.000000
0.000000 0.289312 1.000000
0.060504 0.291111 1.000000
0.266895 0.292907 1.000000
0.425767 0.294698 1.000000
0.566688 0.296487 1.000000
0.696772 0.298271 1.000000
0.819245 0.300052 1.000000
0.935929 0.301830 1.000000
1.000000 0.303604 1.000000
0.000000 0.429196 1.000000
0.038750 0.430776 1.000000
0.254332 0.432354 1.000000
0.415038 0.433931 1.000000
0.556939 0.435505 1.000000
0.687671 0.437078 1.000000
0.810621 0.438649 1.000000
0.927679 0.440217 1.000000
1.000000 0.441784 1.000000
0.000000 0.555175 1.000000
0.011174 0.556627 1.000000
0.241561 0.558077 1.000000
0.404218 0.559527 1.000000
0.547133 0.560975 1.000000
0.678531 0.562421 1.000000
0.801968 0.563867 1.000000
0.919404 0.565311 1.000000
1.000000 0.566754 1.000000
0.000000 0.672274 1.000000
0.000000 0.673637 1.000000
0.228564 0.674999 1.000000
0.393300 0.676360 1.000000
0.537268 0.677720 1.000000
0.669350 0.679080 1.000000
0.793283 0.680438 1.000000
0.911105 0.681796 1.000000
1.000000 0.683153 1.000000
0.000000 0.782962 1.000000
0.000000 0.784258 1.000000
0.215317 0.785554 1.000000
0.382282 0.786849 1.000000
0.527344 0.788143 1.000000
0.660127 0.789436 1.000000
0.784567 0.790729 1.000000
0.902781 0.792021 1.000000
1.000000 0.793312 1.000000
0.000000 0.888693 1.000000
0.000000 0.889937 1.000000
0.201796 0.891179 1.000000
0.371158 0.892421 1.000000
0.517357 0.893663 1.000000
0.650861 0.894904 1.000000
0.775819 0.896144 1.000000
0.894431 0.897384 1.000000
1.000000 0.898623 1.000000
0.000000 0.990417 1.000000
0.000000 0.991616 1.000000
0.187969 0.992815 1.000000
0.359923 0.994014 1.000000
0.507306 0.995212 1.000000
0.641552 0.996410 1.000000
0.767038 0.997607 1.000000
0.886056 0.998804 1.000000
1.000000 1.000000 1.000000
