presets/film_stocks/Ilfochrome_Micrographic_M.cube
# 独寻胶片模拟 -- Ilfochrome Micrographic M
# Ilford, ISO 0, 0, positive
TITLE "Ilfochrome Micrographic M"
LUT_3D_SIZE 5
DOMAIN_MIN 0.0 0.0 0.0
DOMAIN_MAX 1.0 1.0 1.0
0.000000 0.000000 0.000000
0.401644 0.013252 0.000000
0.676363 0.022316 0.000000
0.917443 0.030270 0.000000
1.000000 0.037579 0.000000
0.000000 0.368473 0.000000
0.379661 0.371793 0.000000
0.657939 0.375104 0.000000
0.900808 0.378405 0.000000
1.000000 0.381697 0.000000
0.000000 0.620503 0.000000
0.357249 0.623301 0.000000
0.639343 0.626095 0.000000
0.884071 0.628884 0.000000
1.000000 0.631670 0.000000
0.000000 0.841673 0.000000
0.334362 0.844203 0.000000
0.620567 0.846732 0.000000
0.867228 0.849258 0.000000
1.000000 0.851781 0.000000
0.000000 1.000000 0.000000
0.310946 1.000000 0.000000
0.601601 1.000000 0.000000
0.850277 1.000000 0.000000
1.000000 1.000000 0.000000
0.000000 0.000000 0.365725
0.375138 0.000000 0.359038
0.654170 0.000000 0.352310
0.897412 0.000000 0.345539
1.000000 0.000000 0.338725
0.000000 0.349254 0.359359
0.352633 0.352633 0.352633
0.635539 0.356002 0.345865
0.880653 0.359360 0.339052
1.000000 0.362708 0.332194
0.000000 0.604392 0.352956
0.329644 0.607214 0.346190
0.616725 0.610032 0.339379
0.863789 0.612846 0.332523
1.000000 0.615655 0.325620
0.000000 0.827125 0.346515
0.306113 0.829670 0.339706
0.597720 0.832213 0.332853
0.846815 0.834753 0.325952
1.000000 0.837291 0.319003
0.000000 1.000000 0.340033
0.281968 1.000000 0.333182
0.578513 1.000000 0.326283
0.829729 1.000000 0.319337
1.000000 1.000000 0.312340
0.000000 0.000000 0.615876
0.347998 0.000000 0.610254
0.631727 0.000000 0.604615
0.877232 0.000000 0.598959
1.000000 0.000000 0.593285
0.000000 0.329679 0.610524
0.324903 0.333123 0.604886
0.612875 0.336555 0.599230
0.860345 0.339976 0.593557
1.000000 0.343385 0.587866
0.000000 0.588138 0.605156
0.301253 0.590986 0.599501
0.593829 0.593829 0.593829
0.843349 0.596668 0.588139
1.000000 0.599502 0.582431
0.000000 0.812492 0.599773
0.276973 0.815053 0.594101
0.574580 0.817611 0.588412
0.826239 0.820166 0.582705
1.000000 0.822718 0.576979
0.000000 1.000000 0.594373
0.251968 1.000000 0.588685
0.555116 1.000000 0.582978
0.809011 1.000000 0.577253
1.000000 1.000000 0.571510
0.000000 0.000000 0.835396
0.320140 0.000000 0.830315
0.609017 0.000000 0.825224
0.856897 0.000000 0.820122
1.000000 0.000000 0.815010
0.000000 0.309713 0.830559
0.296368 0.313228 0.825468
0.589931 0.316730 0.820367
0.839878 0.320220 0.815255
1.000000 0.323697 0.810133
0.000000 0.571735 0.825712
0.271949 0.574609 0.820611
0.570639 0.577479 0.815500
0.822744 0.580344 0.810378
1.000000 0.583204 0.805246
0.000000 0.797772 0.820856
0.246783 0.800348 0.815745
0.551129 0.802921 0.810624
0.805492 0.805492 0.805492
1.000000 0.808059 0.800349
0.000000 1.000000 0.815990
0.220738 1.000000 0.810869
0.531389 1.000000 0.805738
0.788117 1.000000 0.800596
1.000000 1.000000 0.795442
0.000000 0.000000 1.000000
0.291457 0.000000 1.000000
0.586024 0.000000 1.000000
0.836402 0.000000 1.000000
1.000000 0.000000 1.000000
0.000000 0.289312 1.000000
0.266895 0.292907 1.000000
0.566688 0.296487 1.000000
0.819245 0.300052 1.000000
1.000000 0.303604 1.000000
0.000000 0.555175 1.000000
0.241561 0.558077 1.000000
0.547133 0.560975 1.000000
0.801968 0.563867 1.000000
1.000000 0.566754 1.000000
0.000000 0.782962 1.000000
0.215317 0.785554 1.000000
0.527344 0.788143 1.000000
0.784567 0.790729 1.000000
1.000000 0.793312 1.000000
0.000000 0.990417 1.000000
0.187969 0.992815 1.000000
0.507306 0.995212 1.000000
0.767038 0.997607 1.000000
1.000000 1.000000 1.000000
