presets/film_stocks/Kodak_Vision3_500T_5219.cube
# 独寻胶片模拟 -- Kodak Vision3 500T 5219
# Kodak, ISO 500, 2007, negative
TITLE "Kodak Vision3 500T 5219"
LUT_3D_SIZE 5
DOMAIN_MIN 0.0 0.0 0.0
DOMAIN_MAX 1.0 1.0 1.0
0.000000 0.000000 0.000000
0.310634 0.008230 0.000000
0.590174 0.015635 0.000000
0.859069 0.022759 0.000000
1.000000 0.029706 0.000000
0.000000 0.299416 0.000000
0.298536 0.305127 0.000000
0.578691 0.310830 0.000000
0.847928 0.316525 0.000000
1.000000 0.322211 0.000000
0.000000 0.568861 0.000000
0.286399 0.574289 0.000000
0.567190 0.579712 0.000000
0.836776 0.585132 0.000000
1.000000 0.590547 0.000000
0.000000 0.828044 0.000000
0.274221 0.833312 0.000000
0.555670 0.838577 0.000000
0.825612 0.843840 0.000000
1.000000 0.849100 0.000000
0.000000 1.000000 0.000000
0.261999 1.000000 0.000000
0.544131 1.000000 0.000000
0.814436 1.000000 0.000000
1.000000 1.000000 0.000000
0.000000 0.000000 0.288830
0.289205 0.000000 0.281247
0.569847 0.000000 0.273647
0.839352 0.000000 0.266031
1.000000 0.000000 0.258397
0.000000 0.271280 0.284629
0.277037 0.277037 0.277037
0.558332 0.282783 0.269428
0.828191 0.288521 0.261801
1.000000 0.294249 0.254157
0.000000 0.542186 0.280422
0.264825 0.547635 0.272821
0.546797 0.553079 0.265202
0.817018 0.558519 0.257566
1.000000 0.563954 0.249912
0.000000 0.802176 0.276211
0.252568 0.807457 0.268600
0.535243 0.812735 0.260972
0.805832 0.818011 0.253326
1.000000 0.823284 0.245661
0.000000 1.000000 0.271994
0.240264 1.000000 0.264374
0.523669 1.000000 0.256736
0.794634 1.000000 0.249079
1.000000 1.000000 0.241404
0.000000 0.000000 0.548750
0.267648 0.000000 0.541550
0.549462 0.000000 0.534342
0.819598 0.000000 0.527127
1.000000 0.000000 0.519904
0.000000 0.242909 0.544760
0.255402 0.248716 0.537556
0.537912 0.254512 0.530344
0.808416 0.260297 0.523124
1.000000 0.266072 0.515896
0.000000 0.515406 0.540767
0.243109 0.520877 0.533559
0.526343 0.526343 0.526343
0.797221 0.531804 0.519118
1.000000 0.537261 0.511886
0.000000 0.776240 0.536772
0.230766 0.781535 0.529560
0.514753 0.786827 0.522339
0.786013 0.792116 0.515111
1.000000 0.797403 0.507874
0.000000 1.000000 0.532775
0.218370 1.000000 0.525558
0.503142 1.000000 0.518333
0.774793 1.000000 0.511100
1.000000 1.000000 0.503859
0.000000 0.000000 0.798770
0.245952 0.000000 0.791785
0.529016 0.000000 0.784794
0.799806 0.000000 0.777798
1.000000 0.000000 0.770798
0.000000 0.214269 0.794898
0.233620 0.220134 0.787910
0.517430 0.225986 0.780917
0.788602 0.231826 0.773918
1.000000 0.237654 0.766915
0.000000 0.488514 0.791025
0.221237 0.494008 0.784034
0.505825 0.499497 0.777038
0.777384 0.504981 0.770037
1.000000 0.510461 0.763031
0.000000 0.750235 0.787151
0.208797 0.755544 0.780157
0.494197 0.760850 0.773158
0.766154 0.766154 0.766154
1.000000 0.771454 0.759145
0.000000 1.000000 0.783274
0.196298 1.000000 0.776278
0.482548 1.000000 0.769276
0.754910 1.000000 0.762269
1.000000 1.000000 0.755257
0.000000 0.000000 1.000000
0.224100 0.000000 1.000000
0.508506 0.000000 1.000000
0.779975 0.000000 1.000000
1.000000 0.000000 1.000000
0.000000 0.185319 1.000000
0.211674 0.191251 1.000000
0.496884 0.197168 1.000000
0.768748 0.203071 1.000000
1.000000 0.208960 1.000000
0.000000 0.461503 1.000000
0.199189 0.467022 1.000000
0.485240 0.472536 1.000000
0.757507 0.478044 1.000000
1.000000 0.483547 1.000000
0.000000 0.724157 1.000000
0.186641 0.729481 1.000000
0.473573 0.734803 1.000000
0.746253 0.740121 1.000000
1.000000 0.745436 1.000000
0.000000 0.979222 1.000000
0.174026 0.984420 1.000000
0.461884 0.989615 1.000000
0.734986 0.994809 1.000000
1.000000 1.000000 1.000000
