presets/film_stocks/Kodak_Supra_Endura_Paper.cube
# 独寻胶片模拟 -- Kodak Supra Endura Paper
# Kodak, ISO 0, 0, negative
TITLE "Kodak Supra Endura Paper"
LUT_3D_SIZE 33
DOMAIN_MIN 0.0 0.0 0.0
DOMAIN_MAX 1.0 1.0 1.0
0.000000 0.000000 0.000000
0.054346 0.000000 0.000000
0.097305 0.000000 0.000000
0.136808 0.000000 0.000000
0.174221 0.000000 0.000000
0.210154 0.000000 0.000000
0.244950 0.000000 0.000000
0.278827 0.000000 0.000000
0.311937 0.000000 0.000000
0.344392 0.000000 0.000000
0.376274 0.000000 0.000000
0.407651 0.000000 0.000000
0.438574 0.000000 0.000000
0.469089 0.000000 0.000000
0.499230 0.000000 0.000000
0.529030 0.000000 0.000000
0.558513 0.000000 0.000000
0.587704 0.000000 0.000000
0.616622 0.000000 0.000000
0.645284 0.000000 0.000000
0.673706 0.000000 0.000000
0.701902 0.000000 0.000000
0.729885 0.000000 0.000000
0.757665 0.000000 0.000000
0.785253 0.000000 0.000000
0.812658 0.000000 0.000000
0.839888 0.000000 0.000000
0.866951 0.000000 0.000000
0.893855 0.000000 0.000000
0.920606 0.000000 0.000000
0.947210 0.000000 0.000000
0.973673 0.000000 0.000000
1.000000 0.000000 0.000000
0.000000 0.054346 0.000000
0.054346 0.054346 0.000000
0.097305 0.054346 0.000000
0.136808 0.054346 0.000000
0.174221 0.054346 0.000000
0.210154 0.054346 0.000000
0.244950 0.054346 0.000000
0.278827 0.054346 0.000000
0.311937 0.054346 0.000000
0.344392 0.054346 0.000000
0.376274 0.054346 0.000000
0.407651 0.054346 0.000000
0.438574 0.054346 0.000000
0.469089 0.054346 0.000000
0.499230 0.054346 0.000000
0.529030 0.054346 0.000000
0.558513 0.054346 0.000000
0.587704 0.054346 0.000000
0.616622 0.054346 0.000000
0.645284 0.054346 0.000000
0.673706 0.054346 0.000000
0.701902 0.054346 0.000000
0.729885 0.054346 0.000000
0.757665 0.054346 0.000000
0.785253 0.054346 0.000000
0.812658 0.054346 0.000000
0.839888 0.054346 0.000000
0.866951 0.054346 0.000000
0.893855 0.054346 0.000000
0.920606 0.054346 0.000000
0.947210 0.054346 0.000000
0.973673 0.054346 0.000000
1.000000 0.054346 0.000000
0.000000 0.097305 0.000000
0.054346 0.097305 0.000000
0.097305 0.097305 0.000000
0.136808 0.097305 0.000000
0.174221 0.097305 0.000000
0.210154 0.097305 0.000000
0.244950 0.097305 0.000000
0.278827 0.097305 0.000000
0.311937 0.097305 0.000000
0.344392 0.097305 0.000000
0.376274 0.097305 0.000000
0.407651 0.097305 0.000000
0.438574 0.097305 0.000000
0.469089 0.097305 0.000000
0.499230 0.097305 0.000000
0.529030 0.097305 0.000000
0.558513 0.097305 0.000000
0.587704 0.097305 0.000000
0.616622 0.097305 0.000000
0.645284 0.097305 0.000000
0.673706 0.097305 0.000000
0.701902 0.097305 0.000000
0.729885 0.097305 0.000000
0.757665 0.097305 0.000000
0.785253 0.097305 0.000000
0.812658 0.097305 0.000000
0.839888 0.097305 0.000000
0.866951 0.097305 0.000000
0.893855 0.097305 0.000000
0.920606 0.097305 0.000000
0.947210 0.097305 0.000000
0.973673 0.097305 0.000000
1.000000 0.097305 0.000000
0.000000 0.136808 0.000000
0.054346 0.136808 0.000000
0.097305 0.136808 0.000000
0.136808 0.136808 0.000000
0.174221 0.136808 0.000000
0.210154 0.136808 0.000000
0.244950 0.136808 0.000000
0.278827 0.136808 0.000000
0.311937 0.136808 0.000000
0.344392 0.136808 0.000000
0.376274 0.136808 0.000000
0.407651 0.136808 0.000000
0.438574 0.136808 0.000000
0.469089 0.136808 0.000000
0.499230 0.136808 0.000000
0.529030 0.136808 0.000000
0.558513 0.136808 0.000000
0.587704 0.136808 0.000000
0.616622 0.136808 0.000000
0.645284 0.136808 0.000000
0.673706 0.136808 0.000000
0.701902 0.136808 0.000000
0.729885 0.136808 0.000000
0.757665 0.136808 0.000000
0.785253 0.136808 0.000000
0.812658 0.136808 0.000000
0.839888 0.136808 0.000000
0.866951 0.136808 0.000000
0.893855 0.136808 0.000000
0.920606 0.136808 0.000000
0.947210 0.136808 0.000000
0.973673 0.136808 0.000000
1.000000 0.136808 0.000000
0.000000 0.174221 0.000000
0.054346 0.174221 0.000000
0.097305 0.174221 0.000000
0.136808 0.174221 0.000000
0.174221 0.174221 0.000000
0.210154 0.174221 0.000000
0.244950 0.174221 0.000000
0.278827 0.174221 0.000000
0.311937 0.174221 0.000000
0.344392 0.174221 0.000000
0.376274 0.174221 0.000000
0.407651 0.174221 0.000000
0.438574 0.174221 0.000000
0.469089 0.174221 0.000000
0.499230 0.174221 0.000000
0.529030 0.174221 0.000000
0.558513 0.174221 0.000000
0.587704 0.174221 0.000000
0.616622 0.174221 0.000000
0.645284 0.174221 0.000000
0.673706 0.174221 0.000000
0.701902 0.174221 0.000000
0.729885 0.174221 0.000000
0.757665 0.174221 0.000000
0.785253 0.174221 0.000000
0.812658 0.174221 0.000000
0.839888 0.174221 0.000000
0.866951 0.174221 0.000000
0.893855 0.174221 0.000000
0.920606 0.174221 0.000000
0.947210 0.174221 0.000000
0.973673 0.174221 0.000000
1.000000 0.174221 0.000000
0.000000 0.210154 0.000000
0.054346 0.210154 0.000000
0.097305 0.210154 0.000000
0.136808 0.210154 0.000000
0.174221 0.210154 0.000000
0.210154 0.210154 0.000000
0.244950 0.210154 0.000000
0.278827 0.210154 0.000000
0.311937 0.210154 0.000000
0.344392 0.210154 0.000000
0.376274 0.210154 0.000000
0.407651 0.210154 0.000000
0.438574 0.210154 0.000000
0.469089 0.210154 0.000000
0.499230 0.210154 0.000000
0.529030 0.210154 0.000000
0.558513 0.210154 0.000000
0.587704 0.210154 0.000000
0.616622 0.210154 0.000000
0.645284 0.210154 0.000000
0.673706 0.210154 0.000000
0.701902 0.210154 0.000000
0.729885 0.210154 0.000000
0.757665 0.210154 0.000000
0.785253 0.210154 0.000000
0.812658 0.210154 0.000000
0.839888 0.210154 0.000000
0.866951 0.210154 0.000000
0.893855 0.210154 0.000000
0.920606 0.210154 0.000000
0.947210 0.210154 0.000000
0.973673 0.210154 0.000000
1.000000 0.210154 0.000000
0.000000 0.244950 0.000000
0.054346 0.244950 0.000000
0.097305 0.244950 0.000000
0.136808 0.244950 0.000000
0.174221 0.244950 0.000000
0.210154 0.244950 0.000000
0.244950 0.244950 0.000000
0.278827 0.244950 0.000000
0.311937 0.244950 0.000000
0.344392 0.244950 0.000000
0.376274 0.244950 0.000000
0.407651 0.244950 0.000000
0.438574 0.244950 0.000000
0.469089 0.244950 0.000000
0.499230 0.244950 0.000000
0.529030 0.244950 0.000000
0.558513 0.244950 0.000000
0.587704 0.244950 0.000000
0.616622 0.244950 0.000000
0.645284 0.244950 0.000000
0.673706 0.244950 0.000000
0.701902 0.244950 0.000000
0.729885 0.244950 0.000000
0.757665 0.244950 0.000000
0.785253 0.244950 0.000000
0.812658 0.244950 0.000000
0.839888 0.244950 0.000000
0.866951 0.244950 0.000000
0.893855 0.244950 0.000000
0.920606 0.244950 0.000000
0.947210 0.244950 0.000000
0.973673 0.244950 0.000000
1.000000 0.244950 0.000000
0.000000 0.278827 0.000000
0.054346 0.278827 0.000000
0.097305 0.278827 0.000000
0.136808 0.278827 0.000000
0.174221 0.278827 0.000000
0.210154 0.278827 0.000000
0.244950 0.278827 0.000000
0.278827 0.278827 0.000000
0.311937 0.278827 0.000000
0.344392 0.278827 0.000000
0.376274 0.278827 0.000000
0.407651 0.278827 0.000000
0.438574 0.278827 0.000000
0.469089 0.278827 0.000000
0.499230 0.278827 0.000000
0.529030 0.278827 0.000000
0.558513 0.278827 0.000000
0.587704 0.278827 0.000000
0.616622 0.278827 0.000000
0.645284 0.278827 0.000000
0.673706 0.278827 0.000000
0.701902 0.278827 0.000000
0.729885 0.278827 0.000000
0.757665 0.278827 0.000000
0.785253 0.278827 0.000000
0.812658 0.278827 0.000000
0.839888 0.278827 0.000000
0.866951 0.278827 0.000000
0.893855 0.278827 0.000000
0.920606 0.278827 0.000000
0.947210 0.278827 0.000000
0.973673 0.278827 0.000000
1.000000 0.278827 0.000000
0.000000 0.311937 0.000000
0.054346 0.311937 0.000000
0.097305 0.311937 0.000000
0.136808 0.311937 0.000000
0.174221 0.311937 0.000000
0.210154 0.311937 0.000000
0.244950 0.311937 0.000000
0.278827 0.311937 0.000000
0.311937 0.311937 0.000000
0.344392 0.311937 0.000000
0.376274 0.311937 0.000000
0.407651 0.311937 0.000000
0.438574 0.311937 0.000000
0.469089 0.311937 0.000000
0.499230 0.311937 0.000000
0.529030 0.311937 0.000000
0.558513 0.311937 0.000000
0.587704 0.311937 0.000000
0.616622 0.311937 0.000000
0.645284 0.311937 0.000000
0.673706 0.311937 0.000000
0.701902 0.311937 0.000000
0.729885 0.311937 0.000000
0.757665 0.311937 0.000000
0.785253 0.311937 0.000000
0.812658 0.311937 0.000000
0.839888 0.311937 0.000000
0.866951 0.311937 0.000000
0.893855 0.311937 0.000000
0.920606 0.311937 0.000000
0.947210 0.311937 0.000000
0.973673 0.311937 0.000000
1.000000 0.311937 0.000000
0.000000 0.344392 0.000000
0.054346 0.344392 0.000000
0.097305 0.344392 0.000000
0.136808 0.344392 0.000000
0.174221 0.344392 0.000000
0.210154 0.344392 0.000000
0.244950 0.344392 0.000000
0.278827 0.344392 0.000000
0.311937 0.344392 0.000000
0.344392 0.344392 0.000000
0.376274 0.344392 0.000000
0.407651 0.344392 0.000000
0.438574 0.344392 0.000000
0.469089 0.344392 0.000000
0.499230 0.344392 0.000000
0.529030 0.344392 0.000000
0.558513 0.344392 0.000000
0.587704 0.344392 0.000000
0.616622 0.344392 0.000000
0.645284 0.344392 0.000000
0.673706 0.344392 0.000000
0.701902 0.344392 0.000000
0.729885 0.344392 0.000000
0.757665 0.344392 0.000000
0.785253 0.344392 0.000000
0.812658 0.344392 0.000000
0.839888 0.344392 0.000000
0.866951 0.344392 0.000000
0.893855 0.344392 0.000000
0.920606 0.344392 0.000000
0.947210 0.344392 0.000000
0.973673 0.344392 0.000000
1.000000 0.344392 0.000000
0.000000 0.376274 0.000000
0.054346 0.376274 0.000000
0.097305 0.376274 0.000000
0.136808 0.376274 0.000000
0.174221 0.376274 0.000000
0.210154 0.376274 0.000000
0.244950 0.376274 0.000000
0.278827 0.376274 0.000000
0.311937 0.376274 0.000000
0.344392 0.376274 0.000000
0.376274 0.376274 0.000000
0.407651 0.376274 0.000000
0.438574 0.376274 0.000000
0.469089 0.376274 0.000000
0.499230 0.376274 0.000000
0.529030 0.376274 0.000000
0.558513 0.376274 0.000000
0.587704 0.376274 0.000000
0.616622 0.376274 0.000000
0.645284 0.376274 0.000000
0.673706 0.376274 0.000000
0.701902 0.376274 0.000000
0.729885 0.376274 0.000000
0.757665 0.376274 0.000000
0.785253 0.376274 0.000000
0.812658 0.376274 0.000000
0.839888 0.376274 0.000000
0.866951 0.376274 0.000000
0.893855 0.376274 0.000000
0.920606 0.376274 0.000000
0.947210 0.376274 0.000000
0.973673 0.376274 0.000000
1.000000 0.376274 0.000000
0.000000 0.407651 0.000000
0.054346 0.407651 0.000000
0.097305 0.407651 0.000000
0.136808 0.407651 0.000000
0.174221 0.407651 0.000000
0.210154 0.407651 0.000000
0.244950 0.407651 0.000000
0.278827 0.407651 0.000000
0.311937 0.407651 0.000000
0.344392 0.407651 0.000000
0.376274 0.407651 0.000000
0.407651 0.407651 0.000000
0.438574 0.407651 0.000000
0.469089 0.407651 0.000000
0.499230 0.407651 0.000000
0.529030 0.407651 0.000000
0.558513 0.407651 0.000000
0.587704 0.407651 0.000000
0.616622 0.407651 0.000000
0.645284 0.407651 0.000000
0.673706 0.407651 0.000000
0.701902 0.407651 0.000000
0.729885 0.407651 0.000000
0.757665 0.407651 0.000000
0.785253 0.407651 0.000000
0.812658 0.407651 0.000000
0.839888 0.407651 0.000000
0.866951 0.407651 0.000000
0.893855 0.407651 0.000000
0.920606 0.407651 0.000000
0.947210 0.407651 0.000000
0.973673 0.407651 0.000000
1.000000 0.407651 0.000000
0.000000 0.438574 0.000000
0.054346 0.438574 0.000000
0.097305 0.438574 0.000000
0.136808 0.438574 0.000000
0.174221 0.438574 0.000000
0.210154 0.438574 0.000000
0.244950 0.438574 0.000000
0.278827 0.438574 0.000000
0.311937 0.438574 0.000000
0.344392 0.438574 0.000000
0.376274 0.438574 0.000000
0.407651 0.438574 0.000000
0.438574 0.438574 0.000000
0.469089 0.438574 0.000000
0.499230 0.438574 0.000000
0.529030 0.438574 0.000000
0.558513 0.438574 0.000000
0.587704 0.438574 0.000000
0.616622 0.438574 0.000000
0.645284 0.438574 0.000000
0.673706 0.438574 0.000000
0.701902 0.438574 0.000000
0.729885 0.438574 0.000000
0.757665 0.438574 0.000000
0.785253 0.438574 0.000000
0.812658 0.438574 0.000000
0.839888 0.438574 0.000000
0.866951 0.438574 0.000000
0.893855 0.438574 0.000000
0.920606 0.438574 0.000000
0.947210 0.438574 0.000000
0.973673 0.438574 0.000000
1.000000 0.438574 0.000000
0.000000 0.469089 0.000000
0.054346 0.469089 0.000000
0.097305 0.469089 0.000000
0.136808 0.469089 0.000000
0.174221 0.469089 0.000000
0.210154 0.469089 0.000000
0.244950 0.469089 0.000000
0.278827 0.469089 0.000000
0.311937 0.469089 0.000000
0.344392 0.469089 0.000000
0.376274 0.469089 0.000000
0.407651 0.469089 0.000000
0.438574 0.469089 0.000000
0.469089 0.469089 0.000000
0.499230 0.469089 0.000000
0.529030 0.469089 0.000000
0.558513 0.469089 0.000000
0.587704 0.469089 0.000000
0.616622 0.469089 0.000000
0.645284 0.469089 0.000000
0.673706 0.469089 0.000000
0.701902 0.469089 0.000000
0.729885 0.469089 0.000000
0.757665 0.469089 0.000000
0.785253 0.469089 0.000000
0.812658 0.469089 0.000000
0.839888 0.469089 0.000000
0.866951 0.469089 0.000000
0.893855 0.469089 0.000000
0.920606 0.469089 0.000000
0.947210 0.469089 0.000000
0.973673 0.469089 0.000000
1.000000 0.469089 0.000000
0.000000 0.499230 0.000000
0.054346 0.499230 0.000000
0.097305 0.499230 0.000000
0.136808 0.499230 0.000000
0.174221 0.499230 0.000000
0.210154 0.499230 0.000000
0.244950 0.499230 0.000000
0.278827 0.499230 0.000000
0.311937 0.499230 0.000000
0.344392 0.499230 0.000000
0.376274 0.499230 0.000000
0.407651 0.499230 0.000000
0.438574 0.499230 0.000000
0.469089 0.499230 0.000000
0.499230 0.499230 0.000000
0.529030 0.499230 0.000000
0.558513 0.499230 0.000000
0.587704 0.499230 0.000000
0.616622 0.499230 0.000000
0.645284 0.499230 0.000000
0.673706 0.499230 0.000000
0.701902 0.499230 0.000000
0.729885 0.499230 0.000000
0.757665 0.499230 0.000000
0.785253 0.499230 0.000000
0.812658 0.499230 0.000000
0.839888 0.499230 0.000000
0.866951 0.499230 0.000000
0.893855 0.499230 0.000000
0.920606 0.499230 0.000000
0.947210 0.499230 0.000000
0.973673 0.499230 0.000000
1.000000 0.499230 0.000000
0.000000 0.529030 0.000000
0.054346 0.529030 0.000000
0.097305 0.529030 0.000000
0.136808 0.529030 0.000000
0.174221 0.529030 0.000000
0.210154 0.529030 0.000000
0.244950 0.529030 0.000000
0.278827 0.529030 0.000000
0.311937 0.529030 0.000000
0.344392 0.529030 0.000000
0.376274 0.529030 0.000000
0.407651 0.529030 0.000000
0.438574 0.529030 0.000000
0.469089 0.529030 0.000000
0.499230 0.529030 0.000000
0.529030 0.529030 0.000000
0.558513 0.529030 0.000000
0.587704 0.529030 0.000000
0.616622 0.529030 0.000000
0.645284 0.529030 0.000000
0.673706 0.529030 0.000000
0.701902 0.529030 0.000000
0.729885 0.529030 0.000000
0.757665 0.529030 0.000000
0.785253 0.529030 0.000000
0.812658 0.529030 0.000000
0.839888 0.529030 0.000000
0.866951 0.529030 0.000000
0.893855 0.529030 0.000000
0.920606 0.529030 0.000000
0.947210 0.529030 0.000000
0.973673 0.529030 0.000000
1.000000 0.529030 0.000000
0.000000 0.558513 0.000000
0.054346 0.558513 0.000000
0.097305 0.558513 0.000000
0.136808 0.558513 0.000000
0.174221 0.558513 0.000000
0.210154 0.558513 0.000000
0.244950 0.558513 0.000000
0.278827 0.558513 0.000000
0.311937 0.558513 0.000000
0.344392 0.558513 0.000000
0.376274 0.558513 0.000000
0.407651 0.558513 0.000000
0.438574 0.558513 0.000000
0.469089 0.558513 0.000000
0.499230 0.558513 0.000000
0.529030 0.558513 0.000000
0.558513 0.558513 0.000000
0.587704 0.558513 0.000000
0.616622 0.558513 0.000000
0.645284 0.558513 0.000000
0.673706 0.558513 0.000000
0.701902 0.558513 0.000000
0.729885 0.558513 0.000000
0.757665 0.558513 0.000000
0.785253 0.558513 0.000000
0.812658 0.558513 0.000000
0.839888 0.558513 0.000000
0.866951 0.558513 0.000000
0.893855 0.558513 0.000000
0.920606 0.558513 0.000000
0.947210 0.558513 0.000000
0.973673 0.558513 0.000000
1.000000 0.558513 0.000000
0.000000 0.587704 0.000000
0.054346 0.587704 0.000000
0.097305 0.587704 0.000000
0.136808 0.587704 0.000000
0.174221 0.587704 0.000000
0.210154 0.587704 0.000000
0.244950 0.587704 0.000000
0.278827 0.587704 0.000000
0.311937 0.587704 0.000000
0.344392 0.587704 0.000000
0.376274 0.587704 0.000000
0.407651 0.587704 0.000000
0.438574 0.587704 0.000000
0.469089 0.587704 0.000000
0.499230 0.587704 0.000000
0.529030 0.587704 0.000000
0.558513 0.587704 0.000000
0.587704 0.587704 0.000000
0.616622 0.587704 0.000000
0.645284 0.587704 0.000000
0.673706 0.587704 0.000000
0.701902 0.587704 0.000000
0.729885 0.587704 0.000000
0.757665 0.587704 0.000000
0.785253 0.587704 0.000000
0.812658 0.587704 0.000000
0.839888 0.587704 0.000000
0.866951 0.587704 0.000000
0.893855 0.587704 0.000000
0.920606 0.587704 0.000000
0.947210 0.587704 0.000000
0.973673 0.587704 0.000000
1.000000 0.587704 0.000000
0.000000 0.616622 0.000000
0.054346 0.616622 0.000000
0.097305 0.616622 0.000000
0.136808 0.616622 0.000000
0.174221 0.616622 0.000000
0.210154 0.616622 0.000000
0.244950 0.616622 0.000000
0.278827 0.616622 0.000000
0.311937 0.616622 0.000000
0.344392 0.616622 0.000000
0.376274 0.616622 0.000000
0.407651 0.616622 0.000000
0.438574 0.616622 0.000000
0.469089 0.616622 0.000000
0.499230 0.616622 0.000000
0.529030 0.616622 0.000000
0.558513 0.616622 0.000000
0.587704 0.616622 0.000000
0.616622 0.616622 0.000000
0.645284 0.616622 0.000000
0.673706 0.616622 0.000000
0.701902 0.616622 0.000000
0.729885 0.616622 0.000000
0.757665 0.616622 0.000000
0.785253 0.616622 0.000000
0.812658 0.616622 0.000000
0.839888 0.616622 0.000000
0.866951 0.616622 0.000000
0.893855 0.616622 0.000000
0.920606 0.616622 0.000000
0.947210 0.616622 0.000000
0.973673 0.616622 0.000000
1.000000 0.616622 0.000000
0.000000 0.645284 0.000000
0.054346 0.645284 0.000000
0.097305 0.645284 0.000000
0.136808 0.645284 0.000000
0.174221 0.645284 0.000000
0.210154 0.645284 0.000000
0.244950 0.645284 0.000000
0.278827 0.645284 0.000000
0.311937 0.645284 0.000000
0.344392 0.645284 0.000000
0.376274 0.645284 0.000000
0.407651 0.645284 0.000000
0.438574 0.645284 0.000000
0.469089 0.645284 0.000000
0.499230 0.645284 0.000000
0.529030 0.645284 0.000000
0.558513 0.645284 0.000000
0.587704 0.645284 0.000000
0.616622 0.645284 0.000000
0.645284 0.645284 0.000000
0.673706 0.645284 0.000000
0.701902 0.645284 0.000000
0.729885 0.645284 0.000000
0.757665 0.645284 0.000000
0.785253 0.645284 0.000000
0.812658 0.645284 0.000000
0.839888 0.645284 0.000000
0.866951 0.645284 0.000000
0.893855 0.645284 0.000000
0.920606 0.645284 0.000000
0.947210 0.645284 0.000000
0.973673 0.645284 0.000000
1.000000 0.645284 0.000000
0.000000 0.673706 0.000000
0.054346 0.673706 0.000000
0.097305 0.673706 0.000000
0.136808 0.673706 0.000000
0.174221 0.673706 0.000000
0.210154 0.673706 0.000000
0.244950 0.673706 0.000000
0.278827 0.673706 0.000000
0.311937 0.673706 0.000000
0.344392 0.673706 0.000000
0.376274 0.673706 0.000000
0.407651 0.673706 0.000000
0.438574 0.673706 0.000000
0.469089 0.673706 0.000000
0.499230 0.673706 0.000000
0.529030 0.673706 0.000000
0.558513 0.673706 0.000000
0.587704 0.673706 0.000000
0.616622 0.673706 0.000000
0.645284 0.673706 0.000000
0.673706 0.673706 0.000000
0.701902 0.673706 0.000000
0.729885 0.673706 0.000000
0.757665 0.673706 0.000000
0.785253 0.673706 0.000000
0.812658 0.673706 0.000000
0.839888 0.673706 0.000000
0.866951 0.673706 0.000000
0.893855 0.673706 0.000000
0.920606 0.673706 0.000000
0.947210 0.673706 0.000000
0.973673 0.673706 0.000000
1.000000 0.673706 0.000000
0.000000 0.701902 0.000000
0.054346 0.701902 0.000000
0.097305 0.701902 0.000000
0.136808 0.701902 0.000000
0.174221 0.701902 0.000000
0.210154 0.701902 0.000000
0.244950 0.701902 0.000000
0.278827 0.701902 0.000000
0.311937 0.701902 0.000000
0.344392 0.701902 0.000000
0.376274 0.701902 0.000000
0.407651 0.701902 0.000000
0.438574 0.701902 0.000000
0.469089 0.701902 0.000000
0.499230 0.701902 0.000000
0.529030 0.701902 0.000000
0.558513 0.701902 0.000000
0.587704 0.701902 0.000000
0.616622 0.701902 0.000000
0.645284 0.701902 0.000000
0.673706 0.701902 0.000000
0.701902 0.701902 0.000000
0.729885 0.701902 0.000000
0.757665 0.701902 0.000000
0.785253 0.701902 0.000000
0.812658 0.701902 0.000000
0.839888 0.701902 0.000000
0.866951 0.701902 0.000000
0.893855 0.701902 0.000000
0.920606 0.701902 0.000000
0.947210 0.701902 0.000000
0.973673 0.701902 0.000000
1.000000 0.701902 0.000000
0.000000 0.729885 0.000000
0.054346 0.729885 0.000000
0.097305 0.729885 0.000000
0.136808 0.729885 0.000000
0.174221 0.729885 0.000000
0.210154 0.729885 0.000000
0.244950 0.729885 0.000000
0.278827 0.729885 0.000000
0.311937 0.729885 0.000000
0.344392 0.729885 0.000000
0.376274 0.729885 0.000000
0.407651 0.729885 0.000000
0.438574 0.729885 0.000000
0.469089 0.729885 0.000000
0.499230 0.729885 0.000000
0.529030 0.729885 0.000000
0.558513 0.729885 0.000000
0.587704 0.729885 0.000000
0.616622 0.729885 0.000000
0.645284 0.729885 0.000000
0.673706 0.729885 0.000000
0.701902 0.729885 0.000000
0.729885 0.729885 0.000000
0.757665 0.729885 0.000000
0.785253 0.729885 0.000000
0.812658 0.729885 0.000000
0.839888 0.729885 0.000000
0.866951 0.729885 0.000000
0.893855 0.729885 0.000000
0.920606 0.729885 0.000000
0.947210 0.729885 0.000000
0.973673 0.729885 0.000000
1.000000 0.729885 0.000000
0.000000 0.757665 0.000000
0.054346 0.757665 0.000000
0.097305 0.757665 0.000000
0.136808 0.757665 0.000000
0.174221 0.757665 0.000000
0.210154 0.757665 0.000000
0.244950 0.757665 0.000000
0.278827 0.757665 0.000000
0.311937 0.757665 0.000000
0.344392 0.757665 0.000000
0.376274 0.757665 0.000000
0.407651 0.757665 0.000000
0.438574 0.757665 0.000000
0.469089 0.757665 0.000000
0.499230 0.757665 0.000000
0.529030 0.757665 0.000000
0.558513 0.757665 0.000000
0.587704 0.757665 0.000000
0.616622 0.757665 0.000000
0.645284 0.757665 0.000000
0.673706 0.757665 0.000000
0.701902 0.757665 0.000000
0.729885 0.757665 0.000000
0.757665 0.757665 0.000000
0.785253 0.757665 0.000000
0.812658 0.757665 0.000000
0.839888 0.757665 0.000000
0.866951 0.757665 0.000000
0.893855 0.757665 0.000000
0.920606 0.757665 0.000000
0.947210 0.757665 0.000000
0.973673 0.757665 0.000000
1.000000 0.757665 0.000000
0.000000 0.785253 0.000000
0.054346 0.785253 0.000000
0.097305 0.785253 0.000000
0.136808 0.785253 0.000000
0.174221 0.785253 0.000000
0.210154 0.785253 0.000000
0.244950 0.785253 0.000000
0.278827 0.785253 0.000000
0.311937 0.785253 0.000000
0.344392 0.785253 0.000000
0.376274 0.785253 0.000000
0.407651 0.785253 0.000000
0.438574 0.785253 0.000000
0.469089 0.785253 0.000000
0.499230 0.785253 0.000000
0.529030 0.785253 0.000000
0.558513 0.785253 0.000000
0.587704 0.785253 0.000000
0.616622 0.785253 0.000000
0.645284 0.785253 0.000000
0.673706 0.785253 0.000000
0.701902 0.785253 0.000000
0.729885 0.785253 0.000000
0.757665 0.785253 0.000000
0.785253 0.785253 0.000000
0.812658 0.785253 0.000000
0.839888 0.785253 0.000000
0.866951 0.785253 0.000000
0.893855 0.785253 0.000000
0.920606 0.785253 0.000000
0.947210 0.785253 0.000000
0.973673 0.785253 0.000000
1.000000 0.785253 0.000000
0.000000 0.812658 0.000000
0.054346 0.812658 0.000000
0.097305 0.812658 0.000000
0.136808 0.812658 0.000000
0.174221 0.812658 0.000000
0.210154 0.812658 0.000000
0.244950 0.812658 0.000000
0.278827 0.812658 0.000000
0.311937 0.812658 0.000000
0.344392 0.812658 0.000000
0.376274 0.812658 0.000000
0.407651 0.812658 0.000000
0.438574 0.812658 0.000000
0.469089 0.812658 0.000000
0.499230 0.812658 0.000000
0.529030 0.812658 0.000000
0.558513 0.812658 0.000000
0.587704 0.812658 0.000000
0.616622 0.812658 0.000000
0.645284 0.812658 0.000000
0.673706 0.812658 0.000000
0.701902 0.812658 0.000000
0.729885 0.812658 0.000000
0.757665 0.812658 0.000000
0.785253 0.812658 0.000000
0.812658 0.812658 0.000000
0.839888 0.812658 0.000000
0.866951 0.812658 0.000000
0.893855 0.812658 0.000000
0.920606 0.812658 0.000000
0.947210 0.812658 0.000000
0.973673 0.812658 0.000000
1.000000 0.812658 0.000000
0.000000 0.839888 0.000000
0.054346 0.839888 0.000000
0.097305 0.839888 0.000000
0.136808 0.839888 0.000000
0.174221 0.839888 0.000000
0.210154 0.839888 0.000000
0.244950 0.839888 0.000000
0.278827 0.839888 0.000000
0.311937 0.839888 0.000000
0.344392 0.839888 0.000000
0.376274 0.839888 0.000000
0.407651 0.839888 0.000000
0.438574 0.839888 0.000000
0.469089 0.839888 0.000000
0.499230 0.839888 0.000000
0.529030 0.839888 0.000000
0.558513 0.839888 0.000000
0.587704 0.839888 0.000000
0.616622 0.839888 0.000000
0.645284 0.839888 0.000000
0.673706 0.839888 0.000000
0.701902 0.839888 0.000000
0.729885 0.839888 0.000000
0.757665 0.839888 0.000000
0.785253 0.839888 0.000000
