presets/film_stocks/Kodak_Aerochrome_III_Infrared_Film_1443.cube
# 独寻胶片模拟 -- Kodak Aerochrome III Infrared Film 1443
# Kodak, ISO 40, 2001, positive
TITLE "Kodak Aerochrome III Infrared Film 1443"
LUT_3D_SIZE 33
DOMAIN_MIN 0.0 0.0 0.0
DOMAIN_MAX 1.0 1.0 1.0
0.000000 0.000000 0.000000
0.152104 0.000000 0.000000
0.249553 0.000000 0.000000
0.333382 0.000000 0.000000
0.409434 0.000000 0.000000
0.480182 0.000000 0.000000
0.546970 0.000000 0.000000
0.610637 0.000000 0.000000
0.671747 0.000000 0.000000
0.730707 0.000000 0.000000
0.787820 0.000000 0.000000
0.843322 0.000000 0.000000
0.897398 0.000000 0.000000
0.950201 0.000000 0.000000
1.000000 0.000000 0.000000
1.000000 0.000000 0.000000
1.000000 0.000000 0.000000
1.000000 0.000000 0.000000
1.000000 0.000000 0.000000
1.000000 0.000000 0.000000
1.000000 0.000000 0.000000
1.000000 0.000000 0.000000
1.000000 0.000000 0.000000
1.000000 0.000000 0.000000
1.000000 0.000000 0.000000
1.000000 0.000000 0.000000
1.000000 0.000000 0.000000
1.000000 0.000000 0.000000
1.000000 0.000000 0.000000
1.000000 0.000000 0.000000
1.000000 0.000000 0.000000
1.000000 0.000000 0.000000
1.000000 0.000000 0.000000
0.004797 0.026578 0.000307
0.152963 0.024466 0.000000
0.250258 0.022279 0.000000
0.334010 0.020003 0.000000
0.410013 0.017617 0.000000
0.480725 0.015094 0.000000
0.547486 0.012389 0.000000
0.611130 0.009420 0.000000
0.672222 0.006007 0.000000
0.731166 0.001340 0.000000
0.788266 0.000000 0.000000
0.843755 0.000000 0.000000
0.897821 0.000000 0.000000
0.950614 0.000000 0.000000
1.000000 0.000000 0.000000
1.000000 0.000000 0.000000
1.000000 0.000000 0.000000
1.000000 0.000000 0.000000
1.000000 0.000000 0.000000
1.000000 0.000000 0.000000
1.000000 0.000000 0.000000
1.000000 0.000000 0.000000
1.000000 0.000000 0.000000
1.000000 0.000000 0.000000
1.000000 0.000000 0.000000
1.000000 0.000000 0.000000
1.000000 0.000000 0.000000
1.000000 0.000000 0.000000
1.000000 0.000000 0.000000
1.000000 0.000000 0.000000
1.000000 0.000000 0.000000
1.000000 0.000000 0.000000
1.000000 0.000000 0.000000
0.007870 0.043605 0.000503
0.153820 0.041887 0.000000
0.250962 0.040141 0.000000
0.334637 0.038364 0.000000
0.410591 0.036553 0.000000
0.481267 0.034706 0.000000
0.548001 0.032818 0.000000
0.611623 0.030886 0.000000
0.672696 0.028904 0.000000
0.731625 0.026867 0.000000
0.788711 0.024765 0.000000
0.844188 0.022589 0.000000
0.898243 0.020326 0.000000
0.951027 0.017958 0.000000
1.000000 0.015456 0.000000
1.000000 0.012780 0.000000
1.000000 0.009855 0.000000
1.000000 0.006523 0.000000
1.000000 0.002198 0.000000
1.000000 0.000000 0.000000
1.000000 0.000000 0.000000
1.000000 0.000000 0.000000
1.000000 0.000000 0.000000
1.000000 0.000000 0.000000
1.000000 0.000000 0.000000
1.000000 0.000000 0.000000
1.000000 0.000000 0.000000
1.000000 0.000000 0.000000
1.000000 0.000000 0.000000
1.000000 0.000000 0.000000
1.000000 0.000000 0.000000
1.000000 0.000000 0.000000
1.000000 0.000000 0.000000
0.010514 0.058253 0.000672
0.154675 0.056727 0.000000
0.251665 0.055185 0.000000
0.335264 0.053625 0.000000
0.411169 0.052047 0.000000
0.481809 0.050450 0.000000
0.548515 0.048832 0.000000
0.612115 0.047193 0.000000
0.673170 0.045530 0.000000
0.732083 0.043842 0.000000
0.789156 0.042129 0.000000
0.844622 0.040387 0.000000
0.898666 0.038614 0.000000
0.951440 0.036808 0.000000
1.000000 0.034966 0.000000
1.000000 0.033084 0.000000
1.000000 0.031158 0.000000
1.000000 0.029184 0.000000
1.000000 0.027154 0.000000
1.000000 0.025062 0.000000
1.000000 0.022898 0.000000
1.000000 0.020648 0.000000
1.000000 0.018295 0.000000
1.000000 0.015814 0.000000
1.000000 0.013166 0.000000
1.000000 0.010282 0.000000
1.000000 0.007024 0.000000
1.000000 0.002936 0.000000
1.000000 0.000000 0.000000
1.000000 0.000000 0.000000
1.000000 0.000000 0.000000
1.000000 0.000000 0.000000
1.000000 0.000000 0.000000
0.012912 0.071542 0.000825
0.155528 0.070138 0.000000
0.252368 0.068724 0.000000
0.335891 0.067297 0.000000
0.411746 0.065859 0.000000
0.482351 0.064407 0.000000
0.549030 0.062943 0.000000
0.612608 0.061464 0.000000
0.673644 0.059972 0.000000
0.732542 0.058464 0.000000
0.789601 0.056941 0.000000
0.845055 0.055401 0.000000
0.899088 0.053844 0.000000
0.951853 0.052269 0.000000
1.000000 0.050674 0.000000
1.000000 0.049059 0.000000
1.000000 0.047422 0.000000
1.000000 0.045763 0.000000
1.000000 0.044079 0.000000
1.000000 0.042369 0.000000
1.000000 0.040631 0.000000
1.000000 0.038863 0.000000
1.000000 0.037062 0.000000
1.000000 0.035225 0.000000
1.000000 0.033349 0.000000
1.000000 0.031430 0.000000
1.000000 0.029462 0.000000
1.000000 0.027441 0.000000
1.000000 0.025358 0.000000
1.000000 0.023204 0.000000
1.000000 0.020967 0.000000
1.000000 0.018630 0.000000
1.000000 0.016169 0.000000
0.015143 0.083903 0.000968
0.156379 0.082588 0.000000
0.253069 0.081264 0.000000
0.336517 0.079931 0.000000
0.412323 0.078589 0.000000
0.482893 0.077238 0.000000
0.549544 0.075878 0.000000
0.613100 0.074508 0.000000
0.674118 0.073127 0.000000
0.733000 0.071736 0.000000
0.790046 0.070335 0.000000
0.845487 0.068922 0.000000
0.899511 0.067497 0.000000
0.952265 0.066060 0.000000
1.000000 0.064610 0.000000
1.000000 0.063148 0.000000
1.000000 0.061671 0.000000
1.000000 0.060181 0.000000
1.000000 0.058675 0.000000
1.000000 0.057154 0.000000
1.000000 0.055617 0.000000
1.000000 0.054062 0.000000
1.000000 0.052489 0.000000
1.000000 0.050897 0.000000
1.000000 0.049285 0.000000
1.000000 0.047652 0.000000
1.000000 0.045996 0.000000
1.000000 0.044316 0.000000
1.000000 0.042609 0.000000
1.000000 0.040875 0.000000
1.000000 0.039111 0.000000
1.000000 0.037315 0.000000
1.000000 0.035483 0.000000
0.017250 0.095574 0.001103
0.157228 0.094325 0.000000
0.253770 0.093071 0.000000
0.337142 0.091809 0.000000
0.412900 0.090540 0.000000
0.483434 0.089265 0.000000
0.550058 0.087982 0.000000
0.613592 0.086691 0.000000
0.674592 0.085393 0.000000
0.733458 0.084086 0.000000
0.790490 0.082772 0.000000
0.845920 0.081449 0.000000
0.899933 0.080117 0.000000
0.952678 0.078777 0.000000
1.000000 0.077427 0.000000
1.000000 0.076068 0.000000
1.000000 0.074699 0.000000
1.000000 0.073320 0.000000
1.000000 0.071931 0.000000
1.000000 0.070531 0.000000
1.000000 0.069119 0.000000
1.000000 0.067696 0.000000
1.000000 0.066261 0.000000
1.000000 0.064813 0.000000
1.000000 0.063353 0.000000
1.000000 0.061878 0.000000
1.000000 0.060390 0.000000
1.000000 0.058886 0.000000
1.000000 0.057367 0.000000
1.000000 0.055832 0.000000
1.000000 0.054280 0.000000
1.000000 0.052710 0.000000
1.000000 0.051121 0.000000
0.019257 0.106698 0.001231
0.158076 0.105504 0.000000
0.254471 0.104305 0.000000
0.337767 0.103100 0.000000
0.413476 0.101889 0.000000
0.483976 0.100673 0.000000
0.550572 0.099451 0.000000
0.614084 0.098222 0.000000
0.675066 0.096988 0.000000
0.733916 0.095747 0.000000
0.790935 0.094500 0.000000
0.846353 0.093246 0.000000
0.900355 0.091985 0.000000
0.953091 0.090718 0.000000
1.000000 0.089443 0.000000
1.000000 0.088161 0.000000
1.000000 0.086871 0.000000
1.000000 0.085574 0.000000
1.000000 0.084269 0.000000
1.000000 0.082956 0.000000
1.000000 0.081634 0.000000
1.000000 0.080304 0.000000
1.000000 0.078964 0.000000
1.000000 0.077616 0.000000
1.000000 0.076258 0.000000
1.000000 0.074891 0.000000
1.000000 0.073513 0.000000
1.000000 0.072125 0.000000
1.000000 0.070727 0.000000
1.000000 0.069317 0.000000
1.000000 0.067895 0.000000
1.000000 0.066462 0.000000
1.000000 0.065016 0.000000
0.021185 0.117376 0.001354
0.158921 0.116227 0.000000
0.255170 0.115074 0.000000
0.338392 0.113916 0.000000
0.414052 0.112753 0.000000
0.484517 0.111585 0.000000
0.551086 0.110412 0.000000
0.614576 0.109235 0.000000
0.675540 0.108052 0.000000
0.734374 0.106864 0.000000
0.791379 0.105671 0.000000
0.846786 0.104472 0.000000
0.900777 0.103268 0.000000
0.953503 0.102059 0.000000
1.000000 0.100843 0.000000
1.000000 0.099622 0.000000
1.000000 0.098394 0.000000
1.000000 0.097160 0.000000
1.000000 0.095921 0.000000
1.000000 0.094674 0.000000
1.000000 0.093421 0.000000
1.000000 0.092162 0.000000
1.000000 0.090895 0.000000
1.000000 0.089621 0.000000
1.000000 0.088340 0.000000
1.000000 0.087052 0.000000
1.000000 0.085755 0.000000
1.000000 0.084451 0.000000
1.000000 0.083139 0.000000
1.000000 0.081819 0.000000
1.000000 0.080490 0.000000
1.000000 0.079152 0.000000
1.000000 0.077805 0.000000
0.023044 0.127678 0.001473
0.159765 0.126568 0.000000
0.255869 0.125453 0.000000
0.339016 0.124335 0.000000
0.414628 0.123212 0.000000
0.485057 0.122085 0.000000
0.551600 0.120954 0.000000
0.615068 0.119819 0.000000
0.676013 0.118680 0.000000
0.734832 0.117536 0.000000
0.791824 0.116388 0.000000
0.847218 0.115235 0.000000
0.901199 0.114077 0.000000
0.953916 0.112915 0.000000
1.000000 0.111748 0.000000
1.000000 0.110576 0.000000
1.000000 0.109399 0.000000
1.000000 0.108217 0.000000
1.000000 0.107030 0.000000
1.000000 0.105838 0.000000
1.000000 0.104640 0.000000
1.000000 0.103437 0.000000
1.000000 0.102228 0.000000
1.000000 0.101013 0.000000
1.000000 0.099792 0.000000
1.000000 0.098566 0.000000
1.000000 0.097333 0.000000
1.000000 0.096094 0.000000
1.000000 0.094848 0.000000
1.000000 0.093596 0.000000
1.000000 0.092338 0.000000
1.000000 0.091072 0.000000
1.000000 0.089799 0.000000
0.024845 0.137658 0.001588
0.160607 0.136580 0.000167
0.256566 0.135499 0.000000
0.339640 0.134415 0.000000
0.415204 0.133327 0.000000
0.485598 0.132236 0.000000
0.552113 0.131141 0.000000
0.615559 0.130042 0.000000
0.676486 0.128939 0.000000
0.735290 0.127833 0.000000
0.792268 0.126723 0.000000
0.847651 0.125609 0.000000
0.901621 0.124491 0.000000
0.954328 0.123369 0.000000
1.000000 0.122243 0.000000
1.000000 0.121112 0.000000
1.000000 0.119978 0.000000
1.000000 0.118839 0.000000
1.000000 0.117696 0.000000
1.000000 0.116548 0.000000
1.000000 0.115396 0.000000
1.000000 0.114239 0.000000
1.000000 0.113078 0.000000
1.000000 0.111911 0.000000
1.000000 0.110740 0.000000
1.000000 0.109564 0.000000
1.000000 0.108383 0.000000
1.000000 0.107196 0.000000
1.000000 0.106004 0.000000
1.000000 0.104807 0.000000
1.000000 0.103605 0.000000
1.000000 0.102396 0.000000
1.000000 0.101183 0.000000
0.026595 0.147356 0.001700
0.161448 0.146307 0.000395
0.257263 0.145256 0.000000
0.340263 0.144201 0.000000
0.415779 0.143144 0.000000
0.486138 0.142083 0.000000
0.552627 0.141019 0.000000
0.616051 0.139952 0.000000
0.676960 0.138882 0.000000
0.735748 0.137808 0.000000
0.792712 0.136731 0.000000
0.848083 0.135650 0.000000
0.902043 0.134566 0.000000
0.954741 0.133479 0.000000
1.000000 0.132388 0.000000
1.000000 0.131293 0.000000
1.000000 0.130195 0.000000
1.000000 0.129093 0.000000
1.000000 0.127987 0.000000
1.000000 0.126878 0.000000
1.000000 0.125764 0.000000
1.000000 0.124647 0.000000
1.000000 0.123525 0.000000
1.000000 0.122400 0.000000
1.000000 0.121270 0.000000
1.000000 0.120136 0.000000
1.000000 0.118998 0.000000
1.000000 0.117855 0.000000
1.000000 0.116708 0.000000
1.000000 0.115557 0.000000
1.000000 0.114401 0.000000
1.000000 0.113240 0.000000
1.000000 0.112074 0.000000
0.028301 0.156805 0.001809
0.162286 0.155782 0.000578
0.257960 0.154757 0.000000
0.340886 0.153729 0.000000
0.416354 0.152698 0.000000
0.486678 0.151665 0.000000
0.553140 0.150628 0.000000
0.616542 0.149589 0.000000
0.677433 0.148547 0.000000
0.736205 0.147502 0.000000
0.793157 0.146454 0.000000
0.848515 0.145403 0.000000
0.902465 0.144349 0.000000
0.955153 0.143292 0.000000
1.000000 0.142231 0.000000
1.000000 0.141168 0.000000
1.000000 0.140101 0.000000
1.000000 0.139031 0.000000
1.000000 0.137958 0.000000
1.000000 0.136881 0.000000
1.000000 0.135801 0.000000
1.000000 0.134718 0.000000
1.000000 0.133631 0.000000
1.000000 0.132540 0.000000
1.000000 0.131446 0.000000
1.000000 0.130349 0.000000
1.000000 0.129247 0.000000
1.000000 0.128142 0.000000
1.000000 0.127033 0.000000
1.000000 0.125920 0.000000
1.000000 0.124803 0.000000
1.000000 0.123682 0.000000
1.000000 0.122557 0.000000
0.029966 0.166031 0.001916
0.163123 0.165032 0.000739
0.258655 0.164030 0.000000
0.341508 0.163026 0.000000
0.416928 0.162019 0.000000
0.487218 0.161010 0.000000
0.553652 0.159998 0.000000
0.617033 0.158984 0.000000
0.677906 0.157967 0.000000
0.736663 0.156947 0.000000
0.793601 0.155925 0.000000
0.848948 0.154900 0.000000
0.902886 0.153872 0.000000
0.955565 0.152842 0.000000
1.000000 0.151809 0.000000
1.000000 0.150773 0.000000
1.000000 0.149734 0.000000
1.000000 0.148692 0.000000
1.000000 0.147648 0.000000
1.000000 0.146600 0.000000
1.000000 0.145550 0.000000
1.000000 0.144496 0.000000
1.000000 0.143439 0.000000
1.000000 0.142379 0.000000
1.000000 0.141316 0.000000
1.000000 0.140250 0.000000
1.000000 0.139181 0.000000
1.000000 0.138108 0.000000
1.000000 0.137032 0.000000
1.000000 0.135952 0.000000
1.000000 0.134869 0.000000
1.000000 0.133783 0.000000
1.000000 0.132693 0.000000
0.031595 0.175057 0.002020
0.163958 0.174078 0.000887
0.259350 0.173098 0.000000
0.342130 0.172115 0.000000
0.417502 0.171130 0.000000
0.487757 0.170143 0.000000
0.554165 0.169153 0.000000
0.617524 0.168161 0.000000
0.678378 0.167167 0.000000
0.737120 0.166170 0.000000
0.794045 0.165171 0.000000
0.849380 0.164170 0.000000
0.903308 0.163166 0.000000
0.955977 0.162160 0.000000
1.000000 0.161151 0.000000
1.000000 0.160139 0.000000
1.000000 0.159125 0.000000
1.000000 0.158109 0.000000
1.000000 0.157089 0.000000
1.000000 0.156068 0.000000
1.000000 0.155043 0.000000
1.000000 0.154016 0.000000
1.000000 0.152986 0.000000
1.000000 0.151953 0.000000
1.000000 0.150918 0.000000
1.000000 0.149879 0.000000
1.000000 0.148838 0.000000
1.000000 0.147794 0.000000
1.000000 0.146746 0.000000
1.000000 0.145696 0.000000
1.000000 0.144643 0.000000
1.000000 0.143587 0.000000
1.000000 0.142527 0.000000
0.033191 0.183900 0.002122
0.164792 0.182940 0.001026
0.260044 0.181979 0.000000
0.342751 0.181016 0.000000
0.418076 0.180051 0.000000
0.488297 0.179083 0.000000
0.554678 0.178114 0.000000
0.618015 0.177142 0.000000
0.678851 0.176169 0.000000
0.737578 0.175193 0.000000
0.794488 0.174215 0.000000
0.849812 0.173235 0.000000
0.903730 0.172252 0.000000
0.956389 0.171267 0.000000
1.000000 0.170280 0.000000
1.000000 0.169291 0.000000
1.000000 0.168300 0.000000
1.000000 0.167306 0.000000
1.000000 0.166309 0.000000
1.000000 0.165311 0.000000
1.000000 0.164310 0.000000
1.000000 0.163306 0.000000
1.000000 0.162300 0.000000
1.000000 0.161291 0.000000
1.000000 0.160280 0.000000
1.000000 0.159267 0.000000
1.000000 0.158251 0.000000
1.000000 0.157232 0.000000
1.000000 0.156210 0.000000
1.000000 0.155186 0.000000
1.000000 0.154159 0.000000
1.000000 0.153130 0.000000
1.000000 0.152097 0.000000
0.034757 0.192576 0.002222
0.165623 0.191634 0.001158
0.260738 0.190691 0.000000
0.343372 0.189745 0.000000
0.418650 0.188798 0.000000
0.488836 0.187849 0.000000
0.555190 0.186898 0.000000
0.618505 0.185945 0.000000
0.679324 0.184990 0.000000
0.738035 0.184033 0.000000
0.794932 0.183074 0.000000
0.850244 0.182113 0.000000
0.904151 0.181150 0.000000
0.956801 0.180185 0.000000
1.000000 0.179218 0.000000
1.000000 0.178249 0.000000
1.000000 0.177278 0.000000
1.000000 0.176305 0.000000
1.000000 0.175329 0.000000
1.000000 0.174351 0.000000
1.000000 0.173371 0.000000
1.000000 0.172389 0.000000
1.000000 0.171405 0.000000
1.000000 0.170418 0.000000
1.000000 0.169429 0.000000
1.000000 0.168438 0.000000
1.000000 0.167444 0.000000
1.000000 0.166448 0.000000
1.000000 0.165450 0.000000
1.000000 0.164449 0.000000
1.000000 0.163446 0.000000
1.000000 0.162440 0.000000
1.000000 0.161432 0.000000
0.036295 0.201098 0.002320
0.166454 0.200173 0.001284
0.261430 0.199246 0.000000
0.343993 0.198317 0.000000
0.419223 0.197386 0.000000
0.489375 0.196454 0.000000
0.555702 0.195520 0.000000
0.618996 0.194584 0.000000
0.679796 0.193646 0.000000
0.738492 0.192707 0.000000
0.795376 0.191765 0.000000
0.850676 0.190822 0.000000
0.904572 0.189877 0.000000
0.957213 0.188930 0.000000
1.000000 0.187981 0.000000
1.000000 0.187031 0.000000
1.000000 0.186078 0.000000
1.000000 0.185123 0.000000
1.000000 0.184167 0.000000
1.000000 0.183208 0.000000
1.000000 0.182247 0.000000
1.000000 0.181285 0.000000
1.000000 0.180320 0.000000
1.000000 0.179353 0.000000
1.000000 0.178385 0.000000
1.000000 0.177414 0.000000
1.000000 0.176440 0.000000
1.000000 0.175465 0.000000
1.000000 0.174488 0.000000
1.000000 0.173508 0.000000
1.000000 0.172526 0.000000
1.000000 0.171542 0.000000
1.000000 0.170556 0.000000
0.037807 0.209478 0.002417
0.167282 0.208568 0.001405
0.262122 0.207656 0.000000
0.344613 0.206742 0.000000
0.419796 0.205827 0.000000
0.489913 0.204911 0.000000
0.556214 0.203992 0.000000
0.619486 0.203072 0.000000
0.680268 0.202150 0.000000
0.738949 0.201227 0.000000
0.795819 0.200302 0.000000
0.851107 0.199375 0.000000
0.904994 0.198446 0.000000
0.957625 0.197516 0.000000
1.000000 0.196584 0.000000
1.000000 0.195650 0.000000
1.000000 0.194715 0.000000
1.000000 0.193777 0.000000
1.000000 0.192838 0.000000
1.000000 0.191897 0.000000
1.000000 0.190954 0.000000
1.000000 0.190009 0.000000
1.000000 0.189062 0.000000
1.000000 0.188114 0.000000
1.000000 0.187163 0.000000
1.000000 0.186211 0.000000
1.000000 0.185257 0.000000
1.000000 0.184300 0.000000
1.000000 0.183342 0.000000
1.000000 0.182382 0.000000
1.000000 0.181419 0.000000
1.000000 0.180455 0.000000
1.000000 0.179488 0.000000
0.039296 0.217726 0.002512
0.168109 0.216830 0.001523
0.262813 0.215932 0.000000
0.345232 0.215033 0.000000
0.420369 0.214132 0.000000
0.490451 0.213230 0.000000
0.556726 0.212326 0.000000
0.619976 0.211420 0.000000
0.680740 0.210514 0.000000
0.739405 0.209605 0.000000
0.796263 0.208695 0.000000
0.851539 0.207783 0.000000
0.905415 0.206870 0.000000
0.958037 0.205955 0.000000
1.000000 0.205038 0.000000
1.000000 0.204120 0.000000
1.000000 0.203200 0.000000
1.000000 0.202279 0.000000
1.000000 0.201356 0.000000
1.000000 0.200431 0.000000
1.000000 0.199504 0.000000
1.000000 0.198576 0.000000
1.000000 0.197646 0.000000
1.000000 0.196714 0.000000
1.000000 0.195780 0.000000
1.000000 0.194845 0.000000
1.000000 0.193908 0.000000
1.000000 0.192969 0.000000
1.000000 0.192028 0.000000
1.000000 0.191085 0.000000
1.000000 0.190141 0.000000
1.000000 0.189195 0.000000
1.000000 0.188246 0.000000
0.040763 0.225851 0.002606
0.168934 0.224968 0.001636
0.263504 0.224083 0.000274
0.345852 0.223197 0.000000
0.420941 0.222310 0.000000
0.490990 0.221421 0.000000
0.557237 0.220531 0.000000
0.620466 0.219639 0.000000
0.681212 0.218746 0.000000
0.739862 0.217851 0.000000
0.796706 0.216955 0.000000
0.851971 0.216057 0.000000
0.905836 0.215158 0.000000
0.958449 0.214258 0.000000
1.000000 0.213356 0.000000
1.000000 0.212452 0.000000
1.000000 0.211547 0.000000
1.000000 0.210640 0.000000
1.000000 0.209732 0.000000
1.000000 0.208822 0.000000
1.000000 0.207910 0.000000
1.000000 0.206997 0.000000
1.000000 0.206083 0.000000
1.000000 0.205166 0.000000
1.000000 0.204248 0.000000
1.000000 0.203329 0.000000
1.000000 0.202408 0.000000
1.000000 0.201485 0.000000
1.000000 0.200560 0.000000
1.000000 0.199634 0.000000
1.000000 0.198705 0.000000
1.000000 0.197776 0.000000
1.000000 0.196844 0.000000
0.042208 0.233861 0.002698
0.169758 0.232990 0.001747
0.264193 0.232118 0.000476
0.346470 0.231244 0.000000
0.421513 0.230369 0.000000
0.491527 0.229493 0.000000
0.557748 0.228615 0.000000
0.620956 0.227736 0.000000
0.681684 0.226856 0.000000
0.740319 0.225974 0.000000
0.797149 0.225091 0.000000
0.852402 0.224207 0.000000
0.906257 0.223321 0.000000
0.958860 0.222434 0.000000
1.000000 0.221545 0.000000
1.000000 0.220655 0.000000
1.000000 0.219763 0.000000
1.000000 0.218871 0.000000
1.000000 0.217976 0.000000
1.000000 0.217080 0.000000
1.000000 0.216183 0.000000
1.000000 0.215284 0.000000
1.000000 0.214383 0.000000
1.000000 0.213482 0.000000
1.000000 0.212578 0.000000
1.000000 0.211673 0.000000
1.000000 0.210767 0.000000
1.000000 0.209859 0.000000
1.000000 0.208949 0.000000
1.000000 0.208038 0.000000
1.000000 0.207125 0.000000
1.000000 0.206210 0.000000
1.000000 0.205294 0.000000
0.043634 0.241762 0.002789
0.170579 0.240903 0.001855
0.264882 0.240042 0.000648
0.347089 0.239180 0.000000
0.422085 0.238317 0.000000
0.492065 0.237453 0.000000
0.558260 0.236587 0.000000
0.621446 0.235720 0.000000
0.682156 0.234852 0.000000
0.740775 0.233982 0.000000
0.797592 0.233112 0.000000
0.852834 0.232239 0.000000
0.906678 0.231366 0.000000
0.959272 0.230491 0.000000
1.000000 0.229615 0.000000
1.000000 0.228738 0.000000
1.000000 0.227859 0.000000
1.000000 0.226979 0.000000
1.000000 0.226097 0.000000
1.000000 0.225215 0.000000
1.000000 0.224330 0.000000
1.000000 0.223445 0.000000
1.000000 0.222558 0.000000
1.000000 0.221669 0.000000
1.000000 0.220779 0.000000
1.000000 0.219888 0.000000
1.000000 0.218995 0.000000
1.000000 0.218101 0.000000
1.000000 0.217205 0.000000
1.000000 0.216308 0.000000
1.000000 0.215409 0.000000
1.000000 0.214509 0.000000
1.000000 0.213607 0.000000
0.045042 0.249562 0.002879
0.171400 0.248713 0.001960
0.265571 0.247864 0.000804
0.347706 0.247013 0.000000
0.422656 0.246161 0.000000
0.492603 0.245307 0.000000
0.558771 0.244453 0.000000
0.621935 0.243597 0.000000
0.682628 0.242740 0.000000
0.741231 0.241882 0.000000
0.798035 0.241023 0.000000
0.853265 0.240162 0.000000
0.907099 0.239301 0.000000
0.959684 0.238438 0.000000
1.000000 0.237573 0.000000
1.000000 0.236708 0.000000
1.000000 0.235841 0.000000
1.000000 0.234973 0.000000
1.000000 0.234104 0.000000
1.000000 0.233233 0.000000
1.000000 0.232361 0.000000
1.000000 0.231488 0.000000
1.000000 0.230613 0.000000
1.000000 0.229737 0.000000
1.000000 0.228860 0.000000
1.000000 0.227982 0.000000
1.000000 0.227102 0.000000
1.000000 0.226220 0.000000
1.000000 0.225338 0.000000
1.000000 0.224454 0.000000
1.000000 0.223568 0.000000
1.000000 0.222681 0.000000
1.000000 0.221793 0.000000
0.046432 0.257265 0.002968
0.172219 0.256427 0.002063
0.266258 0.255587 0.000947
0.348324 0.254747 0.000000
0.423227 0.253905 0.000000
0.493140 0.253062 0.000000
0.559281 0.252219 0.000000
0.622425 0.251374 0.000000
0.683099 0.250527 0.000000
0.741688 0.249680 0.000000
0.798478 0.248832 0.000000
0.853696 0.247982 0.000000
0.907520 0.247131 0.000000
0.960095 0.246279 0.000000
1.000000 0.245426 0.000000
1.000000 0.244572 0.000000
1.000000 0.243717 0.000000
1.000000 0.242860 0.000000
1.000000 0.242002 0.000000
1.000000 0.241143 0.000000
1.000000 0.240282 0.000000
1.000000 0.239421 0.000000
1.000000 0.238558 0.000000
1.000000 0.237694 0.000000
1.000000 0.236829 0.000000
1.000000 0.235962 0.000000
1.000000 0.235094 0.000000
1.000000 0.234225 0.000000
1.000000 0.233355 0.000000
1.000000 0.232483 0.000000
1.000000 0.231610 0.000000
1.000000 0.230735 0.000000
1.000000 0.229860 0.000000
0.047806 0.264877 0.003056
0.173036 0.264048 0.002165
0.266945 0.263219 0.001083
0.348941 0.262388 0.000000
0.423798 0.261556 0.000000
0.493677 0.260724 0.000000
0.559792 0.259890 0.000000
0.622914 0.259055 0.000000
0.683571 0.258219 0.000000
0.742144 0.257382 0.000000
0.798921 0.256544 0.000000
0.854127 0.255704 0.000000
0.907941 0.254864 0.000000
0.960506 0.254023 0.000000
1.000000 0.253180 0.000000
1.000000 0.252336 0.000000
1.000000 0.251491 0.000000
1.000000 0.250645 0.000000
1.000000 0.249798 0.000000
1.000000 0.248950 0.000000
1.000000 0.248101 0.000000
1.000000 0.247250 0.000000
1.000000 0.246398 0.000000
1.000000 0.245545 0.000000
1.000000 0.244691 0.000000
1.000000 0.243836 0.000000
1.000000 0.242979 0.000000
1.000000 0.242122 0.000000
1.000000 0.241263 0.000000
1.000000 0.240403 0.000000
1.000000 0.239541 0.000000
1.000000 0.238678 0.000000
1.000000 0.237815 0.000000
0.049164 0.272402 0.003143
0.173852 0.271583 0.002264
0.267631 0.270763 0.001212
0.349557 0.269941 0.000000
0.424368 0.269119 0.000000
0.494213 0.268296 0.000000
0.560302 0.267471 0.000000
0.623403 0.266646 0.000000
0.684042 0.265820 0.000000
0.742600 0.264992 0.000000
0.799364 0.264164 0.000000
0.854558 0.263335 0.000000
0.908361 0.262504 0.000000
0.960918 0.261672 0.000000
1.000000 0.260840 0.000000
1.000000 0.260006 0.000000
1.000000 0.259171 0.000000
1.000000 0.258336 0.000000
1.000000 0.257499 0.000000
1.000000 0.256661 0.000000
1.000000 0.255822 0.000000
1.000000 0.254981 0.000000
1.000000 0.254140 0.000000
