presets/film_stocks/Kodak_Vision3_250D_5207.cube
# 独寻胶片模拟 -- Kodak Vision3 250D 5207
# Kodak, ISO 250, 2009, negative
TITLE "Kodak Vision3 250D 5207"
LUT_3D_SIZE 33
DOMAIN_MIN 0.0 0.0 0.0
DOMAIN_MAX 1.0 1.0 1.0
0.000000 0.000000 0.000000
0.047032 0.001487 0.000000
0.088320 0.002793 0.000000
0.127686 0.004038 0.000000
0.165853 0.005245 0.000000
0.203153 0.006425 0.000000
0.239777 0.007583 0.000000
0.275846 0.008724 0.000000
0.311449 0.009850 0.000000
0.346649 0.010963 0.000000
0.381494 0.012065 0.000000
0.416023 0.013158 0.000000
0.450267 0.014241 0.000000
0.484253 0.015315 0.000000
0.518001 0.016383 0.000000
0.551531 0.017443 0.000000
0.584859 0.018497 0.000000
0.617997 0.019545 0.000000
0.650958 0.020588 0.000000
0.683754 0.021625 0.000000
0.716392 0.022657 0.000000
0.748883 0.023685 0.000000
0.781233 0.024708 0.000000
0.813450 0.025727 0.000000
0.845540 0.026742 0.000000
0.877508 0.027753 0.000000
0.909360 0.028760 0.000000
0.941101 0.029764 0.000000
0.972735 0.030765 0.000000
1.000000 0.031762 0.000000
1.000000 0.032756 0.000000
1.000000 0.033747 0.000000
1.000000 0.034735 0.000000
0.000000 0.045707 0.000000
0.045427 0.046666 0.000000
0.086815 0.047623 0.000000
0.126235 0.048578 0.000000
0.164440 0.049532 0.000000
0.201769 0.050483 0.000000
0.238415 0.051433 0.000000
0.274504 0.052381 0.000000
0.310123 0.053327 0.000000
0.345336 0.054272 0.000000
0.380194 0.055215 0.000000
0.414734 0.056156 0.000000
0.448989 0.057096 0.000000
0.482984 0.058034 0.000000
0.516741 0.058971 0.000000
0.550279 0.059906 0.000000
0.583613 0.060840 0.000000
0.616758 0.061772 0.000000
0.649726 0.062703 0.000000
0.682528 0.063632 0.000000
0.715172 0.064560 0.000000
0.747668 0.065487 0.000000
0.780023 0.066413 0.000000
0.812245 0.067337 0.000000
0.844339 0.068260 0.000000
0.876312 0.069182 0.000000
0.908168 0.070102 0.000000
0.939913 0.071021 0.000000
0.971552 0.071940 0.000000
1.000000 0.072856 0.000000
1.000000 0.073772 0.000000
1.000000 0.074687 0.000000
1.000000 0.075600 0.000000
0.000000 0.085832 0.000000
0.043817 0.086733 0.000000
0.085306 0.087633 0.000000
0.124783 0.088532 0.000000
0.163026 0.089430 0.000000
0.200383 0.090327 0.000000
0.237052 0.091224 0.000000
0.273160 0.092119 0.000000
0.308796 0.093014 0.000000
0.344024 0.093908 0.000000
0.378894 0.094801 0.000000
0.413445 0.095693 0.000000
0.447710 0.096584 0.000000
0.481714 0.097475 0.000000
0.515480 0.098364 0.000000
0.549026 0.099253 0.000000
0.582368 0.100141 0.000000
0.615520 0.101028 0.000000
0.648494 0.101915 0.000000
0.681301 0.102801 0.000000
0.713952 0.103686 0.000000
0.746453 0.104570 0.000000
0.778813 0.105453 0.000000
0.811040 0.106336 0.000000
0.843139 0.107218 0.000000
0.875116 0.108099 0.000000
0.906977 0.108980 0.000000
0.938726 0.109859 0.000000
0.970368 0.110739 0.000000
1.000000 0.111617 0.000000
1.000000 0.112495 0.000000
1.000000 0.113372 0.000000
1.000000 0.114248 0.000000
0.000000 0.124088 0.000000
0.042200 0.124957 0.000000
0.083795 0.125825 0.000000
0.123329 0.126692 0.000000
0.161610 0.127559 0.000000
0.198997 0.128425 0.000000
0.235689 0.129290 0.000000
0.271816 0.130155 0.000000
0.307468 0.131020 0.000000
0.342710 0.131884 0.000000
0.377593 0.132747 0.000000
0.412156 0.133610 0.000000
0.446431 0.134472 0.000000
0.480445 0.135333 0.000000
0.514219 0.136194 0.000000
0.547773 0.137055 0.000000
0.581122 0.137915 0.000000
0.614281 0.138774 0.000000
0.647262 0.139633 0.000000
0.680075 0.140492 0.000000
0.712731 0.141349 0.000000
0.745238 0.142207 0.000000
0.777603 0.143063 0.000000
0.809835 0.143920 0.000000
0.841938 0.144776 0.000000
0.873920 0.145631 0.000000
0.905785 0.146486 0.000000
0.937538 0.147340 0.000000
0.969184 0.148194 0.000000
1.000000 0.149047 0.000000
1.000000 0.149900 0.000000
1.000000 0.150752 0.000000
1.000000 0.151604 0.000000
0.000000 0.161180 0.000000
0.040577 0.162026 0.000000
0.082282 0.162872 0.000000
0.121873 0.163717 0.000000
0.160194 0.164562 0.000000
0.197609 0.165406 0.000000
0.234325 0.166250 0.000000
0.270472 0.167094 0.000000
0.306140 0.167937 0.000000
0.341396 0.168780 0.000000
0.376292 0.169622 0.000000
0.410866 0.170464 0.000000
0.445151 0.171306 0.000000
0.479174 0.172147 0.000000
0.512957 0.172987 0.000000
0.546519 0.173827 0.000000
0.579876 0.174667 0.000000
0.613042 0.175507 0.000000
0.646029 0.176346 0.000000
0.678848 0.177184 0.000000
0.711510 0.178023 0.000000
0.744022 0.178860 0.000000
0.776393 0.179698 0.000000
0.808629 0.180535 0.000000
0.840738 0.181372 0.000000
0.872724 0.182208 0.000000
0.904593 0.183044 0.000000
0.936350 0.183879 0.000000
0.968000 0.184714 0.000000
0.999547 0.185549 0.000000
1.000000 0.186384 0.000000
1.000000 0.187218 0.000000
1.000000 0.188051 0.000000
0.000000 0.197429 0.000000
0.038948 0.198258 0.000000
0.080765 0.199087 0.000000
0.120416 0.199916 0.000000
0.158776 0.200744 0.000000
0.196221 0.201572 0.000000
0.232960 0.202399 0.000000
0.269126 0.203226 0.000000
0.304811 0.204053 0.000000
0.340082 0.204880 0.000000
0.374990 0.205706 0.000000
0.409576 0.206532 0.000000
0.443872 0.207357 0.000000
0.477904 0.208182 0.000000
0.511696 0.209007 0.000000
0.545265 0.209832 0.000000
0.578629 0.210656 0.000000
0.611802 0.211480 0.000000
0.644796 0.212303 0.000000
0.677621 0.213127 0.000000
0.710289 0.213950 0.000000
0.742807 0.214772 0.000000
0.775182 0.215595 0.000000
0.807424 0.216417 0.000000
0.839537 0.217238 0.000000
0.871527 0.218060 0.000000
0.903401 0.218881 0.000000
0.935162 0.219701 0.000000
0.966816 0.220522 0.000000
0.998367 0.221342 0.000000
1.000000 0.222162 0.000000
1.000000 0.222981 0.000000
1.000000 0.223800 0.000000
0.000000 0.233020 0.000000
0.037312 0.233836 0.000000
0.079246 0.234651 0.000000
0.118956 0.235466 0.000000
0.157356 0.236281 0.000000
0.194831 0.237096 0.000000
0.231594 0.237910 0.000000
0.267780 0.238724 0.000000
0.303482 0.239538 0.000000
0.338767 0.240351 0.000000
0.373688 0.241164 0.000000
0.408285 0.241977 0.000000
0.442591 0.242789 0.000000
0.476633 0.243602 0.000000
0.510433 0.244414 0.000000
0.544011 0.245225 0.000000
0.577383 0.246037 0.000000
0.610562 0.246848 0.000000
0.643563 0.247659 0.000000
0.676394 0.248470 0.000000
0.709067 0.249280 0.000000
0.741591 0.250090 0.000000
0.773972 0.250900 0.000000
0.806218 0.251710 0.000000
0.838336 0.252519 0.000000
0.870331 0.253328 0.000000
0.902209 0.254137 0.000000
0.933974 0.254946 0.000000
0.965632 0.255754 0.000000
0.997186 0.256562 0.000000
1.000000 0.257370 0.000000
1.000000 0.258178 0.000000
1.000000 0.258985 0.000000
0.000000 0.268074 0.000000
0.035669 0.268878 0.000000
0.077724 0.269682 0.000000
0.117495 0.270486 0.000000
0.155936 0.271290 0.000000
0.193441 0.272093 0.000000
0.230228 0.272896 0.000000
0.266434 0.273699 0.000000
0.302152 0.274502 0.000000
0.337452 0.275304 0.000000
0.372386 0.276106 0.000000
0.406994 0.276908 0.000000
0.441311 0.277710 0.000000
0.475362 0.278511 0.000000
0.509171 0.279313 0.000000
0.542757 0.280114 0.000000
0.576136 0.280914 0.000000
0.609322 0.281715 0.000000
0.642329 0.282515 0.000000
0.675167 0.283315 0.000000
0.707846 0.284115 0.000000
0.740375 0.284915 0.000000
0.772761 0.285714 0.000000
0.805012 0.286513 0.000000
0.837134 0.287312 0.000000
0.869134 0.288111 0.000000
0.901016 0.288910 0.000000
0.932786 0.289708 0.000000
0.964448 0.290506 0.000000
0.996006 0.291304 0.000000
1.000000 0.292102 0.000000
1.000000 0.292899 0.000000
1.000000 0.293696 0.000000
0.000000 0.302674 0.000000
0.034018 0.303468 0.000000
0.076199 0.304263 0.000000
0.116032 0.305057 0.000000
0.154514 0.305851 0.000000
0.192050 0.306645 0.000000
0.228861 0.307438 0.000000
0.265086 0.308232 0.000000
0.300821 0.309025 0.000000
0.336136 0.309818 0.000000
0.371083 0.310610 0.000000
0.405703 0.311403 0.000000
0.440030 0.312195 0.000000
0.474091 0.312987 0.000000
0.507908 0.313779 0.000000
0.541502 0.314571 0.000000
0.574889 0.315363 0.000000
0.608082 0.316154 0.000000
0.641095 0.316945 0.000000
0.673939 0.317736 0.000000
0.706624 0.318527 0.000000
0.739158 0.319318 0.000000
0.771550 0.320108 0.000000
0.803806 0.320898 0.000000
0.835933 0.321688 0.000000
0.867937 0.322478 0.000000
0.899823 0.323267 0.000000
0.931597 0.324057 0.000000
0.963263 0.324846 0.000000
0.994825 0.325635 0.000000
1.000000 0.326424 0.000000
1.000000 0.327213 0.000000
1.000000 0.328001 0.000000
0.000000 0.336881 0.000000
0.032359 0.337667 0.000000
0.074671 0.338453 0.000000
0.114568 0.339239 0.000000
0.153091 0.340025 0.000000
0.190657 0.340810 0.000000
0.227493 0.341595 0.000000
0.263738 0.342381 0.000000
0.299490 0.343165 0.000000
0.334820 0.343950 0.000000
0.369779 0.344735 0.000000
0.404411 0.345519 0.000000
0.438749 0.346303 0.000000
0.472819 0.347087 0.000000
0.506645 0.347871 0.000000
0.540247 0.348655 0.000000
0.573641 0.349438 0.000000
0.606842 0.350221 0.000000
0.639861 0.351004 0.000000
0.672712 0.351787 0.000000
0.705402 0.352570 0.000000
0.737942 0.353353 0.000000
0.770339 0.354135 0.000000
0.802600 0.354917 0.000000
0.834731 0.355700 0.000000
0.866740 0.356481 0.000000
0.898631 0.357263 0.000000
0.930409 0.358045 0.000000
0.962078 0.358826 0.000000
0.993644 0.359607 0.000000
1.000000 0.360388 0.000000
1.000000 0.361169 0.000000
1.000000 0.361950 0.000000
0.000000 0.370744 0.000000
0.030691 0.371523 0.000000
0.073139 0.372302 0.000000
0.113101 0.373080 0.000000
0.151666 0.373858 0.000000
0.189264 0.374636 0.000000
0.226124 0.375414 0.000000
0.262389 0.376192 0.000000
0.298159 0.376969 0.000000
0.333503 0.377747 0.000000
0.368476 0.378524 0.000000
0.403119 0.379301 0.000000
0.437467 0.380078 0.000000
0.471547 0.380855 0.000000
0.505382 0.381631 0.000000
0.538992 0.382408 0.000000
0.572393 0.383184 0.000000
0.605601 0.383960 0.000000
0.638627 0.384736 0.000000
0.671484 0.385512 0.000000
0.704180 0.386287 0.000000
0.736725 0.387063 0.000000
0.769127 0.387838 0.000000
0.801393 0.388613 0.000000
0.833530 0.389388 0.000000
0.865543 0.390163 0.000000
0.897438 0.390938 0.000000
0.929220 0.391712 0.000000
0.960894 0.392487 0.000000
0.992463 0.393261 0.000000
1.000000 0.394035 0.000000
1.000000 0.394809 0.000000
1.000000 0.395583 0.000000
0.000000 0.404301 0.000000
0.029014 0.405072 0.000000
0.071605 0.405844 0.000000
0.111632 0.406616 0.000000
0.150241 0.407387 0.000000
0.187869 0.408159 0.000000
0.224754 0.408930 0.000000
0.261040 0.409701 0.000000
0.296826 0.410472 0.000000
0.332185 0.411243 0.000000
0.367171 0.412014 0.000000
0.401826 0.412784 0.000000
0.436185 0.413554 0.000000
0.470274 0.414325 0.000000
0.504118 0.415095 0.000000
0.537736 0.415865 0.000000
0.571145 0.416634 0.000000
0.604360 0.417404 0.000000
0.637393 0.418174 0.000000
0.670255 0.418943 0.000000
0.702958 0.419712 0.000000
0.735508 0.420481 0.000000
0.767915 0.421250 0.000000
0.800186 0.422019 0.000000
0.832328 0.422788 0.000000
0.864345 0.423556 0.000000
0.896245 0.424325 0.000000
0.928031 0.425093 0.000000
0.959709 0.425861 0.000000
0.991282 0.426629 0.000000
1.000000 0.427397 0.000000
1.000000 0.428164 0.000000
1.000000 0.428932 0.000000
0.000000 0.437580 0.000000
0.027328 0.438346 0.000000
0.070067 0.439112 0.000000
0.110162 0.439877 0.000000
0.148813 0.440643 0.000000
0.186474 0.441408 0.000000
0.223383 0.442173 0.000000
0.259690 0.442938 0.000000
0.295493 0.443703 0.000000
0.330868 0.444468 0.000000
0.365867 0.445233 0.000000
0.400533 0.445998 0.000000
0.434902 0.446762 0.000000
0.469001 0.447526 0.000000
0.502854 0.448290 0.000000
0.536480 0.449054 0.000000
0.569897 0.449818 0.000000
0.603119 0.450582 0.000000
0.636158 0.451346 0.000000
0.669027 0.452109 0.000000
0.701735 0.452873 0.000000
0.734291 0.453636 0.000000
0.766704 0.454399 0.000000
0.798979 0.455162 0.000000
0.831126 0.455925 0.000000
0.863148 0.456688 0.000000
0.895051 0.457450 0.000000
0.926842 0.458213 0.000000
0.958524 0.458975 0.000000
0.990101 0.459737 0.000000
1.000000 0.460500 0.000000
1.000000 0.461262 0.000000
1.000000 0.462023 0.000000
0.000000 0.470608 0.000000
0.025631 0.471369 0.000000
0.068526 0.472129 0.000000
0.108689 0.472889 0.000000
0.147385 0.473649 0.000000
0.185078 0.474409 0.000000
0.222012 0.475168 0.000000
0.258339 0.475928 0.000000
0.294160 0.476687 0.000000
0.329549 0.477447 0.000000
0.364561 0.478206 0.000000
0.399240 0.478965 0.000000
0.433620 0.479724 0.000000
0.467728 0.480483 0.000000
0.501590 0.481242 0.000000
0.535224 0.482000 0.000000
0.568648 0.482759 0.000000
0.601877 0.483517 0.000000
0.634923 0.484276 0.000000
0.667798 0.485034 0.000000
0.700512 0.485792 0.000000
0.733074 0.486550 0.000000
0.765492 0.487308 0.000000
0.797772 0.488065 0.000000
0.829923 0.488823 0.000000
0.861950 0.489580 0.000000
0.893858 0.490338 0.000000
0.925653 0.491095 0.000000
0.957338 0.491852 0.000000
0.988919 0.492609 0.000000
1.000000 0.493366 0.000000
1.000000 0.494123 0.000000
1.000000 0.494879 0.000000
0.000000 0.503406 0.000000
0.023923 0.504161 0.000000
0.066981 0.504916 0.000000
0.107215 0.505671 0.000000
0.145955 0.506426 0.000000
0.183680 0.507181 0.000000
0.220640 0.507936 0.000000
0.256987 0.508690 0.000000
0.292826 0.509445 0.000000
0.328230 0.510199 0.000000
0.363256 0.510953 0.000000
0.397946 0.511707 0.000000
0.432336 0.512461 0.000000
0.466455 0.513215 0.000000
0.500325 0.513969 0.000000
0.533968 0.514723 0.000000
0.567400 0.515476 0.000000
0.600635 0.516230 0.000000
0.633688 0.516983 0.000000
0.666569 0.517736 0.000000
0.699289 0.518489 0.000000
0.731856 0.519242 0.000000
0.764279 0.519995 0.000000
0.796565 0.520748 0.000000
0.828721 0.521501 0.000000
0.860752 0.522253 0.000000
0.892664 0.523006 0.000000
0.924463 0.523758 0.000000
0.956153 0.524510 0.000000
0.987738 0.525263 0.000000
1.000000 0.526015 0.000000
1.000000 0.526766 0.000000
1.000000 0.527518 0.000000
0.000000 0.535991 0.000000
0.022202 0.536742 0.000000
0.065433 0.537492 0.000000
0.105739 0.538242 0.000000
0.144524 0.538993 0.000000
0.182281 0.539743 0.000000
0.219267 0.540493 0.000000
0.255635 0.541243 0.000000
0.291491 0.541992 0.000000
0.326911 0.542742 0.000000
0.361949 0.543492 0.000000
0.396652 0.544241 0.000000
0.431053 0.544990 0.000000
0.465181 0.545740 0.000000
0.499060 0.546489 0.000000
0.532711 0.547238 0.000000
0.566150 0.547987 0.000000
0.599393 0.548736 0.000000
0.632453 0.549484 0.000000
0.665340 0.550233 0.000000
0.698066 0.550982 0.000000
0.730639 0.551730 0.000000
0.763067 0.552478 0.000000
0.795358 0.553227 0.000000
0.827518 0.553975 0.000000
0.859554 0.554723 0.000000
0.891471 0.555471 0.000000
0.923274 0.556219 0.000000
0.954967 0.556966 0.000000
0.986556 0.557714 0.000000
1.000000 0.558462 0.000000
1.000000 0.559209 0.000000
1.000000 0.559956 0.000000
0.000000 0.568379 0.000000
0.020468 0.569125 0.000000
0.063881 0.569871 0.000000
0.104260 0.570617 0.000000
0.143091 0.571363 0.000000
0.180882 0.572109 0.000000
0.217893 0.572855 0.000000
0.254282 0.573600 0.000000
0.290156 0.574346 0.000000
0.325591 0.575091 0.000000
0.360643 0.575836 0.000000
0.395357 0.576581 0.000000
0.429769 0.577326 0.000000
0.463907 0.578071 0.000000
0.497795 0.578816 0.000000
0.531454 0.579561 0.000000
0.564901 0.580306 0.000000
0.598151 0.581050 0.000000
0.631217 0.581795 0.000000
0.664111 0.582539 0.000000
0.696842 0.583283 0.000000
0.729421 0.584028 0.000000
0.761854 0.584772 0.000000
0.794150 0.585516 0.000000
0.826315 0.586260 0.000000
0.858356 0.587004 0.000000
0.890277 0.587747 0.000000
0.922084 0.588491 0.000000
0.953782 0.589234 0.000000
0.985374 0.589978 0.000000
1.000000 0.590721 0.000000
1.000000 0.591464 0.000000
1.000000 0.592208 0.000000
0.000000 0.600584 0.000000
0.018720 0.601326 0.000000
0.062325 0.602068 0.000000
0.102779 0.602810 0.000000
0.141657 0.603551 0.000000
0.179481 0.604293 0.000000
0.216518 0.605035 0.000000
0.252928 0.605776 0.000000
0.288820 0.606518 0.000000
0.324270 0.607259 0.000000
0.359336 0.608000 0.000000
0.394062 0.608741 0.000000
0.428484 0.609482 0.000000
0.462632 0.610223 0.000000
0.496529 0.610964 0.000000
0.530197 0.611705 0.000000
0.563651 0.612445 0.000000
0.596909 0.613186 0.000000
0.629981 0.613926 0.000000
0.662881 0.614667 0.000000
0.695619 0.615407 0.000000
0.728203 0.616147 0.000000
0.760641 0.616888 0.000000
0.792942 0.617628 0.000000
0.825112 0.618368 0.000000
0.857157 0.619107 0.000000
0.889083 0.619847 0.000000
0.920894 0.620587 0.000000
0.952596 0.621327 0.000000
0.984192 0.622066 0.000000
1.000000 0.622805 0.000000
1.000000 0.623545 0.000000
1.000000 0.624284 0.000000
0.000000 0.632616 0.000000
0.016954 0.633355 0.000000
0.060765 0.634093 0.000000
0.101297 0.634831 0.000000
0.140221 0.635569 0.000000
0.178079 0.636307 0.000000
0.215142 0.637044 0.000000
0.251574 0.637782 0.000000
0.287483 0.638520 0.000000
0.322949 0.639257 0.000000
0.358028 0.639995 0.000000
0.392766 0.640732 0.000000
0.427200 0.641469 0.000000
0.461357 0.642206 0.000000
0.495264 0.642943 0.000000
0.528939 0.643680 0.000000
0.562401 0.644417 0.000000
0.595666 0.645154 0.000000
0.628745 0.645891 0.000000
0.661651 0.646627 0.000000
0.694395 0.647364 0.000000
0.726984 0.648101 0.000000
0.759428 0.648837 0.000000
0.791734 0.649573 0.000000
0.823909 0.650310 0.000000
0.855959 0.651046 0.000000
0.887889 0.651782 0.000000
0.919704 0.652518 0.000000
0.951410 0.653254 0.000000
0.983010 0.653989 0.000000
1.000000 0.654725 0.000000
1.000000 0.655461 0.000000
1.000000 0.656196 0.000000
0.000000 0.664488 0.000000
0.015170 0.665222 0.000000
0.059202 0.665957 0.000000
0.099812 0.666691 0.000000
0.138784 0.667426 0.000000
0.176676 0.668160 0.000000
0.213765 0.668894 0.000000
0.250219 0.669628 0.000000
0.286146 0.670362 0.000000
0.321627 0.671096 0.000000
0.356720 0.671830 0.000000
0.391470 0.672564 0.000000
0.425915 0.673297 0.000000
0.460082 0.674031 0.000000
0.493997 0.674764 0.000000
0.527681 0.675498 0.000000
0.561151 0.676231 0.000000
0.594423 0.676964 0.000000
0.627509 0.677698 0.000000
0.660421 0.678431 0.000000
0.693171 0.679164 0.000000
0.725766 0.679897 0.000000
0.758215 0.680630 0.000000
0.790526 0.681363 0.000000
0.822706 0.682095 0.000000
0.854760 0.682828 0.000000
0.886694 0.683561 0.000000
0.918514 0.684293 0.000000
0.950224 0.685025 0.000000
0.981828 0.685758 0.000000
1.000000 0.686490 0.000000
1.000000 0.687222 0.000000
1.000000 0.687954 0.000000
0.000000 0.696207 0.000000
0.013365 0.696938 0.000000
0.057634 0.697669 0.000000
0.098325 0.698400 0.000000
0.137345 0.699131 0.000000
0.175272 0.699862 0.000000
0.212388 0.700593 0.000000
0.248863 0.701323 0.000000
0.284809 0.702054 0.000000
0.320305 0.702784 0.000000
0.355411 0.703515 0.000000
0.390174 0.704245 0.000000
0.424629 0.704976 0.000000
0.458806 0.705706 0.000000
0.492731 0.706436 0.000000
0.526423 0.707166 0.000000
0.559901 0.707896 0.000000
0.593179 0.708626 0.000000
0.626272 0.709356 0.000000
0.659191 0.710086 0.000000
0.691946 0.710815 0.000000
0.724547 0.711545 0.000000
0.757002 0.712275 0.000000
0.789318 0.713004 0.000000
0.821502 0.713734 0.000000
0.853561 0.714463 0.000000
0.885500 0.715192 0.000000
0.917324 0.715921 0.000000
0.949037 0.716650 0.000000
0.980646 0.717380 0.000000
1.000000 0.718108 0.000000
1.000000 0.718837 0.000000
1.000000 0.719566 0.000000
0.000000 0.727782 0.000000
0.011535 0.728510 0.000000
0.056062 0.729238 0.000000
0.096835 0.729965 0.000000
0.135905 0.730693 0.000000
0.173867 0.731421 0.000000
0.211009 0.732148 0.000000
0.247506 0.732876 0.000000
0.283470 0.733603 0.000000
0.318982 0.734331 0.000000
0.354102 0.735058 0.000000
0.388877 0.735785 0.000000
0.423343 0.736512 0.000000
0.457530 0.737239 0.000000
0.491464 0.737966 0.000000
0.525164 0.738693 0.000000
0.558650 0.739420 0.000000
0.591936 0.740147 0.000000
0.625035 0.740873 0.000000
0.657961 0.741600 0.000000
0.690722 0.742327 0.000000
0.723328 0.743053 0.000000
0.755788 0.743779 0.000000
0.788110 0.744506 0.000000
0.820299 0.745232 0.000000
0.852362 0.745958 0.000000
0.884305 0.746684 0.000000
0.916133 0.747410 0.000000
0.947851 0.748136 0.000000
0.979463 0.748862 0.000000
1.000000 0.749588 0.000000
1.000000 0.750314 0.000000
1.000000 0.751040 0.000000
0.000000 0.759221 0.000000
0.009675 0.759945 0.000000
0.054485 0.760670 0.000000
0.095344 0.761395 0.000000
0.134464 0.762120 0.000000
0.172460 0.762844 0.000000
0.209630 0.763569 0.000000
0.246149 0.764293 0.000000
0.282131 0.765017 0.000000
0.317659 0.765742 0.000000
0.352793 0.766466 0.000000
0.387580 0.767190 0.000000
0.422057 0.767914 0.000000
0.456254 0.768638 0.000000
0.490197 0.769362 0.000000
0.523906 0.770086 0.000000
0.557399 0.770810 0.000000
0.590692 0.771534 0.000000
0.623798 0.772257 0.000000
0.656730 0.772981 0.000000
0.689497 0.773705 0.000000
0.722109 0.774428 0.000000
0.754575 0.775151 0.000000
0.786901 0.775875 0.000000
0.819095 0.776598 0.000000
0.851163 0.777321 0.000000
0.883110 0.778044 0.000000
0.914942 0.778768 0.000000
0.946664 0.779491 0.000000
0.978280 0.780213 0.000000
1.000000 0.780936 0.000000
1.000000 0.781659 0.000000
1.000000 0.782382 0.000000
0.000000 0.790530 0.000000
0.007779 0.791251 0.000000
0.052904 0.791973 0.000000
0.093850 0.792695 0.000000
0.133021 0.793417 0.000000
0.171053 0.794138 0.000000
0.208250 0.794860 0.000000
0.244791 0.795582 0.000000
0.280791 0.796303 0.000000
0.316335 0.797025 0.000000
0.351483 0.797746 0.000000
0.386282 0.798467 0.000000
0.420770 0.799188 0.000000
0.454977 0.799909 0.000000
0.488929 0.800631 0.000000
0.522647 0.801352 0.000000
0.556148 0.802073 0.000000
0.589448 0.802793 0.000000
0.622561 0.803514 0.000000
0.655499 0.804235 0.000000
0.688272 0.804956 0.000000
0.720890 0.805676 0.000000
0.753361 0.806397 0.000000
0.785692 0.807117 0.000000
0.817891 0.807838 0.000000
0.849963 0.808558 0.000000
0.881915 0.809278 0.000000
0.913752 0.809999 0.000000
0.945478 0.810719 0.000000
0.977098 0.811439 0.000000
1.000000 0.812159 0.000000
1.000000 0.812879 0.000000
1.000000 0.813599 0.000000
0.000000 0.821715 0.000000
0.005834 0.822434 0.000000
0.051318 0.823153 0.000000
0.092353 0.823872 0.000000
0.131576 0.824591 0.000000
0.169644 0.825310 0.000000
0.206869 0.826029 0.000000
0.243432 0.826748 0.000000
0.279451 0.827466 0.000000
0.315011 0.828185 0.000000
0.350172 0.828904 0.000000
0.384984 0.829622 0.000000
0.419483 0.830341 0.000000
0.453700 0.831059 0.000000
0.487661 0.831777 0.000000
0.521387 0.832496 0.000000
0.554896 0.833214 0.000000
0.588204 0.833932 0.000000
0.621324 0.834650 0.000000
0.654268 0.835368 0.000000
0.687047 0.836086 0.000000
0.719670 0.836804 0.000000
0.752146 0.837522 0.000000
0.784483 0.838239 0.000000
0.816687 0.838957 0.000000
0.848764 0.839675 0.000000
0.880720 0.840392 0.000000
0.912561 0.841110 0.000000
0.944291 0.841827 0.000000
0.975915 0.842545 0.000000
1.000000 0.843262 0.000000
1.000000 0.843979 0.000000
1.000000 0.844697 0.000000
0.000000 0.852782 0.000000
0.003821 0.853499 0.000000
0.049728 0.854215 0.000000
0.090854 0.854932 0.000000
0.130130 0.855648 0.000000
0.168234 0.856364 0.000000
0.205487 0.857080 0.000000
0.242072 0.857797 0.000000
0.278110 0.858513 0.000000
0.313686 0.859229 0.000000
0.348861 0.859945 0.000000
0.383685 0.860660 0.000000
0.418196 0.861376 0.000000
0.452423 0.862092 0.000000
0.486393 0.862808 0.000000
0.520127 0.863523 0.000000
0.553644 0.864239 0.000000
0.586959 0.864954 0.000000
0.620086 0.865670 0.000000
0.653036 0.866385 0.000000
0.685821 0.867101 0.000000
0.718451 0.867816 0.000000
0.750932 0.868531 0.000000
0.783274 0.869246 0.000000
0.815482 0.869962 0.000000
0.847564 0.870677 0.000000
0.879525 0.871392 0.000000
0.911370 0.872106 0.000000
0.943104 0.872821 0.000000
0.974731 0.873536 0.000000
1.000000 0.874251 0.000000
1.000000 0.874966 0.000000
1.000000 0.875680 0.000000
0.000000 0.883737 0.000000
0.001689 0.884451 0.000000
0.048132 0.885165 0.000000
0.089353 0.885879 0.000000
0.128682 0.886592 0.000000
0.166823 0.887306 0.000000
0.204104 0.888020 0.000000
0.240712 0.888733 0.000000
0.276768 0.889447 0.000000
0.312360 0.890160 0.000000
0.347550 0.890874 0.000000
0.382386 0.891587 0.000000
0.416908 0.892301 0.000000
0.451145 0.893014 0.000000
0.485125 0.893727 0.000000
0.518867 0.894440 0.000000
0.552392 0.895153 0.000000
0.585714 0.895866 0.000000
0.618848 0.896579 0.000000
0.651805 0.897292 0.000000
0.684596 0.898005 0.000000
0.717231 0.898718 0.000000
0.749717 0.899430 0.000000
0.782064 0.900143 0.000000
