presets/film_stocks/Kodak_Duraflex_Plus.cube
# 独寻胶片模拟 -- Kodak Duraflex Plus
# , ISO 0, 2004, negative
TITLE "Kodak Duraflex Plus"
LUT_3D_SIZE 5
DOMAIN_MIN 0.0 0.0 0.0
DOMAIN_MAX 1.0 1.0 1.0
0.000000 0.000000 0.000000
0.322884 0.000000 0.029440
0.557286 0.000000 0.050812
0.766889 0.000000 0.069923
0.961855 0.000000 0.087700
0.005951 0.621306 0.000000
0.324477 0.552694 0.027504
0.558661 0.481692 0.049149
0.768151 0.407731 0.068400
0.963042 0.329927 0.086268
0.010271 1.000000 0.000000
0.326068 1.000000 0.025531
0.560035 0.953929 0.047471
0.769412 0.893224 0.066867
0.964229 0.831383 0.084830
0.014134 1.000000 0.000000
0.327656 1.000000 0.023515
0.561409 1.000000 0.045777
0.770673 1.000000 0.065325
0.965415 1.000000 0.083385
0.017727 1.000000 0.000000
0.329243 1.000000 0.021452
0.562781 1.000000 0.044065
0.771933 1.000000 0.063774
0.966600 1.000000 0.081933
0.027778 0.000000 0.324618
0.334111 0.000000 0.336683
0.566997 0.000000 0.348632
0.775805 0.000000 0.360472
0.970245 0.000000 0.372207
0.030825 0.413176 0.323614
0.335689 0.335689 0.335689
0.568365 0.252974 0.347647
0.777063 0.161983 0.359496
0.971429 0.052399 0.371240
0.033793 0.897635 0.322610
0.337265 0.835880 0.334694
0.569733 0.772866 0.346662
0.778320 0.708432 0.358519
0.972613 0.642372 0.370272
0.036692 1.000000 0.321604
0.338840 1.000000 0.333699
0.571100 1.000000 0.345676
0.779576 1.000000 0.357542
0.973796 1.000000 0.369303
0.039530 1.000000 0.320598
0.340412 1.000000 0.332702
0.572466 1.000000 0.344689
0.780833 1.000000 0.356564
0.974979 1.000000 0.368334
0.047944 0.000000 0.560279
0.345236 0.000000 0.570716
0.576663 0.000000 0.581102
0.784693 0.000000 0.591438
0.978615 0.000000 0.601726
0.050593 0.168942 0.559413
0.346801 0.061678 0.569854
0.578025 0.000000 0.580245
0.785947 0.000000 0.590585
0.979797 0.000000 0.600876
0.053204 0.713126 0.558546
0.348363 0.647191 0.568992
0.579387 0.579387 0.579387
0.787200 0.509362 0.589731
0.980978 0.436624 0.600027
0.055781 1.000000 0.557679
0.349924 1.000000 0.568130
0.580747 1.000000 0.578528
0.788453 0.977038 0.588877
0.982158 0.916740 0.599176
0.058326 1.000000 0.556812
0.351483 1.000000 0.567267
0.582107 1.000000 0.577670
0.789705 1.000000 0.588022
0.983338 1.000000 0.598326
0.065977 0.000000 0.771008
0.356266 0.000000 0.780591
0.586285 0.000000 0.790143
0.793554 0.000000 0.799663
0.986966 0.000000 0.809153
0.068412 0.000000 0.770213
0.357817 0.000000 0.779799
0.587641 0.000000 0.789353
0.794804 0.000000 0.798876
0.988145 0.000000 0.808369
0.070824 0.514491 0.769419
0.359366 0.441970 0.779007
0.588997 0.366063 0.788564
0.796053 0.285599 0.798089
0.989323 0.198356 0.807585
0.073214 0.981343 0.768624
0.360914 0.921120 0.778215
0.590352 0.859814 0.787774
0.797302 0.797302 0.797302
0.990501 0.733437 0.806800
0.075583 1.000000 0.767828
0.362460 1.000000 0.777422
0.591706 1.000000 0.786984
0.798551 1.000000 0.796515
0.991679 1.000000 0.806015
0.082750 0.000000 0.967021
0.367204 0.000000 0.976039
0.595865 0.000000 0.985035
0.802388 0.000000 0.994009
0.995298 0.000000 1.000000
0.085044 0.000000 0.966273
0.368742 0.000000 0.975294
0.597215 0.000000 0.984291
0.803634 0.000000 0.993267
0.996474 0.000000 1.000000
0.087321 0.291588 0.965526
0.370279 0.204953 0.974548
0.598565 0.106454 0.983548
0.804880 0.000000 0.992525
0.997650 0.000000 1.000000
0.089582 0.801850 0.964778
0.371815 0.738088 0.973802
0.599914 0.672800 0.982804
0.806125 0.605752 0.991783
0.998825 0.536631 1.000000
0.091828 1.000000 0.964030
0.373348 1.000000 0.973056
0.601262 1.000000 0.982060
0.807370 1.000000 0.991041
1.000000 1.000000 1.000000
