presets/film_stocks/Kodak_Ultramax_400.cube
# 独寻胶片模拟 -- Kodak Ultramax 400
# Kodak, ISO 400, 2007, negative
TITLE "Kodak Ultramax 400"
LUT_3D_SIZE 5
DOMAIN_MIN 0.0 0.0 0.0
DOMAIN_MAX 1.0 1.0 1.0
0.000000 0.000000 0.000000
0.347219 0.014381 0.000000
0.615727 0.025501 0.000000
0.860832 0.035653 0.000000
1.000000 0.045222 0.000000
0.000000 0.336887 0.000000
0.335893 0.343004 0.000000
0.605702 0.349098 0.000000
0.851493 0.355170 0.000000
1.000000 0.361220 0.000000
0.000000 0.597406 0.000000
0.324486 0.602834 0.000000
0.595642 0.608253 0.000000
0.842133 0.613661 0.000000
1.000000 0.619059 0.000000
0.000000 0.835217 0.000000
0.312994 0.840278 0.000000
0.585546 0.845333 0.000000
0.832751 0.850382 0.000000
1.000000 0.855424 0.000000
0.000000 1.000000 0.000000
0.301413 1.000000 0.000000
0.575414 1.000000 0.000000
0.823347 1.000000 0.000000
1.000000 1.000000 0.000000
0.000000 0.000000 0.332331
0.329456 0.000000 0.322914
0.600021 0.000000 0.313439
0.846206 0.000000 0.303904
1.000000 0.000000 0.294305
0.000000 0.311786 0.327449
0.318002 0.318002 0.318002
0.589941 0.324193 0.308496
0.836834 0.330358 0.298928
1.000000 0.336500 0.289296
0.000000 0.575240 0.322551
0.306460 0.580712 0.313074
0.579825 0.586173 0.303536
0.827440 0.591623 0.293935
1.000000 0.597063 0.284268
0.000000 0.814585 0.317638
0.294826 0.819673 0.308130
0.569671 0.824754 0.298560
0.818023 0.829829 0.288924
1.000000 0.834897 0.279221
0.000000 1.000000 0.312709
0.283095 1.000000 0.303169
0.559480 1.000000 0.293565
0.808583 1.000000 0.283895
1.000000 1.000000 0.274156
0.000000 0.000000 0.589326
0.311490 0.000000 0.580989
0.584229 0.000000 0.572627
0.831528 0.000000 0.564239
1.000000 0.000000 0.555825
0.000000 0.286253 0.585000
0.299897 0.292580 0.576651
0.574092 0.298878 0.568275
0.822121 0.305149 0.559874
1.000000 0.311393 0.551446
0.000000 0.552894 0.580668
0.288209 0.558411 0.572305
0.563917 0.563917 0.563917
0.812691 0.569411 0.555502
1.000000 0.574894 0.547060
0.000000 0.793843 0.576329
0.276421 0.798958 0.567953
0.553703 0.804067 0.559551
0.803239 0.809169 0.551122
1.000000 0.814264 0.542666
0.000000 1.000000 0.571984
0.264526 1.000000 0.563594
0.543450 1.000000 0.555178
0.793762 1.000000 0.546735
1.000000 1.000000 0.538265
0.000000 0.000000 0.823921
0.293304 0.000000 0.816154
0.568346 0.000000 0.808372
0.816795 0.000000 0.800575
1.000000 0.000000 0.792761
0.000000 0.260231 0.819890
0.281560 0.266684 0.812116
0.558149 0.273105 0.804326
0.807352 0.279494 0.796520
1.000000 0.285853 0.788698
0.000000 0.530356 0.815856
0.269712 0.535921 0.808073
0.547913 0.541474 0.800275
0.797886 0.547016 0.792460
1.000000 0.552545 0.784630
0.000000 0.772986 0.811817
0.257754 0.778130 0.804026
0.537637 0.783267 0.796220
0.788397 0.788397 0.788397
1.000000 0.793520 0.780558
0.000000 1.000000 0.807774
0.245678 1.000000 0.799975
0.527319 1.000000 0.792160
0.778883 1.000000 0.784329
1.000000 1.000000 0.776481
0.000000 0.000000 1.000000
0.274878 0.000000 1.000000
0.552370 0.000000 1.000000
0.802006 0.000000 1.000000
1.000000 0.000000 1.000000
0.000000 0.233650 1.000000
0.262968 0.240249 1.000000
0.542111 0.246809 1.000000
0.792526 0.253334 1.000000
1.000000 0.259823 1.000000
0.000000 0.507615 1.000000
0.250944 0.513232 1.000000
0.531811 0.518835 1.000000
0.783023 0.524426 1.000000
1.000000 0.530004 1.000000
0.000000 0.752010 1.000000
0.238798 0.757184 1.000000
0.521470 0.762350 1.000000
0.773496 0.767509 1.000000
1.000000 0.772661 1.000000
0.000000 0.980453 1.000000
0.226521 0.985347 1.000000
0.511085 0.990237 1.000000
0.763944 0.995121 1.000000
1.000000 1.000000 1.000000
