presets/film_stocks/Kodak_Vericolor_III.cube
# 独寻胶片模拟 -- Kodak Vericolor III
# Kodak, ISO 160, 1983, negative
TITLE "Kodak Vericolor III"
LUT_3D_SIZE 9
DOMAIN_MIN 0.0 0.0 0.0
DOMAIN_MAX 1.0 1.0 1.0
0.000000 0.000000 0.000000
0.188355 0.003770 0.000000
0.345971 0.006925 0.000000
0.493748 0.009883 0.000000
0.635478 0.012720 0.000000
0.772875 0.015470 0.000000
0.906915 0.018153 0.000000
1.000000 0.020781 0.000000
1.000000 0.023364 0.000000
0.000000 0.171547 0.000000
0.177200 0.173483 0.000000
0.335748 0.175416 0.000000
0.484028 0.177347 0.000000
0.626099 0.179274 0.000000
0.763752 0.181199 0.000000
0.897995 0.183120 0.000000
1.000000 0.185039 0.000000
1.000000 0.186955 0.000000
0.000000 0.315097 0.000000
0.165946 0.316876 0.000000
0.325481 0.318653 0.000000
0.474282 0.320430 0.000000
0.616701 0.322204 0.000000
0.754613 0.323978 0.000000
0.889063 0.325750 0.000000
1.000000 0.327521 0.000000
1.000000 0.329291 0.000000
0.000000 0.449686 0.000000
0.154584 0.451379 0.000000
0.315169 0.453071 0.000000
0.464507 0.454762 0.000000
0.607282 0.456452 0.000000
0.745459 0.458142 0.000000
0.880117 0.459830 0.000000
1.000000 0.461518 0.000000
1.000000 0.463205 0.000000
0.000000 0.578769 0.000000
0.143103 0.580403 0.000000
0.304809 0.582036 0.000000
0.454703 0.583669 0.000000
0.597843 0.585302 0.000000
0.736289 0.586933 0.000000
0.871159 0.588564 0.000000
1.000000 0.590195 0.000000
1.000000 0.591825 0.000000
0.000000 0.703905 0.000000
0.131492 0.705495 0.000000
0.294400 0.707084 0.000000
0.444869 0.708673 0.000000
0.588383 0.710262 0.000000
0.727103 0.711850 0.000000
0.862189 0.713438 0.000000
0.994361 0.715025 0.000000
1.000000 0.716611 0.000000
0.000000 0.825983 0.000000
0.119735 0.827538 0.000000
0.283939 0.829092 0.000000
0.435005 0.830646 0.000000
0.578902 0.832200 0.000000
0.717901 0.833753 0.000000
0.853205 0.835306 0.000000
0.985555 0.836859 0.000000
1.000000 0.838411 0.000000
0.000000 0.945576 0.000000
0.107815 0.947101 0.000000
0.273424 0.948627 0.000000
0.425109 0.950152 0.000000
0.569399 0.951677 0.000000
0.708682 0.953201 0.000000
0.844208 0.954725 0.000000
0.976739 0.956249 0.000000
1.000000 0.957773 0.000000
0.000000 1.000000 0.000000
0.095706 1.000000 0.000000
0.262852 1.000000 0.000000
0.415182 1.000000 0.000000
0.559873 1.000000 0.000000
0.699447 1.000000 0.000000
0.835197 1.000000 0.000000
0.967911 1.000000 0.000000
1.000000 1.000000 0.000000
0.000000 0.000000 0.167568
0.172664 0.000000 0.164287
0.331604 0.000000 0.160997
0.480093 0.000000 0.157697
0.622303 0.000000 0.154387
0.760060 0.000000 0.151068
0.894386 0.000000 0.147738
1.000000 0.002996 0.144398
1.000000 0.006220 0.141047
0.000000 0.159411 0.164657
0.161367 0.161367 0.161367
0.321319 0.163320 0.158069
0.470334 0.165270 0.154760
0.612897 0.167216 0.151442
0.750915 0.169160 0.148113
0.885449 0.171100 0.144774
1.000000 0.173037 0.141424
1.000000 0.174971 0.138063
0.000000 0.303980 0.161738
0.149959 0.305768 0.158440
0.310988 0.307554 0.155133
0.460548 0.309340 0.151816
0.603470 0.311123 0.148488
0.741755 0.312905 0.145151
0.876499 0.314686 0.141802
1.000000 0.316466 0.138442
1.000000 0.318244 0.135071
0.000000 0.439119 0.158812
0.138427 0.440817 0.155506
0.300608 0.442515 0.152190
0.450732 0.444211 0.148864
0.594022 0.445907 0.145527
0.732578 0.447602 0.142179
0.867535 0.449296 0.138821
0.999602 0.450989 0.135451
1.000000 0.452681 0.132069
0.000000 0.568572 0.155879
0.126759 0.570210 0.152564
0.290179 0.571848 0.149239
0.440886 0.573485 0.145903
0.584554 0.575121 0.142557
0.723386 0.576757 0.139200
0.858559 0.578392 0.135831
0.990803 0.580026 0.132451
1.000000 0.581660 0.129058
0.000000 0.693986 0.152937
0.114938 0.695579 0.149613
0.279696 0.697172 0.146279
0.431009 0.698764 0.142934
0.575064 0.700356 0.139578
0.714177 0.701947 0.136211
0.849570 0.703538 0.132832
0.981993 0.705128 0.129441
1.000000 0.706718 0.126037
0.000000 0.816286 0.149988
0.102945 0.817843 0.146655
0.269158 0.819400 0.143311
0.421101 0.820957 0.139956
0.565551 0.822513 0.136590
0.704952 0.824069 0.133213
0.840568 0.825624 0.129823
0.973173 0.827179 0.126421
1.000000 0.828734 0.123006
0.000000 0.936061 0.147031
0.090752 0.937589 0.143688
0.258562 0.939117 0.140335
0.411160 0.940644 0.136970
0.556017 0.942171 0.133593
0.695709 0.943698 0.130205
0.831551 0.945224 0.126804
0.964341 0.946750 0.123391
1.000000 0.948275 0.119964
0.000000 1.000000 0.144065
0.078324 1.000000 0.140713
0.247905 1.000000 0.137349
0.401185 1.000000 0.133974
0.546459 1.000000 0.130587
0.686449 1.000000 0.127188
0.822522 1.000000 0.123776
0.955497 1.000000 0.120350
1.000000 1.000000 0.116911
0.000000 0.000000 0.307789
0.156771 0.000000 0.304777
0.317149 0.000000 0.301762
0.466382 0.000000 0.298742
0.609089 0.000000 0.295718
0.747215 0.000000 0.292690
0.881833 0.000000 0.289657
1.000000 0.000000 0.286620
1.000000 0.000000 0.283578
0.000000 0.147145 0.305117
0.145314 0.149123 0.302102
0.306799 0.151097 0.299082
0.456584 0.153068 0.296059
0.599654 0.155036 0.293031
0.738048 0.156999 0.289999
0.872878 0.158960 0.286962
1.000000 0.160917 0.283921
1.000000 0.162871 0.280875
0.000000 0.292806 0.302441
0.133729 0.294603 0.299422
0.296399 0.296399 0.296399
0.446756 0.298194 0.293372
0.590198 0.299986 0.290340
0.728865 0.301778 0.287304
0.863909 0.303568 0.284263
0.996047 0.305356 0.281218
1.000000 0.307143 0.278168
0.000000 0.428515 0.299762
0.122001 0.430219 0.296740
0.285948 0.431923 0.293713
0.436898 0.433625 0.290682
0.580721 0.435327 0.287646
0.719666 0.437027 0.284606
0.854928 0.438727 0.281561
0.987244 0.440426 0.278512
1.000000 0.442123 0.275458
0.000000 0.558350 0.297080
0.110113 0.559992 0.294054
0.275444 0.561634 0.291023
0.427009 0.563275 0.287988
0.571222 0.564915 0.284948
0.710450 0.566555 0.281904
0.845933 0.568194 0.278855
0.978430 0.569833 0.275802
1.000000 0.571471 0.272743
0.000000 0.684048 0.294395
0.098043 0.685644 0.291364
0.264883 0.687240 0.288330
0.417087 0.688835 0.285291
0.561701 0.690430 0.282247
0.701218 0.692025 0.279199
0.836925 0.693619 0.276146
0.969604 0.695212 0.273088
1.000000 0.696805 0.270025
0.000000 0.806572 0.291706
0.085760 0.808132 0.288672
0.254262 0.809692 0.285633
0.407132 0.811251 0.282590
0.552157 0.812810 0.279542
0.691969 0.814368 0.276489
0.827904 0.815926 0.273432
0.960768 0.817484 0.270370
1.000000 0.819041 0.267303
0.000000 0.926533 0.289013
0.073224 0.928064 0.285975
0.243580 0.929593 0.282933
0.397143 0.931123 0.279885
0.542590 0.932652 0.276833
0.682702 0.934181 0.273777
0.818868 0.935709 0.270715
0.951920 0.937237 0.267649
1.000000 0.938765 0.264578
0.000000 1.000000 0.286317
0.060379 1.000000 0.283275
0.232831 1.000000 0.280229
0.387119 1.000000 0.277177
0.532999 1.000000 0.274121
0.673418 1.000000 0.271060
0.809819 1.000000 0.267994
0.943060 1.000000 0.264924
1.000000 1.000000 0.261848
0.000000 0.000000 0.439257
0.140648 0.000000 0.436393
0.302602 0.000000 0.433526
0.452616 0.000000 0.430656
0.595835 0.000000 0.427784
0.734339 0.000000 0.424908
0.869254 0.000000 0.422031
1.000000 0.000000 0.419150
1.000000 0.000000 0.416267
0.000000 0.134733 0.436715
0.129007 0.136736 0.433849
0.292182 0.138734 0.430979
0.442776 0.140729 0.428107
0.586370 0.142719 0.425232
0.725149 0.144706 0.422355
0.860281 0.146688 0.419474
0.992491 0.148667 0.416591
1.000000 0.150643 0.413706
0.000000 0.281572 0.434171
0.117217 0.283379 0.431302
0.281710 0.285185 0.428430
0.432905 0.286989 0.425556
0.576884 0.288791 0.422679
0.715944 0.290592 0.419799
0.851294 0.292392 0.416916
0.983683 0.294189 0.414031
1.000000 0.295986 0.411142
0.000000 0.417875 0.431625
0.105258 0.419585 0.428754
0.271182 0.421294 0.425880
0.423003 0.423003 0.423003
0.567377 0.424710 0.420123
0.706721 0.426417 0.417241
0.842294 0.428122 0.414356
0.974864 0.429827 0.411468
1.000000 0.431530 0.408577
0.000000 0.548101 0.429077
0.093106 0.549748 0.426203
0.260598 0.551394 0.423327
0.413068 0.553039 0.420447
0.557846 0.554684 0.417565
0.697482 0.556328 0.414680
0.833281 0.557971 0.411793
0.966034 0.559614 0.408902
1.000000 0.561256 0.406009
0.000000 0.674089 0.426527
0.080726 0.675689 0.423651
0.249953 0.677288 0.420772
0.403099 0.678887 0.417890
0.548293 0.680485 0.415005
0.688226 0.682082 0.412118
0.824254 0.683680 0.409228
0.957193 0.685276 0.406335
1.000000 0.686872 0.403439
0.000000 0.796842 0.423975
0.068074 0.798405 0.421096
0.239243 0.799967 0.418214
0.393096 0.801529 0.415330
0.538717 0.803091 0.412443
0.678952 0.804652 0.409553
0.815213 0.806212 0.406660
0.948341 0.807773 0.403765
1.000000 0.809332 0.400866
0.000000 0.916992 0.421420
0.055081 0.918524 0.418539
0.228467 0.920056 0.415655
0.383057 0.921588 0.412768
0.529116 0.923119 0.409879
0.669660 0.924650 0.406986
0.806157 0.926181 0.404091
0.939476 0.927711 0.401193
1.000000 0.929241 0.398292
0.000000 1.000000 0.418863
0.041639 1.000000 0.415980
0.217619 1.000000 0.413093
0.372982 1.000000 0.410204
0.519492 1.000000 0.407312
0.660350 1.000000 0.404417
0.797088 1.000000 0.401519
0.930600 1.000000 0.398618
1.000000 1.000000 0.395715
0.000000 0.000000 0.565346
0.124261 0.000000 0.562581
0.287956 0.000000 0.559815
0.438790 0.000000 0.557046
0.582539 0.000000 0.554276
0.721431 0.000000 0.551503
0.856650 0.000000 0.548729
0.988932 0.000000 0.545953
1.000000 0.000000 0.543174
0.000000 0.122159 0.562892
0.112405 0.124189 0.560126
0.277462 0.126215 0.557358
0.428907 0.128235 0.554588
0.573044 0.130252 0.551815
0.712218 0.132264 0.549041
0.847658 0.134271 0.546265
0.980120 0.136275 0.543487
1.000000 0.138274 0.540707
0.000000 0.270275 0.560438
0.100372 0.272093 0.557670
0.266912 0.273909 0.554900
0.418991 0.275723 0.552128
0.563528 0.277535 0.549354
0.702989 0.279346 0.546578
0.838653 0.281155 0.543800
0.971297 0.282963 0.541020
1.000000 0.284769 0.538239
0.000000 0.407196 0.557981
0.088132 0.408913 0.555211
0.256303 0.410628 0.552440
0.409043 0.412343 0.549666
0.553988 0.414056 0.546891
0.693743 0.415769 0.544113
0.829634 0.417480 0.541333
0.962463 0.419191 0.538552
1.000000 0.420901 0.535768
0.000000 0.537826 0.555523
0.075649 0.539477 0.552752
0.245632 0.541127 0.549978
0.399061 0.542777 0.547203
0.544426 0.544426 0.544426
0.684480 0.546074 0.541646
0.820601 0.547721 0.538865
0.953617 0.549368 0.536082
1.000000 0.551015 0.533296
0.000000 0.664110 0.553064
0.062869 0.665713 0.550291
0.234896 0.667315 0.547516
0.389043 0.668917 0.544738
0.534840 0.670519 0.541959
0.675199 0.672120 0.539178
0.811555 0.673720 0.536395
0.944759 0.675320 0.533610
1.000000 0.676919 0.530823
0.000000 0.787096 0.550603
0.049711 0.788661 0.547828
0.224091 0.790226 0.545051
0.378990 0.791791 0.542272
0.525230 0.793355 0.539491
0.665900 0.794919 0.536708
0.802494 0.796482 0.533923
0.935890 0.798045 0.531137
1.000000 0.799607 0.528348
0.000000 0.907436 0.548141
0.036038 0.908971 0.545364
0.213213 0.910505 0.542585
0.368899 0.912039 0.539804
0.515595 0.913573 0.537022
0.656583 0.915106 0.534237
0.793419 0.916639 0.531450
0.927010 0.918171 0.528662
1.000000 0.919703 0.525871
0.000000 1.000000 0.545676
0.021572 1.000000 0.542898
0.202256 1.000000 0.540118
0.358769 1.000000 0.537335
0.505935 1.000000 0.534551
0.647247 1.000000 0.531764
0.784329 1.000000 0.528976
0.918117 1.000000 0.526185
1.000000 1.000000 0.523392
0.000000 0.000000 0.687580
0.107565 0.000000 0.684890
0.273205 0.000000 0.682199
0.424903 0.000000 0.679506
0.569201 0.000000 0.676812
0.708490 0.000000 0.674116
0.844020 0.000000 0.671419
0.976556 0.000000 0.668720
1.000000 0.000000 0.666020
0.000000 0.109401 0.685193
0.095452 0.111463 0.682502
0.262631 0.113518 0.679809
0.414975 0.115569 0.677115
0.559675 0.117615 0.674419
0.699254 0.119655 0.671722
0.835009 0.121691 0.669024
0.967728 0.123722 0.666324
1.000000 0.125748 0.663622
0.000000 0.258912 0.682805
0.083119 0.260740 0.680112
0.251998 0.262567 0.677418
0.405013 0.264392 0.674723
0.550126 0.266215 0.672026
0.690001 0.268036 0.669328
0.825985 0.269856 0.666628
0.958889 0.271674 0.663926
1.000000 0.273490 0.661223
0.000000 0.396479 0.680415
0.070523 0.398202 0.677722
0.241301 0.399923 0.675026
0.395016 0.401644 0.672330
0.540554 0.403364 0.669632
0.680731 0.405083 0.666932
0.816947 0.406801 0.664230
0.950038 0.408517 0.661528
1.000000 0.410233 0.658823
0.000000 0.527523 0.678025
0.057602 0.529178 0.675330
0.230538 0.530833 0.672633
0.384985 0.532487 0.669935
0.530959 0.534140 0.667236
0.671442 0.535793 0.664535
0.807894 0.537445 0.661832
0.941176 0.539096 0.659128
1.000000 0.540747 0.656422
0.000000 0.654109 0.675633
0.044258 0.655716 0.672937
0.219704 0.657322 0.670239
0.374916 0.658927 0.667540
0.521339 0.660532 0.664839
0.662136 0.662136 0.662136
0.798828 0.663740 0.659432
0.932303 0.665343 0.656727
1.000000 0.666946 0.654020
0.000000 0.777332 0.673241
0.030312 0.778900 0.670543
0.208794 0.780468 0.667844
0.364809 0.782035 0.665143
0.511694 0.783602 0.662441
0.652812 0.785169 0.659737
0.789747 0.786735 0.657031
0.923417 0.788300 0.654324
1.000000 0.789865 0.651616
0.000000 0.897867 0.670847
0.015354 0.899403 0.668148
0.197804 0.900940 0.665447
0.354663 0.902476 0.662745
0.502023 0.904012 0.660041
0.643468 0.905547 0.657336
0.780651 0.907082 0.654629
0.914520 0.908617 0.651921
1.000000 0.910152 0.649211
0.000000 1.000000 0.668451
0.000000 1.000000 0.665751
0.186728 1.000000 0.663049
0.344476 1.000000 0.660346
0.492326 1.000000 0.657641
0.634106 1.000000 0.654934
0.771540 1.000000 0.652226
0.905610 1.000000 0.649516
1.000000 1.000000 0.646805
0.000000 0.000000 0.806827
0.090496 0.000000 0.804197
0.258341 0.000000 0.801565
0.410953 0.000000 0.798933
0.555818 0.000000 0.796299
0.695517 0.000000 0.793664
0.831364 0.000000 0.791028
0.964157 0.000000 0.788391
1.000000 0.000000 0.785752
0.000000 0.096431 0.804493
0.078063 0.098528 0.801862
0.247683 0.100620 0.799229
0.400977 0.102705 0.796596
0.546260 0.104784 0.793961
0.686257 0.106858 0.791325
0.822334 0.108926 0.788688
0.955313 0.110988 0.786049
1.000000 0.113045 0.783409
0.000000 0.247478 0.802158
0.065345 0.249318 0.799526
0.236959 0.251156 0.796892
0.390966 0.252992 0.794257
0.536679 0.254827 0.791622
0.676979 0.256659 0.788984
0.813290 0.258490 0.786346
0.946458 0.260319 0.783707
1.000000 0.262146 0.781066
0.000000 0.385720 0.799822
0.052267 0.387450 0.797189
0.226168 0.389178 0.794554
0.380920 0.390906 0.791918
0.527074 0.392632 0.789281
0.667683 0.394357 0.786643
0.804232 0.396081 0.784004
0.937591 0.397805 0.781363
1.000000 0.399527 0.778721
0.000000 0.517191 0.797485
0.038708 0.518851 0.794851
0.215304 0.520511 0.792215
0.370836 0.522169 0.789578
0.517443 0.523827 0.786940
0.658370 0.525485 0.784301
0.795159 0.527141 0.781660
0.928713 0.528797 0.779019
1.000000 0.530452 0.776376
0.000000 0.644087 0.795147
0.024430 0.645697 0.792512
0.204362 0.647307 0.789875
0.360714 0.648916 0.787237
0.507788 0.650524 0.784598
0.649038 0.652132 0.781958
0.786072 0.653739 0.779316
0.919823 0.655346 0.776673
1.000000 0.656952 0.774029
0.000000 0.767551 0.792809
0.008746 0.769122 0.790172
0.193338 0.770693 0.787534
0.350551 0.772263 0.784895
0.498107 0.773833 0.782255
0.639687 0.775402 0.779613
0.776971 0.776971 0.776971
0.910920 0.778539 0.774327
1.000000 0.780107 0.771681
0.000000 0.888283 0.790469
0.000000 0.889822 0.787831
0.182225 0.891361 0.785192
0.340347 0.892899 0.782552
0.488400 0.894437 0.779911
0.630317 0.895975 0.777268
0.767854 0.897512 0.774624
0.902005 0.899049 0.771979
1.000000 0.900586 0.769333
0.000000 1.000000 0.788128
0.000000 1.000000 0.785489
0.171017 1.000000 0.782849
0.330101 1.000000 0.780208
0.478665 1.000000 0.777566
0.620927 1.000000 0.774922
0.758722 1.000000 0.772277
0.893079 1.000000 0.769631
1.000000 1.000000 0.766983
0.000000 0.000000 0.923646
0.072960 0.000000 0.921065
0.243357 0.000000 0.918483
0.396935 0.000000 0.915901
0.542391 0.000000 0.913317
0.682509 0.000000 0.910732
0.818680 0.000000 0.908147
0.951736 0.000000 0.905560
1.000000 0.000000 0.902972
0.000000 0.083211 0.921356
0.060108 0.085351 0.918774
0.232606 0.087484 0.916192
0.386910 0.089610 0.913608
0.532800 0.091729 0.911023
0.673224 0.093841 0.908438
0.809631 0.095947 0.905851
0.942876 0.098046 0.903263
1.000000 0.100138 0.900674
0.000000 0.235970 0.919065
0.046855 0.237822 0.916482
0.221786 0.239672 0.913899
0.376849 0.241521 0.911314
0.523184 0.243367 0.908729
0.663922 0.245211 0.906142
0.800567 0.247054 0.903555
0.934004 0.248894 0.900966
1.000000 0.250733 0.898376
0.000000 0.374919 0.916773
0.033045 0.376656 0.914190
0.210891 0.378391 0.911605
0.366750 0.380125 0.909020
0.513544 0.381858 0.906433
0.654600 0.383590 0.903846
0.791488 0.385321 0.901257
0.925121 0.387051 0.898668
1.000000 0.388780 0.896077
0.000000 0.506831 0.914481
0.018339 0.508496 0.911896
0.199917 0.510160 0.909311
0.356611 0.511823 0.906725
0.503879 0.513486 0.904137
0.645261 0.515148 0.901549
0.782396 0.516809 0.898959
0.916226 0.518469 0.896369
1.000000 0.520128 0.893777
0.000000 0.634044 0.912187
0.001168 0.635657 0.909602
0.188858 0.637270 0.907016
0.346432 0.638883 0.904429
0.494187 0.640494 0.901840
0.635902 0.642106 0.899251
0.773288 0.643716 0.896661
0.907319 0.645326 0.894069
1.000000 0.646936 0.891477
0.000000 0.757753 0.909893
0.000000 0.759327 0.907307
0.177707 0.760901 0.904720
0.336211 0.762473 0.902132
0.484469 0.764046 0.899542
0.626524 0.765618 0.896952
0.764165 0.767189 0.894361
0.898399 0.768760 0.891768
1.000000 0.770331 0.889175
0.000000 0.878684 0.907598
0.000000 0.880226 0.905011
0.166458 0.881767 0.902423
0.325947 0.883308 0.899834
0.474723 0.884848 0.897244
0.617127 0.886388 0.894653
0.755027 0.887928 0.892060
0.889467 0.889467 0.889467
1.000000 0.891006 0.886873
0.000000 0.997320 0.905302
0.000000 0.998835 0.902714
0.155100 1.000000 0.900125
0.315637 1.000000 0.897535
0.464950 1.000000 0.894944
0.607709 1.000000 0.892352
0.745874 1.000000 0.889759
0.880522 1.000000 0.887165
1.000000 1.000000 0.884569
0.000000 0.000000 1.000000
0.054807 0.000000 1.000000
0.228242 0.000000 1.000000
0.382848 0.000000 1.000000
0.528917 0.000000 1.000000
0.669467 0.000000 1.000000
0.805969 0.000000 1.000000
0.939292 0.000000 1.000000
1.000000 0.000000 1.000000
0.000000 0.069688 1.000000
0.041353 0.071881 1.000000
0.217392 0.074066 1.000000
0.372772 0.076241 1.000000
0.519291 0.078408 1.000000
0.660157 0.080566 1.000000
0.796899 0.082716 1.000000
0.930416 0.084858 1.000000
1.000000 0.086993 1.000000
0.000000 0.224382 1.000000
0.027242 0.226248 1.000000
0.206466 0.228111 1.000000
0.362657 0.229972 1.000000
0.509641 0.231831 1.000000
0.650828 0.233688 1.000000
0.787815 0.235543 1.000000
0.921528 0.237395 1.000000
1.000000 0.239246 1.000000
0.000000 0.364075 1.000000
0.011944 0.365819 1.000000
0.195458 0.367561 1.000000
0.352502 0.369302 1.000000
0.499965 0.371042 1.000000
0.641481 0.372781 1.000000
0.778716 0.374519 1.000000
0.912627 0.376256 1.000000
1.000000 0.377991 1.000000
0.000000 0.496441 1.000000
0.000000 0.498111 1.000000
0.184363 0.499780 1.000000
0.342307 0.501448 1.000000
0.490263 0.503115 1.000000
0.632114 0.504781 1.000000
0.769603 0.506447 1.000000
0.903715 0.508112 1.000000
1.000000 0.509776 1.000000
0.000000 0.623978 1.000000
0.000000 0.625595 1.000000
0.173173 0.627211 1.000000
0.332068 0.628827 1.000000
0.480533 0.630443 1.000000
0.622729 0.632058 1.000000
0.760474 0.633672 1.000000
0.894791 0.635285 1.000000
1.000000 0.636899 1.000000
0.000000 0.747937 1.000000
0.000000 0.749514 1.000000
0.161881 0.751090 1.000000
0.321785 0.752666 1.000000
0.470777 0.754241 1.000000
0.613323 0.755816 1.000000
0.751330 0.757391 1.000000
0.885854 0.758964 1.000000
1.000000 0.760538 1.000000
0.000000 0.869071 1.000000
0.000000 0.870615 1.000000
0.150478 0.872158 1.000000
0.311456 0.873702 1.000000
0.460991 0.875244 1.000000
0.603897 0.876787 1.000000
0.742170 0.878329 1.000000
0.876904 0.879870 1.000000
1.000000 0.881412 1.000000
0.000000 0.987877 1.000000
0.000000 0.989394 1.000000
0.138952 0.990910 1.000000
0.301079 0.992426 1.000000
0.451177 0.993941 1.000000
0.594450 0.995456 1.000000
0.732994 0.996971 1.000000
0.867941 0.998486 1.000000
1.000000 1.000000 1.000000
