presets/film_stocks/Kodak_Vision3_500T_5219.cube
# 独寻胶片模拟 -- Kodak Vision3 500T 5219
# Kodak, ISO 500, 2007, negative
TITLE "Kodak Vision3 500T 5219"
LUT_3D_SIZE 9
DOMAIN_MIN 0.0 0.0 0.0
DOMAIN_MAX 1.0 1.0 1.0
0.000000 0.000000 0.000000
0.163500 0.004332 0.000000
0.310634 0.008230 0.000000
0.452164 0.011979 0.000000
0.590174 0.015635 0.000000
0.725624 0.019224 0.000000
0.859069 0.022759 0.000000
0.990868 0.026251 0.000000
1.000000 0.029706 0.000000
0.000000 0.157595 0.000000
0.157132 0.160601 0.000000
0.304590 0.163603 0.000000
0.446301 0.166601 0.000000
0.584435 0.169594 0.000000
0.719980 0.172582 0.000000
0.853500 0.175567 0.000000
0.985362 0.178548 0.000000
1.000000 0.181524 0.000000
0.000000 0.299416 0.000000
0.150744 0.302273 0.000000
0.298536 0.305127 0.000000
0.440431 0.307980 0.000000
0.578691 0.310830 0.000000
0.714331 0.313679 0.000000
0.847928 0.316525 0.000000
0.979855 0.319369 0.000000
1.000000 0.322211 0.000000
0.000000 0.435835 0.000000
0.144334 0.438608 0.000000
0.292473 0.441379 0.000000
0.434555 0.444149 0.000000
0.572943 0.446917 0.000000
0.708680 0.449684 0.000000
0.842354 0.452450 0.000000
0.974344 0.455215 0.000000
1.000000 0.457978 0.000000
0.000000 0.568861 0.000000
0.137901 0.571575 0.000000
0.286399 0.574289 0.000000
0.428672 0.577001 0.000000
0.567190 0.579712 0.000000
0.703024 0.582423 0.000000
0.836776 0.585132 0.000000
0.968832 0.587840 0.000000
1.000000 0.590547 0.000000
0.000000 0.699419 0.000000
0.131444 0.702089 0.000000
0.280315 0.704759 0.000000
0.422784 0.707427 0.000000
0.561432 0.710094 0.000000
0.697365 0.712761 0.000000
0.831196 0.715427 0.000000
0.963316 0.718092 0.000000
1.000000 0.720757 0.000000
0.000000 0.828044 0.000000
0.124962 0.830679 0.000000
0.274221 0.833312 0.000000
0.416888 0.835945 0.000000
0.555670 0.838577 0.000000
0.691702 0.841209 0.000000
0.825612 0.843840 0.000000
0.957799 0.846470 0.000000
1.000000 0.849100 0.000000
0.000000 0.955084 0.000000
0.118453 0.957688 0.000000
0.268116 0.960292 0.000000
0.410986 0.962895 0.000000
0.549903 0.965498 0.000000
0.686036 0.968100 0.000000
0.820026 0.970701 0.000000
0.952278 0.973302 0.000000
1.000000 0.975903 0.000000
0.000000 1.000000 0.000000
0.111914 1.000000 0.000000
0.261999 1.000000 0.000000
0.405077 1.000000 0.000000
0.544131 1.000000 0.000000
0.680365 1.000000 0.000000
0.814436 1.000000 0.000000
0.946755 1.000000 0.000000
1.000000 1.000000 0.000000
0.000000 0.000000 0.152024
0.152221 0.000000 0.148032
0.299935 0.000000 0.144032
0.441787 0.000000 0.140023
0.580018 0.000000 0.136005
0.715636 0.000498 0.131978
0.849215 0.004718 0.127940
0.981126 0.008597 0.123892
1.000000 0.012336 0.119834
0.000000 0.142786 0.149812
0.145816 0.145816 0.145816
0.293874 0.148841 0.141811
0.435912 0.151861 0.137797
0.574271 0.154876 0.133774
0.709985 0.157886 0.129741
0.843641 0.160892 0.125698
0.975617 0.163893 0.121644
1.000000 0.166890 0.117580
0.000000 0.285376 0.147598
0.139389 0.288244 0.143597
0.287802 0.291109 0.139587
0.430031 0.293972 0.135568
0.568519 0.296833 0.131539
0.704330 0.299692 0.127501
0.838064 0.302549 0.123452
0.970105 0.305403 0.119392
1.000000 0.308255 0.115322
0.000000 0.422219 0.145381
0.132937 0.424999 0.141376
0.281721 0.427777 0.137361
0.424144 0.430554 0.133336
0.562762 0.433329 0.129302
0.698672 0.436103 0.125258
0.832484 0.438876 0.121203
0.964590 0.441647 0.117137
1.000000 0.444417 0.113060
0.000000 0.555537 0.143162
0.126461 0.558256 0.139151
0.275629 0.560974 0.135131
0.418250 0.563692 0.131101
0.557001 0.566408 0.127061
0.693010 0.569123 0.123011
0.826902 0.571838 0.118951
0.959073 0.574551 0.114879
1.000000 0.577263 0.110796
0.000000 0.686316 0.140940
0.119958 0.688990 0.136924
0.269526 0.691663 0.132898
0.412349 0.694335 0.128863
0.551235 0.697007 0.124818
0.687344 0.699678 0.120762
0.821316 0.702347 0.116695
0.953553 0.705017 0.112617
1.000000 0.707685 0.108527
0.000000 0.815118 0.138715
0.113427 0.817756 0.134694
0.263412 0.820393 0.130663
0.406442 0.823029 0.126622
0.545464 0.825664 0.122571
0.681675 0.828299 0.118509
0.815727 0.830933 0.114436
0.948031 0.833567 0.110351
1.000000 0.836200 0.106254
0.000000 0.942305 0.136487
0.106865 0.944913 0.132460
0.257287 0.947519 0.128424
0.400528 0.950125 0.124378
0.539688 0.952731 0.120321
0.676002 0.955335 0.116252
0.810135 0.957940 0.112173
0.942506 0.960544 0.108082
1.000000 0.963147 0.103978
0.000000 1.000000 0.134256
0.100271 1.000000 0.130224
0.251150 1.000000 0.126182
0.394606 1.000000 0.122130
0.533908 1.000000 0.118067
0.670325 1.000000 0.113993
0.804540 1.000000 0.109907
0.936978 1.000000 0.105808
1.000000 1.000000 0.101698
0.000000 0.000000 0.288830
0.140875 0.000000 0.285041
0.289205 0.000000 0.281247
0.431389 0.000000 0.277449
0.569847 0.000000 0.273647
0.705636 0.000000 0.269841
0.839352 0.000000 0.266031
0.971377 0.000000 0.262216
1.000000 0.000000 0.258397
0.000000 0.127853 0.286730
0.134429 0.130910 0.282938
0.283126 0.133960 0.279142
0.425504 0.137005 0.275342
0.564092 0.140045 0.271538
0.699979 0.143079 0.267730
0.833773 0.146109 0.263917
0.965863 0.149133 0.260100
1.000000 0.152152 0.256278
0.000000 0.271280 0.284629
0.127959 0.274160 0.280835
0.277037 0.277037 0.277037
0.419611 0.279911 0.273234
0.558332 0.282783 0.269428
0.694318 0.285653 0.265617
0.828191 0.288521 0.261801
0.960347 0.291386 0.257982
1.000000 0.294249 0.254157
0.000000 0.408568 0.282526
0.121462 0.411355 0.278730
0.270936 0.414141 0.274929
0.413712 0.416925 0.271125
0.552567 0.419707 0.267316
0.688653 0.422488 0.263502
0.822606 0.425268 0.259685
0.954828 0.428046 0.255862
1.000000 0.430822 0.252035
0.000000 0.542186 0.280422
0.114937 0.544911 0.276624
0.264825 0.547635 0.272821
0.407806 0.550357 0.269014
0.546797 0.553079 0.265202
0.682984 0.555799 0.261387
0.817018 0.558519 0.257566
0.949306 0.561237 0.253742
1.000000 0.563954 0.249912
0.000000 0.673192 0.278317
0.108383 0.675870 0.274516
0.258702 0.678548 0.270711
0.401894 0.681224 0.266902
0.541022 0.683900 0.263088
0.677312 0.686574 0.259269
0.811426 0.689248 0.255447
0.943782 0.691921 0.251619
1.000000 0.694594 0.247787
0.000000 0.802176 0.276211
0.101796 0.804817 0.272407
0.252568 0.807457 0.268600
0.395974 0.810096 0.264788
0.535243 0.812735 0.260972
0.671636 0.815373 0.257151
0.805832 0.818011 0.253326
0.938255 0.820648 0.249496
1.000000 0.823284 0.245661
0.000000 0.929513 0.274103
0.095176 0.932123 0.270297
0.246422 0.934733 0.266487
0.390047 0.937342 0.262673
0.529458 0.939950 0.258854
0.665956 0.942557 0.255031
0.800235 0.945165 0.251203
0.932725 0.947771 0.247371
1.000000 0.950377 0.243534
0.000000 1.000000 0.271994
0.088518 1.000000 0.268186
0.240264 1.000000 0.264374
0.384113 1.000000 0.260557
0.523669 1.000000 0.256736
0.660272 1.000000 0.252910
0.794634 1.000000 0.249079
0.927193 1.000000 0.245244
1.000000 1.000000 0.241404
0.000000 0.000000 0.420427
0.129455 0.000000 0.416750
0.278443 0.000000 0.413071
0.420972 0.000000 0.409388
0.559662 0.000000 0.405704
0.695625 0.000000 0.402016
0.829480 0.000000 0.398326
0.961621 0.000000 0.394633
1.000000 0.000000 0.390938
0.000000 0.112779 0.418389
0.122964 0.115866 0.414711
0.272346 0.118946 0.411030
0.415075 0.122020 0.407346
0.553898 0.125087 0.403660
0.689961 0.128149 0.399971
0.823895 0.131205 0.396280
0.956102 0.134255 0.392585
1.000000 0.137299 0.388888
0.000000 0.257126 0.416350
0.116446 0.260018 0.412671
0.266237 0.262907 0.408988
0.409170 0.265793 0.405303
0.548129 0.268677 0.401616
0.684293 0.271559 0.397925
0.818308 0.274438 0.394232
0.950581 0.277315 0.390536
1.000000 0.280189 0.386837
0.000000 0.394880 0.414311
0.109899 0.397675 0.410630
0.260117 0.400468 0.406946
0.403259 0.403259 0.403259
0.542356 0.406049 0.399570
0.678622 0.408838 0.395878
0.812718 0.411624 0.392184
0.945057 0.414410 0.388486
1.000000 0.417194 0.384786
0.000000 0.528810 0.412271
0.103320 0.531540 0.408588
0.253986 0.534269 0.404903
0.397341 0.536997 0.401215
0.536578 0.539724 0.397524
0.672947 0.542450 0.393831
0.807124 0.545174 0.390134
0.939531 0.547898 0.386435
1.000000 0.550621 0.382734
0.000000 0.660048 0.410230
0.096707 0.662730 0.406545
0.247842 0.665412 0.402859
0.391416 0.668092 0.399169
0.530794 0.670772 0.395477
0.667268 0.673451 0.391782
0.801527 0.676129 0.388084
0.934002 0.678806 0.384384
1.000000 0.681483 0.380680
0.000000 0.789216 0.408188
0.090059 0.791861 0.404502
0.241687 0.794504 0.400814
0.385484 0.797147 0.397123
0.525006 0.799789 0.393429
0.661585 0.802431 0.389733
0.795927 0.805072 0.386033
0.928471 0.807712 0.382331
1.000000 0.810351 0.378626
0.000000 0.916707 0.406145
0.083370 0.919320 0.402458
0.235519 0.921932 0.398768
0.379545 0.924544 0.395076
0.519212 0.927155 0.391380
0.655898 0.929766 0.387682
0.790324 0.932376 0.383982
0.922937 0.934985 0.380278
1.000000 0.937594 0.376571
0.000000 1.000000 0.404102
0.076638 1.000000 0.400413
0.229338 1.000000 0.396722
0.373598 1.000000 0.393028
0.513413 1.000000 0.389331
0.650207 1.000000 0.385631
0.784718 1.000000 0.381929
0.917400 1.000000 0.378223
1.000000 1.000000 0.374515
0.000000 0.000000 0.548750
0.117954 0.000000 0.545151
0.267648 0.000000 0.541550
0.410534 0.000000 0.537947
0.549462 0.000000 0.534342
0.685602 0.000000 0.530736
0.819598 0.000000 0.527127
0.951856 0.000000 0.523516
1.000000 0.000000 0.519904
0.000000 0.097541 0.546755
0.111413 0.100663 0.543155
0.261531 0.103778 0.539553
0.404625 0.106885 0.535949
0.543689 0.109985 0.532343
0.679932 0.113078 0.528736
0.814009 0.116164 0.525126
0.946333 0.119243 0.521514
1.000000 0.122317 0.517900
0.000000 0.242909 0.544760
0.104842 0.245814 0.541159
0.255402 0.248716 0.537556
0.398708 0.251615 0.533951
0.537912 0.254512 0.530344
0.674257 0.257406 0.526735
0.808416 0.260297 0.523124
0.940807 0.263186 0.519511
1.000000 0.266072 0.515896
0.000000 0.381155 0.542764
0.098237 0.383957 0.539162
0.249262 0.386758 0.535557
0.392785 0.389557 0.531951
0.532130 0.392355 0.528343
0.668579 0.395151 0.524733
0.802820 0.397945 0.521122
0.935279 0.400738 0.517508
1.000000 0.403529 0.513892
0.000000 0.515406 0.540767
0.091597 0.518142 0.537164
0.243109 0.520877 0.533559
0.386854 0.523610 0.529952
0.526343 0.526343 0.526343
0.662897 0.529074 0.522732
0.797221 0.531804 0.519118
0.929748 0.534533 0.515503
1.000000 0.537261 0.511886
0.000000 0.646883 0.538770
0.084918 0.649570 0.535166
0.236944 0.652255 0.531560
0.380917 0.654940 0.527951
0.520550 0.657624 0.524341
0.657211 0.660307 0.520729
0.791618 0.662990 0.517115
0.924215 0.665671 0.513499
1.000000 0.668352 0.509880
0.000000 0.776240 0.536772
0.078197 0.778888 0.533167
0.230766 0.781535 0.529560
0.374971 0.784181 0.525950
0.514753 0.786827 0.522339
0.651522 0.789472 0.518726
0.786013 0.792116 0.515111
0.918679 0.794760 0.511493
1.000000 0.797403 0.507874
0.000000 0.903886 0.534774
0.071429 0.906502 0.531168
0.224575 0.909117 0.527559
0.369018 0.911732 0.523949
0.508950 0.914346 0.520336
0.645828 0.916960 0.516722
0.780404 0.919572 0.513106
0.913140 0.922185 0.509487
1.000000 0.924796 0.505867
0.000000 1.000000 0.532775
0.064609 1.000000 0.529168
0.218370 1.000000 0.525558
0.363058 1.000000 0.521947
0.503142 1.000000 0.518333
0.640130 1.000000 0.514718
0.774793 1.000000 0.511100
0.907598 1.000000 0.507480
1.000000 1.000000 0.503859
0.000000 0.000000 0.674692
0.106362 0.000000 0.671153
0.256818 0.000000 0.667611
0.400075 0.000000 0.664069
0.539246 0.000000 0.660524
0.675568 0.000000 0.656978
0.809707 0.000000 0.653431
0.942083 0.000000 0.649882
1.000000 0.000000 0.646332
0.000000 0.082110 0.672730
0.099765 0.085274 0.669190
0.250681 0.088430 0.665648
0.394153 0.091576 0.662104
0.533465 0.094714 0.658559
0.669891 0.097843 0.655012
0.804112 0.100965 0.651464
0.936556 0.104079 0.647914
1.000000 0.107185 0.644363
0.000000 0.228625 0.670768
0.093133 0.231544 0.667227
0.244531 0.234459 0.663684
0.388224 0.237372 0.660139
0.527679 0.240282 0.656593
0.664209 0.243190 0.653046
0.798514 0.246094 0.649496
0.931025 0.248996 0.645946
1.000000 0.251895 0.642394
0.000000 0.367389 0.668805
0.086464 0.370200 0.665263
0.238368 0.373009 0.661719
0.382288 0.375816 0.658174
0.521888 0.378622 0.654627
0.658524 0.381426 0.651078
0.792912 0.384228 0.647528
0.925492 0.387029 0.643977
1.000000 0.389828 0.640424
0.000000 0.501975 0.666842
0.079752 0.504716 0.663299
0.232193 0.507457 0.659754
0.376345 0.510196 0.656208
0.516092 0.512934 0.652660
0.652836 0.515671 0.649111
0.787307 0.518406 0.645560
0.919957 0.521141 0.642008
1.000000 0.523874 0.638454
0.000000 0.633696 0.664878
0.072996 0.636387 0.661334
0.226005 0.639078 0.657788
0.370394 0.641767 0.654241
0.510290 0.644455 0.650693
0.647143 0.647143 0.647143
0.781700 0.649829 0.643591
0.914419 0.652515 0.640038
1.000000 0.655200 0.636483
0.000000 0.763246 0.662913
0.066188 0.765898 0.659369
0.219803 0.768548 0.655822
0.364435 0.771198 0.652274
0.504483 0.773847 0.648725
0.641446 0.776496 0.645174
0.776088 0.779144 0.641622
0.908878 0.781791 0.638067
1.000000 0.784437 0.634512
0.000000 0.891051 0.660949
0.059325 0.893670 0.657403
0.213588 0.896288 0.653856
0.358468 0.898906 0.650307
0.498671 0.901523 0.646757
0.635745 0.904139 0.643205
0.770474 0.906755 0.639652
0.903334 0.909370 0.636097
1.000000 0.911985 0.632540
0.000000 1.000000 0.658983
0.052396 1.000000 0.655437
0.207357 1.000000 0.651889
0.352494 1.000000 0.648339
0.492854 1.000000 0.644788
0.630040 1.000000 0.641235
0.764857 1.000000 0.637681
0.897788 1.000000 0.634125
1.000000 1.000000 0.630568
0.000000 0.000000 0.798770
0.094668 0.000000 0.795278
0.245952 0.000000 0.791785
0.389594 0.000000 0.788290
0.529016 0.000000 0.784794
0.665521 0.000000 0.781297
0.799806 0.000000 0.777798
0.932302 0.000000 0.774299
1.000000 0.000000 0.770798
0.000000 0.066441 0.796835
0.088007 0.069658 0.793342
0.239792 0.072864 0.789848
0.383659 0.076059 0.786352
0.523226 0.079242 0.782856
0.659837 0.082416 0.779358
0.794206 0.085580 0.775859
0.926770 0.088734 0.772358
1.000000 0.091880 0.768857
0.000000 0.214269 0.794898
0.081306 0.217203 0.791405
0.233620 0.220134 0.787910
0.377718 0.223061 0.784414
0.517430 0.225986 0.780917
0.654149 0.228907 0.777418
0.788602 0.231826 0.773918
0.921235 0.234741 0.770417
1.000000 0.237654 0.766915
0.000000 0.353582 0.792962
0.074560 0.356402 0.789468
0.227435 0.359219 0.785972
0.371768 0.362035 0.782476
0.511630 0.364849 0.778978
0.648457 0.367661 0.775478
0.782995 0.370472 0.771978
0.915698 0.373280 0.768476
1.000000 0.376087 0.764973
0.000000 0.488514 0.791025
0.067765 0.491262 0.787530
0.221237 0.494008 0.784034
0.365811 0.496753 0.780537
0.505825 0.499497 0.777038
0.642761 0.502240 0.773538
0.777384 0.504981 0.770037
0.910157 0.507721 0.766534
1.000000 0.510461 0.763031
0.000000 0.620488 0.789088
0.060915 0.623183 0.785592
0.215024 0.625878 0.782096
0.359847 0.628572 0.778598
0.500014 0.631265 0.775098
0.637061 0.633956 0.771597
0.771771 0.636647 0.768096
0.904614 0.639338 0.764592
1.000000 0.642027 0.761088
0.000000 0.750235 0.787151
0.054002 0.752890 0.783654
0.208797 0.755544 0.780157
0.353874 0.758198 0.776658
0.494197 0.760850 0.773158
0.631357 0.763502 0.769656
0.766154 0.766154 0.766154
0.899069 0.768804 0.762650
1.000000 0.771454 0.759145
0.000000 0.878201 0.785213
0.047018 0.880823 0.781716
0.202555 0.883444 0.778217
0.347893 0.886065 0.774718
0.488375 0.888685 0.771217
0.625649 0.891304 0.767715
0.760534 0.893923 0.764212
0.893520 0.896541 0.760707
1.000000 0.899159 0.757201
0.000000 1.000000 0.783274
0.039949 1.000000 0.779777
0.196298 1.000000 0.776278
0.341904 1.000000 0.772777
0.482548 1.000000 0.769276
0.619937 1.000000 0.765773
0.754910 1.000000 0.762269
0.887969 1.000000 0.758764
1.000000 1.000000 0.755257
0.000000 0.000000 0.921318
0.082857 0.000000 0.917866
0.235046 0.000000 0.914412
0.379090 0.000000 0.910958
0.518769 0.000000 0.907502
0.655463 0.000000 0.904045
0.789896 0.000000 0.900588
0.922513 0.000000 0.897129
1.000000 0.000000 0.893669
0.000000 0.050467 0.919404
0.076122 0.053754 0.915951
0.228864 0.057025 0.912497
0.373142 0.060282 0.909042
0.512970 0.063524 0.905586
0.649772 0.066752 0.902129
0.784289 0.069969 0.898670
0.916976 0.073173 0.895211
1.000000 0.076367 0.891751
0.000000 0.199836 0.917490
0.069338 0.202786 0.914037
0.222669 0.205733 0.910582
0.367187 0.208676 0.907126
0.507165 0.211616 0.903670
0.644077 0.214553 0.900212
0.778680 0.217486 0.896753
0.911437 0.220417 0.893293
1.000000 0.223344 0.889832
0.000000 0.339732 0.915576
0.062502 0.342561 0.912122
0.216460 0.345387 0.908667
0.361224 0.348212 0.905210
0.501356 0.351034 0.901753
0.638378 0.353855 0.898295
0.773067 0.356674 0.894835
0.905894 0.359491 0.891375
1.000000 0.362307 0.887913
0.000000 0.475024 0.913662
0.055604 0.477778 0.910207
0.210236 0.480530 0.906751
0.355254 0.483281 0.903294
0.495541 0.486031 0.899836
0.632675 0.488780 0.896377
0.767451 0.491527 0.892917
0.900349 0.494274 0.889456
1.000000 0.497018 0.885994
0.000000 0.607257 0.911747
0.048637 0.609957 0.908291
0.203998 0.612656 0.904835
0.349275 0.615354 0.901377
0.489720 0.618052 0.897919
0.626967 0.620748 0.894459
0.761832 0.623444 0.890999
0.894802 0.626138 0.887537
1.000000 0.628832 0.884074
0.000000 0.737205 0.909831
0.041590 0.739864 0.906375
0.197744 0.742522 0.902918
0.343288 0.745179 0.899460
0.483894 0.747836 0.896001
0.621256 0.750491 0.892541
0.756209 0.753146 0.889080
0.889251 0.755801 0.885617
1.000000 0.758454 0.882154
0.000000 0.865336 0.907916
0.034444 0.867961 0.904459
0.191475 0.870586 0.901002
0.337292 0.873209 0.897543
0.478062 0.875832 0.894083
0.615540 0.878455 0.890623
0.750583 0.881077 0.887161
0.883698 0.883698 0.883698
1.000000 0.886318 0.880234
0.000000 0.991961 0.906000
0.027178 0.994558 0.902543
0.185189 0.997154 0.899085
0.331288 0.999749 0.895625
0.472225 1.000000 0.892165
0.609820 1.000000 0.888704
0.744953 1.000000 0.885241
0.878142 1.000000 0.881778
1.000000 1.000000 0.878313
0.000000 0.000000 1.000000
0.070909 0.000000 1.000000
0.224100 0.000000 1.000000
0.368563 0.000000 1.000000
0.508506 0.000000 1.000000
0.645392 0.000000 1.000000
0.779975 0.000000 1.000000
0.912716 0.000000 1.000000
1.000000 0.000000 1.000000
0.000000 0.034070 1.000000
0.064085 0.037458 1.000000
0.217894 0.040821 1.000000
0.362602 0.044162 1.000000
0.502698 0.047483 1.000000
0.639694 0.050786 1.000000
0.774363 0.054071 1.000000
0.907174 0.057341 1.000000
1.000000 0.060596 1.000000
0.000000 0.185319 1.000000
0.057202 0.188287 1.000000
0.211674 0.191251 1.000000
0.356633 0.194211 1.000000
0.496884 0.197168 1.000000
0.633992 0.200121 1.000000
0.768748 0.203071 1.000000
0.901630 0.206017 1.000000
1.000000 0.208960 1.000000
0.000000 0.325837 1.000000
0.050253 0.328675 1.000000
0.205439 0.331510 1.000000
0.350656 0.334344 1.000000
0.491064 0.337176 1.000000
0.628285 0.340006 1.000000
0.763129 0.342834 1.000000
0.896083 0.345660 1.000000
1.000000 0.348484 1.000000
0.000000 0.461503 1.000000
0.043225 0.464263 1.000000
0.199189 0.467022 1.000000
0.344671 0.469779 1.000000
0.485240 0.472536 1.000000
0.622575 0.475290 1.000000
0.757507 0.478044 1.000000
0.890533 0.480796 1.000000
1.000000 0.483547 1.000000
0.000000 0.594002 1.000000
0.036104 0.596707 1.000000
0.192923 0.599411 1.000000
0.338677 0.602114 1.000000
0.479409 0.604817 1.000000
0.616860 0.607518 1.000000
0.751882 0.610218 1.000000
0.884980 0.612917 1.000000
1.000000 0.615615 1.000000
0.000000 0.724157 1.000000
0.028868 0.726820 1.000000
0.186641 0.729481 1.000000
0.332675 0.732142 1.000000
0.473573 0.734803 1.000000
0.611141 0.737462 1.000000
0.746253 0.740121 1.000000
0.879425 0.742779 1.000000
1.000000 0.745436 1.000000
0.000000 0.852456 1.000000
0.021482 0.855084 1.000000
0.180342 0.857711 1.000000
0.326665 0.860338 1.000000
0.467731 0.862964 1.000000
0.605418 0.865590 1.000000
0.740621 0.868215 1.000000
0.873866 0.870839 1.000000
1.000000 0.873463 1.000000
0.000000 0.979222 1.000000
0.013882 0.981821 1.000000
0.174026 0.984420 1.000000
0.320645 0.987018 1.000000
0.461884 0.989615 1.000000
0.599691 0.992212 1.000000
0.734986 0.994809 1.000000
0.868305 0.997405 1.000000
1.000000 1.000000 1.000000
