presets/film_stocks/Kodak_Gold_200.cube
# 独寻胶片模拟 -- Kodak Gold 200
# Kodak, ISO 200, 2007, negative
TITLE "Kodak Gold 200"
LUT_3D_SIZE 5
DOMAIN_MIN 0.0 0.0 0.0
DOMAIN_MAX 1.0 1.0 1.0
0.000000 0.000000 0.000000
0.346349 0.013307 0.000000
0.617125 0.023711 0.000000
0.865198 0.033242 0.000000
1.000000 0.042247 0.000000
0.000000 0.334690 0.000000
0.334328 0.340498 0.000000
0.606434 0.346287 0.000000
0.855212 0.352056 0.000000
1.000000 0.357806 0.000000
0.000000 0.596350 0.000000
0.322220 0.601529 0.000000
0.595705 0.606699 0.000000
0.845202 0.611860 0.000000
1.000000 0.617013 0.000000
0.000000 0.836073 0.000000
0.310020 0.840915 0.000000
0.584938 0.845751 0.000000
0.835169 0.850582 0.000000
1.000000 0.855407 0.000000
0.000000 1.000000 0.000000
0.297723 1.000000 0.000000
0.574131 1.000000 0.000000
0.825111 1.000000 0.000000
1.000000 1.000000 0.000000
0.000000 0.000000 0.328512
0.327142 0.000000 0.319783
0.600062 0.000000 0.311006
0.849265 0.000000 0.302178
1.000000 0.000000 0.293299
0.000000 0.309080 0.323736
0.314980 0.314980 0.314980
0.589310 0.320859 0.306176
0.839241 0.326716 0.297321
1.000000 0.332552 0.288412
0.000000 0.573625 0.318945
0.302723 0.578844 0.310163
0.578519 0.584054 0.301331
0.829194 0.589254 0.292447
1.000000 0.594445 0.283508
0.000000 0.814860 0.314140
0.290366 0.819727 0.305331
0.567688 0.824588 0.296470
0.819122 0.829443 0.287557
1.000000 0.834293 0.278588
0.000000 1.000000 0.309320
0.277903 1.000000 0.300483
0.556815 1.000000 0.291594
0.809024 1.000000 0.282650
1.000000 1.000000 0.273649
0.000000 0.000000 0.585342
0.307707 0.000000 0.577576
0.582902 0.000000 0.569788
0.833272 0.000000 0.561979
1.000000 0.000000 0.554149
0.000000 0.283037 0.581090
0.295391 0.289041 0.573312
0.572087 0.295020 0.565513
0.823210 0.300975 0.557692
1.000000 0.306907 0.549850
0.000000 0.550718 0.576831
0.282972 0.555979 0.569042
0.561231 0.561231 0.561231
0.813123 0.566473 0.553398
1.000000 0.571705 0.545543
0.000000 0.793536 0.572567
0.270443 0.798429 0.564765
0.550333 0.803315 0.556943
0.803011 0.808196 0.549098
1.000000 0.813071 0.541230
0.000000 1.000000 0.568295
0.257796 1.000000 0.560482
0.539392 1.000000 0.552648
0.792874 1.000000 0.544790
1.000000 1.000000 0.536911
0.000000 0.000000 0.820640
0.288023 0.000000 0.813384
0.565640 0.000000 0.806115
0.817218 0.000000 0.798833
1.000000 0.000000 0.791538
0.000000 0.256506 0.816666
0.275539 0.262627 0.809404
0.554759 0.268721 0.802128
0.807116 0.274786 0.794838
1.000000 0.280825 0.787536
0.000000 0.527619 0.812689
0.262941 0.532925 0.805419
0.543835 0.538221 0.798136
0.796989 0.543507 0.790839
1.000000 0.548782 0.783529
0.000000 0.772097 0.808708
0.250221 0.777016 0.801431
0.532868 0.781929 0.794140
0.786836 0.786836 0.786836
1.000000 0.791737 0.779519
0.000000 1.000000 0.804723
0.237370 1.000000 0.797438
0.521855 1.000000 0.790140
0.776657 1.000000 0.782829
1.000000 1.000000 0.775504
0.000000 0.000000 1.000000
0.268066 0.000000 1.000000
0.548272 0.000000 1.000000
0.801100 0.000000 1.000000
1.000000 0.000000 1.000000
0.000000 0.229412 1.000000
0.255396 0.235670 1.000000
0.537322 0.241895 1.000000
0.790958 0.248087 1.000000
1.000000 0.254249 1.000000
0.000000 0.504315 1.000000
0.242599 0.509670 1.000000
0.526328 0.515013 1.000000
0.780789 0.520345 1.000000
1.000000 0.525666 1.000000
0.000000 0.750538 1.000000
0.229666 0.755485 1.000000
0.515287 0.760426 1.000000
0.770594 0.765360 1.000000
1.000000 0.770288 1.000000
0.000000 0.981267 1.000000
0.216586 0.985957 1.000000
0.504199 0.990643 1.000000
0.760372 0.995323 1.000000
1.000000 1.000000 1.000000
