presets/film_stocks/Kodak_5250.cube
# 独寻胶片模拟 -- Kodak 5250
# Kodak, ISO 50, 1959, negative
TITLE "Kodak 5250"
LUT_3D_SIZE 33
DOMAIN_MIN 0.0 0.0 0.0
DOMAIN_MAX 1.0 1.0 1.0
0.000000 0.000000 0.000000
0.055518 0.001963 0.000000
0.101438 0.003587 0.000000
0.144319 0.005103 0.000000
0.185338 0.006553 0.000000
0.225027 0.007957 0.000000
0.263687 0.009324 0.000000
0.301511 0.010661 0.000000
0.338634 0.011974 0.000000
0.375155 0.013265 0.000000
0.411150 0.014538 0.000000
0.446677 0.015794 0.000000
0.481785 0.017035 0.000000
0.516513 0.018263 0.000000
0.550894 0.019479 0.000000
0.584955 0.020683 0.000000
0.618722 0.021877 0.000000
0.652214 0.023062 0.000000
0.685450 0.024237 0.000000
0.718446 0.025404 0.000000
0.751217 0.026562 0.000000
0.783774 0.027713 0.000000
0.816129 0.028857 0.000000
0.848293 0.029995 0.000000
0.880275 0.031126 0.000000
0.912084 0.032250 0.000000
0.943727 0.033369 0.000000
0.975212 0.034482 0.000000
1.000000 0.035590 0.000000
1.000000 0.036693 0.000000
1.000000 0.037791 0.000000
1.000000 0.038884 0.000000
1.000000 0.039972 0.000000
0.000000 0.054413 0.000000
0.053606 0.055449 0.000000
0.099693 0.056482 0.000000
0.142665 0.057511 0.000000
0.183746 0.058539 0.000000
0.223480 0.059563 0.000000
0.262176 0.060585 0.000000
0.300031 0.061604 0.000000
0.337179 0.062621 0.000000
0.373723 0.063635 0.000000
0.409737 0.064647 0.000000
0.445282 0.065656 0.000000
0.480406 0.066664 0.000000
0.515148 0.067668 0.000000
0.549542 0.068671 0.000000
0.583616 0.069671 0.000000
0.617394 0.070670 0.000000
0.650896 0.071666 0.000000
0.684142 0.072660 0.000000
0.717147 0.073652 0.000000
0.749926 0.074642 0.000000
0.782492 0.075630 0.000000
0.814855 0.076616 0.000000
0.847026 0.077601 0.000000
0.879015 0.078583 0.000000
0.910831 0.079564 0.000000
0.942480 0.080542 0.000000
0.973971 0.081519 0.000000
1.000000 0.082495 0.000000
1.000000 0.083468 0.000000
1.000000 0.084440 0.000000
1.000000 0.085410 0.000000
1.000000 0.086378 0.000000
0.000000 0.099419 0.000000
0.051684 0.100366 0.000000
0.097945 0.101311 0.000000
0.141008 0.102255 0.000000
0.182151 0.103198 0.000000
0.221932 0.104140 0.000000
0.260665 0.105080 0.000000
0.298549 0.106019 0.000000
0.335724 0.106957 0.000000
0.372290 0.107893 0.000000
0.408324 0.108828 0.000000
0.443886 0.109762 0.000000
0.479026 0.110695 0.000000
0.513782 0.111627 0.000000
0.548190 0.112558 0.000000
0.582276 0.113487 0.000000
0.616065 0.114415 0.000000
0.649578 0.115342 0.000000
0.682834 0.116268 0.000000
0.715848 0.117193 0.000000
0.748636 0.118117 0.000000
0.781209 0.119040 0.000000
0.813580 0.119962 0.000000
0.845759 0.120882 0.000000
0.877755 0.121802 0.000000
0.909577 0.122720 0.000000
0.941233 0.123638 0.000000
0.972730 0.124554 0.000000
1.000000 0.125470 0.000000
1.000000 0.126384 0.000000
1.000000 0.127298 0.000000
1.000000 0.128210 0.000000
1.000000 0.129121 0.000000
0.000000 0.141446 0.000000
0.049751 0.142345 0.000000
0.096191 0.143242 0.000000
0.139349 0.144139 0.000000
0.180554 0.145034 0.000000
0.220382 0.145929 0.000000
0.259152 0.146823 0.000000
0.297067 0.147716 0.000000
0.334268 0.148609 0.000000
0.370856 0.149500 0.000000
0.406910 0.150391 0.000000
0.442490 0.151281 0.000000
0.477645 0.152170 0.000000
0.512416 0.153059 0.000000
0.546837 0.153947 0.000000
0.580935 0.154834 0.000000
0.614735 0.155720 0.000000
0.648259 0.156605 0.000000
0.681525 0.157490 0.000000
0.714548 0.158374 0.000000
0.747345 0.159257 0.000000
0.779926 0.160139 0.000000
0.812305 0.161021 0.000000
0.844491 0.161902 0.000000
0.876494 0.162782 0.000000
0.908323 0.163662 0.000000
0.939986 0.164541 0.000000
0.971489 0.165419 0.000000
1.000000 0.166296 0.000000
1.000000 0.167173 0.000000
1.000000 0.168049 0.000000
1.000000 0.168924 0.000000
1.000000 0.169799 0.000000
0.000000 0.181650 0.000000
0.047807 0.182515 0.000000
0.094432 0.183379 0.000000
0.137686 0.184244 0.000000
0.178956 0.185107 0.000000
0.218831 0.185970 0.000000
0.257638 0.186832 0.000000
0.295584 0.187694 0.000000
0.332811 0.188555 0.000000
0.369421 0.189415 0.000000
0.405495 0.190275 0.000000
0.441093 0.191134 0.000000
0.476264 0.191993 0.000000
0.511050 0.192851 0.000000
0.545483 0.193708 0.000000
0.579594 0.194565 0.000000
0.613406 0.195422 0.000000
0.646940 0.196278 0.000000
0.680215 0.197133 0.000000
0.713248 0.197988 0.000000
0.746053 0.198842 0.000000
0.778643 0.199695 0.000000
0.811030 0.200548 0.000000
0.843223 0.201401 0.000000
0.875234 0.202253 0.000000
0.907069 0.203104 0.000000
0.938738 0.203955 0.000000
0.970247 0.204806 0.000000
1.000000 0.205655 0.000000
1.000000 0.206505 0.000000
1.000000 0.207354 0.000000
1.000000 0.208202 0.000000
1.000000 0.209050 0.000000
0.000000 0.220548 0.000000
0.045850 0.221389 0.000000
0.092669 0.222229 0.000000
0.136021 0.223068 0.000000
0.177355 0.223908 0.000000
0.217278 0.224746 0.000000
0.256123 0.225584 0.000000
0.294099 0.226422 0.000000
0.331352 0.227259 0.000000
0.367986 0.228096 0.000000
0.404079 0.228932 0.000000
0.439695 0.229768 0.000000
0.474882 0.230603 0.000000
0.509682 0.231438 0.000000
0.544130 0.232273 0.000000
0.578252 0.233106 0.000000
0.612075 0.233940 0.000000
0.645620 0.234773 0.000000
0.678906 0.235606 0.000000
0.711948 0.236438 0.000000
0.744762 0.237270 0.000000
0.777360 0.238101 0.000000
0.809754 0.238932 0.000000
0.841955 0.239762 0.000000
0.873973 0.240593 0.000000
0.905815 0.241422 0.000000
0.937490 0.242251 0.000000
0.969006 0.243080 0.000000
1.000000 0.243908 0.000000
1.000000 0.244736 0.000000
1.000000 0.245564 0.000000
1.000000 0.246391 0.000000
1.000000 0.247217 0.000000
0.000000 0.258439 0.000000
0.043881 0.259259 0.000000
0.090901 0.260080 0.000000
0.134352 0.260900 0.000000
0.175751 0.261719 0.000000
0.215723 0.262539 0.000000
0.254606 0.263357 0.000000
0.292614 0.264176 0.000000
0.329893 0.264994 0.000000
0.366550 0.265812 0.000000
0.402663 0.266629 0.000000
0.438296 0.267446 0.000000
0.473500 0.268262 0.000000
0.508315 0.269079 0.000000
0.542775 0.269894 0.000000
0.576910 0.270710 0.000000
0.610745 0.271525 0.000000
0.644300 0.272340 0.000000
0.677596 0.273154 0.000000
0.710647 0.273968 0.000000
0.743470 0.274782 0.000000
0.776076 0.275595 0.000000
0.808478 0.276408 0.000000
0.840687 0.277220 0.000000
0.872711 0.278033 0.000000
0.904560 0.278844 0.000000
0.936242 0.279656 0.000000
0.967764 0.280467 0.000000
0.999132 0.281278 0.000000
1.000000 0.282088 0.000000
1.000000 0.282898 0.000000
1.000000 0.283708 0.000000
1.000000 0.284517 0.000000
0.000000 0.295510 0.000000
0.041899 0.296314 0.000000
0.089127 0.297118 0.000000
0.132680 0.297922 0.000000
0.174146 0.298726 0.000000
0.214166 0.299529 0.000000
0.253088 0.300332 0.000000
0.291127 0.301134 0.000000
0.328433 0.301936 0.000000
0.365112 0.302738 0.000000
0.401246 0.303540 0.000000
0.436897 0.304341 0.000000
0.472117 0.305142 0.000000
0.506946 0.305943 0.000000
0.541420 0.306743 0.000000
0.575568 0.307543 0.000000
0.609414 0.308342 0.000000
0.642980 0.309142 0.000000
0.676285 0.309941 0.000000
0.709346 0.310740 0.000000
0.742177 0.311538 0.000000
0.774792 0.312336 0.000000
0.807202 0.313134 0.000000
0.839418 0.313931 0.000000
0.871450 0.314729 0.000000
0.903306 0.315526 0.000000
0.934994 0.316322 0.000000
0.966521 0.317118 0.000000
0.997896 0.317914 0.000000
1.000000 0.318710 0.000000
1.000000 0.319506 0.000000
1.000000 0.320301 0.000000
1.000000 0.321095 0.000000
0.000000 0.331894 0.000000
0.039903 0.332685 0.000000
0.087348 0.333475 0.000000
0.131005 0.334265 0.000000
0.172539 0.335055 0.000000
0.212608 0.335844 0.000000
0.251568 0.336634 0.000000
0.289639 0.337422 0.000000
0.326972 0.338211 0.000000
0.363674 0.338999 0.000000
0.399828 0.339788 0.000000
0.435498 0.340575 0.000000
0.470733 0.341363 0.000000
0.505578 0.342150 0.000000
0.540065 0.342937 0.000000
0.574225 0.343724 0.000000
0.608082 0.344510 0.000000
0.641659 0.345296 0.000000
0.674974 0.346082 0.000000
0.708045 0.346868 0.000000
0.740885 0.347653 0.000000
0.773508 0.348439 0.000000
0.805926 0.349223 0.000000
0.838149 0.350008 0.000000
0.870188 0.350792 0.000000
0.902050 0.351576 0.000000
0.933745 0.352360 0.000000
0.965279 0.353144 0.000000
0.996659 0.353927 0.000000
1.000000 0.354710 0.000000
1.000000 0.355493 0.000000
1.000000 0.356275 0.000000
1.000000 0.357057 0.000000
0.000000 0.367689 0.000000
0.037891 0.368467 0.000000
0.085564 0.369245 0.000000
0.129327 0.370024 0.000000
0.170929 0.370801 0.000000
0.211048 0.371579 0.000000
0.250047 0.372356 0.000000
0.288150 0.373133 0.000000
0.325510 0.373910 0.000000
0.362235 0.374687 0.000000
0.398410 0.375463 0.000000
0.434097 0.376239 0.000000
0.469349 0.377015 0.000000
0.504208 0.377791 0.000000
0.538709 0.378566 0.000000
0.572881 0.379341 0.000000
0.606750 0.380116 0.000000
0.640338 0.380891 0.000000
0.673663 0.381665 0.000000
0.706743 0.382439 0.000000
0.739592 0.383213 0.000000
0.772223 0.383987 0.000000
0.804649 0.384761 0.000000
0.836880 0.385534 0.000000
0.868926 0.386307 0.000000
0.900795 0.387080 0.000000
0.932496 0.387852 0.000000
0.964036 0.388625 0.000000
0.995423 0.389397 0.000000
1.000000 0.390169 0.000000
1.000000 0.390940 0.000000
1.000000 0.391712 0.000000
1.000000 0.392483 0.000000
0.000000 0.402967 0.000000
0.035864 0.403735 0.000000
0.083774 0.404502 0.000000
0.127646 0.405270 0.000000
0.169317 0.406037 0.000000
0.209486 0.406804 0.000000
0.248525 0.407571 0.000000
0.286660 0.408338 0.000000
0.324047 0.409104 0.000000
0.360796 0.409870 0.000000
0.396990 0.410636 0.000000
0.432696 0.411402 0.000000
0.467965 0.412168 0.000000
0.502838 0.412933 0.000000
0.537353 0.413698 0.000000
0.571537 0.414463 0.000000
0.605418 0.415228 0.000000
0.639016 0.415992 0.000000
0.672352 0.416757 0.000000
0.705441 0.417521 0.000000
0.738298 0.418285 0.000000
0.770938 0.419048 0.000000
0.803372 0.419812 0.000000
0.835610 0.420575 0.000000
0.867663 0.421338 0.000000
0.899539 0.422101 0.000000
0.931247 0.422863 0.000000
0.962794 0.423626 0.000000
0.994186 0.424388 0.000000
1.000000 0.425150 0.000000
1.000000 0.425912 0.000000
1.000000 0.426673 0.000000
1.000000 0.427435 0.000000
0.000000 0.437787 0.000000
0.033819 0.438546 0.000000
0.081978 0.439304 0.000000
0.125961 0.440062 0.000000
0.167702 0.440820 0.000000
0.207923 0.441577 0.000000
0.247001 0.442335 0.000000
0.285169 0.443092 0.000000
0.322583 0.443849 0.000000
0.359355 0.444606 0.000000
0.395570 0.445363 0.000000
0.431294 0.446119 0.000000
0.466579 0.446876 0.000000
0.501468 0.447632 0.000000
0.535996 0.448388 0.000000
0.570193 0.449143 0.000000
0.604085 0.449899 0.000000
0.637694 0.450654 0.000000
0.671040 0.451410 0.000000
0.704138 0.452165 0.000000
0.737005 0.452919 0.000000
0.769653 0.453674 0.000000
0.802095 0.454428 0.000000
0.834340 0.455183 0.000000
0.866401 0.455937 0.000000
0.898284 0.456690 0.000000
0.929998 0.457444 0.000000
0.961550 0.458198 0.000000
0.992949 0.458951 0.000000
1.000000 0.459704 0.000000
1.000000 0.460457 0.000000
1.000000 0.461210 0.000000
1.000000 0.461962 0.000000
0.000000 0.472196 0.000000
0.031755 0.472946 0.000000
0.080176 0.473696 0.000000
0.124273 0.474445 0.000000
0.166085 0.475195 0.000000
0.206358 0.475944 0.000000
0.245476 0.476693 0.000000
0.283676 0.477442 0.000000
0.321118 0.478191 0.000000
0.357914 0.478939 0.000000
0.394150 0.479687 0.000000
0.429892 0.480435 0.000000
0.465193 0.481183 0.000000
0.500097 0.481931 0.000000
0.534638 0.482679 0.000000
0.568848 0.483426 0.000000
0.602752 0.484174 0.000000
0.636372 0.484921 0.000000
0.669727 0.485668 0.000000
0.702835 0.486414 0.000000
0.735711 0.487161 0.000000
0.768367 0.487907 0.000000
0.800817 0.488654 0.000000
0.833070 0.489400 0.000000
0.865138 0.490146 0.000000
0.897027 0.490891 0.000000
0.928748 0.491637 0.000000
0.960307 0.492382 0.000000
0.991711 0.493127 0.000000
1.000000 0.493872 0.000000
1.000000 0.494617 0.000000
1.000000 0.495362 0.000000
1.000000 0.496107 0.000000
0.000000 0.506233 0.000000
0.029671 0.506975 0.000000
0.078369 0.507717 0.000000
0.122581 0.508459 0.000000
0.164466 0.509201 0.000000
0.204791 0.509942 0.000000
0.243949 0.510683 0.000000
0.282183 0.511424 0.000000
0.319652 0.512165 0.000000
0.356471 0.512906 0.000000
0.392728 0.513647 0.000000
0.428489 0.514387 0.000000
0.463807 0.515128 0.000000
0.498725 0.515868 0.000000
0.533280 0.516608 0.000000
0.567503 0.517348 0.000000
0.601418 0.518088 0.000000
0.635049 0.518827 0.000000
0.668414 0.519567 0.000000
0.701532 0.520306 0.000000
0.734416 0.521045 0.000000
0.767081 0.521784 0.000000
0.799539 0.522523 0.000000
0.831800 0.523261 0.000000
0.863874 0.524000 0.000000
0.895771 0.524738 0.000000
0.927498 0.525476 0.000000
0.959063 0.526214 0.000000
0.990474 0.526952 0.000000
1.000000 0.527690 0.000000
1.000000 0.528427 0.000000
1.000000 0.529164 0.000000
1.000000 0.529902 0.000000
0.000000 0.539930 0.000000
0.027564 0.540665 0.000000
0.076554 0.541399 0.000000
0.120886 0.542134 0.000000
0.162845 0.542869 0.000000
0.203222 0.543603 0.000000
0.242421 0.544337 0.000000
0.280688 0.545071 0.000000
0.318185 0.545805 0.000000
0.355028 0.546539 0.000000
0.391306 0.547273 0.000000
0.427085 0.548006 0.000000
0.462419 0.548740 0.000000
0.497353 0.549473 0.000000
0.531922 0.550206 0.000000
0.566157 0.550939 0.000000
0.600084 0.551672 0.000000
0.633726 0.552404 0.000000
0.667101 0.553137 0.000000
0.700228 0.553869 0.000000
0.733122 0.554601 0.000000
0.765795 0.555333 0.000000
0.798261 0.556065 0.000000
0.830529 0.556797 0.000000
0.862611 0.557529 0.000000
0.894514 0.558260 0.000000
0.926248 0.558991 0.000000
0.957820 0.559723 0.000000
0.989236 0.560454 0.000000
1.000000 0.561184 0.000000
1.000000 0.561915 0.000000
1.000000 0.562646 0.000000
1.000000 0.563376 0.000000
0.000000 0.573313 0.000000
0.025434 0.574042 0.000000
0.074734 0.574770 0.000000
0.119187 0.575498 0.000000
0.161221 0.576226 0.000000
0.201651 0.576954 0.000000
0.240892 0.577682 0.000000
0.279192 0.578409 0.000000
0.316716 0.579137 0.000000
0.353584 0.579864 0.000000
0.389883 0.580591 0.000000
0.425680 0.581318 0.000000
0.461031 0.582045 0.000000
0.495980 0.582772 0.000000
0.530563 0.583499 0.000000
0.564811 0.584225 0.000000
0.598749 0.584952 0.000000
0.632402 0.585678 0.000000
0.665788 0.586404 0.000000
0.698924 0.587130 0.000000
0.731827 0.587856 0.000000
0.764508 0.588581 0.000000
0.796982 0.589307 0.000000
0.829258 0.590032 0.000000
0.861347 0.590758 0.000000
0.893257 0.591483 0.000000
0.924998 0.592208 0.000000
0.956575 0.592933 0.000000
0.987998 0.593657 0.000000
1.000000 0.594382 0.000000
1.000000 0.595106 0.000000
1.000000 0.595831 0.000000
1.000000 0.596555 0.000000
0.000000 0.606408 0.000000
0.023276 0.607130 0.000000
0.072907 0.607852 0.000000
0.117485 0.608575 0.000000
0.159595 0.609296 0.000000
0.200079 0.610018 0.000000
0.239361 0.610740 0.000000
0.277695 0.611461 0.000000
0.315247 0.612183 0.000000
0.352139 0.612904 0.000000
0.388459 0.613625 0.000000
0.424275 0.614346 0.000000
0.459643 0.615067 0.000000
0.494607 0.615788 0.000000
0.529204 0.616509 0.000000
0.563464 0.617229 0.000000
0.597414 0.617950 0.000000
0.631078 0.618670 0.000000
0.664474 0.619390 0.000000
0.697620 0.620110 0.000000
0.730531 0.620830 0.000000
0.763221 0.621550 0.000000
0.795703 0.622269 0.000000
0.827987 0.622989 0.000000
0.860083 0.623708 0.000000
0.892000 0.624428 0.000000
0.923747 0.625147 0.000000
0.955331 0.625866 0.000000
0.986759 0.626585 0.000000
1.000000 0.627303 0.000000
1.000000 0.628022 0.000000
1.000000 0.628741 0.000000
1.000000 0.629459 0.000000
0.000000 0.639234 0.000000
0.021087 0.639950 0.000000
0.071073 0.640667 0.000000
0.115779 0.641383 0.000000
0.157966 0.642099 0.000000
0.198505 0.642816 0.000000
0.237829 0.643532 0.000000
0.276196 0.644248 0.000000
0.313777 0.644963 0.000000
0.350693 0.645679 0.000000
0.387034 0.646395 0.000000
0.422869 0.647110 0.000000
0.458254 0.647825 0.000000
0.493233 0.648540 0.000000
0.527843 0.649256 0.000000
0.562117 0.649970 0.000000
0.596079 0.650685 0.000000
0.629753 0.651400 0.000000
0.663160 0.652115 0.000000
0.696315 0.652829 0.000000
0.729235 0.653543 0.000000
0.761934 0.654258 0.000000
0.794424 0.654972 0.000000
0.826715 0.655686 0.000000
0.858819 0.656400 0.000000
0.890743 0.657114 0.000000
0.922496 0.657827 0.000000
0.954087 0.658541 0.000000
0.985521 0.659254 0.000000
1.000000 0.659968 0.000000
1.000000 0.660681 0.000000
1.000000 0.661394 0.000000
1.000000 0.662107 0.000000
0.000000 0.671808 0.000000
0.018864 0.672520 0.000000
0.069232 0.673231 0.000000
0.114069 0.673942 0.000000
0.156334 0.674653 0.000000
0.196929 0.675364 0.000000
0.236295 0.676074 0.000000
0.274696 0.676785 0.000000
0.312306 0.677496 0.000000
0.349246 0.678206 0.000000
0.385608 0.678916 0.000000
0.421462 0.679626 0.000000
0.456864 0.680337 0.000000
0.491858 0.681047 0.000000
0.526483 0.681756 0.000000
0.560769 0.682466 0.000000
0.594743 0.683176 0.000000
0.628428 0.683885 0.000000
0.661845 0.684595 0.000000
0.695010 0.685304 0.000000
0.727939 0.686013 0.000000
0.760647 0.686722 0.000000
0.793144 0.687431 0.000000
0.825443 0.688140 0.000000
0.857554 0.688849 0.000000
0.889485 0.689557 0.000000
0.921245 0.690266 0.000000
0.952842 0.690974 0.000000
0.984282 0.691683 0.000000
1.000000 0.692391 0.000000
1.000000 0.693099 0.000000
1.000000 0.693807 0.000000
1.000000 0.694515 0.000000
0.000000 0.704148 0.000000
0.016601 0.704854 0.000000
0.067383 0.705560 0.000000
0.112356 0.706266 0.000000
0.154700 0.706972 0.000000
0.195351 0.707678 0.000000
0.234760 0.708384 0.000000
0.273195 0.709090 0.000000
0.310834 0.709795 0.000000
0.347799 0.710501 0.000000
0.384182 0.711206 0.000000
0.420055 0.711911 0.000000
0.455474 0.712616 0.000000
0.490483 0.713321 0.000000
0.525122 0.714026 0.000000
0.559421 0.714731 0.000000
0.593407 0.715436 0.000000
0.627103 0.716141 0.000000
0.660530 0.716845 0.000000
0.693705 0.717549 0.000000
0.726643 0.718254 0.000000
0.759359 0.718958 0.000000
0.791864 0.719662 0.000000
0.824171 0.720366 0.000000
0.856289 0.721070 0.000000
0.888227 0.721774 0.000000
0.919994 0.722478 0.000000
0.951597 0.723181 0.000000
0.983043 0.723885 0.000000
1.000000 0.724588 0.000000
1.000000 0.725291 0.000000
1.000000 0.725994 0.000000
1.000000 0.726698 0.000000
0.000000 0.736266 0.000000
0.014290 0.736967 0.000000
0.065527 0.737669 0.000000
0.110638 0.738370 0.000000
0.153064 0.739071 0.000000
0.193771 0.739773 0.000000
0.233223 0.740474 0.000000
0.271693 0.741175 0.000000
0.309360 0.741876 0.000000
0.346350 0.742576 0.000000
0.382755 0.743277 0.000000
0.418647 0.743978 0.000000
0.454083 0.744678 0.000000
0.489108 0.745379 0.000000
0.523760 0.746079 0.000000
0.558072 0.746779 0.000000
0.592070 0.747479 0.000000
0.625777 0.748179 0.000000
0.659214 0.748879 0.000000
0.692399 0.749579 0.000000
0.725346 0.750279 0.000000
0.758071 0.750978 0.000000
0.790584 0.751678 0.000000
0.822899 0.752377 0.000000
0.855024 0.753077 0.000000
0.886969 0.753776 0.000000
0.918742 0.754475 0.000000
0.950351 0.755174 0.000000
0.981804 0.755873 0.000000
1.000000 0.756572 0.000000
1.000000 0.757271 0.000000
1.000000 0.757969 0.000000
1.000000 0.758668 0.000000
0.000000 0.768175 0.000000
0.011922 0.768872 0.000000
0.063663 0.769569 0.000000
0.108916 0.770266 0.000000
0.151425 0.770963 0.000000
0.192189 0.771659 0.000000
0.231685 0.772356 0.000000
0.270190 0.773053 0.000000
0.307886 0.773749 0.000000
0.344901 0.774446 0.000000
0.381327 0.775142 0.000000
0.417238 0.775838 0.000000
0.452691 0.776534 0.000000
0.487732 0.777230 0.000000
0.522398 0.777926 0.000000
0.556723 0.778622 0.000000
0.590733 0.779318 0.000000
0.624451 0.780013 0.000000
0.657898 0.780709 0.000000
0.691092 0.781404 0.000000
0.724049 0.782100 0.000000
0.756782 0.782795 0.000000
0.789304 0.783490 0.000000
0.821626 0.784185 0.000000
0.853758 0.784880 0.000000
0.885710 0.785575 0.000000
0.917490 0.786270 0.000000
0.949106 0.786965 0.000000
0.980564 0.787659 0.000000
1.000000 0.788354 0.000000
1.000000 0.789048 0.000000
1.000000 0.789743 0.000000
1.000000 0.790437 0.000000
0.000000 0.799886 0.000000
0.009480 0.800579 0.000000
0.061790 0.801272 0.000000
0.107191 0.801965 0.000000
0.149783 0.802657 0.000000
0.190605 0.803350 0.000000
0.230145 0.804042 0.000000
0.268685 0.804735 0.000000
0.306411 0.805427 0.000000
0.343450 0.806119 0.000000
0.379899 0.806811 0.000000
0.415829 0.807503 0.000000
0.451299 0.808195 0.000000
0.486355 0.808887 0.000000
0.521035 0.809579 0.000000
0.555373 0.810271 0.000000
0.589395 0.810962 0.000000
0.623124 0.811654 0.000000
0.656582 0.812345 0.000000
0.689786 0.813037 0.000000
0.722752 0.813728 0.000000
0.755493 0.814419 0.000000
0.788023 0.815110 0.000000
0.820353 0.815801 0.000000
0.852492 0.816492 0.000000
0.884451 0.817183 0.000000
0.916238 0.817873 0.000000
0.947860 0.818564 0.000000
0.979324 0.819255 0.000000
1.000000 0.819945 0.000000
1.000000 0.820635 0.000000
1.000000 0.821326 0.000000
1.000000 0.822016 0.000000
0.000000 0.831410 0.000000
0.006939 0.832099 0.000000
0.059909 0.832788 0.000000
0.105461 0.833477 0.000000
0.148138 0.834165 0.000000
0.189019 0.834854 0.000000
0.228603 0.835542 0.000000
0.267179 0.836231 0.000000
0.304934 0.836919 0.000000
0.341999 0.837607 0.000000
0.378469 0.838295 0.000000
0.414419 0.838984 0.000000
0.449906 0.839672 0.000000
0.484977 0.840359 0.000000
0.519672 0.841047 0.000000
0.554023 0.841735 0.000000
0.588057 0.842423 0.000000
0.621797 0.843110 0.000000
0.655265 0.843798 0.000000
0.688479 0.844485 0.000000
0.721454 0.845173 0.000000
0.754204 0.845860 0.000000
0.786742 0.846547 0.000000
0.819079 0.847234 0.000000
0.851226 0.847921 0.000000
0.883192 0.848608 0.000000
0.914986 0.849295 0.000000
0.946614 0.849981 0.000000
0.978084 0.850668 0.000000
1.000000 0.851355 0.000000
1.000000 0.852041 0.000000
1.000000 0.852728 0.000000
1.000000 0.853414 0.000000
0.000000 0.862756 0.000000
0.004244 0.863441 0.000000
0.058020 0.864126 0.000000
0.103727 0.864811 0.000000
0.146491 0.865496 0.000000
0.187431 0.866180 0.000000
0.227060 0.866865 0.000000
0.265672 0.867550 0.000000
0.303457 0.868234 0.000000
0.340547 0.868919 0.000000
0.377039 0.869603 0.000000
0.413008 0.870287 0.000000
0.448512 0.870972 0.000000
0.483599 0.871656 0.000000
0.518309 0.872340 0.000000
0.552672 0.873024 0.000000
0.586718 0.873708 0.000000
0.620470 0.874392 0.000000
0.653948 0.875075 0.000000
0.687172 0.875759 0.000000
0.720156 0.876443 0.000000
0.752914 0.877126 0.000000
0.785461 0.877810 0.000000
0.817806 0.878493 0.000000
0.849960 0.879176 0.000000
0.881933 0.879859 0.000000
0.913733 0.880542 0.000000
0.945368 0.881225 0.000000
0.976844 0.881908 0.000000
1.000000 0.882591 0.000000
1.000000 0.883274 0.000000
1.000000 0.883957 0.000000
1.000000 0.884639 0.000000
0.000000 0.893931 0.000000
0.001228 0.894613 0.000000
0.056120 0.895294 0.000000
0.101988 0.895975 0.000000
0.144841 0.896657 0.000000
0.185841 0.897338 0.000000
0.225516 0.898019 0.000000
0.264164 0.898700 0.000000
0.301978 0.899381 0.000000
0.339093 0.900062 0.000000
0.375608 0.900743 0.000000
0.411596 0.901423 0.000000
0.447118 0.902104 0.000000
0.482221 0.902784 0.000000
0.516944 0.903465 0.000000
0.551321 0.904145 0.000000
0.585379 0.904826 0.000000
0.619142 0.905506 0.000000
0.652631 0.906186 0.000000
0.685864 0.906866 0.000000
0.718857 0.907546 0.000000
0.751624 0.908226 0.000000
0.784179 0.908906 0.000000
0.816532 0.909586 0.000000
0.848694 0.910265 0.000000
0.880673 0.910945 0.000000
0.912480 0.911625 0.000000
0.944121 0.912304 0.000000
0.975604 0.912984 0.000000
1.000000 0.913663 0.000000
1.000000 0.914342 0.000000
1.000000 0.915021 0.000000
1.000000 0.915700 0.000000
0.000000 0.924945 0.000000
0.000000 0.925623 0.000000
0.054212 0.926300 0.000000
0.100245 0.926978 0.000000
0.143188 0.927656 0.000000
0.184249 0.928334 0.000000
0.223969 0.929011 0.000000
0.262654 0.929689 0.000000
0.300499 0.930367 0.000000
0.337639 0.931044 0.000000
0.374176 0.931721 0.000000
0.410184 0.932399 0.000000
0.445723 0.933076 0.000000
0.480842 0.933753 0.000000
0.515579 0.934430 0.000000
0.549969 0.935107 0.000000
0.584039 0.935784 0.000000
0.617814 0.936461 0.000000
0.651313 0.937137 0.000000
0.684556 0.937814 0.000000
0.717558 0.938491 0.000000
0.750334 0.939167 0.000000
0.782897 0.939844 0.000000
0.815258 0.940520 0.000000
0.847427 0.941196 0.000000
