presets/film_stocks/Kodak_Ektachrome_Radiance_III_Paper.cube
# 独寻胶片模拟 -- Kodak Ektachrome Radiance III Paper
# Kodak, ISO 0, 0, positive
TITLE "Kodak Ektachrome Radiance III Paper"
LUT_3D_SIZE 5
DOMAIN_MIN 0.0 0.0 0.0
DOMAIN_MAX 1.0 1.0 1.0
0.000000 0.000000 0.000000
0.090210 0.000000 0.001072
0.155037 0.000000 0.001842
0.212817 0.000000 0.002529
0.266450 0.000000 0.003166
0.095645 0.394896 0.000000
0.159726 0.394648 0.000000
0.217114 0.394401 0.000000
0.270488 0.394153 0.000000
0.321042 0.393905 0.000000
0.164377 0.678676 0.000000
0.221388 0.678463 0.000000
0.274509 0.678250 0.000000
0.324876 0.678037 0.000000
0.373137 0.677824 0.000000
0.225639 0.931610 0.000000
0.278513 0.931415 0.000000
0.328698 0.931220 0.000000
0.376814 0.931025 0.000000
0.423264 0.930830 0.000000
0.282502 1.000000 0.000000
0.332507 1.000000 0.000000
0.380482 1.000000 0.000000
0.426814 1.000000 0.000000
0.471776 1.000000 0.000000
0.232379 0.000000 0.340773
0.284874 0.000000 0.340940
0.334774 0.000000 0.341107
0.382665 0.000000 0.341273
0.428928 0.000000 0.341440
0.288838 0.338823 0.338397
0.338564 0.338564 0.338564
0.386316 0.338305 0.338731
0.432466 0.338046 0.338898
0.477272 0.337787 0.339065
0.342342 0.631008 0.336016
0.389958 0.630790 0.336183
0.435995 0.630573 0.336351
0.480706 0.630355 0.336518
0.524280 0.630138 0.336686
0.393591 0.888136 0.333630
0.439516 0.887939 0.333798
0.484133 0.887741 0.333966
0.527625 0.887543 0.334134
0.570135 0.887346 0.334301
0.443030 1.000000 0.331240
0.487553 1.000000 0.331408
0.530964 1.000000 0.331576
0.573402 1.000000 0.331744
0.614978 1.000000 0.331912
0.399371 0.000000 0.585659
0.445122 0.000000 0.585802
0.489590 0.000000 0.585946
0.532953 0.000000 0.586089
0.575349 0.000000 0.586232
0.448623 0.280004 0.583618
0.492999 0.279731 0.583762
0.536283 0.279458 0.583905
0.578608 0.279185 0.584049
0.620083 0.278912 0.584192
0.496402 0.582307 0.581575
0.539607 0.582085 0.581719
0.581862 0.581862 0.581862
0.623275 0.581640 0.582006
0.663931 0.581418 0.582150
0.542925 0.844058 0.579530
0.585112 0.843857 0.579674
0.626462 0.843657 0.579818
0.667062 0.843457 0.579962
0.706981 0.843256 0.580105
0.588356 1.000000 0.577483
0.629645 1.000000 0.577627
0.670190 1.000000 0.577771
0.710058 1.000000 0.577915
0.749309 1.000000 0.578059
0.548211 0.000000 0.803926
0.590288 0.000000 0.804057
0.631542 0.000000 0.804188
0.672053 0.000000 0.804320
0.711892 0.000000 0.804451
0.593524 0.217464 0.802059
0.634717 0.217171 0.802190
0.675174 0.216878 0.802321
0.714963 0.216584 0.802453
0.754141 0.216291 0.802584
0.637889 0.532437 0.800190
0.678291 0.532209 0.800321
0.718031 0.531981 0.800453
0.757163 0.531753 0.800584
0.795737 0.531525 0.800716
0.681404 0.799325 0.798320
0.721095 0.799122 0.798452
0.760182 0.798918 0.798583
0.798715 0.798715 0.798715
0.836733 0.798511 0.798846
0.724155 1.000000 0.796449
0.763198 1.000000 0.796581
0.801689 1.000000 0.796712
0.839669 1.000000 0.796844
0.877174 1.000000 0.796975
0.686366 0.000000 1.000000
0.725979 0.000000 1.000000
0.764995 0.000000 1.000000
0.803461 0.000000 1.000000
0.841419 0.000000 1.000000
0.729033 0.149308 1.000000
0.768005 0.148983 1.000000
0.806431 0.148657 1.000000
0.844350 0.148331 1.000000
0.881798 0.148005 1.000000
0.771012 0.481220 1.000000
0.809397 0.480986 1.000000
0.847278 0.480751 1.000000
0.884691 0.480517 1.000000
0.921666 0.480282 1.000000
0.812360 0.753879 1.000000
0.850204 0.753673 1.000000
0.887581 0.753466 1.000000
0.924523 0.753259 1.000000
0.961057 0.753052 1.000000
0.853126 1.000000 0.999506
0.890469 1.000000 0.999630
0.927378 1.000000 0.999753
0.963881 1.000000 0.999877
1.000000 1.000000 1.000000
