presets/film_stocks/Kodak_Ektar_100.cube
# 独寻胶片模拟 -- Kodak Ektar 100
# Kodak, ISO 100, 2008, negative
TITLE "Kodak Ektar 100"
LUT_3D_SIZE 5
DOMAIN_MIN 0.0 0.0 0.0
DOMAIN_MAX 1.0 1.0 1.0
0.000000 0.000000 0.000000
0.287273 0.007858 0.000000
0.563064 0.015402 0.000000
0.834680 0.022832 0.000000
1.000000 0.030189 0.000000
0.000000 0.281530 0.000000
0.277637 0.288380 0.000000
0.553622 0.295225 0.000000
0.825350 0.302066 0.000000
1.000000 0.308902 0.000000
0.000000 0.551806 0.000000
0.267990 0.558520 0.000000
0.544176 0.565232 0.000000
0.816017 0.571942 0.000000
1.000000 0.578649 0.000000
0.000000 0.817991 0.000000
0.258333 0.824627 0.000000
0.534725 0.831262 0.000000
0.806681 0.837895 0.000000
1.000000 0.844526 0.000000
0.000000 1.000000 0.000000
0.248665 1.000000 0.000000
0.525268 1.000000 0.000000
0.797341 1.000000 0.000000
1.000000 1.000000 0.000000
0.000000 0.000000 0.273421
0.269956 0.000000 0.264411
0.546100 0.000000 0.255392
0.817918 0.000000 0.246364
1.000000 0.000000 0.237325
0.000000 0.253429 0.269315
0.260301 0.260301 0.260301
0.536650 0.267167 0.251278
0.808582 0.274028 0.242245
1.000000 0.280884 0.233202
0.000000 0.524289 0.265207
0.250635 0.531014 0.256189
0.527195 0.537736 0.247161
0.799244 0.544455 0.238124
1.000000 0.551173 0.229076
0.000000 0.790804 0.261097
0.240959 0.797447 0.252075
0.517734 0.804088 0.243043
0.789902 0.810728 0.234001
1.000000 0.817366 0.224948
0.000000 1.000000 0.256986
0.231270 1.000000 0.247959
0.508269 1.000000 0.238923
0.780556 1.000000 0.229876
1.000000 1.000000 0.220818
0.000000 0.000000 0.535912
0.252605 0.000000 0.527084
0.529121 0.000000 0.518253
0.801146 0.000000 0.509416
1.000000 0.000000 0.500576
0.000000 0.225235 0.531888
0.242930 0.232131 0.523059
0.519661 0.239020 0.514225
0.791804 0.245904 0.505387
1.000000 0.252781 0.496544
0.000000 0.496728 0.527864
0.233244 0.503464 0.519033
0.510197 0.510197 0.510197
0.782460 0.516927 0.501357
1.000000 0.523655 0.492511
0.000000 0.763589 0.523839
0.223546 0.770239 0.515006
0.500727 0.776887 0.506168
0.773112 0.783533 0.497325
1.000000 0.790178 0.488478
0.000000 1.000000 0.519813
0.213835 1.000000 0.510977
0.491252 1.000000 0.502137
0.763760 1.000000 0.493293
1.000000 1.000000 0.484443
0.000000 0.000000 0.794430
0.235218 0.000000 0.785707
0.512125 0.000000 0.776981
0.784363 0.000000 0.768252
1.000000 0.000000 0.759521
0.000000 0.196934 0.790454
0.225522 0.203857 0.781730
0.502656 0.210773 0.773003
0.775016 0.217682 0.764272
1.000000 0.224585 0.755539
0.000000 0.469122 0.786478
0.215814 0.475869 0.777752
0.493182 0.482613 0.769023
0.765665 0.489355 0.760292
1.000000 0.496093 0.751557
0.000000 0.736345 0.782500
0.206093 0.743002 0.773773
0.483703 0.749657 0.765044
0.756311 0.756311 0.756311
1.000000 0.762962 0.747575
0.000000 1.000000 0.778523
0.196358 1.000000 0.769794
0.474218 1.000000 0.761063
0.746953 1.000000 0.752329
1.000000 1.000000 0.743592
0.000000 0.000000 1.000000
0.217792 0.000000 1.000000
0.495112 0.000000 1.000000
0.767570 0.000000 1.000000
1.000000 0.000000 1.000000
0.000000 0.168511 1.000000
0.208074 0.175465 1.000000
0.485634 0.182412 1.000000
0.758216 0.189351 1.000000
1.000000 0.196281 1.000000
0.000000 0.441467 1.000000
0.198341 0.448226 1.000000
0.476150 0.454983 1.000000
0.748859 0.461736 1.000000
1.000000 0.468486 1.000000
0.000000 0.709071 1.000000
0.188595 0.715735 1.000000
0.466660 0.722398 1.000000
0.739499 0.729059 1.000000
1.000000 0.735718 1.000000
0.000000 0.973601 1.000000
0.178833 0.980203 1.000000
0.457165 0.986803 1.000000
0.730135 0.993402 1.000000
1.000000 1.000000 1.000000
