presets/film_stocks/Kodak_5247_II.cube
# 独寻胶片模拟 -- Kodak 5247 II
# Kodak, ISO 100, 1974, negative
TITLE "Kodak 5247 II"
LUT_3D_SIZE 33
DOMAIN_MIN 0.0 0.0 0.0
DOMAIN_MAX 1.0 1.0 1.0
0.000000 0.000000 0.000000
0.055762 0.001787 0.000000
0.101883 0.003266 0.000000
0.144951 0.004646 0.000000
0.186151 0.005967 0.000000
0.226014 0.007245 0.000000
0.264843 0.008489 0.000000
0.302832 0.009707 0.000000
0.340118 0.010902 0.000000
0.376800 0.012078 0.000000
0.412952 0.013237 0.000000
0.448635 0.014381 0.000000
0.483897 0.015511 0.000000
0.518777 0.016629 0.000000
0.553309 0.017736 0.000000
0.587520 0.018832 0.000000
0.621434 0.019920 0.000000
0.655074 0.020998 0.000000
0.688455 0.022068 0.000000
0.721596 0.023130 0.000000
0.754510 0.024185 0.000000
0.787210 0.025233 0.000000
0.819707 0.026275 0.000000
0.852012 0.027310 0.000000
0.884134 0.028340 0.000000
0.916082 0.029364 0.000000
0.947864 0.030383 0.000000
0.979487 0.031397 0.000000
1.000000 0.032405 0.000000
1.000000 0.033409 0.000000
1.000000 0.034409 0.000000
1.000000 0.035404 0.000000
1.000000 0.036395 0.000000
0.000000 0.053896 0.000000
0.053645 0.054827 0.000000
0.099952 0.055756 0.000000
0.143121 0.056683 0.000000
0.184389 0.057607 0.000000
0.224302 0.058529 0.000000
0.263171 0.059449 0.000000
0.301195 0.060367 0.000000
0.338509 0.061282 0.000000
0.375215 0.062196 0.000000
0.411389 0.063107 0.000000
0.447091 0.064017 0.000000
0.482371 0.064925 0.000000
0.517267 0.065831 0.000000
0.551813 0.066735 0.000000
0.586037 0.067637 0.000000
0.619965 0.068537 0.000000
0.653615 0.069436 0.000000
0.687008 0.070332 0.000000
0.720159 0.071227 0.000000
0.753082 0.072121 0.000000
0.785791 0.073013 0.000000
0.818297 0.073903 0.000000
0.850610 0.074791 0.000000
0.882740 0.075678 0.000000
0.914696 0.076564 0.000000
0.946484 0.077447 0.000000
0.978114 0.078330 0.000000
1.000000 0.079211 0.000000
1.000000 0.080090 0.000000
1.000000 0.080968 0.000000
1.000000 0.081844 0.000000
1.000000 0.082720 0.000000
0.000000 0.098474 0.000000
0.051517 0.099325 0.000000
0.098016 0.100175 0.000000
0.141288 0.101024 0.000000
0.182624 0.101872 0.000000
0.222589 0.102719 0.000000
0.261499 0.103565 0.000000
0.299556 0.104410 0.000000
0.336899 0.105254 0.000000
0.373629 0.106097 0.000000
0.409825 0.106939 0.000000
0.445547 0.107780 0.000000
0.480844 0.108620 0.000000
0.515756 0.109459 0.000000
0.550316 0.110296 0.000000
0.584554 0.111133 0.000000
0.618494 0.111970 0.000000
0.652156 0.112805 0.000000
0.685560 0.113639 0.000000
0.718721 0.114472 0.000000
0.751654 0.115304 0.000000
0.784372 0.116136 0.000000
0.816886 0.116967 0.000000
0.849208 0.117796 0.000000
0.881346 0.118625 0.000000
0.913308 0.119453 0.000000
0.945105 0.120280 0.000000
0.976741 0.121106 0.000000
1.000000 0.121932 0.000000
1.000000 0.122756 0.000000
1.000000 0.123580 0.000000
1.000000 0.124403 0.000000
1.000000 0.125225 0.000000
0.000000 0.140102 0.000000
0.049375 0.140909 0.000000
0.096074 0.141716 0.000000
0.139451 0.142523 0.000000
0.180856 0.143328 0.000000
0.220873 0.144133 0.000000
0.259824 0.144937 0.000000
0.297915 0.145741 0.000000
0.335287 0.146544 0.000000
0.372042 0.147346 0.000000
0.408260 0.148147 0.000000
0.444002 0.148948 0.000000
0.479316 0.149748 0.000000
0.514244 0.150548 0.000000
0.548819 0.151347 0.000000
0.583071 0.152145 0.000000
0.617023 0.152943 0.000000
0.650697 0.153740 0.000000
0.684111 0.154537 0.000000
0.717283 0.155332 0.000000
0.750225 0.156128 0.000000
0.782952 0.156922 0.000000
0.815475 0.157716 0.000000
0.847805 0.158510 0.000000
0.879951 0.159303 0.000000
0.911921 0.160095 0.000000
0.943724 0.160886 0.000000
0.975367 0.161678 0.000000
1.000000 0.162468 0.000000
1.000000 0.163258 0.000000
1.000000 0.164047 0.000000
1.000000 0.164836 0.000000
1.000000 0.165624 0.000000
0.000000 0.179923 0.000000
0.047219 0.180701 0.000000
0.094127 0.181478 0.000000
0.137610 0.182255 0.000000
0.179086 0.183032 0.000000
0.219156 0.183808 0.000000
0.258149 0.184583 0.000000
0.296273 0.185358 0.000000
0.333674 0.186132 0.000000
0.370455 0.186906 0.000000
0.406694 0.187680 0.000000
0.442455 0.188453 0.000000
0.477788 0.189226 0.000000
0.512732 0.189998 0.000000
0.547322 0.190769 0.000000
0.581587 0.191540 0.000000
0.615551 0.192311 0.000000
0.649237 0.193081 0.000000
0.682662 0.193851 0.000000
0.715844 0.194620 0.000000
0.748796 0.195389 0.000000
0.781533 0.196158 0.000000
0.814064 0.196926 0.000000
0.846402 0.197693 0.000000
0.878556 0.198460 0.000000
0.910533 0.199227 0.000000
0.942344 0.199993 0.000000
0.973994 0.200759 0.000000
1.000000 0.201524 0.000000
1.000000 0.202289 0.000000
1.000000 0.203053 0.000000
1.000000 0.203817 0.000000
1.000000 0.204581 0.000000
0.000000 0.218452 0.000000
0.045048 0.219208 0.000000
0.092173 0.219963 0.000000
0.135765 0.220718 0.000000
0.177314 0.221472 0.000000
0.217436 0.222226 0.000000
0.256471 0.222980 0.000000
0.294630 0.223733 0.000000
0.332060 0.224486 0.000000
0.368866 0.225239 0.000000
0.405128 0.225991 0.000000
0.440909 0.226743 0.000000
0.476258 0.227495 0.000000
0.511219 0.228246 0.000000
0.545823 0.228996 0.000000
0.580102 0.229747 0.000000
0.614079 0.230497 0.000000
0.647777 0.231246 0.000000
0.681213 0.231996 0.000000
0.714405 0.232745 0.000000
0.747367 0.233493 0.000000
0.780112 0.234241 0.000000
0.812653 0.234989 0.000000
0.844999 0.235737 0.000000
0.877160 0.236484 0.000000
0.909145 0.237230 0.000000
0.940963 0.237977 0.000000
0.972620 0.238723 0.000000
1.000000 0.239469 0.000000
1.000000 0.240214 0.000000
1.000000 0.240959 0.000000
1.000000 0.241704 0.000000
1.000000 0.242448 0.000000
0.000000 0.255982 0.000000
0.042861 0.256720 0.000000
0.090213 0.257457 0.000000
0.133917 0.258195 0.000000
0.175539 0.258932 0.000000
0.215715 0.259668 0.000000
0.254792 0.260405 0.000000
0.292986 0.261141 0.000000
0.330445 0.261877 0.000000
0.367276 0.262612 0.000000
0.403560 0.263347 0.000000
0.439361 0.264082 0.000000
0.474728 0.264816 0.000000
0.509705 0.265551 0.000000
0.544325 0.266285 0.000000
0.578617 0.267018 0.000000
0.612607 0.267751 0.000000
0.646316 0.268484 0.000000
0.679763 0.269217 0.000000
0.712965 0.269950 0.000000
0.745937 0.270682 0.000000
0.778692 0.271413 0.000000
0.811241 0.272145 0.000000
0.843595 0.272876 0.000000
0.875764 0.273607 0.000000
0.907757 0.274338 0.000000
0.939582 0.275068 0.000000
0.971245 0.275798 0.000000
1.000000 0.276528 0.000000
1.000000 0.277257 0.000000
1.000000 0.277987 0.000000
1.000000 0.278715 0.000000
1.000000 0.279444 0.000000
0.000000 0.292701 0.000000
0.040657 0.293424 0.000000
0.088247 0.294147 0.000000
0.132065 0.294870 0.000000
0.173761 0.295592 0.000000
0.213991 0.296314 0.000000
0.253111 0.297036 0.000000
0.291340 0.297758 0.000000
0.328829 0.298479 0.000000
0.365685 0.299201 0.000000
0.401992 0.299921 0.000000
0.437812 0.300642 0.000000
0.473198 0.301363 0.000000
0.508190 0.302083 0.000000
0.542825 0.302803 0.000000
0.577131 0.303522 0.000000
0.611134 0.304242 0.000000
0.644855 0.304961 0.000000
0.678313 0.305679 0.000000
0.711525 0.306398 0.000000
0.744507 0.307116 0.000000
0.777271 0.307835 0.000000
0.809828 0.308552 0.000000
0.842191 0.309270 0.000000
0.874368 0.309987 0.000000
0.906368 0.310704 0.000000
0.938200 0.311421 0.000000
0.969871 0.312138 0.000000
1.000000 0.312854 0.000000
1.000000 0.313570 0.000000
1.000000 0.314286 0.000000
1.000000 0.315002 0.000000
1.000000 0.315717 0.000000
0.000000 0.328739 0.000000
0.038436 0.329450 0.000000
0.086274 0.330160 0.000000
0.130209 0.330871 0.000000
0.171980 0.331581 0.000000
0.212266 0.332291 0.000000
0.251428 0.333001 0.000000
0.289693 0.333710 0.000000
0.327211 0.334419 0.000000
0.364093 0.335128 0.000000
0.400422 0.335837 0.000000
0.436263 0.336545 0.000000
0.471666 0.337254 0.000000
0.506675 0.337962 0.000000
0.541325 0.338670 0.000000
0.575645 0.339377 0.000000
0.609660 0.340085 0.000000
0.643393 0.340792 0.000000
0.676862 0.341499 0.000000
0.710085 0.342206 0.000000
0.743076 0.342912 0.000000
0.775849 0.343619 0.000000
0.808416 0.344325 0.000000
0.840787 0.345031 0.000000
0.872972 0.345736 0.000000
0.904979 0.346442 0.000000
0.936818 0.347147 0.000000
0.968496 0.347852 0.000000
1.000000 0.348557 0.000000
1.000000 0.349262 0.000000
1.000000 0.349966 0.000000
1.000000 0.350670 0.000000
1.000000 0.351374 0.000000
0.000000 0.364193 0.000000
0.036194 0.364893 0.000000
0.084294 0.365593 0.000000
0.128349 0.366293 0.000000
0.170197 0.366992 0.000000
0.210538 0.367691 0.000000
0.249744 0.368390 0.000000
0.288044 0.369089 0.000000
0.325592 0.369787 0.000000
0.362500 0.370486 0.000000
0.398852 0.371184 0.000000
0.434713 0.371882 0.000000
0.470134 0.372580 0.000000
0.505160 0.373277 0.000000
0.539824 0.373975 0.000000
0.574158 0.374672 0.000000
0.608186 0.375369 0.000000
0.641930 0.376066 0.000000
0.675411 0.376763 0.000000
0.708644 0.377459 0.000000
0.741645 0.378155 0.000000
0.774427 0.378851 0.000000
0.807003 0.379547 0.000000
0.839382 0.380243 0.000000
0.871575 0.380938 0.000000
0.903590 0.381634 0.000000
0.935436 0.382329 0.000000
0.967120 0.383024 0.000000
0.998650 0.383718 0.000000
1.000000 0.384413 0.000000
1.000000 0.385107 0.000000
1.000000 0.385801 0.000000
1.000000 0.386495 0.000000
0.000000 0.399136 0.000000
0.033932 0.399826 0.000000
0.082307 0.400517 0.000000
0.126485 0.401207 0.000000
0.168410 0.401897 0.000000
0.208808 0.402586 0.000000
0.248058 0.403276 0.000000
0.286394 0.403965 0.000000
0.323972 0.404655 0.000000
0.360906 0.405344 0.000000
0.397281 0.406032 0.000000
0.433161 0.406721 0.000000
0.468601 0.407410 0.000000
0.503643 0.408098 0.000000
0.538323 0.408786 0.000000
0.572670 0.409474 0.000000
0.606711 0.410162 0.000000
0.640468 0.410850 0.000000
0.673959 0.411537 0.000000
0.707203 0.412224 0.000000
0.740214 0.412911 0.000000
0.773005 0.413598 0.000000
0.805589 0.414285 0.000000
0.837977 0.414972 0.000000
0.870178 0.415658 0.000000
0.902200 0.416344 0.000000
0.934054 0.417030 0.000000
0.965745 0.417716 0.000000
0.997281 0.418402 0.000000
1.000000 0.419088 0.000000
1.000000 0.419773 0.000000
1.000000 0.420458 0.000000
1.000000 0.421143 0.000000
0.000000 0.433625 0.000000
0.031647 0.434307 0.000000
0.080313 0.434989 0.000000
0.124617 0.435671 0.000000
0.166621 0.436352 0.000000
0.207076 0.437033 0.000000
0.246371 0.437714 0.000000
0.284742 0.438395 0.000000
0.322351 0.439076 0.000000
0.359311 0.439757 0.000000
0.395708 0.440437 0.000000
0.431610 0.441118 0.000000
0.467068 0.441798 0.000000
0.502126 0.442478 0.000000
0.536821 0.443158 0.000000
0.571182 0.443837 0.000000
0.605236 0.444517 0.000000
0.639004 0.445196 0.000000
0.672507 0.445876 0.000000
0.705761 0.446555 0.000000
0.738782 0.447234 0.000000
0.771583 0.447912 0.000000
0.804176 0.448591 0.000000
0.836571 0.449269 0.000000
0.868780 0.449948 0.000000
0.900810 0.450626 0.000000
0.932671 0.451304 0.000000
0.964369 0.451982 0.000000
0.995912 0.452659 0.000000
1.000000 0.453337 0.000000
1.000000 0.454014 0.000000
1.000000 0.454692 0.000000
1.000000 0.455369 0.000000
0.000000 0.467707 0.000000
0.029337 0.468382 0.000000
0.078312 0.469056 0.000000
0.122744 0.469730 0.000000
0.164829 0.470403 0.000000
0.205342 0.471077 0.000000
0.244681 0.471751 0.000000
0.283089 0.472424 0.000000
0.320729 0.473097 0.000000
0.357715 0.473770 0.000000
0.394135 0.474443 0.000000
0.430057 0.475116 0.000000
0.465533 0.475789 0.000000
0.500608 0.476461 0.000000
0.535318 0.477133 0.000000
0.569693 0.477806 0.000000
0.603760 0.478478 0.000000
0.637540 0.479150 0.000000
0.671054 0.479821 0.000000
0.704319 0.480493 0.000000
0.737350 0.481165 0.000000
0.770160 0.481836 0.000000
0.802761 0.482507 0.000000
0.835166 0.483178 0.000000
0.867382 0.483849 0.000000
0.899420 0.484520 0.000000
0.931288 0.485191 0.000000
0.962993 0.485861 0.000000
0.994542 0.486532 0.000000
1.000000 0.487202 0.000000
1.000000 0.487872 0.000000
1.000000 0.488542 0.000000
1.000000 0.489212 0.000000
0.000000 0.501421 0.000000
0.026999 0.502088 0.000000
0.076302 0.502755 0.000000
0.120867 0.503422 0.000000
0.163034 0.504089 0.000000
0.203606 0.504755 0.000000
0.242990 0.505422 0.000000
0.281435 0.506088 0.000000
0.319105 0.506755 0.000000
0.356118 0.507421 0.000000
0.392561 0.508087 0.000000
0.428503 0.508753 0.000000
0.463998 0.509419 0.000000
0.499090 0.510084 0.000000
0.533815 0.510750 0.000000
0.568204 0.511415 0.000000
0.602284 0.512080 0.000000
0.636076 0.512746 0.000000
0.669601 0.513411 0.000000
0.702877 0.514075 0.000000
0.735917 0.514740 0.000000
0.768736 0.515405 0.000000
0.801347 0.516069 0.000000
0.833759 0.516734 0.000000
0.865984 0.517398 0.000000
0.898030 0.518062 0.000000
0.929905 0.518726 0.000000
0.961617 0.519390 0.000000
0.993172 0.520054 0.000000
1.000000 0.520717 0.000000
1.000000 0.521381 0.000000
1.000000 0.522044 0.000000
1.000000 0.522707 0.000000
0.000000 0.534797 0.000000
0.024631 0.535458 0.000000
0.074285 0.536118 0.000000
0.118986 0.536779 0.000000
0.161236 0.537439 0.000000
0.201867 0.538100 0.000000
0.241297 0.538760 0.000000
0.279779 0.539420 0.000000
0.317480 0.540080 0.000000
0.354520 0.540740 0.000000
0.390986 0.541400 0.000000
0.426949 0.542059 0.000000
0.462462 0.542719 0.000000
0.497570 0.543378 0.000000
0.532311 0.544037 0.000000
0.566714 0.544696 0.000000
0.600807 0.545355 0.000000
0.634611 0.546014 0.000000
0.668148 0.546673 0.000000
0.701434 0.547332 0.000000
0.734484 0.547990 0.000000
0.767313 0.548649 0.000000
0.799932 0.549307 0.000000
0.832353 0.549965 0.000000
0.864585 0.550623 0.000000
0.896639 0.551281 0.000000
0.928521 0.551939 0.000000
0.960240 0.552597 0.000000
0.991802 0.553254 0.000000
1.000000 0.553912 0.000000
1.000000 0.554569 0.000000
1.000000 0.555226 0.000000
1.000000 0.555883 0.000000
0.000000 0.567863 0.000000
0.022228 0.568518 0.000000
0.072260 0.569173 0.000000
0.117101 0.569828 0.000000
0.159435 0.570482 0.000000
0.200126 0.571137 0.000000
0.239603 0.571791 0.000000
0.278122 0.572445 0.000000
0.315854 0.573099 0.000000
0.352920 0.573753 0.000000
0.389410 0.574407 0.000000
0.425394 0.575061 0.000000
0.460925 0.575715 0.000000
0.496051 0.576368 0.000000
0.530806 0.577022 0.000000
0.565224 0.577675 0.000000
0.599329 0.578328 0.000000
0.633146 0.578981 0.000000
0.666694 0.579634 0.000000
0.699990 0.580287 0.000000
0.733050 0.580940 0.000000
0.765888 0.581593 0.000000
0.798517 0.582245 0.000000
0.830946 0.582898 0.000000
0.863187 0.583550 0.000000
0.895247 0.584202 0.000000
0.927137 0.584854 0.000000
0.958863 0.585506 0.000000
0.990432 0.586158 0.000000
1.000000 0.586810 0.000000
1.000000 0.587462 0.000000
1.000000 0.588113 0.000000
1.000000 0.588765 0.000000
0.000000 0.600643 0.000000
0.019785 0.601293 0.000000
0.070226 0.601942 0.000000
0.115211 0.602591 0.000000
0.157632 0.603240 0.000000
0.198383 0.603889 0.000000
0.237906 0.604538 0.000000
0.276463 0.605187 0.000000
0.314227 0.605836 0.000000
0.351320 0.606484 0.000000
0.387833 0.607133 0.000000
0.423837 0.607781 0.000000
0.459388 0.608429 0.000000
0.494530 0.609077 0.000000
0.529301 0.609726 0.000000
0.563733 0.610374 0.000000
0.597851 0.611021 0.000000
0.631680 0.611669 0.000000
0.665239 0.612317 0.000000
0.698546 0.612964 0.000000
0.731616 0.613612 0.000000
0.764464 0.614259 0.000000
0.797101 0.614906 0.000000
0.829539 0.615553 0.000000
0.861787 0.616201 0.000000
0.893856 0.616847 0.000000
0.925753 0.617494 0.000000
0.957486 0.618141 0.000000
0.989061 0.618788 0.000000
1.000000 0.619434 0.000000
1.000000 0.620081 0.000000
1.000000 0.620727 0.000000
1.000000 0.621373 0.000000
0.000000 0.633157 0.000000
0.017295 0.633801 0.000000
0.068183 0.634445 0.000000
0.113316 0.635089 0.000000
0.155824 0.635733 0.000000
0.196637 0.636377 0.000000
0.236208 0.637021 0.000000
0.274803 0.637665 0.000000
0.312598 0.638309 0.000000
0.349718 0.638952 0.000000
0.386255 0.639596 0.000000
0.422280 0.640239 0.000000
0.457850 0.640882 0.000000
0.493009 0.641525 0.000000
0.527795 0.642168 0.000000
0.562241 0.642811 0.000000
0.596373 0.643454 0.000000
0.630214 0.644097 0.000000
0.663784 0.644739 0.000000
0.697102 0.645382 0.000000
0.730182 0.646024 0.000000
0.763039 0.646667 0.000000
0.795685 0.647309 0.000000
0.828131 0.647951 0.000000
0.860388 0.648593 0.000000
0.892464 0.649235 0.000000
0.924368 0.649877 0.000000
0.956108 0.650519 0.000000
0.987690 0.651161 0.000000
1.000000 0.651802 0.000000
1.000000 0.652444 0.000000
1.000000 0.653085 0.000000
1.000000 0.653727 0.000000
0.000000 0.665422 0.000000
0.014751 0.666061 0.000000
0.066131 0.666701 0.000000
0.111416 0.667340 0.000000
0.154014 0.667979 0.000000
0.194890 0.668619 0.000000
0.234508 0.669258 0.000000
0.273141 0.669897 0.000000
0.310968 0.670535 0.000000
0.348116 0.671174 0.000000
0.384677 0.671813 0.000000
0.420723 0.672452 0.000000
0.456311 0.673090 0.000000
0.491487 0.673728 0.000000
0.526289 0.674367 0.000000
0.560749 0.675005 0.000000
0.594894 0.675643 0.000000
0.628747 0.676281 0.000000
0.662329 0.676919 0.000000
0.695657 0.677557 0.000000
0.728747 0.678195 0.000000
0.761614 0.678833 0.000000
0.794269 0.679470 0.000000
0.826723 0.680108 0.000000
0.858988 0.680745 0.000000
0.891072 0.681383 0.000000
0.922983 0.682020 0.000000
0.954730 0.682657 0.000000
0.986319 0.683294 0.000000
1.000000 0.683931 0.000000
1.000000 0.684568 0.000000
1.000000 0.685205 0.000000
1.000000 0.685841 0.000000
0.000000 0.697454 0.000000
0.012138 0.698089 0.000000
0.064070 0.698724 0.000000
0.109512 0.699359 0.000000
0.152201 0.699993 0.000000
0.193140 0.700628 0.000000
0.232806 0.701263 0.000000
0.271477 0.701897 0.000000
0.309337 0.702532 0.000000
0.346512 0.703166 0.000000
0.383097 0.703800 0.000000
0.419164 0.704434 0.000000
0.454771 0.705068 0.000000
0.489964 0.705702 0.000000
0.524782 0.706336 0.000000
0.559256 0.706970 0.000000
0.593414 0.707604 0.000000
0.627279 0.708238 0.000000
0.660873 0.708871 0.000000
0.694212 0.709505 0.000000
0.727312 0.710138 0.000000
0.760188 0.710771 0.000000
0.792852 0.711405 0.000000
0.825315 0.712038 0.000000
0.857588 0.712671 0.000000
0.889679 0.713304 0.000000
0.921598 0.713937 0.000000
0.953352 0.714569 0.000000
0.984948 0.715202 0.000000
1.000000 0.715835 0.000000
1.000000 0.716467 0.000000
1.000000 0.717100 0.000000
1.000000 0.717732 0.000000
0.000000 0.729266 0.000000
0.009438 0.729897 0.000000
0.061998 0.730528 0.000000
0.107603 0.731158 0.000000
0.150384 0.731789 0.000000
0.191387 0.732419 0.000000
0.231102 0.733050 0.000000
0.269813 0.733680 0.000000
0.307704 0.734310 0.000000
0.344907 0.734941 0.000000
0.381516 0.735571 0.000000
0.417604 0.736201 0.000000
0.453230 0.736831 0.000000
0.488441 0.737460 0.000000
0.523274 0.738090 0.000000
0.557762 0.738720 0.000000
0.591934 0.739349 0.000000
0.625811 0.739979 0.000000
0.659416 0.740608 0.000000
0.692766 0.741238 0.000000
0.725876 0.741867 0.000000
0.758762 0.742496 0.000000
0.791435 0.743125 0.000000
0.823906 0.743754 0.000000
0.856187 0.744383 0.000000
0.888286 0.745012 0.000000
0.920213 0.745641 0.000000
0.951973 0.746269 0.000000
0.983576 0.746898 0.000000
1.000000 0.747527 0.000000
1.000000 0.748155 0.000000
1.000000 0.748783 0.000000
1.000000 0.749412 0.000000
0.000000 0.760872 0.000000
0.006614 0.761499 0.000000
0.059916 0.762126 0.000000
0.105688 0.762752 0.000000
0.148564 0.763379 0.000000
0.189632 0.764005 0.000000
0.229396 0.764632 0.000000
0.268146 0.765258 0.000000
0.306071 0.765884 0.000000
0.343301 0.766510 0.000000
0.379934 0.767137 0.000000
0.416044 0.767763 0.000000
0.451689 0.768389 0.000000
0.486916 0.769014 0.000000
0.521765 0.769640 0.000000
0.556268 0.770266 0.000000
0.590453 0.770892 0.000000
0.624343 0.771517 0.000000
0.657959 0.772143 0.000000
0.691320 0.772768 0.000000
0.724440 0.773393 0.000000
0.757335 0.774019 0.000000
0.790017 0.774644 0.000000
0.822497 0.775269 0.000000
0.854786 0.775894 0.000000
0.886893 0.776519 0.000000
0.918827 0.777144 0.000000
0.950595 0.777769 0.000000
0.982204 0.778393 0.000000
1.000000 0.779018 0.000000
1.000000 0.779643 0.000000
1.000000 0.780267 0.000000
1.000000 0.780892 0.000000
0.000000 0.792282 0.000000
0.003588 0.792905 0.000000
0.057823 0.793528 0.000000
0.103768 0.794151 0.000000
0.146741 0.794774 0.000000
0.187875 0.795396 0.000000
0.227688 0.796019 0.000000
0.266478 0.796642 0.000000
0.304436 0.797264 0.000000
0.341694 0.797886 0.000000
0.378351 0.798509 0.000000
0.414483 0.799131 0.000000
0.450147 0.799753 0.000000
0.485392 0.800375 0.000000
0.520256 0.800997 0.000000
0.554774 0.801619 0.000000
0.588972 0.802241 0.000000
0.622874 0.802863 0.000000
0.656502 0.803485 0.000000
0.689873 0.804107 0.000000
0.723004 0.804728 0.000000
0.755908 0.805350 0.000000
0.788599 0.805971 0.000000
0.821088 0.806593 0.000000
0.853385 0.807214 0.000000
0.885500 0.807835 0.000000
0.917441 0.808457 0.000000
0.949215 0.809078 0.000000
0.980832 0.809699 0.000000
1.000000 0.810320 0.000000
1.000000 0.810941 0.000000
1.000000 0.811562 0.000000
1.000000 0.812182 0.000000
0.000000 0.823506 0.000000
0.000000 0.824126 0.000000
0.055719 0.824745 0.000000
0.101843 0.825364 0.000000
0.144914 0.825983 0.000000
0.186115 0.826603 0.000000
0.225979 0.827222 0.000000
0.264809 0.827841 0.000000
0.302799 0.828460 0.000000
0.340086 0.829078 0.000000
0.376768 0.829697 0.000000
0.412920 0.830316 0.000000
0.448604 0.830935 0.000000
0.483866 0.831553 0.000000
0.518747 0.832172 0.000000
0.553278 0.832790 0.000000
0.587490 0.833408 0.000000
0.621405 0.834027 0.000000
0.655044 0.834645 0.000000
0.688426 0.835263 0.000000
0.721567 0.835881 0.000000
0.754481 0.836499 0.000000
0.787181 0.837117 0.000000
0.819678 0.837735 0.000000
0.851983 0.838353 0.000000
0.884106 0.838971 0.000000
0.916054 0.839588 0.000000
0.947836 0.840206 0.000000
0.979459 0.840824 0.000000
1.000000 0.841441 0.000000
1.000000 0.842058 0.000000
1.000000 0.842676 0.000000
1.000000 0.843293 0.000000
0.000000 0.854554 0.000000
0.000000 0.855170 0.000000
0.053602 0.855786 0.000000
0.099913 0.856402 0.000000
0.143084 0.857017 0.000000
0.184353 0.857633 0.000000
0.224267 0.858249 0.000000
0.263137 0.858864 0.000000
0.301161 0.859480 0.000000
0.338476 0.860095 0.000000
0.375183 0.860711 0.000000
0.411357 0.861326 0.000000
0.447060 0.861941 0.000000
0.482340 0.862556 0.000000
0.517236 0.863172 0.000000
0.551783 0.863787 0.000000
0.586007 0.864402 0.000000
0.619935 0.865016 0.000000
0.653586 0.865631 0.000000
0.686978 0.866246 0.000000
0.720129 0.866861 0.000000
0.753053 0.867476 0.000000
0.785762 0.868090 0.000000
0.818268 0.868705 0.000000
0.850581 0.869319 0.000000
0.882712 0.869934 0.000000
0.914667 0.870548 0.000000
0.946456 0.871162 0.000000
0.978086 0.871776 0.000000
1.000000 0.872390 0.000000
1.000000 0.873005 0.000000
1.000000 0.873619 0.000000
1.000000 0.874233 0.000000
0.000000 0.885433 0.000000
0.000000 0.886046 0.000000
0.051473 0.886658 0.000000
0.097977 0.887271 0.000000
0.141250 0.887884 0.000000
0.182588 0.888496 0.000000
0.222554 0.889108 0.000000
0.261465 0.889721 0.000000
0.299522 0.890333 0.000000
0.336866 0.890945 0.000000
0.373597 0.891557 0.000000
0.409793 0.892169 0.000000
0.445516 0.892781 0.000000
0.480813 0.893393 0.000000
0.515725 0.894005 0.000000
0.550286 0.894617 0.000000
0.584524 0.895229 0.000000
0.618464 0.895841 0.000000
0.652127 0.896452 0.000000
0.685530 0.897064 0.000000
0.718692 0.897675 0.000000
0.751625 0.898287 0.000000
0.784343 0.898898 0.000000
0.816858 0.899509 0.000000
0.849179 0.900121 0.000000
0.881317 0.900732 0.000000
0.913280 0.901343 0.000000
0.945076 0.901954 0.000000
0.976713 0.902565 0.000000
1.000000 0.903176 0.000000
1.000000 0.903787 0.000000
1.000000 0.904398 0.000000
1.000000 0.905009 0.000000
0.000000 0.916152 0.000000
0.000000 0.916761 0.000000
0.049331 0.917371 0.000000
0.096035 0.917980 0.000000
0.139413 0.918590 0.000000
0.180820 0.919199 0.000000
0.220838 0.919808 0.000000
0.259790 0.920417 0.000000
0.297882 0.921027 0.000000
0.335254 0.921636 0.000000
0.372010 0.922245 0.000000
0.408228 0.922854 0.000000
0.443970 0.923463 0.000000
0.479285 0.924071 0.000000
0.514213 0.924680 0.000000
0.548789 0.925289 0.000000
0.583041 0.925898 0.000000
0.616993 0.926506 0.000000
0.650667 0.927115 0.000000
0.684082 0.927723 0.000000
0.717253 0.928332 0.000000
0.750196 0.928940 0.000000
0.782924 0.929549 0.000000
0.815447 0.930157 0.000000
0.847777 0.930765 0.000000
