presets/film_stocks/Kodak_Verita_200D_5206.cube
# 独寻胶片模拟 -- Kodak Verita 200D 5206
# Kodak, ISO 200, 2026, negative
TITLE "Kodak Verita 200D 5206"
LUT_3D_SIZE 33
DOMAIN_MIN 0.0 0.0 0.0
DOMAIN_MAX 1.0 1.0 1.0
0.000000 0.000000 0.000000
0.093326 0.006758 0.000000
0.152053 0.011011 0.000000
0.202303 0.014650 0.000000
0.247735 0.017940 0.000000
0.289890 0.020993 0.000000
0.329606 0.023869 0.000000
0.367401 0.026606 0.000000
0.403627 0.029230 0.000000
0.438533 0.031757 0.000000
0.472309 0.034203 0.000000
0.505098 0.036578 0.000000
0.537017 0.038889 0.000000
0.568157 0.041144 0.000000
0.598595 0.043349 0.000000
0.628397 0.045507 0.000000
0.657617 0.047623 0.000000
0.686300 0.049700 0.000000
0.714489 0.051741 0.000000
0.742218 0.053749 0.000000
0.769519 0.055727 0.000000
0.796418 0.057675 0.000000
0.822942 0.059595 0.000000
0.849110 0.061490 0.000000
0.874945 0.063361 0.000000
0.900463 0.065209 0.000000
0.925680 0.067035 0.000000
0.950613 0.068841 0.000000
0.975273 0.070627 0.000000
0.999675 0.072394 0.000000
1.000000 0.074143 0.000000
1.000000 0.075875 0.000000
1.000000 0.077590 0.000000
0.000000 0.091677 0.000000
0.091006 0.093263 0.000000
0.150168 0.094838 0.000000
0.200632 0.096402 0.000000
0.246201 0.097956 0.000000
0.288455 0.099499 0.000000
0.328246 0.101032 0.000000
0.366102 0.102556 0.000000
0.402378 0.104070 0.000000
0.437328 0.105575 0.000000
0.471141 0.107071 0.000000
0.503963 0.108558 0.000000
0.535910 0.110037 0.000000
0.567076 0.111507 0.000000
0.597538 0.112969 0.000000
0.627361 0.114424 0.000000
0.656600 0.115870 0.000000
0.685302 0.117309 0.000000
0.713507 0.118741 0.000000
0.741252 0.120166 0.000000
0.768567 0.121583 0.000000
0.795480 0.122994 0.000000
0.822016 0.124397 0.000000
0.848197 0.125795 0.000000
0.874043 0.127185 0.000000
0.899572 0.128570 0.000000
0.924800 0.129948 0.000000
0.949742 0.131320 0.000000
0.974412 0.132686 0.000000
0.998822 0.134046 0.000000
1.000000 0.135400 0.000000
1.000000 0.136749 0.000000
1.000000 0.138092 0.000000
0.000000 0.149367 0.000000
0.088661 0.150661 0.000000
0.148273 0.151951 0.000000
0.198956 0.153236 0.000000
0.244664 0.154517 0.000000
0.287017 0.155793 0.000000
0.326884 0.157065 0.000000
0.364802 0.158333 0.000000
0.401128 0.159596 0.000000
0.436121 0.160856 0.000000
0.469971 0.162111 0.000000
0.502826 0.163362 0.000000
0.534802 0.164609 0.000000
0.565994 0.165852 0.000000
0.596479 0.167091 0.000000
0.626324 0.168326 0.000000
0.655583 0.169558 0.000000
0.684303 0.170786 0.000000
0.712525 0.172010 0.000000
0.740285 0.173230 0.000000
0.767615 0.174447 0.000000
0.794542 0.175660 0.000000
0.821091 0.176870 0.000000
0.847284 0.178076 0.000000
0.873141 0.179279 0.000000
0.898681 0.180479 0.000000
0.923919 0.181675 0.000000
0.948871 0.182868 0.000000
0.973550 0.184057 0.000000
0.997969 0.185244 0.000000
1.000000 0.186427 0.000000
1.000000 0.187607 0.000000
1.000000 0.188784 0.000000
0.000000 0.198729 0.000000
0.086290 0.199878 0.000000
0.146368 0.201024 0.000000
0.197274 0.202168 0.000000
0.243122 0.203308 0.000000
0.285576 0.204446 0.000000
0.325520 0.205582 0.000000
0.363499 0.206714 0.000000
0.399877 0.207845 0.000000
0.434913 0.208972 0.000000
0.468800 0.210097 0.000000
0.501687 0.211220 0.000000
0.533693 0.212340 0.000000
0.564911 0.213457 0.000000
0.595420 0.214572 0.000000
0.625286 0.215685 0.000000
0.654565 0.216795 0.000000
0.683303 0.217903 0.000000
0.711542 0.219009 0.000000
0.739318 0.220112 0.000000
0.766662 0.221213 0.000000
0.793603 0.222311 0.000000
0.820165 0.223407 0.000000
0.846370 0.224501 0.000000
0.872239 0.225593 0.000000
0.897789 0.226683 0.000000
0.923038 0.227770 0.000000
0.947999 0.228855 0.000000
0.972688 0.229938 0.000000
0.997116 0.231019 0.000000
1.000000 0.232098 0.000000
1.000000 0.233175 0.000000
1.000000 0.234249 0.000000
0.000000 0.243358 0.000000
0.083891 0.244414 0.000000
0.144453 0.245468 0.000000
0.195586 0.246519 0.000000
0.241577 0.247569 0.000000
0.284132 0.248617 0.000000
0.324153 0.249663 0.000000
0.362194 0.250708 0.000000
0.398623 0.251750 0.000000
0.433703 0.252791 0.000000
0.467628 0.253830 0.000000
0.500548 0.254867 0.000000
0.532583 0.255902 0.000000
0.563827 0.256935 0.000000
0.594360 0.257967 0.000000
0.624248 0.258997 0.000000
0.653546 0.260026 0.000000
0.682303 0.261052 0.000000
0.710559 0.262077 0.000000
0.738350 0.263101 0.000000
0.765709 0.264122 0.000000
0.792664 0.265142 0.000000
0.819238 0.266160 0.000000
0.845456 0.267177 0.000000
0.871336 0.268192 0.000000
0.896897 0.269206 0.000000
0.922156 0.270217 0.000000
0.947128 0.271228 0.000000
0.971826 0.272236 0.000000
0.996263 0.273243 0.000000
1.000000 0.274249 0.000000
1.000000 0.275253 0.000000
1.000000 0.276256 0.000000
0.000000 0.284769 0.000000
0.081463 0.285757 0.000000
0.142526 0.286744 0.000000
0.193892 0.287730 0.000000
0.240027 0.288714 0.000000
0.282684 0.289696 0.000000
0.322784 0.290678 0.000000
0.360888 0.291657 0.000000
0.397368 0.292636 0.000000
0.432492 0.293613 0.000000
0.466455 0.294589 0.000000
0.499408 0.295563 0.000000
0.531472 0.296536 0.000000
0.562742 0.297508 0.000000
0.593299 0.298478 0.000000
0.623209 0.299447 0.000000
0.652527 0.300415 0.000000
0.681302 0.301381 0.000000
0.709575 0.302346 0.000000
0.737382 0.303310 0.000000
0.764756 0.304273 0.000000
0.791724 0.305234 0.000000
0.818311 0.306194 0.000000
0.844541 0.307152 0.000000
0.870433 0.308110 0.000000
0.896005 0.309066 0.000000
0.921274 0.310021 0.000000
0.946256 0.310975 0.000000
0.970963 0.311927 0.000000
0.995409 0.312879 0.000000
1.000000 0.313829 0.000000
1.000000 0.314778 0.000000
1.000000 0.315725 0.000000
0.000000 0.323783 0.000000
0.079004 0.324720 0.000000
0.140589 0.325655 0.000000
0.192191 0.326589 0.000000
0.238473 0.327523 0.000000
0.281234 0.328455 0.000000
0.321413 0.329385 0.000000
0.359579 0.330315 0.000000
0.396112 0.331244 0.000000
0.431279 0.332172 0.000000
0.465280 0.333098 0.000000
0.498267 0.334024 0.000000
0.530360 0.334948 0.000000
0.561657 0.335871 0.000000
0.592238 0.336794 0.000000
0.622169 0.337715 0.000000
0.651507 0.338635 0.000000
0.680300 0.339554 0.000000
0.708590 0.340472 0.000000
0.736413 0.341389 0.000000
0.763802 0.342305 0.000000
0.790784 0.343220 0.000000
0.817384 0.344134 0.000000
0.843626 0.345047 0.000000
0.869529 0.345959 0.000000
0.895112 0.346870 0.000000
0.920392 0.347779 0.000000
0.945383 0.348688 0.000000
0.970100 0.349596 0.000000
0.994555 0.350503 0.000000
1.000000 0.351409 0.000000
1.000000 0.352314 0.000000
1.000000 0.353218 0.000000
0.000000 0.360911 0.000000
0.076512 0.361806 0.000000
0.138641 0.362700 0.000000
0.190484 0.363593 0.000000
0.236915 0.364485 0.000000
0.279780 0.365376 0.000000
0.320039 0.366266 0.000000
0.358269 0.367156 0.000000
0.394854 0.368044 0.000000
0.430065 0.368932 0.000000
0.464104 0.369818 0.000000
0.497124 0.370704 0.000000
0.529247 0.371589 0.000000
0.560571 0.372473 0.000000
0.591175 0.373356 0.000000
0.621128 0.374238 0.000000
0.650486 0.375120 0.000000
0.679298 0.376000 0.000000
0.707605 0.376880 0.000000
0.735444 0.377758 0.000000
0.762847 0.378636 0.000000
0.789843 0.379513 0.000000
0.816456 0.380390 0.000000
0.842710 0.381265 0.000000
0.868625 0.382139 0.000000
0.894219 0.383013 0.000000
0.919509 0.383886 0.000000
0.944510 0.384758 0.000000
0.969237 0.385629 0.000000
0.993701 0.386499 0.000000
1.000000 0.387369 0.000000
1.000000 0.388238 0.000000
1.000000 0.389106 0.000000
0.000000 0.396497 0.000000
0.073986 0.397357 0.000000
0.136681 0.398216 0.000000
0.188771 0.399075 0.000000
0.235352 0.399933 0.000000
0.278324 0.400790 0.000000
0.318662 0.401646 0.000000
0.356956 0.402502 0.000000
0.393594 0.403357 0.000000
0.428850 0.404211 0.000000
0.462927 0.405064 0.000000
0.495981 0.405917 0.000000
0.528133 0.406769 0.000000
0.559483 0.407620 0.000000
0.590112 0.408470 0.000000
0.620087 0.409320 0.000000
0.649465 0.410169 0.000000
0.678295 0.411017 0.000000
0.706619 0.411864 0.000000
0.734474 0.412711 0.000000
0.761892 0.413557 0.000000
0.788901 0.414402 0.000000
0.815528 0.415246 0.000000
0.841794 0.416090 0.000000
0.867721 0.416933 0.000000
0.893326 0.417776 0.000000
0.918626 0.418617 0.000000
0.943637 0.419458 0.000000
0.968373 0.420298 0.000000
0.992846 0.421138 0.000000
1.000000 0.421976 0.000000
1.000000 0.422815 0.000000
1.000000 0.423652 0.000000
0.000000 0.430787 0.000000
0.071424 0.431618 0.000000
0.134709 0.432448 0.000000
0.187051 0.433277 0.000000
0.233785 0.434106 0.000000
0.276864 0.434934 0.000000
0.317283 0.435762 0.000000
0.355641 0.436589 0.000000
0.392332 0.437415 0.000000
0.427633 0.438240 0.000000
0.461749 0.439065 0.000000
0.494836 0.439890 0.000000
0.527018 0.440713 0.000000
0.558395 0.441536 0.000000
0.589048 0.442358 0.000000
0.619045 0.443180 0.000000
0.648443 0.444001 0.000000
0.677291 0.444821 0.000000
0.705633 0.445641 0.000000
0.733503 0.446460 0.000000
0.760936 0.447279 0.000000
0.787960 0.448097 0.000000
0.814599 0.448914 0.000000
0.840878 0.449731 0.000000
0.866816 0.450547 0.000000
0.892432 0.451362 0.000000
0.917743 0.452177 0.000000
0.942764 0.452991 0.000000
0.967509 0.453804 0.000000
0.991991 0.454617 0.000000
1.000000 0.455430 0.000000
1.000000 0.456241 0.000000
1.000000 0.457052 0.000000
0.000000 0.463966 0.000000
0.068822 0.464771 0.000000
0.132725 0.465576 0.000000
0.185324 0.466380 0.000000
0.232214 0.467184 0.000000
0.275401 0.467987 0.000000
0.315902 0.468789 0.000000
0.354325 0.469591 0.000000
0.391069 0.470393 0.000000
0.426414 0.471193 0.000000
0.460569 0.471993 0.000000
0.493690 0.472793 0.000000
0.525903 0.473592 0.000000
0.557306 0.474391 0.000000
0.587983 0.475189 0.000000
0.618002 0.475986 0.000000
0.647420 0.476783 0.000000
0.676287 0.477579 0.000000
0.704646 0.478375 0.000000
0.732532 0.479170 0.000000
0.759980 0.479964 0.000000
0.787018 0.480758 0.000000
0.813670 0.481552 0.000000
0.839961 0.482345 0.000000
0.865911 0.483137 0.000000
0.891538 0.483929 0.000000
0.916859 0.484720 0.000000
0.941890 0.485511 0.000000
0.966645 0.486301 0.000000
0.991136 0.487091 0.000000
1.000000 0.487880 0.000000
1.000000 0.488669 0.000000
1.000000 0.489457 0.000000
0.000000 0.496176 0.000000
0.066178 0.496959 0.000000
0.130728 0.497741 0.000000
0.183591 0.498523 0.000000
0.230638 0.499305 0.000000
0.273934 0.500086 0.000000
0.314518 0.500866 0.000000
0.353006 0.501646 0.000000
0.389804 0.502426 0.000000
0.425195 0.503205 0.000000
0.459388 0.503983 0.000000
0.492543 0.504761 0.000000
0.524786 0.505538 0.000000
0.556217 0.506315 0.000000
0.586918 0.507092 0.000000
0.616959 0.507868 0.000000
0.646397 0.508643 0.000000
0.675283 0.509418 0.000000
0.703658 0.510192 0.000000
0.731561 0.510966 0.000000
0.759024 0.511740 0.000000
0.786075 0.512513 0.000000
0.812741 0.513285 0.000000
0.839044 0.514057 0.000000
0.865005 0.514829 0.000000
0.890643 0.515600 0.000000
0.915975 0.516370 0.000000
0.941016 0.517140 0.000000
0.965780 0.517910 0.000000
0.990280 0.518679 0.000000
1.000000 0.519447 0.000000
1.000000 0.520216 0.000000
1.000000 0.520983 0.000000
0.000000 0.527530 0.000000
0.063488 0.528293 0.000000
0.128719 0.529056 0.000000
0.181851 0.529818 0.000000
0.229058 0.530580 0.000000
0.272464 0.531341 0.000000
0.313131 0.532102 0.000000
0.351685 0.532863 0.000000
0.388537 0.533623 0.000000
0.423973 0.534382 0.000000
0.458206 0.535141 0.000000
0.491395 0.535900 0.000000
0.523668 0.536658 0.000000
0.555126 0.537415 0.000000
0.585851 0.538173 0.000000
0.615914 0.538929 0.000000
0.645373 0.539686 0.000000
0.674277 0.540442 0.000000
0.702670 0.541197 0.000000
0.730589 0.541952 0.000000
0.758066 0.542707 0.000000
0.785132 0.543461 0.000000
0.811811 0.544215 0.000000
0.838126 0.544968 0.000000
0.864099 0.545721 0.000000
0.889748 0.546473 0.000000
0.915091 0.547225 0.000000
0.940142 0.547976 0.000000
0.964915 0.548728 0.000000
0.989424 0.549478 0.000000
1.000000 0.550228 0.000000
1.000000 0.550978 0.000000
1.000000 0.551728 0.000000
0.000000 0.558120 0.000000
0.060750 0.558865 0.000000
0.126696 0.559610 0.000000
0.180104 0.560355 0.000000
0.227473 0.561099 0.000000
0.270991 0.561843 0.000000
0.311742 0.562586 0.000000
0.350362 0.563329 0.000000
0.387268 0.564071 0.000000
0.422751 0.564813 0.000000
0.457022 0.565555 0.000000
0.490246 0.566296 0.000000
0.522549 0.567037 0.000000
0.554034 0.567777 0.000000
0.584784 0.568517 0.000000
0.614869 0.569257 0.000000
0.644348 0.569996 0.000000
0.673271 0.570734 0.000000
0.701681 0.571473 0.000000
0.729616 0.572211 0.000000
0.757109 0.572948 0.000000
0.784188 0.573686 0.000000
0.810880 0.574422 0.000000
0.837208 0.575159 0.000000
0.863193 0.575895 0.000000
0.888853 0.576630 0.000000
0.914206 0.577365 0.000000
0.939267 0.578100 0.000000
0.964050 0.578835 0.000000
0.988568 0.579569 0.000000
1.000000 0.580302 0.000000
1.000000 0.581035 0.000000
1.000000 0.581768 0.000000
0.000000 0.588021 0.000000
0.057960 0.588750 0.000000
0.124659 0.589479 0.000000
0.178349 0.590208 0.000000
0.225883 0.590936 0.000000
0.269515 0.591663 0.000000
0.310350 0.592390 0.000000
0.349037 0.593117 0.000000
0.385998 0.593844 0.000000
0.421526 0.594570 0.000000
0.455838 0.595296 0.000000
0.489096 0.596021 0.000000
0.521429 0.596746 0.000000
0.552941 0.597471 0.000000
0.583716 0.598195 0.000000
0.613824 0.598919 0.000000
0.643323 0.599643 0.000000
0.672265 0.600366 0.000000
0.700692 0.601089 0.000000
0.728643 0.601811 0.000000
0.756151 0.602534 0.000000
0.783244 0.603255 0.000000
0.809949 0.603977 0.000000
0.836290 0.604698 0.000000
0.862286 0.605418 0.000000
0.887958 0.606139 0.000000
0.913321 0.606859 0.000000
0.938392 0.607578 0.000000
0.963184 0.608297 0.000000
0.987711 0.609016 0.000000
1.000000 0.609735 0.000000
1.000000 0.610453 0.000000
1.000000 0.611171 0.000000
0.000000 0.617296 0.000000
0.055111 0.618011 0.000000
0.122609 0.618725 0.000000
0.176587 0.619439 0.000000
0.224289 0.620152 0.000000
0.268035 0.620865 0.000000
0.308956 0.621578 0.000000
0.347710 0.622290 0.000000
0.384726 0.623002 0.000000
0.420301 0.623714 0.000000
0.454652 0.624426 0.000000
0.487944 0.625137 0.000000
0.520309 0.625847 0.000000
0.551848 0.626558 0.000000
0.582647 0.627268 0.000000
0.612777 0.627977 0.000000
0.642297 0.628687 0.000000
0.671258 0.629396 0.000000
0.699702 0.630104 0.000000
0.727669 0.630813 0.000000
0.755192 0.631521 0.000000
0.782299 0.632228 0.000000
0.809018 0.632936 0.000000
0.835371 0.633643 0.000000
0.861379 0.634349 0.000000
0.887062 0.635056 0.000000
0.912435 0.635762 0.000000
0.937516 0.636467 0.000000
0.962318 0.637173 0.000000
0.986855 0.637878 0.000000
1.000000 0.638582 0.000000
1.000000 0.639287 0.000000
1.000000 0.639991 0.000000
0.000000 0.646000 0.000000
0.052200 0.646701 0.000000
0.120544 0.647401 0.000000
0.174818 0.648102 0.000000
0.222690 0.648802 0.000000
0.266552 0.649501 0.000000
0.307559 0.650201 0.000000
0.346381 0.650900 0.000000
0.383452 0.651598 0.000000
0.419073 0.652297 0.000000
0.453464 0.652995 0.000000
0.486792 0.653693 0.000000
0.519187 0.654390 0.000000
0.550754 0.655087 0.000000
0.581578 0.655784 0.000000
0.611730 0.656481 0.000000
0.641270 0.657177 0.000000
0.670250 0.657873 0.000000
0.698712 0.658569 0.000000
0.726695 0.659264 0.000000
0.754233 0.659959 0.000000
0.781354 0.660654 0.000000
0.808086 0.661348 0.000000
0.834452 0.662042 0.000000
0.860472 0.662736 0.000000
0.886165 0.663429 0.000000
0.911549 0.664123 0.000000
0.936640 0.664815 0.000000
0.961452 0.665508 0.000000
0.985997 0.666200 0.000000
1.000000 0.666892 0.000000
1.000000 0.667584 0.000000
1.000000 0.668275 0.000000
0.000000 0.674177 0.000000
0.049218 0.674865 0.000000
0.118464 0.675554 0.000000
0.173042 0.676241 0.000000
0.221086 0.676929 0.000000
0.265065 0.677616 0.000000
0.306159 0.678304 0.000000
0.345050 0.678990 0.000000
0.382177 0.679677 0.000000
0.417845 0.680363 0.000000
0.452276 0.681049 0.000000
0.485638 0.681734 0.000000
0.518064 0.682420 0.000000
0.549658 0.683105 0.000000
0.580507 0.683789 0.000000
0.610682 0.684474 0.000000
0.640243 0.685158 0.000000
0.669241 0.685842 0.000000
0.697721 0.686525 0.000000
0.725720 0.687209 0.000000
0.753273 0.687892 0.000000
0.780409 0.688574 0.000000
0.807154 0.689257 0.000000
0.833532 0.689939 0.000000
0.859564 0.690621 0.000000
0.885268 0.691302 0.000000
0.910663 0.691984 0.000000
0.935764 0.692665 0.000000
0.960585 0.693345 0.000000
0.985140 0.694026 0.000000
1.000000 0.694706 0.000000
1.000000 0.695386 0.000000
1.000000 0.696066 0.000000
0.000000 0.701868 0.000000
0.046159 0.702545 0.000000
0.116368 0.703221 0.000000
0.171257 0.703898 0.000000
0.219477 0.704574 0.000000
0.263575 0.705250 0.000000
0.304756 0.705925 0.000000
0.343716 0.706601 0.000000
0.380899 0.707276 0.000000
0.416614 0.707951 0.000000
0.451086 0.708625 0.000000
0.484483 0.709299 0.000000
0.516940 0.709973 0.000000
0.548562 0.710647 0.000000
0.579436 0.711321 0.000000
0.609633 0.711994 0.000000
0.639215 0.712667 0.000000
0.668232 0.713339 0.000000
0.696729 0.714012 0.000000
0.724745 0.714684 0.000000
0.752313 0.715356 0.000000
0.779463 0.716027 0.000000
0.806221 0.716699 0.000000
0.832612 0.717370 0.000000
0.858655 0.718041 0.000000
0.884371 0.718711 0.000000
0.909777 0.719381 0.000000
0.934888 0.720051 0.000000
0.959718 0.720721 0.000000
0.984282 0.721391 0.000000
1.000000 0.722060 0.000000
1.000000 0.722729 0.000000
1.000000 0.723397 0.000000
0.000000 0.729107 0.000000
0.043011 0.729773 0.000000
0.114257 0.730439 0.000000
0.169465 0.731105 0.000000
0.217863 0.731770 0.000000
0.262081 0.732436 0.000000
0.303351 0.733101 0.000000
0.342380 0.733765 0.000000
0.379620 0.734430 0.000000
0.415383 0.735094 0.000000
0.449894 0.735758 0.000000
0.483327 0.736422 0.000000
0.515815 0.737085 0.000000
0.547465 0.737748 0.000000
0.578364 0.738411 0.000000
0.608584 0.739074 0.000000
0.638186 0.739736 0.000000
0.667222 0.740399 0.000000
0.695737 0.741061 0.000000
0.723769 0.741722 0.000000
0.751352 0.742384 0.000000
0.778516 0.743045 0.000000
0.805288 0.743706 0.000000
0.831691 0.744367 0.000000
0.857746 0.745027 0.000000
0.883474 0.745687 0.000000
0.908890 0.746347 0.000000
0.934011 0.747007 0.000000
0.958851 0.747667 0.000000
0.983424 0.748326 0.000000
1.000000 0.748985 0.000000
1.000000 0.749644 0.000000
1.000000 0.750302 0.000000
0.000000 0.755925 0.000000
0.039764 0.756581 0.000000
0.112129 0.757237 0.000000
0.167665 0.757893 0.000000
0.216244 0.758549 0.000000
0.260583 0.759204 0.000000
0.301943 0.759859 0.000000
0.341042 0.760514 0.000000
0.378339 0.761168 0.000000
0.414149 0.761823 0.000000
0.448702 0.762477 0.000000
0.482170 0.763131 0.000000
0.514689 0.763784 0.000000
0.546367 0.764438 0.000000
0.577291 0.765091 0.000000
0.607533 0.765744 0.000000
0.637156 0.766396 0.000000
0.666212 0.767049 0.000000
0.694744 0.767701 0.000000
0.722793 0.768353 0.000000
0.750391 0.769005 0.000000
0.777569 0.769656 0.000000
0.804354 0.770307 0.000000
0.830770 0.770958 0.000000
0.856837 0.771609 0.000000
0.882576 0.772260 0.000000
0.908002 0.772910 0.000000
0.933134 0.773560 0.000000
0.957984 0.774210 0.000000
0.982566 0.774860 0.000000
1.000000 0.775509 0.000000
1.000000 0.776159 0.000000
1.000000 0.776808 0.000000
0.000000 0.782350 0.000000
0.036402 0.782996 0.000000
0.109984 0.783643 0.000000
0.165856 0.784289 0.000000
0.214620 0.784936 0.000000
0.259082 0.785581 0.000000
0.300533 0.786227 0.000000
0.339702 0.786873 0.000000
0.377056 0.787518 0.000000
0.412914 0.788163 0.000000
0.447508 0.788808 0.000000
0.481012 0.789452 0.000000
0.513562 0.790097 0.000000
0.545268 0.790741 0.000000
0.576217 0.791385 0.000000
0.606482 0.792029 0.000000
0.636126 0.792672 0.000000
0.665201 0.793315 0.000000
0.693751 0.793958 0.000000
0.721816 0.794601 0.000000
0.749429 0.795244 0.000000
0.776622 0.795886 0.000000
0.803420 0.796528 0.000000
0.829848 0.797170 0.000000
0.855928 0.797812 0.000000
0.881677 0.798454 0.000000
0.907115 0.799095 0.000000
0.932256 0.799736 0.000000
0.957116 0.800377 0.000000
0.981707 0.801018 0.000000
1.000000 0.801658 0.000000
1.000000 0.802298 0.000000
1.000000 0.802938 0.000000
0.000000 0.808404 0.000000
0.032903 0.809042 0.000000
0.107821 0.809680 0.000000
0.164040 0.810318 0.000000
0.212991 0.810955 0.000000
0.257578 0.811592 0.000000
0.299119 0.812229 0.000000
0.338360 0.812866 0.000000
0.375772 0.813502 0.000000
0.411678 0.814139 0.000000
0.446313 0.814775 0.000000
0.479852 0.815411 0.000000
0.512434 0.816046 0.000000
0.544168 0.816682 0.000000
0.575142 0.817317 0.000000
0.605430 0.817952 0.000000
0.635095 0.818587 0.000000
0.664189 0.819222 0.000000
0.692757 0.819856 0.000000
0.720838 0.820490 0.000000
0.748467 0.821124 0.000000
0.775674 0.821758 0.000000
0.802486 0.822392 0.000000
0.828927 0.823025 0.000000
0.855018 0.823658 0.000000
0.880778 0.824291 0.000000
0.906227 0.824924 0.000000
0.931378 0.825557 0.000000
0.956247 0.826189 0.000000
0.980848 0.826821 0.000000
1.000000 0.827453 0.000000
1.000000 0.828085 0.000000
1.000000 0.828717 0.000000
0.000000 0.834111 0.000000
0.029240 0.834741 0.000000
0.105640 0.835370 0.000000
0.162215 0.835999 0.000000
0.211357 0.836628 0.000000
0.256069 0.837257 0.000000
0.297703 0.837886 0.000000
0.337015 0.838514 0.000000
0.374485 0.839143 0.000000
0.410440 0.839771 0.000000
0.445116 0.840399 0.000000
0.478692 0.841026 0.000000
0.511305 0.841654 0.000000
0.543067 0.842281 0.000000
0.574066 0.842908 0.000000
0.604378 0.843535 0.000000
0.634064 0.844162 0.000000
0.663177 0.844788 0.000000
0.691762 0.845414 0.000000
0.719860 0.846041 0.000000
0.747504 0.846666 0.000000
0.774726 0.847292 0.000000
0.801551 0.847918 0.000000
0.828004 0.848543 0.000000
0.854107 0.849168 0.000000
0.879879 0.849793 0.000000
0.905338 0.850418 0.000000
0.930500 0.851042 0.000000
0.955379 0.851667 0.000000
0.979989 0.852291 0.000000
1.000000 0.852915 0.000000
1.000000 0.853539 0.000000
1.000000 0.854162 0.000000
0.000000 0.859489 0.000000
0.025372 0.860111 0.000000
0.103440 0.860732 0.000000
0.160381 0.861354 0.000000
0.209717 0.861975 0.000000
0.254557 0.862596 0.000000
0.296284 0.863217 0.000000
0.335669 0.863837 0.000000
0.373197 0.864458 0.000000
0.409200 0.865078 0.000000
0.443918 0.865698 0.000000
0.477530 0.866318 0.000000
0.510175 0.866938 0.000000
0.541965 0.867557 0.000000
0.572990 0.868177 0.000000
0.603325 0.868796 0.000000
0.633031 0.869415 0.000000
0.662164 0.870034 0.000000
0.690767 0.870652 0.000000
0.718881 0.871271 0.000000
0.746541 0.871889 0.000000
0.773777 0.872507 0.000000
0.800615 0.873125 0.000000
0.827081 0.873743 0.000000
0.853196 0.874360 0.000000
0.878980 0.874978 0.000000
0.904449 0.875595 0.000000
0.929621 0.876212 0.000000
0.954510 0.876828 0.000000
0.979129 0.877445 0.000000
1.000000 0.878061 0.000000
1.000000 0.878678 0.000000
1.000000 0.879294 0.000000
0.000000 0.884556 0.000000
0.021238 0.885170 0.000000
0.101220 0.885784 0.000000
0.158538 0.886398 0.000000
0.208072 0.887012 0.000000
0.253041 0.887626 0.000000
0.294862 0.888239 0.000000
0.334319 0.888852 0.000000
0.371907 0.889466 0.000000
0.407959 0.890078 0.000000
0.442719 0.890691 0.000000
0.476367 0.891304 0.000000
0.509044 0.891916 0.000000
0.540862 0.892528 0.000000
0.571913 0.893140 0.000000
0.602270 0.893752 0.000000
0.631998 0.894364 0.000000
0.661150 0.894975 0.000000
0.689771 0.895587 0.000000
0.717902 0.896198 0.000000
0.745577 0.896809 0.000000
0.772827 0.897420 0.000000
0.799680 0.898030 0.000000
0.826158 0.898641 0.000000
0.852285 0.899251 0.000000
0.878080 0.899861 0.000000
0.903560 0.900471 0.000000
0.928742 0.901081 0.000000
0.953641 0.901690 0.000000
0.978269 0.902300 0.000000
1.000000 0.902909 0.000000
1.000000 0.903518 0.000000
1.000000 0.904127 0.000000
0.000000 0.909328 0.000000
0.016731 0.909935 0.000000
0.098979 0.910542 0.000000
0.156686 0.911149 0.000000
0.206421 0.911756 0.000000
0.251521 0.912363 0.000000
0.293437 0.912969 0.000000
0.332968 0.913575 0.000000
0.370615 0.914181 0.000000
0.406716 0.914787 0.000000
0.441518 0.915393 0.000000
0.475202 0.915999 0.000000
0.507912 0.916604 0.000000
0.539759 0.917209 0.000000
0.570835 0.917814 0.000000
0.601216 0.918419 0.000000
0.630965 0.919024 0.000000
0.660136 0.919628 0.000000
0.688775 0.920233 0.000000
0.716922 0.920837 0.000000
0.744613 0.921441 0.000000
0.771877 0.922045 0.000000
0.798743 0.922649 0.000000
0.825235 0.923252 0.000000
