presets/film_stocks/Kodak_Vision3_50D_5203.cube
# 独寻胶片模拟 -- Kodak Vision3 50D 5203
# Kodak, ISO 50, 2011, negative
TITLE "Kodak Vision3 50D 5203"
LUT_3D_SIZE 5
DOMAIN_MIN 0.0 0.0 0.0
DOMAIN_MAX 1.0 1.0 1.0
0.000000 0.000000 0.000000
0.335515 0.012539 0.000000
0.606739 0.022674 0.000000
0.858040 0.032066 0.000000
1.000000 0.041004 0.000000
0.000000 0.325649 0.000000
0.324264 0.331800 0.000000
0.596582 0.337931 0.000000
0.848468 0.344043 0.000000
1.000000 0.350137 0.000000
0.000000 0.588899 0.000000
0.312947 0.594464 0.000000
0.586395 0.600021 0.000000
0.838878 0.605569 0.000000
1.000000 0.611108 0.000000
0.000000 0.832810 0.000000
0.301560 0.838058 0.000000
0.576177 0.843301 0.000000
0.829269 0.848539 0.000000
1.000000 0.853771 0.000000
0.000000 1.000000 0.000000
0.290100 1.000000 0.000000
0.565929 1.000000 0.000000
0.819641 1.000000 0.000000
1.000000 1.000000 0.000000
0.000000 0.000000 0.319507
0.317148 0.000000 0.310471
0.590172 0.000000 0.301389
0.842433 0.000000 0.292260
1.000000 0.000000 0.283083
0.000000 0.299550 0.314847
0.305787 0.305787 0.305787
0.579966 0.312003 0.296681
0.832830 0.318197 0.287528
1.000000 0.324372 0.278325
0.000000 0.565383 0.310174
0.294354 0.570987 0.301091
0.569729 0.576582 0.291961
0.823210 0.582167 0.282782
1.000000 0.587744 0.273552
0.000000 0.810666 0.305489
0.282845 0.815938 0.296382
0.559461 0.821205 0.287227
0.813569 0.826466 0.278022
1.000000 0.831721 0.268765
0.000000 1.000000 0.300793
0.271256 1.000000 0.291661
0.549161 1.000000 0.282480
0.803910 1.000000 0.273249
1.000000 1.000000 0.263964
0.000000 0.000000 0.577792
0.298598 0.000000 0.569631
0.573525 0.000000 0.561450
0.826776 0.000000 0.553249
1.000000 0.000000 0.545027
0.000000 0.273057 0.573580
0.287117 0.279392 0.565409
0.563268 0.285703 0.557218
0.817143 0.291990 0.549006
1.000000 0.298254 0.540773
0.000000 0.541700 0.569364
0.275558 0.547345 0.561182
0.552980 0.552980 0.552980
0.807490 0.558605 0.544757
1.000000 0.564220 0.536513
0.000000 0.788418 0.565141
0.263916 0.793715 0.556949
0.542659 0.799007 0.548737
0.797818 0.804292 0.540503
1.000000 0.809572 0.532248
0.000000 1.000000 0.560914
0.252186 1.000000 0.552711
0.532305 1.000000 0.544488
0.788126 1.000000 0.536243
1.000000 1.000000 0.527977
0.000000 0.000000 0.817103
0.279850 0.000000 0.809412
0.556795 0.000000 0.801709
0.811068 0.000000 0.793993
1.000000 0.000000 0.786264
0.000000 0.246119 0.813133
0.268239 0.252565 0.805436
0.546486 0.258984 0.797726
0.801404 0.265375 0.790003
1.000000 0.271741 0.782268
0.000000 0.517840 0.809160
0.256542 0.523528 0.801456
0.536144 0.529205 0.793740
0.791719 0.534872 0.786011
1.000000 0.540529 0.778268
0.000000 0.766063 0.805184
0.244754 0.771386 0.797473
0.525768 0.776704 0.789750
0.782014 0.782014 0.782014
1.000000 0.787319 0.774265
0.000000 1.000000 0.801204
0.232868 1.000000 0.793487
0.515358 1.000000 0.785757
0.772289 1.000000 0.778015
1.000000 1.000000 0.770259
0.000000 0.000000 1.000000
0.260885 0.000000 1.000000
0.539979 0.000000 1.000000
0.795309 0.000000 1.000000
1.000000 0.000000 1.000000
0.000000 0.218669 1.000000
0.249132 0.225244 1.000000
0.529616 0.231787 1.000000
0.785612 0.238298 1.000000
1.000000 0.244779 1.000000
0.000000 0.493792 1.000000
0.237283 0.499525 1.000000
0.519218 0.505248 1.000000
0.775894 0.510959 1.000000
1.000000 0.516660 1.000000
0.000000 0.743597 1.000000
0.225333 0.748947 1.000000
0.508785 0.754291 1.000000
0.766156 0.759628 1.000000
1.000000 0.764959 1.000000
0.000000 0.979602 1.000000
0.213273 0.984708 1.000000
0.498315 0.989810 1.000000
0.756397 0.994907 1.000000
1.000000 1.000000 1.000000
