presets/film_stocks/Kodak_Vericolor_III.cube
# 独寻胶片模拟 -- Kodak Vericolor III
# Kodak, ISO 160, 1983, negative
TITLE "Kodak Vericolor III"
LUT_3D_SIZE 33
DOMAIN_MIN 0.0 0.0 0.0
DOMAIN_MAX 1.0 1.0 1.0
0.000000 0.000000 0.000000
0.055828 0.001117 0.000000
0.102545 0.002053 0.000000
0.146347 0.002929 0.000000
0.188355 0.003770 0.000000
0.229080 0.004585 0.000000
0.268809 0.005381 0.000000
0.307730 0.006160 0.000000
0.345971 0.006925 0.000000
0.383628 0.007679 0.000000
0.420773 0.008422 0.000000
0.457465 0.009157 0.000000
0.493748 0.009883 0.000000
0.529661 0.010602 0.000000
0.565237 0.011314 0.000000
0.600501 0.012020 0.000000
0.635478 0.012720 0.000000
0.670187 0.013415 0.000000
0.704647 0.014104 0.000000
0.738871 0.014789 0.000000
0.772875 0.015470 0.000000
0.806671 0.016147 0.000000
0.840270 0.016819 0.000000
0.873682 0.017488 0.000000
0.906915 0.018153 0.000000
0.939979 0.018815 0.000000
0.972881 0.019473 0.000000
1.000000 0.020129 0.000000
1.000000 0.020781 0.000000
1.000000 0.021431 0.000000
1.000000 0.022078 0.000000
1.000000 0.022722 0.000000
1.000000 0.023364 0.000000
0.000000 0.050846 0.000000
0.052522 0.051420 0.000000
0.099515 0.051993 0.000000
0.143466 0.052565 0.000000
0.185575 0.053137 0.000000
0.226376 0.053707 0.000000
0.266165 0.054277 0.000000
0.305135 0.054846 0.000000
0.343419 0.055413 0.000000
0.381113 0.055981 0.000000
0.418291 0.056547 0.000000
0.455011 0.057112 0.000000
0.491321 0.057677 0.000000
0.527258 0.058241 0.000000
0.562855 0.058804 0.000000
0.598140 0.059367 0.000000
0.633135 0.059928 0.000000
0.667862 0.060489 0.000000
0.702337 0.061050 0.000000
0.736577 0.061609 0.000000
0.770596 0.062168 0.000000
0.804405 0.062726 0.000000
0.838017 0.063283 0.000000
0.871441 0.063840 0.000000
0.904686 0.064396 0.000000
0.937761 0.064952 0.000000
0.970674 0.065506 0.000000
1.000000 0.066060 0.000000
1.000000 0.066614 0.000000
1.000000 0.067167 0.000000
1.000000 0.067719 0.000000
1.000000 0.068270 0.000000
1.000000 0.068821 0.000000
0.000000 0.093394 0.000000
0.049186 0.093922 0.000000
0.096472 0.094449 0.000000
0.140577 0.094975 0.000000
0.182790 0.095501 0.000000
0.223667 0.096027 0.000000
0.263518 0.096552 0.000000
0.302538 0.097077 0.000000
0.340865 0.097601 0.000000
0.378596 0.098126 0.000000
0.415806 0.098649 0.000000
0.452556 0.099173 0.000000
0.488892 0.099695 0.000000
0.524853 0.100218 0.000000
0.560472 0.100740 0.000000
0.595777 0.101262 0.000000
0.630791 0.101783 0.000000
0.665535 0.102304 0.000000
0.700027 0.102825 0.000000
0.734283 0.103345 0.000000
0.768316 0.103865 0.000000
0.802139 0.104385 0.000000
0.835763 0.104904 0.000000
0.869200 0.105423 0.000000
0.902457 0.105941 0.000000
0.935543 0.106459 0.000000
0.968466 0.106977 0.000000
1.000000 0.107495 0.000000
1.000000 0.108012 0.000000
1.000000 0.108528 0.000000
1.000000 0.109045 0.000000
1.000000 0.109561 0.000000
1.000000 0.110076 0.000000
0.000000 0.133287 0.000000
0.045819 0.133788 0.000000
0.093416 0.134290 0.000000
0.137679 0.134791 0.000000
0.179998 0.135292 0.000000
0.220954 0.135793 0.000000
0.260866 0.136293 0.000000
0.299938 0.136794 0.000000
0.338308 0.137294 0.000000
0.376076 0.137793 0.000000
0.413320 0.138293 0.000000
0.450098 0.138792 0.000000
0.486461 0.139291 0.000000
0.522446 0.139789 0.000000
0.558088 0.140288 0.000000
0.593413 0.140786 0.000000
0.628446 0.141284 0.000000
0.663208 0.141782 0.000000
0.697716 0.142279 0.000000
0.731987 0.142776 0.000000
0.766034 0.143273 0.000000
0.799871 0.143770 0.000000
0.833509 0.144267 0.000000
0.866957 0.144763 0.000000
0.900226 0.145259 0.000000
0.933324 0.145755 0.000000
0.966258 0.146250 0.000000
0.999035 0.146746 0.000000
1.000000 0.147241 0.000000
1.000000 0.147735 0.000000
1.000000 0.148230 0.000000
1.000000 0.148724 0.000000
1.000000 0.149219 0.000000
0.000000 0.171547 0.000000
0.042416 0.172031 0.000000
0.090345 0.172515 0.000000
0.134774 0.172999 0.000000
0.177200 0.173483 0.000000
0.218236 0.173967 0.000000
0.258211 0.174450 0.000000
0.297334 0.174933 0.000000
0.335748 0.175416 0.000000
0.373554 0.175899 0.000000
0.410831 0.176382 0.000000
0.447639 0.176864 0.000000
0.484028 0.177347 0.000000
0.520038 0.177829 0.000000
0.555702 0.178311 0.000000
0.591047 0.178793 0.000000
0.626099 0.179274 0.000000
0.660879 0.179756 0.000000
0.695403 0.180237 0.000000
0.729690 0.180718 0.000000
0.763752 0.181199 0.000000
0.797603 0.181679 0.000000
0.831253 0.182160 0.000000
0.864714 0.182640 0.000000
0.897995 0.183120 0.000000
0.931104 0.183600 0.000000
0.964049 0.184080 0.000000
0.996837 0.184560 0.000000
1.000000 0.185039 0.000000
1.000000 0.185519 0.000000
1.000000 0.185998 0.000000
1.000000 0.186477 0.000000
1.000000 0.186955 0.000000
0.000000 0.208637 0.000000
0.038974 0.209108 0.000000
0.087260 0.209579 0.000000
0.131859 0.210050 0.000000
0.174396 0.210521 0.000000
0.215513 0.210992 0.000000
0.255552 0.211462 0.000000
0.294728 0.211933 0.000000
0.333185 0.212403 0.000000
0.371030 0.212873 0.000000
0.408340 0.213343 0.000000
0.445178 0.213813 0.000000
0.481594 0.214283 0.000000
0.517628 0.214752 0.000000
0.553314 0.215222 0.000000
0.588681 0.215691 0.000000
0.623752 0.216160 0.000000
0.658549 0.216629 0.000000
0.693090 0.217098 0.000000
0.727392 0.217567 0.000000
0.761469 0.218035 0.000000
0.795333 0.218504 0.000000
0.828997 0.218972 0.000000
0.862471 0.219440 0.000000
0.895763 0.219908 0.000000
0.928883 0.220376 0.000000
0.961839 0.220844 0.000000
0.994637 0.221311 0.000000
1.000000 0.221779 0.000000
1.000000 0.222246 0.000000
1.000000 0.222713 0.000000
1.000000 0.223180 0.000000
1.000000 0.223647 0.000000
0.000000 0.244821 0.000000
0.035489 0.245282 0.000000
0.084159 0.245742 0.000000
0.128935 0.246203 0.000000
0.171586 0.246664 0.000000
0.212785 0.247124 0.000000
0.252889 0.247584 0.000000
0.292118 0.248044 0.000000
0.330620 0.248504 0.000000
0.368503 0.248964 0.000000
0.405847 0.249424 0.000000
0.442716 0.249884 0.000000
0.479158 0.250343 0.000000
0.515217 0.250803 0.000000
0.550925 0.251262 0.000000
0.586312 0.251721 0.000000
0.621403 0.252181 0.000000
0.656217 0.252639 0.000000
0.690775 0.253098 0.000000
0.725093 0.253557 0.000000
0.759185 0.254016 0.000000
0.793063 0.254474 0.000000
0.826740 0.254933 0.000000
0.860226 0.255391 0.000000
0.893530 0.255849 0.000000
0.926662 0.256307 0.000000
0.959628 0.256765 0.000000
0.992437 0.257223 0.000000
1.000000 0.257681 0.000000
1.000000 0.258138 0.000000
1.000000 0.258596 0.000000
1.000000 0.259053 0.000000
1.000000 0.259510 0.000000
0.000000 0.280268 0.000000
0.031956 0.280720 0.000000
0.081043 0.281172 0.000000
0.126002 0.281624 0.000000
0.168769 0.282076 0.000000
0.210053 0.282528 0.000000
0.250223 0.282980 0.000000
0.289505 0.283432 0.000000
0.328052 0.283883 0.000000
0.365974 0.284335 0.000000
0.403352 0.284786 0.000000
0.440251 0.285237 0.000000
0.476721 0.285688 0.000000
0.512804 0.286139 0.000000
0.548535 0.286590 0.000000
0.583943 0.287041 0.000000
0.619052 0.287492 0.000000
0.653885 0.287942 0.000000
0.688460 0.288393 0.000000
0.722793 0.288843 0.000000
0.756899 0.289294 0.000000
0.790792 0.289744 0.000000
0.824482 0.290194 0.000000
0.857981 0.290644 0.000000
0.891297 0.291094 0.000000
0.924440 0.291544 0.000000
0.957417 0.291994 0.000000
0.990236 0.292444 0.000000
1.000000 0.292893 0.000000
1.000000 0.293343 0.000000
1.000000 0.293792 0.000000
1.000000 0.294241 0.000000
1.000000 0.294690 0.000000
0.000000 0.315097 0.000000
0.028367 0.315541 0.000000
0.077909 0.315986 0.000000
0.123060 0.316431 0.000000
0.165946 0.316876 0.000000
0.207315 0.317320 0.000000
0.247552 0.317765 0.000000
0.286888 0.318209 0.000000
0.325481 0.318653 0.000000
0.363442 0.319097 0.000000
0.400855 0.319542 0.000000
0.437784 0.319986 0.000000
0.474282 0.320430 0.000000
0.510390 0.320873 0.000000
0.546143 0.321317 0.000000
0.581572 0.321761 0.000000
0.616701 0.322204 0.000000
0.651552 0.322648 0.000000
0.686143 0.323091 0.000000
0.720492 0.323535 0.000000
0.754613 0.323978 0.000000
0.788520 0.324421 0.000000
0.822223 0.324864 0.000000
0.855734 0.325307 0.000000
0.889063 0.325750 0.000000
0.922217 0.326193 0.000000
0.955205 0.326636 0.000000
0.988034 0.327078 0.000000
1.000000 0.327521 0.000000
1.000000 0.327964 0.000000
1.000000 0.328406 0.000000
1.000000 0.328848 0.000000
1.000000 0.329291 0.000000
0.000000 0.349393 0.000000
0.024713 0.349832 0.000000
0.074758 0.350270 0.000000
0.120107 0.350708 0.000000
0.163116 0.351147 0.000000
0.204573 0.351585 0.000000
0.244877 0.352023 0.000000
0.284268 0.352461 0.000000
0.322907 0.352899 0.000000
0.360908 0.353337 0.000000
0.398355 0.353775 0.000000
0.435315 0.354212 0.000000
0.471841 0.354650 0.000000
0.507974 0.355088 0.000000
0.543750 0.355525 0.000000
0.579200 0.355963 0.000000
0.614348 0.356400 0.000000
0.649217 0.356837 0.000000
0.683825 0.357275 0.000000
0.718190 0.357712 0.000000
0.752326 0.358149 0.000000
0.786247 0.358586 0.000000
0.819963 0.359023 0.000000
0.853487 0.359460 0.000000
0.886827 0.359896 0.000000
0.919993 0.360333 0.000000
0.952992 0.360770 0.000000
0.985832 0.361206 0.000000
1.000000 0.361643 0.000000
1.000000 0.362079 0.000000
1.000000 0.362516 0.000000
1.000000 0.362952 0.000000
1.000000 0.363388 0.000000
0.000000 0.383224 0.000000
0.020982 0.383657 0.000000
0.071588 0.384089 0.000000
0.117144 0.384522 0.000000
0.160279 0.384955 0.000000
0.201825 0.385387 0.000000
0.242198 0.385820 0.000000
0.281645 0.386252 0.000000
0.320331 0.386685 0.000000
0.358371 0.387117 0.000000
0.395854 0.387549 0.000000
0.432845 0.387982 0.000000
0.469398 0.388414 0.000000
0.505556 0.388846 0.000000
0.541355 0.389278 0.000000
0.576826 0.389710 0.000000
0.611994 0.390142 0.000000
0.646881 0.390573 0.000000
0.681506 0.391005 0.000000
0.715887 0.391437 0.000000
0.750038 0.391868 0.000000
0.783973 0.392300 0.000000
0.817703 0.392731 0.000000
0.851239 0.393163 0.000000
0.884592 0.393594 0.000000
0.917769 0.394025 0.000000
0.950779 0.394457 0.000000
0.983629 0.394888 0.000000
1.000000 0.395319 0.000000
1.000000 0.395750 0.000000
1.000000 0.396181 0.000000
1.000000 0.396612 0.000000
1.000000 0.397043 0.000000
0.000000 0.416641 0.000000
0.017154 0.417069 0.000000
0.068398 0.417496 0.000000
0.114171 0.417924 0.000000
0.157435 0.418352 0.000000
0.199072 0.418779 0.000000
0.239515 0.419207 0.000000
0.279019 0.419634 0.000000
0.317751 0.420062 0.000000
0.355832 0.420489 0.000000
0.393350 0.420916 0.000000
0.430372 0.421344 0.000000
0.466953 0.421771 0.000000
0.503137 0.422198 0.000000
0.538959 0.422625 0.000000
0.574451 0.423052 0.000000
0.609639 0.423479 0.000000
0.644544 0.423906 0.000000
0.679186 0.424333 0.000000
0.713583 0.424759 0.000000
0.747749 0.425186 0.000000
0.781698 0.425613 0.000000
0.815441 0.426039 0.000000
0.848990 0.426466 0.000000
0.882355 0.426892 0.000000
0.915544 0.427319 0.000000
0.948565 0.427745 0.000000
0.981425 0.428171 0.000000
1.000000 0.428598 0.000000
1.000000 0.429024 0.000000
1.000000 0.429450 0.000000
1.000000 0.429876 0.000000
1.000000 0.430302 0.000000
0.000000 0.449686 0.000000
0.013202 0.450110 0.000000
0.065187 0.450533 0.000000
0.111187 0.450956 0.000000
0.154584 0.451379 0.000000
0.196314 0.451802 0.000000
0.236828 0.452225 0.000000
0.276389 0.452648 0.000000
0.315169 0.453071 0.000000
0.353291 0.453494 0.000000
0.390844 0.453917 0.000000
0.427897 0.454340 0.000000
0.464507 0.454762 0.000000
0.500716 0.455185 0.000000
0.536562 0.455607 0.000000
0.572075 0.456030 0.000000
0.607282 0.456452 0.000000
0.642206 0.456875 0.000000
0.676865 0.457297 0.000000
0.711278 0.457720 0.000000
0.745459 0.458142 0.000000
0.779422 0.458564 0.000000
0.813179 0.458986 0.000000
0.846741 0.459408 0.000000
0.880117 0.459830 0.000000
0.913318 0.460252 0.000000
0.946350 0.460674 0.000000
0.979221 0.461096 0.000000
1.000000 0.461518 0.000000
1.000000 0.461940 0.000000
1.000000 0.462361 0.000000
1.000000 0.462783 0.000000
1.000000 0.463205 0.000000
0.000000 0.482395 0.000000
0.009073 0.482814 0.000000
0.061954 0.483233 0.000000
0.108192 0.483652 0.000000
0.151725 0.484071 0.000000
0.193550 0.484490 0.000000
0.234136 0.484909 0.000000
0.273755 0.485328 0.000000
0.312584 0.485747 0.000000
0.350746 0.486166 0.000000
0.388335 0.486584 0.000000
0.425421 0.487003 0.000000
0.462058 0.487422 0.000000
0.498293 0.487840 0.000000
0.534162 0.488259 0.000000
0.569697 0.488677 0.000000
0.604924 0.489095 0.000000
0.639866 0.489514 0.000000
0.674543 0.489932 0.000000
0.708972 0.490350 0.000000
0.743168 0.490769 0.000000
0.777145 0.491187 0.000000
0.810916 0.491605 0.000000
0.844490 0.492023 0.000000
0.877879 0.492441 0.000000
0.911091 0.492859 0.000000
0.944134 0.493277 0.000000
0.977016 0.493695 0.000000
1.000000 0.494112 0.000000
1.000000 0.494530 0.000000
1.000000 0.494948 0.000000
1.000000 0.495366 0.000000
1.000000 0.495783 0.000000
0.000000 0.514796 0.000000
0.004648 0.515211 0.000000
0.058697 0.515626 0.000000
0.105185 0.516042 0.000000
0.148859 0.516457 0.000000
0.190781 0.516872 0.000000
0.231441 0.517287 0.000000
0.271118 0.517702 0.000000
0.309995 0.518117 0.000000
0.348200 0.518532 0.000000
0.385825 0.518947 0.000000
0.422942 0.519362 0.000000
0.459608 0.519777 0.000000
0.495869 0.520192 0.000000
0.531762 0.520607 0.000000
0.567318 0.521021 0.000000
0.602565 0.521436 0.000000
0.637526 0.521851 0.000000
0.672220 0.522265 0.000000
0.706665 0.522680 0.000000
0.740876 0.523094 0.000000
0.774868 0.523509 0.000000
0.808652 0.523923 0.000000
0.842239 0.524337 0.000000
0.875640 0.524752 0.000000
0.908863 0.525166 0.000000
0.941918 0.525580 0.000000
0.974810 0.525994 0.000000
1.000000 0.526408 0.000000
1.000000 0.526822 0.000000
1.000000 0.527237 0.000000
1.000000 0.527651 0.000000
1.000000 0.528064 0.000000
0.000000 0.546913 0.000000
0.000000 0.547325 0.000000
0.055415 0.547737 0.000000
0.102166 0.548149 0.000000
0.145985 0.548560 0.000000
0.188006 0.548972 0.000000
0.228740 0.549384 0.000000
0.268477 0.549795 0.000000
0.307404 0.550207 0.000000
0.345650 0.550618 0.000000
0.383312 0.551030 0.000000
0.420461 0.551441 0.000000
0.457156 0.551853 0.000000
0.493443 0.552264 0.000000
0.529360 0.552675 0.000000
0.564938 0.553087 0.000000
0.600205 0.553498 0.000000
0.635184 0.553909 0.000000
0.669895 0.554320 0.000000
0.704356 0.554731 0.000000
0.738583 0.555142 0.000000
0.772589 0.555553 0.000000
0.806387 0.555964 0.000000
0.839987 0.556375 0.000000
0.873400 0.556786 0.000000
0.906635 0.557197 0.000000
0.939701 0.557608 0.000000
0.972604 0.558018 0.000000
1.000000 0.558429 0.000000
1.000000 0.558840 0.000000
1.000000 0.559250 0.000000
1.000000 0.559661 0.000000
1.000000 0.560072 0.000000
0.000000 0.578769 0.000000
0.000000 0.579177 0.000000
0.052105 0.579586 0.000000
0.099134 0.579994 0.000000
0.143103 0.580403 0.000000
0.185226 0.580811 0.000000
0.226036 0.581220 0.000000
0.265833 0.581628 0.000000
0.304809 0.582036 0.000000
0.343098 0.582445 0.000000
0.380797 0.582853 0.000000
0.417979 0.583261 0.000000
0.454703 0.583669 0.000000
0.491016 0.584078 0.000000
0.526956 0.584486 0.000000
0.562556 0.584894 0.000000
0.597843 0.585302 0.000000
0.632841 0.585710 0.000000
0.667570 0.586118 0.000000
0.702047 0.586525 0.000000
0.736289 0.586933 0.000000
0.770310 0.587341 0.000000
0.804121 0.587749 0.000000
0.837734 0.588157 0.000000
0.871159 0.588564 0.000000
0.904406 0.588972 0.000000
0.937483 0.589380 0.000000
0.970397 0.589787 0.000000
1.000000 0.590195 0.000000
1.000000 0.590602 0.000000
1.000000 0.591010 0.000000
1.000000 0.591417 0.000000
1.000000 0.591825 0.000000
0.000000 0.610380 0.000000
0.000000 0.610786 0.000000
0.048765 0.611192 0.000000
0.096089 0.611597 0.000000
0.140213 0.612002 0.000000
0.182439 0.612408 0.000000
0.223326 0.612813 0.000000
0.263185 0.613219 0.000000
0.302212 0.613624 0.000000
0.340544 0.614029 0.000000
0.378279 0.614435 0.000000
0.415494 0.614840 0.000000
0.452247 0.615245 0.000000
0.488586 0.615650 0.000000
0.524551 0.616055 0.000000
0.560173 0.616460 0.000000
0.595480 0.616865 0.000000
0.630497 0.617270 0.000000
0.665243 0.617675 0.000000
0.699737 0.618080 0.000000
0.733994 0.618485 0.000000
0.768029 0.618890 0.000000
0.801854 0.619295 0.000000
0.835480 0.619699 0.000000
0.868918 0.620104 0.000000
0.902177 0.620509 0.000000
0.935264 0.620913 0.000000
0.968189 0.621318 0.000000
1.000000 0.621723 0.000000
1.000000 0.622127 0.000000
1.000000 0.622532 0.000000
1.000000 0.622936 0.000000
1.000000 0.623341 0.000000
0.000000 0.641764 0.000000
0.000000 0.642167 0.000000
0.045393 0.642570 0.000000
0.093031 0.642973 0.000000
0.137315 0.643375 0.000000
0.179647 0.643778 0.000000
0.220612 0.644180 0.000000
0.260533 0.644583 0.000000
0.299611 0.644985 0.000000
0.337986 0.645388 0.000000
0.375759 0.645790 0.000000
0.413007 0.646193 0.000000
0.449790 0.646595 0.000000
0.486155 0.646997 0.000000
0.522144 0.647400 0.000000
0.557788 0.647802 0.000000
0.593116 0.648204 0.000000
0.628151 0.648606 0.000000
0.662915 0.649009 0.000000
0.697425 0.649411 0.000000
0.731698 0.649813 0.000000
0.765748 0.650215 0.000000
0.799586 0.650617 0.000000
0.833226 0.651019 0.000000
0.866676 0.651421 0.000000
0.899946 0.651823 0.000000
0.933045 0.652224 0.000000
0.965980 0.652626 0.000000
0.998759 0.653028 0.000000
1.000000 0.653430 0.000000
1.000000 0.653832 0.000000
1.000000 0.654233 0.000000
1.000000 0.654635 0.000000
0.000000 0.672935 0.000000
0.000000 0.673335 0.000000
0.041986 0.673735 0.000000
0.089958 0.674135 0.000000
0.134408 0.674535 0.000000
0.176848 0.674935 0.000000
0.217894 0.675335 0.000000
0.257877 0.675735 0.000000
0.297007 0.676135 0.000000
0.335426 0.676535 0.000000
0.373237 0.676934 0.000000
0.410518 0.677334 0.000000
0.447330 0.677734 0.000000
0.483723 0.678133 0.000000
0.519735 0.678533 0.000000
0.555402 0.678933 0.000000
0.590750 0.679332 0.000000
0.625805 0.679732 0.000000
0.660586 0.680131 0.000000
0.695113 0.680531 0.000000
0.729401 0.680930 0.000000
0.763465 0.681330 0.000000
0.797318 0.681729 0.000000
0.830970 0.682129 0.000000
0.864433 0.682528 0.000000
0.897715 0.682927 0.000000
0.930825 0.683326 0.000000
0.963771 0.683726 0.000000
0.996560 0.684125 0.000000
1.000000 0.684524 0.000000
1.000000 0.684923 0.000000
1.000000 0.685322 0.000000
1.000000 0.685721 0.000000
0.000000 0.703905 0.000000
0.000000 0.704302 0.000000
0.038539 0.704700 0.000000
0.086871 0.705097 0.000000
0.131492 0.705495 0.000000
0.174044 0.705892 0.000000
0.215170 0.706290 0.000000
0.255218 0.706687 0.000000
0.294400 0.707084 0.000000
0.332863 0.707482 0.000000
0.370712 0.707879 0.000000
0.408027 0.708276 0.000000
0.444869 0.708673 0.000000
0.481288 0.709071 0.000000
0.517326 0.709468 0.000000
0.553014 0.709865 0.000000
0.588383 0.710262 0.000000
0.623457 0.710659 0.000000
0.658256 0.711056 0.000000
0.692799 0.711453 0.000000
0.727103 0.711850 0.000000
0.761182 0.712247 0.000000
0.795048 0.712644 0.000000
0.828714 0.713041 0.000000
0.862189 0.713438 0.000000
0.895483 0.713835 0.000000
0.928604 0.714231 0.000000
0.961561 0.714628 0.000000
0.994361 0.715025 0.000000
1.000000 0.715422 0.000000
1.000000 0.715818 0.000000
1.000000 0.716215 0.000000
1.000000 0.716611 0.000000
0.000000 0.734685 0.000000
0.000000 0.735080 0.000000
0.035048 0.735475 0.000000
0.083769 0.735870 0.000000
0.128567 0.736265 0.000000
0.171233 0.736660 0.000000
0.212442 0.737055 0.000000
0.252555 0.737450 0.000000
0.291790 0.737845 0.000000
0.330298 0.738240 0.000000
0.368185 0.738635 0.000000
0.405534 0.739030 0.000000
0.442406 0.739425 0.000000
0.478852 0.739820 0.000000
0.514914 0.740215 0.000000
0.550625 0.740609 0.000000
0.586015 0.741004 0.000000
0.621107 0.741399 0.000000
0.655925 0.741794 0.000000
0.690485 0.742188 0.000000
0.724804 0.742583 0.000000
0.758898 0.742977 0.000000
0.792778 0.743372 0.000000
0.826456 0.743767 0.000000
0.859944 0.744161 0.000000
0.893250 0.744556 0.000000
0.926383 0.744950 0.000000
0.959350 0.745345 0.000000
0.992160 0.745739 0.000000
1.000000 0.746133 0.000000
1.000000 0.746528 0.000000
1.000000 0.746922 0.000000
1.000000 0.747316 0.000000
0.000000 0.765285 0.000000
0.000000 0.765678 0.000000
0.031508 0.766071 0.000000
0.080650 0.766464 0.000000
0.125633 0.766857 0.000000
0.168415 0.767249 0.000000
0.209709 0.767642 0.000000
0.249887 0.768035 0.000000
0.289176 0.768428 0.000000
0.327729 0.768820 0.000000
0.365656 0.769213 0.000000
0.403038 0.769606 0.000000
0.439941 0.769998 0.000000
0.476415 0.770391 0.000000
0.512501 0.770784 0.000000
0.548235 0.771176 0.000000
0.583645 0.771569 0.000000
0.618757 0.771961 0.000000
0.653592 0.772354 0.000000
0.688169 0.772746 0.000000
0.722504 0.773139 0.000000
0.756612 0.773531 0.000000
0.790506 0.773923 0.000000
0.824198 0.774316 0.000000
0.857698 0.774708 0.000000
0.891016 0.775100 0.000000
0.924160 0.775492 0.000000
0.957139 0.775885 0.000000
0.989959 0.776277 0.000000
1.000000 0.776669 0.000000
1.000000 0.777061 0.000000
1.000000 0.777453 0.000000
1.000000 0.777845 0.000000
0.000000 0.795715 0.000000
0.000000 0.796106 0.000000
0.027912 0.796497 0.000000
0.077514 0.796887 0.000000
0.122689 0.797278 0.000000
0.165591 0.797669 0.000000
0.206971 0.798059 0.000000
0.247216 0.798450 0.000000
0.286559 0.798841 0.000000
0.325158 0.799231 0.000000
0.363124 0.799622 0.000000
0.400541 0.800012 0.000000
0.437474 0.800403 0.000000
0.473975 0.800793 0.000000
0.510086 0.801184 0.000000
0.545843 0.801574 0.000000
0.581274 0.801965 0.000000
0.616405 0.802355 0.000000
0.651258 0.802745 0.000000
0.685852 0.803136 0.000000
0.720203 0.803526 0.000000
0.754326 0.803916 0.000000
0.788234 0.804307 0.000000
0.821939 0.804697 0.000000
0.855452 0.805087 0.000000
0.888782 0.805477 0.000000
0.921937 0.805867 0.000000
0.954927 0.806257 0.000000
0.987758 0.806648 0.000000
1.000000 0.807038 0.000000
1.000000 0.807428 0.000000
1.000000 0.807818 0.000000
1.000000 0.808208 0.000000
0.000000 0.825983 0.000000
0.000000 0.826372 0.000000
0.024249 0.826760 0.000000
0.074361 0.827149 0.000000
0.119735 0.827538 0.000000
0.162760 0.827926 0.000000
0.204228 0.828315 0.000000
0.244541 0.828704 0.000000
0.283939 0.829092 0.000000
0.322584 0.829481 0.000000
0.360589 0.829869 0.000000
0.398041 0.830258 0.000000
0.435005 0.830646 0.000000
0.471534 0.831035 0.000000
0.507670 0.831423 0.000000
0.543449 0.831812 0.000000
0.578902 0.832200 0.000000
0.614052 0.832589 0.000000
0.648924 0.832977 0.000000
0.683534 0.833365 0.000000
0.717901 0.833753 0.000000
0.752039 0.834142 0.000000
0.785961 0.834530 0.000000
0.819679 0.834918 0.000000
0.853205 0.835306 0.000000
0.886547 0.835695 0.000000
0.919714 0.836083 0.000000
0.952714 0.836471 0.000000
0.985555 0.836859 0.000000
1.000000 0.837247 0.000000
1.000000 0.837635 0.000000
1.000000 0.838023 0.000000
1.000000 0.838411 0.000000
0.000000 0.856096 0.000000
0.000000 0.856483 0.000000
0.020506 0.856870 0.000000
0.071188 0.857257 0.000000
0.116771 0.857643 0.000000
0.159922 0.858030 0.000000
0.201480 0.858417 0.000000
0.241861 0.858803 0.000000
0.281316 0.859190 0.000000
0.320007 0.859577 0.000000
0.358053 0.859963 0.000000
0.395539 0.860350 0.000000
0.432534 0.860737 0.000000
0.469091 0.861123 0.000000
0.505252 0.861510 0.000000
0.541055 0.861896 0.000000
0.576528 0.862283 0.000000
0.611698 0.862669 0.000000
0.646588 0.863055 0.000000
0.681215 0.863442 0.000000
0.715598 0.863828 0.000000
0.749751 0.864215 0.000000
0.783687 0.864601 0.000000
0.817419 0.864987 0.000000
0.850957 0.865373 0.000000
0.884311 0.865760 0.000000
0.917489 0.866146 0.000000
0.950501 0.866532 0.000000
0.983352 0.866918 0.000000
1.000000 0.867304 0.000000
1.000000 0.867691 0.000000
1.000000 0.868077 0.000000
1.000000 0.868463 0.000000
0.000000 0.886062 0.000000
0.000000 0.886447 0.000000
0.016665 0.886832 0.000000
0.067996 0.887217 0.000000
0.113797 0.887602 0.000000
0.157077 0.887987 0.000000
0.198726 0.888371 0.000000
0.239178 0.888756 0.000000
0.278688 0.889141 0.000000
0.317427 0.889526 0.000000
0.355513 0.889911 0.000000
0.393035 0.890295 0.000000
0.430061 0.890680 0.000000
0.466646 0.891065 0.000000
0.502833 0.891449 0.000000
0.538658 0.891834 0.000000
0.574153 0.892219 0.000000
0.609343 0.892603 0.000000
0.644250 0.892988 0.000000
0.678895 0.893372 0.000000
0.713294 0.893757 0.000000
0.747461 0.894141 0.000000
0.781412 0.894526 0.000000
0.815157 0.894910 0.000000
0.848708 0.895295 0.000000
