presets/film_stocks/Kodak_Portra_160.cube
# 独寻胶片模拟 -- Kodak Portra 160
# Kodak, ISO 160, 2011, negative
TITLE "Kodak Portra 160"
LUT_3D_SIZE 5
DOMAIN_MIN 0.0 0.0 0.0
DOMAIN_MAX 1.0 1.0 1.0
0.000000 0.000000 0.000000
0.305961 0.009244 0.000000
0.581296 0.017562 0.000000
0.846145 0.025564 0.000000
1.000000 0.033366 0.000000
0.000000 0.298341 0.000000
0.295494 0.304817 0.000000
0.571360 0.311283 0.000000
0.836505 0.317737 0.000000
1.000000 0.324182 0.000000
0.000000 0.566819 0.000000
0.284996 0.572974 0.000000
0.561409 0.579123 0.000000
0.826856 0.585268 0.000000
1.000000 0.591407 0.000000
0.000000 0.825071 0.000000
0.274468 0.831045 0.000000
0.551445 0.837015 0.000000
0.817197 0.842982 0.000000
1.000000 0.848946 0.000000
0.000000 1.000000 0.000000
0.263908 1.000000 0.000000
0.541466 1.000000 0.000000
0.807530 1.000000 0.000000
1.000000 1.000000 0.000000
0.000000 0.000000 0.290028
0.287557 0.000000 0.281297
0.563835 0.000000 0.272544
0.829208 0.000000 0.263769
1.000000 0.000000 0.254970
0.000000 0.270510 0.285778
0.277037 0.277037 0.277037
0.553874 0.283551 0.268273
0.819552 0.290054 0.259486
1.000000 0.296544 0.250676
0.000000 0.540432 0.281523
0.266484 0.546611 0.272771
0.543898 0.552783 0.263996
0.809886 0.558951 0.255198
1.000000 0.565112 0.246376
0.000000 0.799482 0.277263
0.255898 0.805471 0.268500
0.533908 0.811456 0.259714
0.800212 0.817438 0.250904
1.000000 0.823416 0.242070
0.000000 1.000000 0.272998
0.245277 1.000000 0.264224
0.523903 1.000000 0.255426
0.790528 1.000000 0.246605
1.000000 1.000000 0.237757
0.000000 0.000000 0.551025
0.269058 0.000000 0.542736
0.546331 0.000000 0.534437
0.812242 0.000000 0.526127
1.000000 0.000000 0.517807
0.000000 0.242447 0.546989
0.258481 0.249031 0.538695
0.536344 0.255600 0.530391
0.802570 0.262156 0.522076
1.000000 0.268699 0.513751
0.000000 0.513942 0.542951
0.247868 0.520145 0.534652
0.526343 0.526343 0.526343
0.792889 0.532534 0.518023
1.000000 0.538719 0.509693
0.000000 0.773827 0.538910
0.237219 0.779831 0.530606
0.516326 0.785832 0.522292
0.783198 0.791829 0.513967
1.000000 0.797822 0.505631
0.000000 1.000000 0.534867
0.226531 1.000000 0.526558
0.506294 1.000000 0.518239
0.773497 1.000000 0.509908
1.000000 1.000000 0.501567
0.000000 0.000000 0.802082
0.250457 0.000000 0.794040
0.528781 0.000000 0.785991
0.795249 0.000000 0.777936
1.000000 0.000000 0.769874
0.000000 0.214122 0.798166
0.239817 0.220770 0.790120
0.518768 0.227402 0.782068
0.785560 0.234019 0.774010
1.000000 0.240621 0.765945
0.000000 0.487343 0.794248
0.229139 0.493572 0.786200
0.508740 0.499795 0.778144
0.775862 0.506012 0.770083
1.000000 0.512223 0.762014
0.000000 0.748104 0.790329
0.218421 0.754124 0.782277
0.498695 0.760141 0.774219
0.766154 0.766154 0.766154
1.000000 0.772163 0.758082
0.000000 1.000000 0.786408
0.207661 1.000000 0.778353
0.488635 1.000000 0.770292
0.756436 1.000000 0.762223
1.000000 1.000000 0.754148
0.000000 0.000000 1.000000
0.231745 0.000000 1.000000
0.511185 0.000000 1.000000
0.778226 0.000000 1.000000
1.000000 0.000000 1.000000
0.000000 0.185493 1.000000
0.221037 0.192216 1.000000
0.501144 0.198921 1.000000
0.768520 0.205608 1.000000
1.000000 0.212277 1.000000
0.000000 0.460626 1.000000
0.210287 0.466884 1.000000
0.491088 0.473134 1.000000
0.758805 0.479378 1.000000
1.000000 0.485616 1.000000
0.000000 0.722310 1.000000
0.199493 0.728347 1.000000
0.481015 0.734380 1.000000
0.749080 0.740410 1.000000
1.000000 0.746435 1.000000
0.000000 0.976441 1.000000
0.188653 0.982335 1.000000
0.470925 0.988226 1.000000
0.739344 0.994114 1.000000
1.000000 1.000000 1.000000
