presets/film_stocks/Kodak_5250.cube
# 独寻胶片模拟 -- Kodak 5250
# Kodak, ISO 50, 1959, negative
TITLE "Kodak 5250"
LUT_3D_SIZE 9
DOMAIN_MIN 0.0 0.0 0.0
DOMAIN_MAX 1.0 1.0 1.0
0.000000 0.000000 0.000000
0.185338 0.006553 0.000000
0.338634 0.011974 0.000000
0.481785 0.017035 0.000000
0.618722 0.021877 0.000000
0.751217 0.026562 0.000000
0.880275 0.031126 0.000000
1.000000 0.035590 0.000000
1.000000 0.039972 0.000000
0.000000 0.181650 0.000000
0.178956 0.185107 0.000000
0.332811 0.188555 0.000000
0.476264 0.191993 0.000000
0.613406 0.195422 0.000000
0.746053 0.198842 0.000000
0.875234 0.202253 0.000000
1.000000 0.205655 0.000000
1.000000 0.209050 0.000000
0.000000 0.331894 0.000000
0.172539 0.335055 0.000000
0.326972 0.338211 0.000000
0.470733 0.341363 0.000000
0.608082 0.344510 0.000000
0.740885 0.347653 0.000000
0.870188 0.350792 0.000000
0.996659 0.353927 0.000000
1.000000 0.357057 0.000000
0.000000 0.472196 0.000000
0.166085 0.475195 0.000000
0.321118 0.478191 0.000000
0.465193 0.481183 0.000000
0.602752 0.484174 0.000000
0.735711 0.487161 0.000000
0.865138 0.490146 0.000000
0.991711 0.493127 0.000000
1.000000 0.496107 0.000000
0.000000 0.606408 0.000000
0.159595 0.609296 0.000000
0.315247 0.612183 0.000000
0.459643 0.615067 0.000000
0.597414 0.617950 0.000000
0.730531 0.620830 0.000000
0.860083 0.623708 0.000000
0.986759 0.626585 0.000000
1.000000 0.629459 0.000000
0.000000 0.736266 0.000000
0.153064 0.739071 0.000000
0.309360 0.741876 0.000000
0.454083 0.744678 0.000000
0.592070 0.747479 0.000000
0.725346 0.750279 0.000000
0.855024 0.753077 0.000000
0.981804 0.755873 0.000000
1.000000 0.758668 0.000000
0.000000 0.862756 0.000000
0.146491 0.865496 0.000000
0.303457 0.868234 0.000000
0.448512 0.870972 0.000000
0.586718 0.873708 0.000000
0.720156 0.876443 0.000000
0.849960 0.879176 0.000000
0.976844 0.881908 0.000000
1.000000 0.884639 0.000000
0.000000 0.986512 0.000000
0.139874 0.989198 0.000000
0.297536 0.991882 0.000000
0.442931 0.994565 0.000000
0.581359 0.997248 0.000000
0.714959 0.999929 0.000000
0.844892 1.000000 0.000000
0.971881 1.000000 0.000000
1.000000 1.000000 0.000000
0.000000 1.000000 0.000000
0.133209 1.000000 0.000000
0.291597 1.000000 0.000000
0.437340 1.000000 0.000000
0.575992 1.000000 0.000000
0.709757 1.000000 0.000000
0.839819 1.000000 0.000000
0.966914 1.000000 0.000000
1.000000 1.000000 0.000000
0.000000 0.000000 0.169073
0.170413 0.000000 0.165707
0.325041 0.000000 0.162330
0.468906 0.000000 0.158943
0.606324 0.000000 0.155544
0.739178 0.000000 0.152135
0.868521 0.000000 0.148714
0.995026 0.006126 0.145281
1.000000 0.011585 0.141836
0.000000 0.160426 0.167319
0.163947 0.163947 0.163947
0.319182 0.167458 0.160565
0.463362 0.170957 0.157172
0.600991 0.174445 0.153768
0.734002 0.177923 0.150353
0.863470 0.181391 0.146926
0.990077 0.184849 0.143486
1.000000 0.188298 0.140035
0.000000 0.312595 0.165562
0.157444 0.315784 0.162185
0.313306 0.318969 0.158797
0.457809 0.322148 0.155399
0.595651 0.325323 0.151989
0.728820 0.328493 0.148567
0.858414 0.331658 0.145134
0.985124 0.334819 0.141688
1.000000 0.337976 0.138230
0.000000 0.453919 0.163803
0.150899 0.456935 0.160420
0.307414 0.459949 0.157027
0.452245 0.462959 0.153622
0.590304 0.465966 0.150206
0.723633 0.468971 0.146779
0.853353 0.471973 0.143339
0.980167 0.474971 0.139887
1.000000 0.477967 0.136422
0.000000 0.588817 0.162040
0.144312 0.591718 0.158652
0.301504 0.594617 0.155253
0.446671 0.597514 0.151842
0.584950 0.600409 0.148420
0.718441 0.603302 0.144987
0.848288 0.606193 0.141541
0.975207 0.609081 0.138082
1.000000 0.611968 0.134610
0.000000 0.719187 0.160275
0.137679 0.722002 0.156881
0.295578 0.724816 0.153476
0.441087 0.727629 0.150060
0.579588 0.730440 0.146632
0.713243 0.733249 0.143191
0.843218 0.736056 0.139739
0.970242 0.738862 0.136273
1.000000 0.741667 0.132795
0.000000 0.846083 0.158507
0.130998 0.848831 0.155107
0.289633 0.851578 0.151696
0.435492 0.854323 0.148274
0.574219 0.857067 0.144839
0.708039 0.859810 0.141393
0.838144 0.862551 0.137934
0.965274 0.865291 0.134461
1.000000 0.868030 0.130975
0.000000 0.970175 0.156735
0.124266 0.972867 0.153330
0.283670 0.975558 0.149913
0.429886 0.978248 0.146485
0.568843 0.980937 0.143044
0.702830 0.983625 0.139591
0.833065 0.986312 0.136125
0.960302 0.988997 0.132645
1.000000 0.991682 0.129152
0.000000 1.000000 0.154961
0.117478 1.000000 0.151550
0.277688 1.000000 0.148127
0.424269 1.000000 0.144692
0.563458 1.000000 0.141245
0.697614 1.000000 0.137785
0.827982 1.000000 0.134312
0.955326 1.000000 0.130826
1.000000 1.000000 0.127326
0.000000 0.000000 0.308916
0.155288 0.000000 0.305843
0.311363 0.000000 0.302765
0.455974 0.000000 0.299682
0.593887 0.000000 0.296595
0.727109 0.000000 0.293503
0.856744 0.000000 0.290406
0.983488 0.000000 0.287304
1.000000 0.000000 0.284197
0.000000 0.138771 0.307314
0.148730 0.142369 0.304238
0.305465 0.145953 0.301158
0.450407 0.149524 0.298073
0.588538 0.153083 0.294983
0.721920 0.156629 0.291889
0.851682 0.160163 0.288789
0.978530 0.163685 0.285684
1.000000 0.167196 0.282575
0.000000 0.293116 0.305711
0.142128 0.296336 0.302633
0.299550 0.299550 0.299550
0.444829 0.302760 0.296463
0.583181 0.305964 0.293370
0.716726 0.309163 0.290273
0.846615 0.312357 0.287171
0.973568 0.315547 0.284064
1.000000 0.318731 0.280951
0.000000 0.435531 0.304107
0.135479 0.438566 0.301026
0.293618 0.441598 0.297941
0.439241 0.444626 0.294851
0.577817 0.447652 0.291756
0.711526 0.450674 0.288656
0.841544 0.453694 0.285551
0.968603 0.456710 0.282442
1.000000 0.459724 0.279327
0.000000 0.571147 0.302501
0.128782 0.574061 0.299418
0.287667 0.576973 0.296330
0.433643 0.579883 0.293238
0.572445 0.582791 0.290140
0.706320 0.585697 0.287038
0.836468 0.588601 0.283931
0.963633 0.591502 0.280818
1.000000 0.594401 0.277700
0.000000 0.702047 0.300894
0.122032 0.704873 0.297809
0.281698 0.707697 0.294719
0.428033 0.710519 0.291623
0.567066 0.713340 0.288523
0.701109 0.716159 0.285418
0.831388 0.718977 0.282308
0.958660 0.721793 0.279193
1.000000 0.724607 0.276073
0.000000 0.829361 0.299286
0.115225 0.832117 0.296198
0.275710 0.834872 0.293105
0.422413 0.837626 0.290008
0.561679 0.840378 0.286905
0.695892 0.843129 0.283797
0.826303 0.845878 0.280685
0.953683 0.848626 0.277567
1.000000 0.851373 0.274443
0.000000 0.953796 0.297677
0.108357 0.956495 0.294586
0.269702 0.959193 0.291491
0.416781 0.961890 0.288391
0.556285 0.964586 0.285285
0.690669 0.967280 0.282175
0.821213 0.969974 0.279060
0.948702 0.972666 0.275939
1.000000 0.975357 0.272813
0.000000 1.000000 0.296066
0.101423 1.000000 0.292973
0.263674 1.000000 0.289875
0.411138 1.000000 0.286772
0.550882 1.000000 0.283664
0.685440 1.000000 0.280551
0.816118 1.000000 0.277433
0.943717 1.000000 0.274310
1.000000 1.000000 0.271181
0.000000 0.000000 0.439504
0.139939 0.000000 0.436590
0.297594 0.000000 0.433673
0.442986 0.000000 0.430753
0.581411 0.000000 0.427830
0.715010 0.000000 0.424904
0.844942 0.000000 0.421975
0.971930 0.000000 0.419043
1.000000 0.000000 0.416108
0.000000 0.116594 0.437985
0.133274 0.120285 0.435069
0.291655 0.123960 0.432151
0.437395 0.127618 0.429229
0.576045 0.131261 0.426305
0.709808 0.134889 0.423377
0.839869 0.138502 0.420446
0.966963 0.142101 0.417513
1.000000 0.145686 0.414576
0.000000 0.273440 0.436465
0.126560 0.276693 0.433548
0.285699 0.279941 0.430628
0.431792 0.283183 0.427705
0.570671 0.286419 0.424779
0.704601 0.289650 0.421849
0.834792 0.292876 0.418917
0.961992 0.296096 0.415982
1.000000 0.299311 0.413044
0.000000 0.417025 0.434944
0.119791 0.420080 0.432026
0.279723 0.423131 0.429104
0.426179 0.426179 0.426179
0.565289 0.429224 0.423252
0.699388 0.432266 0.420321
0.829710 0.435304 0.417387
0.957017 0.438339 0.414450
1.000000 0.441372 0.411510
0.000000 0.553394 0.433423
0.112965 0.556322 0.430503
0.273729 0.559248 0.427579
0.420555 0.562172 0.424653
0.559900 0.565093 0.421724
0.694168 0.568012 0.418792
0.824623 0.570929 0.415856
0.952039 0.573844 0.412918
1.000000 0.576756 0.409976
0.000000 0.684844 0.431901
0.106076 0.687680 0.428979
0.267715 0.690515 0.426054
0.414920 0.693348 0.423126
0.554503 0.696179 0.420195
0.688943 0.699008 0.417261
0.819532 0.701836 0.414324
0.947057 0.704662 0.411384
1.000000 0.707486 0.408441
0.000000 0.812588 0.430378
0.099119 0.815353 0.427454
0.261680 0.818116 0.424528
0.409273 0.820878 0.421598
0.549098 0.823639 0.418666
0.683712 0.826398 0.415730
0.814436 0.829155 0.412792
0.942070 0.831912 0.409850
1.000000 0.834667 0.406905
0.000000 0.937375 0.428854
0.092088 0.940081 0.425929
0.255624 0.942786 0.423001
0.403614 0.945490 0.420070
0.543685 0.948193 0.417136
0.678475 0.950894 0.414199
0.809335 0.953595 0.411258
0.937080 0.956294 0.408315
1.000000 0.958992 0.405368
0.000000 1.000000 0.427329
0.084976 1.000000 0.424402
0.249547 1.000000 0.421473
0.397943 1.000000 0.418540
0.538263 1.000000 0.415605
0.673232 1.000000 0.412666
0.804229 1.000000 0.409724
0.932086 1.000000 0.406779
1.000000 1.000000 0.403831
0.000000 0.000000 0.564424
0.124332 0.000000 0.561617
0.283729 0.000000 0.558809
0.429941 0.000000 0.555998
0.568895 0.000000 0.553185
0.702881 0.000000 0.550370
0.833115 0.000000 0.547553
0.960351 0.000000 0.544734
1.000000 0.000000 0.541912
0.000000 0.093760 0.562961
0.117545 0.097572 0.560153
0.277747 0.101361 0.557344
0.424324 0.105130 0.554532
0.563511 0.108878 0.551718
0.697665 0.112607 0.548902
0.828031 0.116318 0.546083
0.955375 0.120010 0.543263
1.000000 0.123686 0.540440
0.000000 0.253549 0.561497
0.110698 0.256840 0.558688
0.271746 0.260123 0.555878
0.418696 0.263401 0.553065
0.558119 0.266672 0.550250
0.692444 0.269938 0.547432
0.822943 0.273197 0.544613
0.950395 0.276451 0.541791
1.000000 0.279699 0.538968
0.000000 0.398395 0.560033
0.103788 0.401471 0.557223
0.265725 0.404543 0.554411
0.413057 0.407612 0.551597
0.552719 0.410677 0.548781
0.687217 0.413739 0.545963
0.817850 0.416797 0.543142
0.945411 0.419852 0.540319
1.000000 0.422904 0.537494
0.000000 0.535556 0.558568
0.096807 0.538498 0.555757
0.259683 0.541438 0.552944
0.407406 0.544376 0.550129
0.547312 0.547312 0.547312
0.681984 0.550245 0.544492
0.812753 0.553176 0.541671
0.940424 0.556104 0.538847
1.000000 0.559030 0.536021
0.000000 0.667576 0.557103
0.089750 0.670423 0.554291
0.253621 0.673269 0.551477
0.401744 0.676112 0.548660
0.541896 0.678954 0.545842
0.676745 0.681794 0.543021
0.807650 0.684632 0.540198
0.935432 0.687469 0.537373
1.000000 0.690304 0.534546
0.000000 0.795763 0.555637
0.082609 0.798537 0.552824
0.247536 0.801309 0.550009
0.396069 0.804079 0.547191
0.536472 0.806848 0.544371
0.671500 0.809616 0.541550
0.802543 0.812382 0.538726
0.930436 0.815147 0.535899
1.000000 0.817910 0.533071
0.000000 0.920911 0.554170
0.075374 0.923624 0.551356
0.241429 0.926336 0.548540
0.390382 0.929047 0.545721
0.531040 0.931757 0.542900
0.666249 0.934466 0.540078
0.797431 0.937173 0.537252
0.925437 0.939880 0.534425
1.000000 0.942585 0.531595
0.000000 1.000000 0.552703
0.068033 1.000000 0.549888
0.235299 1.000000 0.547070
0.384683 1.000000 0.544251
0.525600 1.000000 0.541429
0.660992 1.000000 0.538605
0.792314 1.000000 0.535778
0.920433 1.000000 0.532950
1.000000 1.000000 0.530119
0.000000 0.000000 0.685291
0.108425 0.000000 0.682565
0.269761 0.000000 0.679838
0.416836 0.000000 0.677109
0.556338 0.000000 0.674378
0.690720 0.000000 0.671646
0.821263 0.000000 0.668912
0.948750 0.000000 0.666176
1.000000 0.000000 0.663438
0.000000 0.070049 0.683870
0.101492 0.074026 0.681143
0.263733 0.077972 0.678415
0.411193 0.081888 0.675685
0.550935 0.085776 0.672953
0.685491 0.089638 0.670220
0.816168 0.093475 0.667485
0.943765 0.097288 0.664749
1.000000 0.101080 0.662010
0.000000 0.233422 0.682448
0.094487 0.236752 0.679721
0.257685 0.240076 0.676992
0.405539 0.243393 0.674261
0.545525 0.246703 0.671529
0.680256 0.250007 0.668794
0.811069 0.253304 0.666059
0.938776 0.256594 0.663321
1.000000 0.259879 0.660582
0.000000 0.379634 0.681026
0.087403 0.382732 0.678298
0.251615 0.385826 0.675568
0.399872 0.388917 0.672836
0.540107 0.392003 0.670103
0.675015 0.395086 0.667368
0.805965 0.398166 0.664632
0.933784 0.401242 0.661893
1.000000 0.404314 0.659153
0.000000 0.517628 0.679604
0.080232 0.520585 0.676875
0.245523 0.523540 0.674144
0.394193 0.526493 0.671412
0.534680 0.529443 0.668677
0.669768 0.532391 0.665942
0.800856 0.535336 0.663204
0.928787 0.538279 0.660465
1.000000 0.541219 0.657724
0.000000 0.650241 0.678181
0.072963 0.653099 0.675451
0.239408 0.655956 0.672719
0.388503 0.658810 0.669986
0.529245 0.661663 0.667251
0.664514 0.664514 0.664514
0.795742 0.667364 0.661776
0.923786 0.670211 0.659036
1.000000 0.673056 0.656294
0.000000 0.778885 0.676758
0.065584 0.781667 0.674027
0.233270 0.784448 0.671294
0.382799 0.787227 0.668560
0.523802 0.790005 0.665824
0.659255 0.792782 0.663087
0.790624 0.795557 0.660347
0.918781 0.798330 0.657606
1.000000 0.801102 0.654864
0.000000 0.904402 0.675334
0.058078 0.907123 0.672602
0.227108 0.909843 0.669869
0.377083 0.912561 0.667134
0.518351 0.915278 0.664397
0.653989 0.917994 0.661659
0.785500 0.920709 0.658918
0.913772 0.923422 0.656177
1.000000 0.926134 0.653433
0.000000 1.000000 0.673910
0.050423 1.000000 0.671177
0.220920 1.000000 0.668443
0.371354 1.000000 0.665707
0.512890 1.000000 0.662969
0.648717 1.000000 0.660230
0.780371 1.000000 0.657489
0.908758 1.000000 0.654746
1.000000 1.000000 0.652002
0.000000 0.000000 0.803023
0.092158 0.000000 0.800362
0.255684 0.000000 0.797699
0.403670 0.000000 0.795035
0.543738 0.000000 0.792369
0.678527 0.000000 0.789702
0.809385 0.000000 0.787034
0.937129 0.000000 0.784364
1.000000 0.000000 0.781693
0.000000 0.045034 0.801636
0.085046 0.049273 0.798973
0.249607 0.053457 0.796310
0.397999 0.057593 0.793645
0.538317 0.061685 0.790979
0.673284 0.065737 0.788311
0.804279 0.069751 0.785642
0.932135 0.073731 0.782972
1.000000 0.077679 0.780300
0.000000 0.213030 0.800248
0.077844 0.216406 0.797585
0.243507 0.219775 0.794921
0.392316 0.223135 0.792255
0.532887 0.226489 0.789588
0.668034 0.229834 0.786920
0.799169 0.233173 0.784250
0.927136 0.236504 0.781579
1.000000 0.239829 0.778906
0.000000 0.360733 0.798859
0.070541 0.363854 0.796196
0.237385 0.366972 0.793531
0.386621 0.370085 0.790864
0.527450 0.373195 0.788197
0.662779 0.376301 0.785528
0.794054 0.379403 0.782857
0.922134 0.382501 0.780186
1.000000 0.385596 0.777512
0.000000 0.499606 0.797471
0.063122 0.502579 0.794806
0.231239 0.505550 0.792141
0.380914 0.508518 0.789474
0.522004 0.511484 0.786805
0.657517 0.514446 0.784136
0.788933 0.517407 0.781464
0.917128 0.520365 0.778792
1.000000 0.523320 0.776118
0.000000 0.632836 0.796082
0.055569 0.635706 0.793417
0.225068 0.638574 0.790750
0.375193 0.641440 0.788083
0.516549 0.644305 0.785413
0.652249 0.647167 0.782743
0.783808 0.650027 0.780071
0.912117 0.652886 0.777398
1.000000 0.655743 0.774723
0.000000 0.761952 0.794692
0.047859 0.764743 0.792027
0.218872 0.767533 0.789359
0.369460 0.770321 0.786691
0.511086 0.773108 0.784021
0.646975 0.775894 0.781350
0.778677 0.778677 0.778677
0.907103 0.781460 0.776004
1.000000 0.784241 0.773328
0.000000 0.887849 0.793303
0.039956 0.890577 0.790636
0.212650 0.893304 0.787968
0.363713 0.896030 0.785299
0.505614 0.898754 0.782629
0.641694 0.901477 0.779957
0.773542 0.904200 0.777283
0.902084 0.906920 0.774609
1.000000 0.909640 0.771933
0.000000 1.000000 0.791912
0.031810 1.000000 0.789245
0.206400 1.000000 0.786577
0.357952 1.000000 0.783907
0.500133 1.000000 0.781236
0.636407 1.000000 0.778563
0.768402 1.000000 0.775889
0.897061 1.000000 0.773214
1.000000 1.000000 0.770537
0.000000 0.000000 0.918212
0.075445 0.000000 0.915603
0.241489 0.000000 0.912993
0.390438 0.000000 0.910383
0.531093 0.000000 0.907771
0.666300 0.000000 0.905158
0.797481 0.000000 0.902544
0.925486 0.000000 0.899928
1.000000 0.000000 0.897312
0.000000 0.017534 0.916852
0.068105 0.022358 0.914243
0.235359 0.027029 0.911632
0.384739 0.031581 0.909021
0.525653 0.036037 0.906409
0.661043 0.040411 0.903795
0.792364 0.044716 0.901180
0.920482 0.048959 0.898564
1.000000 0.053147 0.895947
0.000000 0.192340 0.915491
0.060644 0.195768 0.912882
0.229205 0.199187 0.910271
0.379027 0.202597 0.907659
0.520204 0.205999 0.905046
0.655779 0.209392 0.902432
0.787242 0.212777 0.899816
0.915474 0.216154 0.897200
1.000000 0.219524 0.894582
0.000000 0.341681 0.914131
0.053043 0.344828 0.911521
0.223026 0.347971 0.908909
0.373302 0.351109 0.906297
0.514747 0.354244 0.903683
0.650509 0.357374 0.901068
0.782115 0.360500 0.898452
0.910463 0.363622 0.895835
1.000000 0.366740 0.893217
0.000000 0.481486 0.912770
0.045274 0.484476 0.910159
0.216821 0.487463 0.907547
0.367564 0.490447 0.904934
0.509281 0.493429 0.902320
0.645233 0.496408 0.899704
0.776983 0.499384 0.897088
0.905447 0.502357 0.894470
1.000000 0.505328 0.891852
0.000000 0.615359 0.911409
0.037298 0.618241 0.908797
0.210590 0.621121 0.906185
0.361813 0.623999 0.903571
0.503806 0.626875 0.900956
0.639950 0.629750 0.898340
0.771846 0.632622 0.895723
0.900426 0.635492 0.893105
1.000000 0.638360 0.890486
0.000000 0.744962 0.910047
0.029055 0.747762 0.907435
0.204330 0.750562 0.904822
0.356048 0.753359 0.902208
0.498322 0.756156 0.899592
0.634660 0.758950 0.896976
0.766704 0.761743 0.894358
0.895402 0.764535 0.891739
1.000000 0.767325 0.889119
0.000000 0.871248 0.908686
0.020438 0.873984 0.906073
0.198042 0.876719 0.903459
0.350268 0.879453 0.900844
0.492829 0.882185 0.898228
0.629364 0.884916 0.895611
0.761556 0.887645 0.892993
0.890373 0.890373 0.890373
1.000000 0.893101 0.887753
0.000000 0.994837 0.907323
0.011213 0.997519 0.904710
0.191724 1.000000 0.902096
0.344475 1.000000 0.899480
0.487327 1.000000 0.896864
0.624062 1.000000 0.894246
0.756404 1.000000 0.891627
0.885341 1.000000 0.889007
1.000000 1.000000 0.886386
0.000000 0.000000 1.000000
0.058152 0.000000 1.000000
0.227168 0.000000 1.000000
0.377139 0.000000 1.000000
0.518404 0.000000 1.000000
0.654041 0.000000 1.000000
0.785550 0.000000 1.000000
0.913821 0.000000 1.000000
1.000000 0.000000 1.000000
0.000000 0.000000 1.000000
0.050499 0.000000 1.000000
0.220981 0.000000 1.000000
0.371410 0.000279 1.000000
0.512944 0.006704 1.000000
0.648768 0.012112 1.000000
0.780422 0.017166 1.000000
0.908807 0.022004 1.000000
1.000000 0.026685 1.000000
0.000000 0.171310 1.000000
0.042666 0.174798 1.000000
0.214767 0.178275 1.000000
0.365667 0.181742 1.000000
0.507475 0.185199 1.000000
0.643490 0.188646 1.000000
0.775288 0.192084 1.000000
0.903790 0.195513 1.000000
1.000000 0.198932 1.000000
0.000000 0.322469 1.000000
0.034610 0.325644 1.000000
0.208527 0.328813 1.000000
0.359911 0.331978 1.000000
0.501997 0.335139 1.000000
0.638205 0.338295 1.000000
0.770149 0.341447 1.000000
0.898769 0.344594 1.000000
1.000000 0.347737 1.000000
0.000000 0.463263 1.000000
0.026259 0.466270 1.000000
0.202258 0.469275 1.000000
0.354142 0.472276 1.000000
0.496510 0.475274 1.000000
0.632913 0.478270 1.000000
0.765005 0.481263 1.000000
0.893743 0.484253 1.000000
1.000000 0.487240 1.000000
0.000000 0.597807 1.000000
0.017480 0.600702 1.000000
0.195960 0.603594 1.000000
0.348358 0.606485 1.000000
0.491014 0.609373 1.000000
0.627615 0.612260 1.000000
0.759856 0.615144 1.000000
0.888713 0.618026 1.000000
1.000000 0.620906 1.000000
0.000000 0.727913 1.000000
0.007934 0.730724 1.000000
0.189632 0.733533 1.000000
0.342559 0.736340 1.000000
0.485509 0.739146 1.000000
0.622310 0.741950 1.000000
0.754702 0.744753 1.000000
0.883679 0.747554 1.000000
1.000000 0.750353 1.000000
0.000000 0.854601 1.000000
0.000000 0.857344 1.000000
0.183271 0.860087 1.000000
0.336746 0.862828 1.000000
0.479995 0.865568 1.000000
0.616998 0.868307 1.000000
0.749542 0.871044 1.000000
0.878640 0.873780 1.000000
1.000000 0.876515 1.000000
0.000000 0.978520 1.000000
0.000000 0.981209 1.000000
0.176877 0.983897 1.000000
0.330918 0.986583 1.000000
0.474471 0.989269 1.000000
0.611679 0.991953 1.000000
0.744377 0.994637 1.000000
0.873597 0.997319 1.000000
1.000000 1.000000 1.000000
