presets/film_stocks/Kodak_5247.cube
# 独寻胶片模拟 -- Kodak 5247
# Kodak, ISO 16, 1950, negative
TITLE "Kodak 5247"
LUT_3D_SIZE 5
DOMAIN_MIN 0.0 0.0 0.0
DOMAIN_MAX 1.0 1.0 1.0
0.000000 0.000000 0.000000
0.341946 0.010668 0.000000
0.624773 0.019492 0.000000
0.888885 0.027732 0.000000
1.000000 0.035614 0.000000
0.000000 0.329521 0.000000
0.328604 0.335059 0.000000
0.612603 0.340584 0.000000
0.877347 0.346095 0.000000
1.000000 0.351593 0.000000
0.000000 0.602071 0.000000
0.315180 0.607134 0.000000
0.600396 0.612191 0.000000
0.865786 0.617241 0.000000
1.000000 0.622285 0.000000
0.000000 0.856586 0.000000
0.301669 0.861389 0.000000
0.588151 0.866188 0.000000
0.854202 0.870983 0.000000
1.000000 0.875774 0.000000
0.000000 1.000000 0.000000
0.288068 1.000000 0.000000
0.575869 1.000000 0.000000
0.842594 1.000000 0.000000
1.000000 1.000000 0.000000
0.000000 0.000000 0.308891
0.313074 0.000000 0.303023
0.598485 0.000000 0.297139
0.863977 0.000000 0.291236
1.000000 0.000000 0.285316
0.000000 0.293917 0.305428
0.299550 0.299550 0.299550
0.586235 0.305167 0.293655
0.852390 0.310769 0.287742
1.000000 0.316356 0.281811
0.000000 0.569685 0.301959
0.285934 0.574789 0.296071
0.573946 0.579887 0.290165
0.840778 0.584979 0.284242
1.000000 0.590063 0.278299
0.000000 0.825910 0.298484
0.272219 0.830739 0.292586
0.561617 0.835564 0.286669
0.829143 0.840385 0.280735
1.000000 0.845202 0.274781
0.000000 1.000000 0.295003
0.258400 1.000000 0.289094
0.549248 1.000000 0.283167
0.817483 1.000000 0.277221
1.000000 1.000000 0.271256
0.000000 0.000000 0.564379
0.283797 0.000000 0.559022
0.572022 0.000000 0.553658
0.838962 0.000000 0.548285
1.000000 0.000000 0.542905
0.000000 0.257652 0.561216
0.270067 0.263396 0.555855
0.559687 0.269122 0.550486
0.827322 0.274829 0.545109
1.000000 0.280519 0.539724
0.000000 0.537019 0.558051
0.256231 0.542169 0.552685
0.547312 0.547312 0.547312
0.815658 0.552447 0.541930
1.000000 0.557575 0.536541
0.000000 0.795062 0.554883
0.242282 0.799919 0.549513
0.534894 0.804772 0.544135
0.803969 0.809619 0.538748
1.000000 0.814463 0.533354
0.000000 1.000000 0.551713
0.228211 1.000000 0.546338
0.522433 1.000000 0.540955
0.792255 1.000000 0.535564
1.000000 1.000000 0.530165
0.000000 0.000000 0.802959
0.254059 0.000000 0.797880
0.545374 0.000000 0.792795
0.813834 0.000000 0.787706
1.000000 0.000000 0.782612
0.000000 0.220602 0.799960
0.240092 0.226480 0.794878
0.532950 0.232335 0.789790
0.802141 0.238167 0.784698
1.000000 0.243979 0.779601
0.000000 0.504053 0.796959
0.226001 0.509252 0.791874
0.520482 0.514443 0.786784
0.790422 0.519625 0.781689
1.000000 0.524801 0.776589
0.000000 0.764034 0.793957
0.211777 0.768920 0.788869
0.507969 0.773801 0.783776
0.778677 0.778677 0.778677
1.000000 0.783549 0.773574
0.000000 1.000000 0.790953
0.197409 1.000000 0.785862
0.495409 1.000000 0.780766
0.766906 1.000000 0.775664
1.000000 1.000000 0.770558
0.000000 0.000000 1.000000
0.223788 0.000000 1.000000
0.518529 0.000000 1.000000
0.788589 0.000000 1.000000
1.000000 0.000000 1.000000
0.000000 0.182588 1.000000
0.209542 0.188632 1.000000
0.506009 0.194647 1.000000
0.776840 0.200634 1.000000
1.000000 0.206595 1.000000
0.000000 0.470760 1.000000
0.195150 0.476012 1.000000
0.493442 0.481255 1.000000
0.765064 0.486490 1.000000
1.000000 0.491716 1.000000
0.000000 0.732816 1.000000
0.180596 0.737732 1.000000
0.480827 0.742643 1.000000
0.753262 0.747550 1.000000
1.000000 0.752452 1.000000
0.000000 0.981195 1.000000
0.165864 0.985901 1.000000
0.468163 0.990604 1.000000
0.741431 0.995304 1.000000
1.000000 1.000000 1.000000
