presets/film_stocks/Kodak_Ultramax_400.cube
# 独寻胶片模拟 -- Kodak Ultramax 400
# Kodak, ISO 400, 2007, negative
TITLE "Kodak Ultramax 400"
LUT_3D_SIZE 33
DOMAIN_MIN 0.0 0.0 0.0
DOMAIN_MAX 1.0 1.0 1.0
0.000000 0.000000 0.000000
0.062266 0.002579 0.000000
0.110416 0.004573 0.000000
0.154370 0.006393 0.000000
0.195802 0.008109 0.000000
0.235456 0.009752 0.000000
0.273746 0.011338 0.000000
0.310939 0.012878 0.000000
0.347219 0.014381 0.000000
0.382717 0.015851 0.000000
0.417536 0.017293 0.000000
0.451755 0.018710 0.000000
0.485437 0.020105 0.000000
0.518635 0.021480 0.000000
0.551393 0.022837 0.000000
0.583746 0.024177 0.000000
0.615727 0.025501 0.000000
0.647363 0.026812 0.000000
0.678677 0.028109 0.000000
0.709690 0.029393 0.000000
0.740422 0.030666 0.000000
0.770887 0.031928 0.000000
0.801102 0.033179 0.000000
0.831080 0.034421 0.000000
0.860832 0.035653 0.000000
0.890369 0.036876 0.000000
0.919702 0.038091 0.000000
0.948840 0.039298 0.000000
0.977791 0.040497 0.000000
1.000000 0.041689 0.000000
1.000000 0.042873 0.000000
1.000000 0.044051 0.000000
1.000000 0.045222 0.000000
0.000000 0.060413 0.000000
0.060234 0.061510 0.000000
0.108618 0.062603 0.000000
0.152695 0.063691 0.000000
0.194210 0.064776 0.000000
0.233924 0.065857 0.000000
0.272262 0.066935 0.000000
0.309495 0.068009 0.000000
0.345807 0.069079 0.000000
0.381334 0.070146 0.000000
0.416178 0.071209 0.000000
0.450419 0.072269 0.000000
0.484122 0.073326 0.000000
0.517338 0.074380 0.000000
0.550112 0.075430 0.000000
0.582481 0.076477 0.000000
0.614476 0.077522 0.000000
0.646125 0.078563 0.000000
0.677451 0.079602 0.000000
0.708476 0.080638 0.000000
0.739218 0.081671 0.000000
0.769694 0.082701 0.000000
0.799918 0.083728 0.000000
0.829905 0.084753 0.000000
0.859665 0.085776 0.000000
0.889211 0.086795 0.000000
0.918552 0.087813 0.000000
0.947697 0.088827 0.000000
0.976656 0.089840 0.000000
1.000000 0.090850 0.000000
1.000000 0.091857 0.000000
1.000000 0.092862 0.000000
1.000000 0.093865 0.000000
0.000000 0.107131 0.000000
0.058189 0.108104 0.000000
0.106814 0.109076 0.000000
0.151017 0.110046 0.000000
0.192614 0.111014 0.000000
0.232390 0.111980 0.000000
0.270776 0.112945 0.000000
0.308049 0.113907 0.000000
0.344394 0.114869 0.000000
0.379950 0.115828 0.000000
0.414820 0.116786 0.000000
0.449083 0.117742 0.000000
0.482806 0.118696 0.000000
0.516040 0.119649 0.000000
0.548831 0.120601 0.000000
0.581215 0.121550 0.000000
0.613224 0.122498 0.000000
0.644886 0.123445 0.000000
0.676225 0.124390 0.000000
0.707261 0.125334 0.000000
0.738014 0.126276 0.000000
0.768500 0.127217 0.000000
0.798734 0.128156 0.000000
0.828730 0.129093 0.000000
0.858499 0.130030 0.000000
0.888053 0.130965 0.000000
0.917402 0.131898 0.000000
0.946555 0.132830 0.000000
0.975520 0.133761 0.000000
1.000000 0.134690 0.000000
1.000000 0.135618 0.000000
1.000000 0.136545 0.000000
1.000000 0.137470 0.000000
0.000000 0.149777 0.000000
0.056128 0.150684 0.000000
0.105004 0.151591 0.000000
0.149334 0.152496 0.000000
0.191016 0.153400 0.000000
0.230854 0.154303 0.000000
0.269289 0.155205 0.000000
0.306601 0.156106 0.000000
0.342981 0.157006 0.000000
0.378565 0.157905 0.000000
0.413460 0.158803 0.000000
0.447746 0.159699 0.000000
0.481489 0.160595 0.000000
0.514742 0.161489 0.000000
0.547549 0.162383 0.000000
0.579948 0.163275 0.000000
0.611972 0.164167 0.000000
0.643647 0.165057 0.000000
0.674998 0.165946 0.000000
0.706046 0.166835 0.000000
0.736809 0.167722 0.000000
0.767306 0.168608 0.000000
0.797549 0.169494 0.000000
0.827554 0.170378 0.000000
0.857332 0.171262 0.000000
0.886894 0.172144 0.000000
0.916251 0.173026 0.000000
0.945412 0.173907 0.000000
0.974384 0.174786 0.000000
1.000000 0.175665 0.000000
1.000000 0.176543 0.000000
1.000000 0.177420 0.000000
1.000000 0.178296 0.000000
0.000000 0.189976 0.000000
0.054051 0.190840 0.000000
0.103187 0.191702 0.000000
0.147648 0.192564 0.000000
0.189415 0.193426 0.000000
0.229315 0.194286 0.000000
0.267800 0.195145 0.000000
0.305152 0.196004 0.000000
0.341565 0.196862 0.000000
0.377179 0.197719 0.000000
0.412099 0.198576 0.000000
0.446408 0.199431 0.000000
0.480171 0.200286 0.000000
0.513442 0.201140 0.000000
0.546266 0.201993 0.000000
0.578681 0.202846 0.000000
0.610719 0.203698 0.000000
0.642407 0.204549 0.000000
0.673770 0.205399 0.000000
0.704830 0.206249 0.000000
0.735605 0.207098 0.000000
0.766111 0.207946 0.000000
0.796364 0.208793 0.000000
0.826378 0.209640 0.000000
0.856165 0.210486 0.000000
0.885736 0.211331 0.000000
0.915100 0.212175 0.000000
0.944268 0.213019 0.000000
0.973248 0.213862 0.000000
1.000000 0.214705 0.000000
1.000000 0.215547 0.000000
1.000000 0.216388 0.000000
1.000000 0.217228 0.000000
0.000000 0.228449 0.000000
0.051958 0.229280 0.000000
0.101363 0.230110 0.000000
0.145958 0.230940 0.000000
0.187812 0.231769 0.000000
0.227775 0.232597 0.000000
0.266309 0.233425 0.000000
0.303702 0.234252 0.000000
0.340149 0.235079 0.000000
0.375792 0.235905 0.000000
0.410738 0.236730 0.000000
0.445069 0.237555 0.000000
0.478853 0.238379 0.000000
0.512142 0.239202 0.000000
0.544983 0.240025 0.000000
0.577414 0.240847 0.000000
0.609465 0.241669 0.000000
0.641167 0.242490 0.000000
0.672543 0.243311 0.000000
0.703614 0.244131 0.000000
0.734399 0.244950 0.000000
0.764916 0.245769 0.000000
0.795179 0.246587 0.000000
0.825202 0.247405 0.000000
0.854998 0.248222 0.000000
0.884576 0.249038 0.000000
0.913949 0.249854 0.000000
0.943124 0.250670 0.000000
0.972112 0.251484 0.000000
1.000000 0.252299 0.000000
1.000000 0.253112 0.000000
1.000000 0.253926 0.000000
1.000000 0.254738 0.000000
0.000000 0.265601 0.000000
0.049846 0.266406 0.000000
0.099533 0.267210 0.000000
0.144263 0.268014 0.000000
0.186205 0.268818 0.000000
0.226232 0.269621 0.000000
0.264817 0.270423 0.000000
0.302250 0.271225 0.000000
0.338731 0.272027 0.000000
0.374404 0.272828 0.000000
0.409376 0.273628 0.000000
0.443730 0.274428 0.000000
0.477534 0.275228 0.000000
0.510842 0.276027 0.000000
0.543700 0.276825 0.000000
0.576145 0.277623 0.000000
0.608212 0.278421 0.000000
0.639926 0.279218 0.000000
0.671314 0.280015 0.000000
0.702397 0.280811 0.000000
0.733194 0.281606 0.000000
0.763721 0.282402 0.000000
0.793993 0.283196 0.000000
0.824026 0.283991 0.000000
0.853830 0.284785 0.000000
0.883417 0.285578 0.000000
0.912797 0.286371 0.000000
0.941981 0.287163 0.000000
0.970975 0.287955 0.000000
0.999789 0.288747 0.000000
1.000000 0.289538 0.000000
1.000000 0.290328 0.000000
1.000000 0.291118 0.000000
0.000000 0.301687 0.000000
0.047715 0.302471 0.000000
0.097695 0.303254 0.000000
0.142564 0.304037 0.000000
0.184595 0.304820 0.000000
0.224688 0.305602 0.000000
0.263322 0.306384 0.000000
0.300797 0.307165 0.000000
0.337313 0.307946 0.000000
0.373015 0.308726 0.000000
0.408012 0.309506 0.000000
0.442389 0.310286 0.000000
0.476214 0.311065 0.000000
0.509540 0.311844 0.000000
0.542415 0.312622 0.000000
0.574876 0.313400 0.000000
0.606957 0.314178 0.000000
0.638685 0.314955 0.000000
0.670086 0.315732 0.000000
0.701180 0.316508 0.000000
0.731987 0.317284 0.000000
0.762525 0.318060 0.000000
0.792807 0.318835 0.000000
0.822849 0.319610 0.000000
0.852662 0.320384 0.000000
0.882257 0.321158 0.000000
0.911646 0.321932 0.000000
0.940836 0.322705 0.000000
0.969838 0.323478 0.000000
0.998659 0.324250 0.000000
1.000000 0.325022 0.000000
1.000000 0.325794 0.000000
1.000000 0.326565 0.000000
0.000000 0.336887 0.000000
0.045565 0.337653 0.000000
0.095850 0.338418 0.000000
0.140861 0.339183 0.000000
0.182983 0.339948 0.000000
0.223141 0.340713 0.000000
0.261826 0.341477 0.000000
0.299342 0.342240 0.000000
0.335893 0.343004 0.000000
0.371624 0.343767 0.000000
0.406648 0.344529 0.000000
0.441048 0.345292 0.000000
0.474893 0.346054 0.000000
0.508238 0.346815 0.000000
0.541130 0.347576 0.000000
0.573607 0.348337 0.000000
0.605702 0.349098 0.000000
0.637444 0.349858 0.000000
0.668857 0.350618 0.000000
0.699963 0.351377 0.000000
0.730781 0.352137 0.000000
0.761329 0.352895 0.000000
0.791621 0.353654 0.000000
0.821672 0.354412 0.000000
0.851493 0.355170 0.000000
0.881097 0.355927 0.000000
0.910493 0.356684 0.000000
0.939692 0.357441 0.000000
0.968701 0.358197 0.000000
0.997528 0.358954 0.000000
1.000000 0.359709 0.000000
1.000000 0.360465 0.000000
1.000000 0.361220 0.000000
0.000000 0.371329 0.000000
0.043392 0.372079 0.000000
0.093997 0.372830 0.000000
0.139154 0.373579 0.000000
0.181367 0.374329 0.000000
0.221591 0.375078 0.000000
0.260328 0.375827 0.000000
0.297886 0.376575 0.000000
0.334471 0.377323 0.000000
0.370233 0.378071 0.000000
0.405282 0.378819 0.000000
0.439706 0.379566 0.000000
0.473571 0.380313 0.000000
0.506936 0.381060 0.000000
0.539844 0.381806 0.000000
0.572337 0.382552 0.000000
0.604447 0.383298 0.000000
0.636202 0.384043 0.000000
0.667627 0.384788 0.000000
0.698745 0.385533 0.000000
0.729574 0.386278 0.000000
0.760132 0.387022 0.000000
0.790434 0.387766 0.000000
0.820494 0.388510 0.000000
0.850324 0.389253 0.000000
0.879937 0.389996 0.000000
0.909341 0.390739 0.000000
0.938547 0.391481 0.000000
0.967563 0.392223 0.000000
0.996398 0.392965 0.000000
1.000000 0.393707 0.000000
1.000000 0.394448 0.000000
1.000000 0.395189 0.000000
0.000000 0.405112 0.000000
0.041197 0.405849 0.000000
0.092137 0.406585 0.000000
0.137442 0.407322 0.000000
0.179749 0.408058 0.000000
0.220040 0.408793 0.000000
0.258828 0.409529 0.000000
0.296428 0.410264 0.000000
0.333048 0.410999 0.000000
0.368840 0.411733 0.000000
0.403916 0.412468 0.000000
0.438363 0.413202 0.000000
0.472249 0.413935 0.000000
0.505632 0.414669 0.000000
0.538558 0.415402 0.000000
0.571066 0.416135 0.000000
0.603190 0.416868 0.000000
0.634959 0.417600 0.000000
0.666397 0.418332 0.000000
0.697526 0.419064 0.000000
0.728367 0.419796 0.000000
0.758935 0.420527 0.000000
0.789247 0.421258 0.000000
0.819316 0.421989 0.000000
0.849155 0.422720 0.000000
0.878776 0.423450 0.000000
0.908188 0.424180 0.000000
0.937402 0.424910 0.000000
0.966425 0.425639 0.000000
0.995267 0.426368 0.000000
1.000000 0.427097 0.000000
1.000000 0.427826 0.000000
1.000000 0.428554 0.000000
0.000000 0.438312 0.000000
0.038977 0.439037 0.000000
0.090269 0.439762 0.000000
0.135726 0.440486 0.000000
0.178127 0.441210 0.000000
0.218486 0.441934 0.000000
0.257327 0.442657 0.000000
0.294969 0.443380 0.000000
0.331625 0.444103 0.000000
0.367447 0.444826 0.000000
0.402549 0.445549 0.000000
0.437019 0.446271 0.000000
0.470926 0.446993 0.000000
0.504328 0.447715 0.000000
0.537271 0.448436 0.000000
0.569795 0.449158 0.000000
0.601934 0.449879 0.000000
0.633716 0.450599 0.000000
0.665166 0.451320 0.000000
0.696307 0.452040 0.000000
0.727159 0.452760 0.000000
0.757737 0.453480 0.000000
0.788059 0.454200 0.000000
0.818138 0.454919 0.000000
0.847986 0.455638 0.000000
0.877615 0.456357 0.000000
0.907035 0.457076 0.000000
0.936256 0.457794 0.000000
0.965287 0.458512 0.000000
0.994136 0.459230 0.000000
1.000000 0.459948 0.000000
1.000000 0.460665 0.000000
1.000000 0.461383 0.000000
0.000000 0.470993 0.000000
0.036730 0.471706 0.000000
0.088393 0.472420 0.000000
0.134005 0.473134 0.000000
0.176502 0.473847 0.000000
0.216930 0.474560 0.000000
0.255823 0.475273 0.000000
0.293508 0.475985 0.000000
0.330199 0.476697 0.000000
0.366052 0.477410 0.000000
0.401181 0.478121 0.000000
0.435674 0.478833 0.000000
0.469602 0.479544 0.000000
0.503023 0.480256 0.000000
0.535984 0.480967 0.000000
0.568523 0.481677 0.000000
0.600677 0.482388 0.000000
0.632472 0.483098 0.000000
0.663935 0.483808 0.000000
0.695088 0.484518 0.000000
0.725950 0.485228 0.000000
0.756540 0.485937 0.000000
0.786871 0.486647 0.000000
0.816959 0.487356 0.000000
0.846816 0.488064 0.000000
0.876453 0.488773 0.000000
0.905882 0.489481 0.000000
0.935111 0.490190 0.000000
0.964149 0.490897 0.000000
0.993005 0.491605 0.000000
1.000000 0.492313 0.000000
1.000000 0.493020 0.000000
1.000000 0.493727 0.000000
0.000000 0.503203 0.000000
0.034453 0.503907 0.000000
0.086508 0.504611 0.000000
0.132280 0.505314 0.000000
0.174874 0.506018 0.000000
0.215371 0.506721 0.000000
0.254318 0.507424 0.000000
0.292045 0.508127 0.000000
0.328773 0.508830 0.000000
0.364656 0.509532 0.000000
0.399811 0.510234 0.000000
0.434328 0.510936 0.000000
0.468278 0.511638 0.000000
0.501718 0.512340 0.000000
0.534695 0.513041 0.000000
0.567251 0.513742 0.000000
0.599419 0.514443 0.000000
0.631228 0.515144 0.000000
0.662704 0.515845 0.000000
0.693868 0.516545 0.000000
0.724742 0.517245 0.000000
0.755341 0.517945 0.000000
0.785683 0.518645 0.000000
0.815780 0.519345 0.000000
0.845646 0.520044 0.000000
0.875292 0.520743 0.000000
0.904728 0.521442 0.000000
0.933965 0.522141 0.000000
0.963010 0.522840 0.000000
0.991873 0.523538 0.000000
1.000000 0.524236 0.000000
1.000000 0.524934 0.000000
1.000000 0.525632 0.000000
0.000000 0.534985 0.000000
0.032145 0.535681 0.000000
0.084614 0.536375 0.000000
0.130549 0.537070 0.000000
0.173243 0.537765 0.000000
0.213810 0.538459 0.000000
0.252811 0.539153 0.000000
0.290582 0.539847 0.000000
0.327345 0.540541 0.000000
0.363259 0.541234 0.000000
0.398441 0.541928 0.000000
0.432982 0.542621 0.000000
0.466952 0.543314 0.000000
0.500411 0.544007 0.000000
0.533406 0.544699 0.000000
0.565978 0.545392 0.000000
0.598160 0.546084 0.000000
0.629983 0.546776 0.000000
0.661472 0.547468 0.000000
0.692648 0.548160 0.000000
0.723533 0.548851 0.000000
0.754143 0.549543 0.000000
0.784494 0.550234 0.000000
0.814601 0.550925 0.000000
0.844475 0.551615 0.000000
0.874130 0.552306 0.000000
0.903574 0.552997 0.000000
0.932818 0.553687 0.000000
0.961871 0.554377 0.000000
0.990741 0.555067 0.000000
1.000000 0.555756 0.000000
1.000000 0.556446 0.000000
1.000000 0.557135 0.000000
0.000000 0.566376 0.000000
0.029801 0.567063 0.000000
0.082712 0.567750 0.000000
0.128814 0.568436 0.000000
0.171609 0.569122 0.000000
0.212247 0.569808 0.000000
0.251302 0.570494 0.000000
0.289116 0.571180 0.000000
0.325916 0.571866 0.000000
0.361861 0.572551 0.000000
0.397070 0.573236 0.000000
0.431634 0.573921 0.000000
0.465626 0.574606 0.000000
0.499104 0.575291 0.000000
0.532117 0.575976 0.000000
0.564704 0.576660 0.000000
0.596902 0.577344 0.000000
0.628738 0.578028 0.000000
0.660239 0.578712 0.000000
0.691428 0.579396 0.000000
0.722323 0.580079 0.000000
0.752944 0.580763 0.000000
0.783305 0.581446 0.000000
0.813421 0.582129 0.000000
0.843304 0.582812 0.000000
0.872967 0.583494 0.000000
0.902420 0.584177 0.000000
0.931672 0.584859 0.000000
0.960732 0.585541 0.000000
0.989609 0.586224 0.000000
1.000000 0.586905 0.000000
1.000000 0.587587 0.000000
1.000000 0.588269 0.000000
0.000000 0.597406 0.000000
0.027418 0.598085 0.000000
0.080801 0.598764 0.000000
0.127074 0.599442 0.000000
0.169972 0.600121 0.000000
0.210681 0.600800 0.000000
0.249791 0.601478 0.000000
0.287649 0.602156 0.000000
0.324486 0.602834 0.000000
0.360462 0.603512 0.000000
0.395698 0.604190 0.000000
0.430286 0.604867 0.000000
0.464299 0.605545 0.000000
0.497797 0.606222 0.000000
0.530827 0.606899 0.000000
0.563430 0.607576 0.000000
0.595642 0.608253 0.000000
0.627492 0.608929 0.000000
0.659006 0.609606 0.000000
0.690206 0.610282 0.000000
0.721113 0.610958 0.000000
0.751744 0.611634 0.000000
0.782115 0.612310 0.000000
0.812241 0.612986 0.000000
0.842133 0.613661 0.000000
0.871804 0.614336 0.000000
0.901265 0.615012 0.000000
0.930525 0.615687 0.000000
0.959592 0.616361 0.000000
0.988476 0.617036 0.000000
1.000000 0.617711 0.000000
1.000000 0.618385 0.000000
1.000000 0.619059 0.000000
0.000000 0.628100 0.000000
0.024990 0.628772 0.000000
0.078879 0.629444 0.000000
0.125329 0.630116 0.000000
0.168331 0.630787 0.000000
0.209113 0.631459 0.000000
0.248278 0.632130 0.000000
0.286181 0.632801 0.000000
0.323054 0.633472 0.000000
0.359061 0.634143 0.000000
0.394325 0.634814 0.000000
0.428937 0.635484 0.000000
0.462972 0.636155 0.000000
0.496488 0.636825 0.000000
0.529536 0.637495 0.000000
0.562155 0.638165 0.000000
0.594382 0.638835 0.000000
0.626246 0.639504 0.000000
0.657773 0.640174 0.000000
0.688985 0.640843 0.000000
0.719903 0.641512 0.000000
0.750545 0.642182 0.000000
0.780926 0.642850 0.000000
0.811060 0.643519 0.000000
0.840962 0.644188 0.000000
0.870641 0.644856 0.000000
0.900110 0.645525 0.000000
0.929378 0.646193 0.000000
0.958453 0.646861 0.000000
0.987344 0.647529 0.000000
1.000000 0.648197 0.000000
1.000000 0.648864 0.000000
1.000000 0.649532 0.000000
0.000000 0.658482 0.000000
0.022512 0.659148 0.000000
0.076948 0.659813 0.000000
0.123579 0.660478 0.000000
0.166686 0.661143 0.000000
0.207542 0.661808 0.000000
0.246763 0.662473 0.000000
0.284711 0.663137 0.000000
0.321621 0.663802 0.000000
0.357660 0.664466 0.000000
0.392951 0.665130 0.000000
0.427587 0.665794 0.000000
0.461643 0.666458 0.000000
0.495179 0.667122 0.000000
0.528244 0.667785 0.000000
0.560880 0.668449 0.000000
0.593122 0.669112 0.000000
0.624999 0.669775 0.000000
0.656539 0.670438 0.000000
0.687763 0.671101 0.000000
0.718692 0.671764 0.000000
0.749344 0.672427 0.000000
0.779735 0.673089 0.000000
0.809880 0.673752 0.000000
0.839790 0.674414 0.000000
0.869478 0.675076 0.000000
0.898955 0.675738 0.000000
0.928230 0.676400 0.000000
0.957313 0.677061 0.000000
0.986211 0.677723 0.000000
1.000000 0.678384 0.000000
1.000000 0.679046 0.000000
1.000000 0.679707 0.000000
0.000000 0.688573 0.000000
0.019975 0.689232 0.000000
0.075007 0.689891 0.000000
0.121824 0.690550 0.000000
0.165039 0.691209 0.000000
0.205969 0.691868 0.000000
0.245246 0.692526 0.000000
0.283239 0.693185 0.000000
0.320186 0.693843 0.000000
0.356257 0.694501 0.000000
0.391575 0.695159 0.000000
0.426236 0.695817 0.000000
0.460314 0.696475 0.000000
0.493869 0.697132 0.000000
0.526952 0.697790 0.000000
0.559604 0.698447 0.000000
0.591861 0.699104 0.000000
0.623752 0.699762 0.000000
0.655304 0.700419 0.000000
0.686540 0.701075 0.000000
0.717481 0.701732 0.000000
0.748144 0.702389 0.000000
0.778545 0.703045 0.000000
0.808698 0.703701 0.000000
0.838618 0.704358 0.000000
0.868314 0.705014 0.000000
0.897799 0.705670 0.000000
0.927082 0.706326 0.000000
0.956172 0.706981 0.000000
0.985077 0.707637 0.000000
1.000000 0.708292 0.000000
1.000000 0.708948 0.000000
1.000000 0.709603 0.000000
0.000000 0.718390 0.000000
0.017368 0.719043 0.000000
0.073055 0.719696 0.000000
0.120063 0.720350 0.000000
0.163388 0.721003 0.000000
0.204394 0.721655 0.000000
0.243728 0.722308 0.000000
0.281765 0.722961 0.000000
0.318751 0.723613 0.000000
0.354853 0.724266 0.000000
0.390199 0.724918 0.000000
0.424884 0.725570 0.000000
0.458983 0.726222 0.000000
0.492558 0.726874 0.000000
0.525659 0.727526 0.000000
0.558327 0.728177 0.000000
0.590599 0.728829 0.000000
0.622504 0.729480 0.000000
0.654069 0.730132 0.000000
0.685318 0.730783 0.000000
0.716269 0.731434 0.000000
0.746943 0.732085 0.000000
0.777354 0.732735 0.000000
0.807517 0.733386 0.000000
0.837445 0.734037 0.000000
0.867150 0.734687 0.000000
0.896643 0.735337 0.000000
0.925934 0.735987 0.000000
0.955032 0.736638 0.000000
0.983944 0.737287 0.000000
1.000000 0.737937 0.000000
1.000000 0.738587 0.000000
1.000000 0.739237 0.000000
0.000000 0.747949 0.000000
0.014676 0.748597 0.000000
0.071093 0.749245 0.000000
0.118297 0.749892 0.000000
0.161733 0.750540 0.000000
0.202815 0.751187 0.000000
0.242207 0.751834 0.000000
0.280291 0.752482 0.000000
0.317313 0.753129 0.000000
0.353448 0.753776 0.000000
0.388822 0.754422 0.000000
0.423531 0.755069 0.000000
0.457652 0.755716 0.000000
0.491247 0.756362 0.000000
0.524366 0.757008 0.000000
0.557050 0.757655 0.000000
0.589337 0.758301 0.000000
0.621256 0.758947 0.000000
0.652834 0.759593 0.000000
0.684094 0.760238 0.000000
0.715057 0.760884 0.000000
0.745741 0.761530 0.000000
0.776162 0.762175 0.000000
0.806335 0.762820 0.000000
0.836272 0.763465 0.000000
0.865986 0.764111 0.000000
0.895487 0.764756 0.000000
0.924786 0.765400 0.000000
0.953891 0.766045 0.000000
0.982810 0.766690 0.000000
1.000000 0.767334 0.000000
1.000000 0.767979 0.000000
1.000000 0.768623 0.000000
0.000000 0.777265 0.000000
0.011875 0.777907 0.000000
0.069118 0.778550 0.000000
0.116525 0.779192 0.000000
0.160075 0.779835 0.000000
0.201235 0.780477 0.000000
0.240684 0.781119 0.000000
0.278814 0.781761 0.000000
0.315875 0.782403 0.000000
0.352042 0.783045 0.000000
0.387444 0.783686 0.000000
0.422178 0.784328 0.000000
0.456321 0.784969 0.000000
0.489935 0.785611 0.000000
0.523071 0.786252 0.000000
0.555772 0.786893 0.000000
0.588074 0.787534 0.000000
0.620007 0.788175 0.000000
0.651598 0.788816 0.000000
0.682870 0.789456 0.000000
0.713845 0.790097 0.000000
0.744539 0.790737 0.000000
0.774971 0.791378 0.000000
0.805153 0.792018 0.000000
0.835099 0.792658 0.000000
0.864821 0.793298 0.000000
0.894331 0.793938 0.000000
0.923637 0.794578 0.000000
0.952749 0.795217 0.000000
0.981676 0.795857 0.000000
1.000000 0.796496 0.000000
1.000000 0.797136 0.000000
1.000000 0.797775 0.000000
0.000000 0.806350 0.000000
0.008926 0.806988 0.000000
0.067132 0.807625 0.000000
0.114748 0.808263 0.000000
0.158413 0.808900 0.000000
0.199651 0.809538 0.000000
0.239160 0.810175 0.000000
0.277336 0.810812 0.000000
0.314435 0.811449 0.000000
0.350635 0.812086 0.000000
0.386064 0.812723 0.000000
0.420823 0.813359 0.000000
0.454988 0.813996 0.000000
0.488622 0.814632 0.000000
0.521776 0.815269 0.000000
0.554494 0.815905 0.000000
0.586810 0.816541 0.000000
0.618757 0.817177 0.000000
0.650361 0.817813 0.000000
0.681646 0.818449 0.000000
0.712632 0.819085 0.000000
0.743337 0.819720 0.000000
0.773778 0.820356 0.000000
0.803970 0.820991 0.000000
0.833925 0.821626 0.000000
0.863656 0.822262 0.000000
0.893174 0.822897 0.000000
0.922488 0.823532 0.000000
0.951608 0.824167 0.000000
0.980542 0.824801 0.000000
1.000000 0.825436 0.000000
1.000000 0.826071 0.000000
1.000000 0.826705 0.000000
0.000000 0.835217 0.000000
0.005750 0.835850 0.000000
0.065133 0.836483 0.000000
0.112965 0.837116 0.000000
0.156747 0.837748 0.000000
0.198065 0.838381 0.000000
0.237633 0.839013 0.000000
0.275856 0.839646 0.000000
0.312994 0.840278 0.000000
0.349226 0.840910 0.000000
0.384684 0.841543 0.000000
0.419467 0.842175 0.000000
0.453655 0.842806 0.000000
0.487309 0.843438 0.000000
0.520481 0.844070 0.000000
0.553215 0.844702 0.000000
0.585546 0.845333 0.000000
0.617507 0.845965 0.000000
0.649124 0.846596 0.000000
0.680421 0.847227 0.000000
0.711418 0.847858 0.000000
0.742135 0.848489 0.000000
0.772586 0.849120 0.000000
0.802787 0.849751 0.000000
0.832751 0.850382 0.000000
0.862491 0.851013 0.000000
0.892017 0.851643 0.000000
0.921339 0.852274 0.000000
0.950466 0.852904 0.000000
0.979407 0.853534 0.000000
1.000000 0.854164 0.000000
1.000000 0.854794 0.000000
1.000000 0.855424 0.000000
0.000000 0.863875 0.000000
0.002112 0.864504 0.000000
0.063122 0.865132 0.000000
0.111176 0.865761 0.000000
0.155078 0.866389 0.000000
0.196476 0.867017 0.000000
0.236104 0.867645 0.000000
0.274374 0.868273 0.000000
0.311551 0.868901 0.000000
0.347816 0.869529 0.000000
0.383303 0.870157 0.000000
0.418111 0.870784 0.000000
0.452320 0.871412 0.000000
0.485994 0.872039 0.000000
0.519185 0.872666 0.000000
0.551935 0.873294 0.000000
0.584282 0.873921 0.000000
0.616257 0.874548 0.000000
0.647887 0.875175 0.000000
0.679196 0.875802 0.000000
0.710205 0.876428 0.000000
0.740931 0.877055 0.000000
0.771393 0.877682 0.000000
0.801604 0.878308 0.000000
0.831577 0.878935 0.000000
0.861325 0.879561 0.000000
0.890859 0.880187 0.000000
0.920189 0.880813 0.000000
0.949324 0.881439 0.000000
0.978272 0.882065 0.000000
1.000000 0.882691 0.000000
1.000000 0.883317 0.000000
1.000000 0.883942 0.000000
0.000000 0.892336 0.000000
0.000000 0.892960 0.000000
0.061097 0.893584 0.000000
0.109381 0.894208 0.000000
0.153405 0.894832 0.000000
0.194885 0.895456 0.000000
0.234573 0.896080 0.000000
0.272891 0.896704 0.000000
0.310107 0.897327 0.000000
0.346405 0.897951 0.000000
0.381920 0.898574 0.000000
0.416754 0.899198 0.000000
0.450985 0.899821 0.000000
0.484679 0.900444 0.000000
0.517888 0.901067 0.000000
0.550655 0.901690 0.000000
0.583017 0.902313 0.000000
0.615006 0.902936 0.000000
0.646649 0.903559 0.000000
0.677970 0.904182 0.000000
0.708990 0.904804 0.000000
0.739728 0.905427 0.000000
0.770200 0.906049 0.000000
0.800420 0.906671 0.000000
0.830403 0.907294 0.000000
