presets/film_stocks/Kodak_5381.cube
# 独寻胶片模拟 -- Kodak 5381
# Kodak, ISO 0, 1950, negative
TITLE "Kodak 5381"
LUT_3D_SIZE 33
DOMAIN_MIN 0.0 0.0 0.0
DOMAIN_MAX 1.0 1.0 1.0
0.000000 0.000000 0.000000
0.044056 0.000000 0.000000
0.082264 0.000000 0.000000
0.118535 0.000000 0.000000
0.153605 0.000000 0.000000
0.187807 0.000000 0.000000
0.221333 0.000000 0.000000
0.254307 0.000000 0.000000
0.286816 0.000000 0.000000
0.318924 0.000000 0.000000
0.350679 0.000000 0.000000
0.382121 0.000000 0.000000
0.413280 0.000000 0.000000
0.444183 0.000000 0.000000
0.474850 0.000000 0.000000
0.505302 0.000000 0.000000
0.535552 0.000000 0.000000
0.565616 0.000000 0.000000
0.595505 0.000000 0.000000
0.625229 0.000000 0.000000
0.654799 0.000000 0.000000
0.684223 0.000000 0.000000
0.713508 0.000000 0.000000
0.742661 0.000000 0.000000
0.771689 0.000000 0.000000
0.800598 0.000000 0.000000
0.829392 0.000000 0.000000
0.858076 0.000000 0.000000
0.886656 0.000000 0.000000
0.915134 0.000000 0.000000
0.943515 0.000000 0.000000
0.971803 0.000000 0.000000
1.000000 0.000000 0.000000
0.000000 0.044056 0.000000
0.044056 0.044056 0.000000
0.082264 0.044056 0.000000
0.118535 0.044056 0.000000
0.153605 0.044056 0.000000
0.187807 0.044056 0.000000
0.221333 0.044056 0.000000
0.254307 0.044056 0.000000
0.286816 0.044056 0.000000
0.318924 0.044056 0.000000
0.350679 0.044056 0.000000
0.382121 0.044056 0.000000
0.413280 0.044056 0.000000
0.444183 0.044056 0.000000
0.474850 0.044056 0.000000
0.505302 0.044056 0.000000
0.535552 0.044056 0.000000
0.565616 0.044056 0.000000
0.595505 0.044056 0.000000
0.625229 0.044056 0.000000
0.654799 0.044056 0.000000
0.684223 0.044056 0.000000
0.713508 0.044056 0.000000
0.742661 0.044056 0.000000
0.771689 0.044056 0.000000
0.800598 0.044056 0.000000
0.829392 0.044056 0.000000
0.858076 0.044056 0.000000
0.886656 0.044056 0.000000
0.915134 0.044056 0.000000
0.943515 0.044056 0.000000
0.971803 0.044056 0.000000
1.000000 0.044056 0.000000
0.000000 0.082264 0.000000
0.044056 0.082264 0.000000
0.082264 0.082264 0.000000
0.118535 0.082264 0.000000
0.153605 0.082264 0.000000
0.187807 0.082264 0.000000
0.221333 0.082264 0.000000
0.254307 0.082264 0.000000
0.286816 0.082264 0.000000
0.318924 0.082264 0.000000
0.350679 0.082264 0.000000
0.382121 0.082264 0.000000
0.413280 0.082264 0.000000
0.444183 0.082264 0.000000
0.474850 0.082264 0.000000
0.505302 0.082264 0.000000
0.535552 0.082264 0.000000
0.565616 0.082264 0.000000
0.595505 0.082264 0.000000
0.625229 0.082264 0.000000
0.654799 0.082264 0.000000
0.684223 0.082264 0.000000
0.713508 0.082264 0.000000
0.742661 0.082264 0.000000
0.771689 0.082264 0.000000
0.800598 0.082264 0.000000
0.829392 0.082264 0.000000
0.858076 0.082264 0.000000
0.886656 0.082264 0.000000
0.915134 0.082264 0.000000
0.943515 0.082264 0.000000
0.971803 0.082264 0.000000
1.000000 0.082264 0.000000
0.000000 0.118535 0.000000
0.044056 0.118535 0.000000
0.082264 0.118535 0.000000
0.118535 0.118535 0.000000
0.153605 0.118535 0.000000
0.187807 0.118535 0.000000
0.221333 0.118535 0.000000
0.254307 0.118535 0.000000
0.286816 0.118535 0.000000
0.318924 0.118535 0.000000
0.350679 0.118535 0.000000
0.382121 0.118535 0.000000
0.413280 0.118535 0.000000
0.444183 0.118535 0.000000
0.474850 0.118535 0.000000
0.505302 0.118535 0.000000
0.535552 0.118535 0.000000
0.565616 0.118535 0.000000
0.595505 0.118535 0.000000
0.625229 0.118535 0.000000
0.654799 0.118535 0.000000
0.684223 0.118535 0.000000
0.713508 0.118535 0.000000
0.742661 0.118535 0.000000
0.771689 0.118535 0.000000
0.800598 0.118535 0.000000
0.829392 0.118535 0.000000
0.858076 0.118535 0.000000
0.886656 0.118535 0.000000
0.915134 0.118535 0.000000
0.943515 0.118535 0.000000
0.971803 0.118535 0.000000
1.000000 0.118535 0.000000
0.000000 0.153605 0.000000
0.044056 0.153605 0.000000
0.082264 0.153605 0.000000
0.118535 0.153605 0.000000
0.153605 0.153605 0.000000
0.187807 0.153605 0.000000
0.221333 0.153605 0.000000
0.254307 0.153605 0.000000
0.286816 0.153605 0.000000
0.318924 0.153605 0.000000
0.350679 0.153605 0.000000
0.382121 0.153605 0.000000
0.413280 0.153605 0.000000
0.444183 0.153605 0.000000
0.474850 0.153605 0.000000
0.505302 0.153605 0.000000
0.535552 0.153605 0.000000
0.565616 0.153605 0.000000
0.595505 0.153605 0.000000
0.625229 0.153605 0.000000
0.654799 0.153605 0.000000
0.684223 0.153605 0.000000
0.713508 0.153605 0.000000
0.742661 0.153605 0.000000
0.771689 0.153605 0.000000
0.800598 0.153605 0.000000
0.829392 0.153605 0.000000
0.858076 0.153605 0.000000
0.886656 0.153605 0.000000
0.915134 0.153605 0.000000
0.943515 0.153605 0.000000
0.971803 0.153605 0.000000
1.000000 0.153605 0.000000
0.000000 0.187807 0.000000
0.044056 0.187807 0.000000
0.082264 0.187807 0.000000
0.118535 0.187807 0.000000
0.153605 0.187807 0.000000
0.187807 0.187807 0.000000
0.221333 0.187807 0.000000
0.254307 0.187807 0.000000
0.286816 0.187807 0.000000
0.318924 0.187807 0.000000
0.350679 0.187807 0.000000
0.382121 0.187807 0.000000
0.413280 0.187807 0.000000
0.444183 0.187807 0.000000
0.474850 0.187807 0.000000
0.505302 0.187807 0.000000
0.535552 0.187807 0.000000
0.565616 0.187807 0.000000
0.595505 0.187807 0.000000
0.625229 0.187807 0.000000
0.654799 0.187807 0.000000
0.684223 0.187807 0.000000
0.713508 0.187807 0.000000
0.742661 0.187807 0.000000
0.771689 0.187807 0.000000
0.800598 0.187807 0.000000
0.829392 0.187807 0.000000
0.858076 0.187807 0.000000
0.886656 0.187807 0.000000
0.915134 0.187807 0.000000
0.943515 0.187807 0.000000
0.971803 0.187807 0.000000
1.000000 0.187807 0.000000
0.000000 0.221333 0.000000
0.044056 0.221333 0.000000
0.082264 0.221333 0.000000
0.118535 0.221333 0.000000
0.153605 0.221333 0.000000
0.187807 0.221333 0.000000
0.221333 0.221333 0.000000
0.254307 0.221333 0.000000
0.286816 0.221333 0.000000
0.318924 0.221333 0.000000
0.350679 0.221333 0.000000
0.382121 0.221333 0.000000
0.413280 0.221333 0.000000
0.444183 0.221333 0.000000
0.474850 0.221333 0.000000
0.505302 0.221333 0.000000
0.535552 0.221333 0.000000
0.565616 0.221333 0.000000
0.595505 0.221333 0.000000
0.625229 0.221333 0.000000
0.654799 0.221333 0.000000
0.684223 0.221333 0.000000
0.713508 0.221333 0.000000
0.742661 0.221333 0.000000
0.771689 0.221333 0.000000
0.800598 0.221333 0.000000
0.829392 0.221333 0.000000
0.858076 0.221333 0.000000
0.886656 0.221333 0.000000
0.915134 0.221333 0.000000
0.943515 0.221333 0.000000
0.971803 0.221333 0.000000
1.000000 0.221333 0.000000
0.000000 0.254307 0.000000
0.044056 0.254307 0.000000
0.082264 0.254307 0.000000
0.118535 0.254307 0.000000
0.153605 0.254307 0.000000
0.187807 0.254307 0.000000
0.221333 0.254307 0.000000
0.254307 0.254307 0.000000
0.286816 0.254307 0.000000
0.318924 0.254307 0.000000
0.350679 0.254307 0.000000
0.382121 0.254307 0.000000
0.413280 0.254307 0.000000
0.444183 0.254307 0.000000
0.474850 0.254307 0.000000
0.505302 0.254307 0.000000
0.535552 0.254307 0.000000
0.565616 0.254307 0.000000
0.595505 0.254307 0.000000
0.625229 0.254307 0.000000
0.654799 0.254307 0.000000
0.684223 0.254307 0.000000
0.713508 0.254307 0.000000
0.742661 0.254307 0.000000
0.771689 0.254307 0.000000
0.800598 0.254307 0.000000
0.829392 0.254307 0.000000
0.858076 0.254307 0.000000
0.886656 0.254307 0.000000
0.915134 0.254307 0.000000
0.943515 0.254307 0.000000
0.971803 0.254307 0.000000
1.000000 0.254307 0.000000
0.000000 0.286816 0.000000
0.044056 0.286816 0.000000
0.082264 0.286816 0.000000
0.118535 0.286816 0.000000
0.153605 0.286816 0.000000
0.187807 0.286816 0.000000
0.221333 0.286816 0.000000
0.254307 0.286816 0.000000
0.286816 0.286816 0.000000
0.318924 0.286816 0.000000
0.350679 0.286816 0.000000
0.382121 0.286816 0.000000
0.413280 0.286816 0.000000
0.444183 0.286816 0.000000
0.474850 0.286816 0.000000
0.505302 0.286816 0.000000
0.535552 0.286816 0.000000
0.565616 0.286816 0.000000
0.595505 0.286816 0.000000
0.625229 0.286816 0.000000
0.654799 0.286816 0.000000
0.684223 0.286816 0.000000
0.713508 0.286816 0.000000
0.742661 0.286816 0.000000
0.771689 0.286816 0.000000
0.800598 0.286816 0.000000
0.829392 0.286816 0.000000
0.858076 0.286816 0.000000
0.886656 0.286816 0.000000
0.915134 0.286816 0.000000
0.943515 0.286816 0.000000
0.971803 0.286816 0.000000
1.000000 0.286816 0.000000
0.000000 0.318924 0.000000
0.044056 0.318924 0.000000
0.082264 0.318924 0.000000
0.118535 0.318924 0.000000
0.153605 0.318924 0.000000
0.187807 0.318924 0.000000
0.221333 0.318924 0.000000
0.254307 0.318924 0.000000
0.286816 0.318924 0.000000
0.318924 0.318924 0.000000
0.350679 0.318924 0.000000
0.382121 0.318924 0.000000
0.413280 0.318924 0.000000
0.444183 0.318924 0.000000
0.474850 0.318924 0.000000
0.505302 0.318924 0.000000
0.535552 0.318924 0.000000
0.565616 0.318924 0.000000
0.595505 0.318924 0.000000
0.625229 0.318924 0.000000
0.654799 0.318924 0.000000
0.684223 0.318924 0.000000
0.713508 0.318924 0.000000
0.742661 0.318924 0.000000
0.771689 0.318924 0.000000
0.800598 0.318924 0.000000
0.829392 0.318924 0.000000
0.858076 0.318924 0.000000
0.886656 0.318924 0.000000
0.915134 0.318924 0.000000
0.943515 0.318924 0.000000
0.971803 0.318924 0.000000
1.000000 0.318924 0.000000
0.000000 0.350679 0.000000
0.044056 0.350679 0.000000
0.082264 0.350679 0.000000
0.118535 0.350679 0.000000
0.153605 0.350679 0.000000
0.187807 0.350679 0.000000
0.221333 0.350679 0.000000
0.254307 0.350679 0.000000
0.286816 0.350679 0.000000
0.318924 0.350679 0.000000
0.350679 0.350679 0.000000
0.382121 0.350679 0.000000
0.413280 0.350679 0.000000
0.444183 0.350679 0.000000
0.474850 0.350679 0.000000
0.505302 0.350679 0.000000
0.535552 0.350679 0.000000
0.565616 0.350679 0.000000
0.595505 0.350679 0.000000
0.625229 0.350679 0.000000
0.654799 0.350679 0.000000
0.684223 0.350679 0.000000
0.713508 0.350679 0.000000
0.742661 0.350679 0.000000
0.771689 0.350679 0.000000
0.800598 0.350679 0.000000
0.829392 0.350679 0.000000
0.858076 0.350679 0.000000
0.886656 0.350679 0.000000
0.915134 0.350679 0.000000
0.943515 0.350679 0.000000
0.971803 0.350679 0.000000
1.000000 0.350679 0.000000
0.000000 0.382121 0.000000
0.044056 0.382121 0.000000
0.082264 0.382121 0.000000
0.118535 0.382121 0.000000
0.153605 0.382121 0.000000
0.187807 0.382121 0.000000
0.221333 0.382121 0.000000
0.254307 0.382121 0.000000
0.286816 0.382121 0.000000
0.318924 0.382121 0.000000
0.350679 0.382121 0.000000
0.382121 0.382121 0.000000
0.413280 0.382121 0.000000
0.444183 0.382121 0.000000
0.474850 0.382121 0.000000
0.505302 0.382121 0.000000
0.535552 0.382121 0.000000
0.565616 0.382121 0.000000
0.595505 0.382121 0.000000
0.625229 0.382121 0.000000
0.654799 0.382121 0.000000
0.684223 0.382121 0.000000
0.713508 0.382121 0.000000
0.742661 0.382121 0.000000
0.771689 0.382121 0.000000
0.800598 0.382121 0.000000
0.829392 0.382121 0.000000
0.858076 0.382121 0.000000
0.886656 0.382121 0.000000
0.915134 0.382121 0.000000
0.943515 0.382121 0.000000
0.971803 0.382121 0.000000
1.000000 0.382121 0.000000
0.000000 0.413280 0.000000
0.044056 0.413280 0.000000
0.082264 0.413280 0.000000
0.118535 0.413280 0.000000
0.153605 0.413280 0.000000
0.187807 0.413280 0.000000
0.221333 0.413280 0.000000
0.254307 0.413280 0.000000
0.286816 0.413280 0.000000
0.318924 0.413280 0.000000
0.350679 0.413280 0.000000
0.382121 0.413280 0.000000
0.413280 0.413280 0.000000
0.444183 0.413280 0.000000
0.474850 0.413280 0.000000
0.505302 0.413280 0.000000
0.535552 0.413280 0.000000
0.565616 0.413280 0.000000
0.595505 0.413280 0.000000
0.625229 0.413280 0.000000
0.654799 0.413280 0.000000
0.684223 0.413280 0.000000
0.713508 0.413280 0.000000
0.742661 0.413280 0.000000
0.771689 0.413280 0.000000
0.800598 0.413280 0.000000
0.829392 0.413280 0.000000
0.858076 0.413280 0.000000
0.886656 0.413280 0.000000
0.915134 0.413280 0.000000
0.943515 0.413280 0.000000
0.971803 0.413280 0.000000
1.000000 0.413280 0.000000
0.000000 0.444183 0.000000
0.044056 0.444183 0.000000
0.082264 0.444183 0.000000
0.118535 0.444183 0.000000
0.153605 0.444183 0.000000
0.187807 0.444183 0.000000
0.221333 0.444183 0.000000
0.254307 0.444183 0.000000
0.286816 0.444183 0.000000
0.318924 0.444183 0.000000
0.350679 0.444183 0.000000
0.382121 0.444183 0.000000
0.413280 0.444183 0.000000
0.444183 0.444183 0.000000
0.474850 0.444183 0.000000
0.505302 0.444183 0.000000
0.535552 0.444183 0.000000
0.565616 0.444183 0.000000
0.595505 0.444183 0.000000
0.625229 0.444183 0.000000
0.654799 0.444183 0.000000
0.684223 0.444183 0.000000
0.713508 0.444183 0.000000
0.742661 0.444183 0.000000
0.771689 0.444183 0.000000
0.800598 0.444183 0.000000
0.829392 0.444183 0.000000
0.858076 0.444183 0.000000
0.886656 0.444183 0.000000
0.915134 0.444183 0.000000
0.943515 0.444183 0.000000
0.971803 0.444183 0.000000
1.000000 0.444183 0.000000
0.000000 0.474850 0.000000
0.044056 0.474850 0.000000
0.082264 0.474850 0.000000
0.118535 0.474850 0.000000
0.153605 0.474850 0.000000
0.187807 0.474850 0.000000
0.221333 0.474850 0.000000
0.254307 0.474850 0.000000
0.286816 0.474850 0.000000
0.318924 0.474850 0.000000
0.350679 0.474850 0.000000
0.382121 0.474850 0.000000
0.413280 0.474850 0.000000
0.444183 0.474850 0.000000
0.474850 0.474850 0.000000
0.505302 0.474850 0.000000
0.535552 0.474850 0.000000
0.565616 0.474850 0.000000
0.595505 0.474850 0.000000
0.625229 0.474850 0.000000
0.654799 0.474850 0.000000
0.684223 0.474850 0.000000
0.713508 0.474850 0.000000
0.742661 0.474850 0.000000
0.771689 0.474850 0.000000
0.800598 0.474850 0.000000
0.829392 0.474850 0.000000
0.858076 0.474850 0.000000
0.886656 0.474850 0.000000
0.915134 0.474850 0.000000
0.943515 0.474850 0.000000
0.971803 0.474850 0.000000
1.000000 0.474850 0.000000
0.000000 0.505302 0.000000
0.044056 0.505302 0.000000
0.082264 0.505302 0.000000
0.118535 0.505302 0.000000
0.153605 0.505302 0.000000
0.187807 0.505302 0.000000
0.221333 0.505302 0.000000
0.254307 0.505302 0.000000
0.286816 0.505302 0.000000
0.318924 0.505302 0.000000
0.350679 0.505302 0.000000
0.382121 0.505302 0.000000
0.413280 0.505302 0.000000
0.444183 0.505302 0.000000
0.474850 0.505302 0.000000
0.505302 0.505302 0.000000
0.535552 0.505302 0.000000
0.565616 0.505302 0.000000
0.595505 0.505302 0.000000
0.625229 0.505302 0.000000
0.654799 0.505302 0.000000
0.684223 0.505302 0.000000
0.713508 0.505302 0.000000
0.742661 0.505302 0.000000
0.771689 0.505302 0.000000
0.800598 0.505302 0.000000
0.829392 0.505302 0.000000
0.858076 0.505302 0.000000
0.886656 0.505302 0.000000
0.915134 0.505302 0.000000
0.943515 0.505302 0.000000
0.971803 0.505302 0.000000
1.000000 0.505302 0.000000
0.000000 0.535552 0.000000
0.044056 0.535552 0.000000
0.082264 0.535552 0.000000
0.118535 0.535552 0.000000
0.153605 0.535552 0.000000
0.187807 0.535552 0.000000
0.221333 0.535552 0.000000
0.254307 0.535552 0.000000
0.286816 0.535552 0.000000
0.318924 0.535552 0.000000
0.350679 0.535552 0.000000
0.382121 0.535552 0.000000
0.413280 0.535552 0.000000
0.444183 0.535552 0.000000
0.474850 0.535552 0.000000
0.505302 0.535552 0.000000
0.535552 0.535552 0.000000
0.565616 0.535552 0.000000
0.595505 0.535552 0.000000
0.625229 0.535552 0.000000
0.654799 0.535552 0.000000
0.684223 0.535552 0.000000
0.713508 0.535552 0.000000
0.742661 0.535552 0.000000
0.771689 0.535552 0.000000
0.800598 0.535552 0.000000
0.829392 0.535552 0.000000
0.858076 0.535552 0.000000
0.886656 0.535552 0.000000
0.915134 0.535552 0.000000
0.943515 0.535552 0.000000
0.971803 0.535552 0.000000
1.000000 0.535552 0.000000
0.000000 0.565616 0.000000
0.044056 0.565616 0.000000
0.082264 0.565616 0.000000
0.118535 0.565616 0.000000
0.153605 0.565616 0.000000
0.187807 0.565616 0.000000
0.221333 0.565616 0.000000
0.254307 0.565616 0.000000
0.286816 0.565616 0.000000
0.318924 0.565616 0.000000
0.350679 0.565616 0.000000
0.382121 0.565616 0.000000
0.413280 0.565616 0.000000
0.444183 0.565616 0.000000
0.474850 0.565616 0.000000
0.505302 0.565616 0.000000
0.535552 0.565616 0.000000
0.565616 0.565616 0.000000
0.595505 0.565616 0.000000
0.625229 0.565616 0.000000
0.654799 0.565616 0.000000
0.684223 0.565616 0.000000
0.713508 0.565616 0.000000
0.742661 0.565616 0.000000
0.771689 0.565616 0.000000
0.800598 0.565616 0.000000
0.829392 0.565616 0.000000
0.858076 0.565616 0.000000
0.886656 0.565616 0.000000
0.915134 0.565616 0.000000
0.943515 0.565616 0.000000
0.971803 0.565616 0.000000
1.000000 0.565616 0.000000
0.000000 0.595505 0.000000
0.044056 0.595505 0.000000
0.082264 0.595505 0.000000
0.118535 0.595505 0.000000
0.153605 0.595505 0.000000
0.187807 0.595505 0.000000
0.221333 0.595505 0.000000
0.254307 0.595505 0.000000
0.286816 0.595505 0.000000
0.318924 0.595505 0.000000
0.350679 0.595505 0.000000
0.382121 0.595505 0.000000
0.413280 0.595505 0.000000
0.444183 0.595505 0.000000
0.474850 0.595505 0.000000
0.505302 0.595505 0.000000
0.535552 0.595505 0.000000
0.565616 0.595505 0.000000
0.595505 0.595505 0.000000
0.625229 0.595505 0.000000
0.654799 0.595505 0.000000
0.684223 0.595505 0.000000
0.713508 0.595505 0.000000
0.742661 0.595505 0.000000
0.771689 0.595505 0.000000
0.800598 0.595505 0.000000
0.829392 0.595505 0.000000
0.858076 0.595505 0.000000
0.886656 0.595505 0.000000
0.915134 0.595505 0.000000
0.943515 0.595505 0.000000
0.971803 0.595505 0.000000
1.000000 0.595505 0.000000
0.000000 0.625229 0.000000
0.044056 0.625229 0.000000
0.082264 0.625229 0.000000
0.118535 0.625229 0.000000
0.153605 0.625229 0.000000
0.187807 0.625229 0.000000
0.221333 0.625229 0.000000
0.254307 0.625229 0.000000
0.286816 0.625229 0.000000
0.318924 0.625229 0.000000
0.350679 0.625229 0.000000
0.382121 0.625229 0.000000
0.413280 0.625229 0.000000
0.444183 0.625229 0.000000
0.474850 0.625229 0.000000
0.505302 0.625229 0.000000
0.535552 0.625229 0.000000
0.565616 0.625229 0.000000
0.595505 0.625229 0.000000
0.625229 0.625229 0.000000
0.654799 0.625229 0.000000
0.684223 0.625229 0.000000
0.713508 0.625229 0.000000
0.742661 0.625229 0.000000
0.771689 0.625229 0.000000
0.800598 0.625229 0.000000
0.829392 0.625229 0.000000
0.858076 0.625229 0.000000
0.886656 0.625229 0.000000
0.915134 0.625229 0.000000
0.943515 0.625229 0.000000
0.971803 0.625229 0.000000
1.000000 0.625229 0.000000
0.000000 0.654799 0.000000
0.044056 0.654799 0.000000
0.082264 0.654799 0.000000
0.118535 0.654799 0.000000
0.153605 0.654799 0.000000
0.187807 0.654799 0.000000
0.221333 0.654799 0.000000
0.254307 0.654799 0.000000
0.286816 0.654799 0.000000
0.318924 0.654799 0.000000
0.350679 0.654799 0.000000
0.382121 0.654799 0.000000
0.413280 0.654799 0.000000
0.444183 0.654799 0.000000
0.474850 0.654799 0.000000
0.505302 0.654799 0.000000
0.535552 0.654799 0.000000
0.565616 0.654799 0.000000
0.595505 0.654799 0.000000
0.625229 0.654799 0.000000
0.654799 0.654799 0.000000
0.684223 0.654799 0.000000
0.713508 0.654799 0.000000
0.742661 0.654799 0.000000
0.771689 0.654799 0.000000
0.800598 0.654799 0.000000
0.829392 0.654799 0.000000
0.858076 0.654799 0.000000
0.886656 0.654799 0.000000
0.915134 0.654799 0.000000
0.943515 0.654799 0.000000
0.971803 0.654799 0.000000
1.000000 0.654799 0.000000
0.000000 0.684223 0.000000
0.044056 0.684223 0.000000
0.082264 0.684223 0.000000
0.118535 0.684223 0.000000
0.153605 0.684223 0.000000
0.187807 0.684223 0.000000
0.221333 0.684223 0.000000
0.254307 0.684223 0.000000
0.286816 0.684223 0.000000
0.318924 0.684223 0.000000
0.350679 0.684223 0.000000
0.382121 0.684223 0.000000
0.413280 0.684223 0.000000
0.444183 0.684223 0.000000
0.474850 0.684223 0.000000
0.505302 0.684223 0.000000
0.535552 0.684223 0.000000
0.565616 0.684223 0.000000
0.595505 0.684223 0.000000
0.625229 0.684223 0.000000
0.654799 0.684223 0.000000
0.684223 0.684223 0.000000
0.713508 0.684223 0.000000
0.742661 0.684223 0.000000
0.771689 0.684223 0.000000
0.800598 0.684223 0.000000
0.829392 0.684223 0.000000
0.858076 0.684223 0.000000
0.886656 0.684223 0.000000
0.915134 0.684223 0.000000
0.943515 0.684223 0.000000
0.971803 0.684223 0.000000
1.000000 0.684223 0.000000
0.000000 0.713508 0.000000
0.044056 0.713508 0.000000
0.082264 0.713508 0.000000
0.118535 0.713508 0.000000
0.153605 0.713508 0.000000
0.187807 0.713508 0.000000
0.221333 0.713508 0.000000
0.254307 0.713508 0.000000
0.286816 0.713508 0.000000
0.318924 0.713508 0.000000
0.350679 0.713508 0.000000
0.382121 0.713508 0.000000
0.413280 0.713508 0.000000
0.444183 0.713508 0.000000
0.474850 0.713508 0.000000
0.505302 0.713508 0.000000
0.535552 0.713508 0.000000
0.565616 0.713508 0.000000
0.595505 0.713508 0.000000
0.625229 0.713508 0.000000
0.654799 0.713508 0.000000
0.684223 0.713508 0.000000
0.713508 0.713508 0.000000
0.742661 0.713508 0.000000
0.771689 0.713508 0.000000
0.800598 0.713508 0.000000
0.829392 0.713508 0.000000
0.858076 0.713508 0.000000
0.886656 0.713508 0.000000
0.915134 0.713508 0.000000
0.943515 0.713508 0.000000
0.971803 0.713508 0.000000
1.000000 0.713508 0.000000
0.000000 0.742661 0.000000
0.044056 0.742661 0.000000
0.082264 0.742661 0.000000
0.118535 0.742661 0.000000
0.153605 0.742661 0.000000
0.187807 0.742661 0.000000
0.221333 0.742661 0.000000
0.254307 0.742661 0.000000
0.286816 0.742661 0.000000
0.318924 0.742661 0.000000
0.350679 0.742661 0.000000
0.382121 0.742661 0.000000
0.413280 0.742661 0.000000
0.444183 0.742661 0.000000
0.474850 0.742661 0.000000
0.505302 0.742661 0.000000
0.535552 0.742661 0.000000
0.565616 0.742661 0.000000
0.595505 0.742661 0.000000
0.625229 0.742661 0.000000
0.654799 0.742661 0.000000
0.684223 0.742661 0.000000
0.713508 0.742661 0.000000
0.742661 0.742661 0.000000
0.771689 0.742661 0.000000
0.800598 0.742661 0.000000
0.829392 0.742661 0.000000
0.858076 0.742661 0.000000
0.886656 0.742661 0.000000
0.915134 0.742661 0.000000
0.943515 0.742661 0.000000
0.971803 0.742661 0.000000
1.000000 0.742661 0.000000
0.000000 0.771689 0.000000
0.044056 0.771689 0.000000
0.082264 0.771689 0.000000
0.118535 0.771689 0.000000
0.153605 0.771689 0.000000
0.187807 0.771689 0.000000
0.221333 0.771689 0.000000
0.254307 0.771689 0.000000
0.286816 0.771689 0.000000
0.318924 0.771689 0.000000
0.350679 0.771689 0.000000
0.382121 0.771689 0.000000
0.413280 0.771689 0.000000
0.444183 0.771689 0.000000
0.474850 0.771689 0.000000
0.505302 0.771689 0.000000
0.535552 0.771689 0.000000
0.565616 0.771689 0.000000
0.595505 0.771689 0.000000
0.625229 0.771689 0.000000
0.654799 0.771689 0.000000
0.684223 0.771689 0.000000
0.713508 0.771689 0.000000
0.742661 0.771689 0.000000
0.771689 0.771689 0.000000
0.800598 0.771689 0.000000
0.829392 0.771689 0.000000
0.858076 0.771689 0.000000
0.886656 0.771689 0.000000
0.915134 0.771689 0.000000
0.943515 0.771689 0.000000
0.971803 0.771689 0.000000
1.000000 0.771689 0.000000
0.000000 0.800598 0.000000
0.044056 0.800598 0.000000
0.082264 0.800598 0.000000
0.118535 0.800598 0.000000
0.153605 0.800598 0.000000
0.187807 0.800598 0.000000
0.221333 0.800598 0.000000
0.254307 0.800598 0.000000
0.286816 0.800598 0.000000
0.318924 0.800598 0.000000
0.350679 0.800598 0.000000
0.382121 0.800598 0.000000
0.413280 0.800598 0.000000
0.444183 0.800598 0.000000
0.474850 0.800598 0.000000
0.505302 0.800598 0.000000
0.535552 0.800598 0.000000
0.565616 0.800598 0.000000
0.595505 0.800598 0.000000
0.625229 0.800598 0.000000
0.654799 0.800598 0.000000
0.684223 0.800598 0.000000
0.713508 0.800598 0.000000
0.742661 0.800598 0.000000
0.771689 0.800598 0.000000
0.800598 0.800598 0.000000
0.829392 0.800598 0.000000
0.858076 0.800598 0.000000
0.886656 0.800598 0.000000
0.915134 0.800598 0.000000
0.943515 0.800598 0.000000
0.971803 0.800598 0.000000
1.000000 0.800598 0.000000
0.000000 0.829392 0.000000
0.044056 0.829392 0.000000
0.082264 0.829392 0.000000
0.118535 0.829392 0.000000
0.153605 0.829392 0.000000
0.187807 0.829392 0.000000
0.221333 0.829392 0.000000
0.254307 0.829392 0.000000
0.286816 0.829392 0.000000
0.318924 0.829392 0.000000
0.350679 0.829392 0.000000
0.382121 0.829392 0.000000
0.413280 0.829392 0.000000
0.444183 0.829392 0.000000
0.474850 0.829392 0.000000
0.505302 0.829392 0.000000
0.535552 0.829392 0.000000
0.565616 0.829392 0.000000
0.595505 0.829392 0.000000
0.625229 0.829392 0.000000
0.654799 0.829392 0.000000
0.684223 0.829392 0.000000
0.713508 0.829392 0.000000
0.742661 0.829392 0.000000
0.771689 0.829392 0.000000
