presets/film_stocks/Kodak_Vision_2383.cube
# 独寻胶片模拟 -- Kodak Vision 2383
# Kodak, ISO 0, 1998, negative
TITLE "Kodak Vision 2383"
LUT_3D_SIZE 33
DOMAIN_MIN 0.0 0.0 0.0
DOMAIN_MAX 1.0 1.0 1.0
0.000000 0.000000 0.000000
0.084119 0.000000 0.000000
0.138011 0.000000 0.000000
0.184371 0.000000 0.000000
0.226431 0.000000 0.000000
0.265557 0.000000 0.000000
0.302493 0.000000 0.000000
0.337703 0.000000 0.000000
0.371499 0.000000 0.000000
0.404105 0.000000 0.000000
0.435691 0.000000 0.000000
0.466385 0.000000 0.000000
0.496291 0.000000 0.000000
0.525493 0.000000 0.000000
0.554059 0.000000 0.000000
0.582047 0.000000 0.000000
0.609507 0.000000 0.000000
0.636480 0.000000 0.000000
0.663004 0.000000 0.000000
0.689110 0.000000 0.000000
0.714825 0.000000 0.000000
0.740176 0.000000 0.000000
0.765185 0.000000 0.000000
0.789870 0.000000 0.000000
0.814251 0.000000 0.000000
0.838342 0.000000 0.000000
0.862160 0.000000 0.000000
0.885718 0.000000 0.000000
0.909028 0.000000 0.000000
0.932101 0.000000 0.000000
0.954947 0.000000 0.000000
0.977578 0.000000 0.000000
1.000000 0.000000 0.000000
0.000000 0.084119 0.000000
0.084119 0.084119 0.000000
0.138011 0.084119 0.000000
0.184371 0.084119 0.000000
0.226431 0.084119 0.000000
0.265557 0.084119 0.000000
0.302493 0.084119 0.000000
0.337703 0.084119 0.000000
0.371499 0.084119 0.000000
0.404105 0.084119 0.000000
0.435691 0.084119 0.000000
0.466385 0.084119 0.000000
0.496291 0.084119 0.000000
0.525493 0.084119 0.000000
0.554059 0.084119 0.000000
0.582047 0.084119 0.000000
0.609507 0.084119 0.000000
0.636480 0.084119 0.000000
0.663004 0.084119 0.000000
0.689110 0.084119 0.000000
0.714825 0.084119 0.000000
0.740176 0.084119 0.000000
0.765185 0.084119 0.000000
0.789870 0.084119 0.000000
0.814251 0.084119 0.000000
0.838342 0.084119 0.000000
0.862160 0.084119 0.000000
0.885718 0.084119 0.000000
0.909028 0.084119 0.000000
0.932101 0.084119 0.000000
0.954947 0.084119 0.000000
0.977578 0.084119 0.000000
1.000000 0.084119 0.000000
0.000000 0.138011 0.000000
0.084119 0.138011 0.000000
0.138011 0.138011 0.000000
0.184371 0.138011 0.000000
0.226431 0.138011 0.000000
0.265557 0.138011 0.000000
0.302493 0.138011 0.000000
0.337703 0.138011 0.000000
0.371499 0.138011 0.000000
0.404105 0.138011 0.000000
0.435691 0.138011 0.000000
0.466385 0.138011 0.000000
0.496291 0.138011 0.000000
0.525493 0.138011 0.000000
0.554059 0.138011 0.000000
0.582047 0.138011 0.000000
0.609507 0.138011 0.000000
0.636480 0.138011 0.000000
0.663004 0.138011 0.000000
0.689110 0.138011 0.000000
0.714825 0.138011 0.000000
0.740176 0.138011 0.000000
0.765185 0.138011 0.000000
0.789870 0.138011 0.000000
0.814251 0.138011 0.000000
0.838342 0.138011 0.000000
0.862160 0.138011 0.000000
0.885718 0.138011 0.000000
0.909028 0.138011 0.000000
0.932101 0.138011 0.000000
0.954947 0.138011 0.000000
0.977578 0.138011 0.000000
1.000000 0.138011 0.000000
0.000000 0.184371 0.000000
0.084119 0.184371 0.000000
0.138011 0.184371 0.000000
0.184371 0.184371 0.000000
0.226431 0.184371 0.000000
0.265557 0.184371 0.000000
0.302493 0.184371 0.000000
0.337703 0.184371 0.000000
0.371499 0.184371 0.000000
0.404105 0.184371 0.000000
0.435691 0.184371 0.000000
0.466385 0.184371 0.000000
0.496291 0.184371 0.000000
0.525493 0.184371 0.000000
0.554059 0.184371 0.000000
0.582047 0.184371 0.000000
0.609507 0.184371 0.000000
0.636480 0.184371 0.000000
0.663004 0.184371 0.000000
0.689110 0.184371 0.000000
0.714825 0.184371 0.000000
0.740176 0.184371 0.000000
0.765185 0.184371 0.000000
0.789870 0.184371 0.000000
0.814251 0.184371 0.000000
0.838342 0.184371 0.000000
0.862160 0.184371 0.000000
0.885718 0.184371 0.000000
0.909028 0.184371 0.000000
0.932101 0.184371 0.000000
0.954947 0.184371 0.000000
0.977578 0.184371 0.000000
1.000000 0.184371 0.000000
0.000000 0.226431 0.000000
0.084119 0.226431 0.000000
0.138011 0.226431 0.000000
0.184371 0.226431 0.000000
0.226431 0.226431 0.000000
0.265557 0.226431 0.000000
0.302493 0.226431 0.000000
0.337703 0.226431 0.000000
0.371499 0.226431 0.000000
0.404105 0.226431 0.000000
0.435691 0.226431 0.000000
0.466385 0.226431 0.000000
0.496291 0.226431 0.000000
0.525493 0.226431 0.000000
0.554059 0.226431 0.000000
0.582047 0.226431 0.000000
0.609507 0.226431 0.000000
0.636480 0.226431 0.000000
0.663004 0.226431 0.000000
0.689110 0.226431 0.000000
0.714825 0.226431 0.000000
0.740176 0.226431 0.000000
0.765185 0.226431 0.000000
0.789870 0.226431 0.000000
0.814251 0.226431 0.000000
0.838342 0.226431 0.000000
0.862160 0.226431 0.000000
0.885718 0.226431 0.000000
0.909028 0.226431 0.000000
0.932101 0.226431 0.000000
0.954947 0.226431 0.000000
0.977578 0.226431 0.000000
1.000000 0.226431 0.000000
0.000000 0.265557 0.000000
0.084119 0.265557 0.000000
0.138011 0.265557 0.000000
0.184371 0.265557 0.000000
0.226431 0.265557 0.000000
0.265557 0.265557 0.000000
0.302493 0.265557 0.000000
0.337703 0.265557 0.000000
0.371499 0.265557 0.000000
0.404105 0.265557 0.000000
0.435691 0.265557 0.000000
0.466385 0.265557 0.000000
0.496291 0.265557 0.000000
0.525493 0.265557 0.000000
0.554059 0.265557 0.000000
0.582047 0.265557 0.000000
0.609507 0.265557 0.000000
0.636480 0.265557 0.000000
0.663004 0.265557 0.000000
0.689110 0.265557 0.000000
0.714825 0.265557 0.000000
0.740176 0.265557 0.000000
0.765185 0.265557 0.000000
0.789870 0.265557 0.000000
0.814251 0.265557 0.000000
0.838342 0.265557 0.000000
0.862160 0.265557 0.000000
0.885718 0.265557 0.000000
0.909028 0.265557 0.000000
0.932101 0.265557 0.000000
0.954947 0.265557 0.000000
0.977578 0.265557 0.000000
1.000000 0.265557 0.000000
0.000000 0.302493 0.000000
0.084119 0.302493 0.000000
0.138011 0.302493 0.000000
0.184371 0.302493 0.000000
0.226431 0.302493 0.000000
0.265557 0.302493 0.000000
0.302493 0.302493 0.000000
0.337703 0.302493 0.000000
0.371499 0.302493 0.000000
0.404105 0.302493 0.000000
0.435691 0.302493 0.000000
0.466385 0.302493 0.000000
0.496291 0.302493 0.000000
0.525493 0.302493 0.000000
0.554059 0.302493 0.000000
0.582047 0.302493 0.000000
0.609507 0.302493 0.000000
0.636480 0.302493 0.000000
0.663004 0.302493 0.000000
0.689110 0.302493 0.000000
0.714825 0.302493 0.000000
0.740176 0.302493 0.000000
0.765185 0.302493 0.000000
0.789870 0.302493 0.000000
0.814251 0.302493 0.000000
0.838342 0.302493 0.000000
0.862160 0.302493 0.000000
0.885718 0.302493 0.000000
0.909028 0.302493 0.000000
0.932101 0.302493 0.000000
0.954947 0.302493 0.000000
0.977578 0.302493 0.000000
1.000000 0.302493 0.000000
0.000000 0.337703 0.000000
0.084119 0.337703 0.000000
0.138011 0.337703 0.000000
0.184371 0.337703 0.000000
0.226431 0.337703 0.000000
0.265557 0.337703 0.000000
0.302493 0.337703 0.000000
0.337703 0.337703 0.000000
0.371499 0.337703 0.000000
0.404105 0.337703 0.000000
0.435691 0.337703 0.000000
0.466385 0.337703 0.000000
0.496291 0.337703 0.000000
0.525493 0.337703 0.000000
0.554059 0.337703 0.000000
0.582047 0.337703 0.000000
0.609507 0.337703 0.000000
0.636480 0.337703 0.000000
0.663004 0.337703 0.000000
0.689110 0.337703 0.000000
0.714825 0.337703 0.000000
0.740176 0.337703 0.000000
0.765185 0.337703 0.000000
0.789870 0.337703 0.000000
0.814251 0.337703 0.000000
0.838342 0.337703 0.000000
0.862160 0.337703 0.000000
0.885718 0.337703 0.000000
0.909028 0.337703 0.000000
0.932101 0.337703 0.000000
0.954947 0.337703 0.000000
0.977578 0.337703 0.000000
1.000000 0.337703 0.000000
0.000000 0.371499 0.000000
0.084119 0.371499 0.000000
0.138011 0.371499 0.000000
0.184371 0.371499 0.000000
0.226431 0.371499 0.000000
0.265557 0.371499 0.000000
0.302493 0.371499 0.000000
0.337703 0.371499 0.000000
0.371499 0.371499 0.000000
0.404105 0.371499 0.000000
0.435691 0.371499 0.000000
0.466385 0.371499 0.000000
0.496291 0.371499 0.000000
0.525493 0.371499 0.000000
0.554059 0.371499 0.000000
0.582047 0.371499 0.000000
0.609507 0.371499 0.000000
0.636480 0.371499 0.000000
0.663004 0.371499 0.000000
0.689110 0.371499 0.000000
0.714825 0.371499 0.000000
0.740176 0.371499 0.000000
0.765185 0.371499 0.000000
0.789870 0.371499 0.000000
0.814251 0.371499 0.000000
0.838342 0.371499 0.000000
0.862160 0.371499 0.000000
0.885718 0.371499 0.000000
0.909028 0.371499 0.000000
0.932101 0.371499 0.000000
0.954947 0.371499 0.000000
0.977578 0.371499 0.000000
1.000000 0.371499 0.000000
0.000000 0.404105 0.000000
0.084119 0.404105 0.000000
0.138011 0.404105 0.000000
0.184371 0.404105 0.000000
0.226431 0.404105 0.000000
0.265557 0.404105 0.000000
0.302493 0.404105 0.000000
0.337703 0.404105 0.000000
0.371499 0.404105 0.000000
0.404105 0.404105 0.000000
0.435691 0.404105 0.000000
0.466385 0.404105 0.000000
0.496291 0.404105 0.000000
0.525493 0.404105 0.000000
0.554059 0.404105 0.000000
0.582047 0.404105 0.000000
0.609507 0.404105 0.000000
0.636480 0.404105 0.000000
0.663004 0.404105 0.000000
0.689110 0.404105 0.000000
0.714825 0.404105 0.000000
0.740176 0.404105 0.000000
0.765185 0.404105 0.000000
0.789870 0.404105 0.000000
0.814251 0.404105 0.000000
0.838342 0.404105 0.000000
0.862160 0.404105 0.000000
0.885718 0.404105 0.000000
0.909028 0.404105 0.000000
0.932101 0.404105 0.000000
0.954947 0.404105 0.000000
0.977578 0.404105 0.000000
1.000000 0.404105 0.000000
0.000000 0.435691 0.000000
0.084119 0.435691 0.000000
0.138011 0.435691 0.000000
0.184371 0.435691 0.000000
0.226431 0.435691 0.000000
0.265557 0.435691 0.000000
0.302493 0.435691 0.000000
0.337703 0.435691 0.000000
0.371499 0.435691 0.000000
0.404105 0.435691 0.000000
0.435691 0.435691 0.000000
0.466385 0.435691 0.000000
0.496291 0.435691 0.000000
0.525493 0.435691 0.000000
0.554059 0.435691 0.000000
0.582047 0.435691 0.000000
0.609507 0.435691 0.000000
0.636480 0.435691 0.000000
0.663004 0.435691 0.000000
0.689110 0.435691 0.000000
0.714825 0.435691 0.000000
0.740176 0.435691 0.000000
0.765185 0.435691 0.000000
0.789870 0.435691 0.000000
0.814251 0.435691 0.000000
0.838342 0.435691 0.000000
0.862160 0.435691 0.000000
0.885718 0.435691 0.000000
0.909028 0.435691 0.000000
0.932101 0.435691 0.000000
0.954947 0.435691 0.000000
0.977578 0.435691 0.000000
1.000000 0.435691 0.000000
0.000000 0.466385 0.000000
0.084119 0.466385 0.000000
0.138011 0.466385 0.000000
0.184371 0.466385 0.000000
0.226431 0.466385 0.000000
0.265557 0.466385 0.000000
0.302493 0.466385 0.000000
0.337703 0.466385 0.000000
0.371499 0.466385 0.000000
0.404105 0.466385 0.000000
0.435691 0.466385 0.000000
0.466385 0.466385 0.000000
0.496291 0.466385 0.000000
0.525493 0.466385 0.000000
0.554059 0.466385 0.000000
0.582047 0.466385 0.000000
0.609507 0.466385 0.000000
0.636480 0.466385 0.000000
0.663004 0.466385 0.000000
0.689110 0.466385 0.000000
0.714825 0.466385 0.000000
0.740176 0.466385 0.000000
0.765185 0.466385 0.000000
0.789870 0.466385 0.000000
0.814251 0.466385 0.000000
0.838342 0.466385 0.000000
0.862160 0.466385 0.000000
0.885718 0.466385 0.000000
0.909028 0.466385 0.000000
0.932101 0.466385 0.000000
0.954947 0.466385 0.000000
0.977578 0.466385 0.000000
1.000000 0.466385 0.000000
0.000000 0.496291 0.000000
0.084119 0.496291 0.000000
0.138011 0.496291 0.000000
0.184371 0.496291 0.000000
0.226431 0.496291 0.000000
0.265557 0.496291 0.000000
0.302493 0.496291 0.000000
0.337703 0.496291 0.000000
0.371499 0.496291 0.000000
0.404105 0.496291 0.000000
0.435691 0.496291 0.000000
0.466385 0.496291 0.000000
0.496291 0.496291 0.000000
0.525493 0.496291 0.000000
0.554059 0.496291 0.000000
0.582047 0.496291 0.000000
0.609507 0.496291 0.000000
0.636480 0.496291 0.000000
0.663004 0.496291 0.000000
0.689110 0.496291 0.000000
0.714825 0.496291 0.000000
0.740176 0.496291 0.000000
0.765185 0.496291 0.000000
0.789870 0.496291 0.000000
0.814251 0.496291 0.000000
0.838342 0.496291 0.000000
0.862160 0.496291 0.000000
0.885718 0.496291 0.000000
0.909028 0.496291 0.000000
0.932101 0.496291 0.000000
0.954947 0.496291 0.000000
0.977578 0.496291 0.000000
1.000000 0.496291 0.000000
0.000000 0.525493 0.000000
0.084119 0.525493 0.000000
0.138011 0.525493 0.000000
0.184371 0.525493 0.000000
0.226431 0.525493 0.000000
0.265557 0.525493 0.000000
0.302493 0.525493 0.000000
0.337703 0.525493 0.000000
0.371499 0.525493 0.000000
0.404105 0.525493 0.000000
0.435691 0.525493 0.000000
0.466385 0.525493 0.000000
0.496291 0.525493 0.000000
0.525493 0.525493 0.000000
0.554059 0.525493 0.000000
0.582047 0.525493 0.000000
0.609507 0.525493 0.000000
0.636480 0.525493 0.000000
0.663004 0.525493 0.000000
0.689110 0.525493 0.000000
0.714825 0.525493 0.000000
0.740176 0.525493 0.000000
0.765185 0.525493 0.000000
0.789870 0.525493 0.000000
0.814251 0.525493 0.000000
0.838342 0.525493 0.000000
0.862160 0.525493 0.000000
0.885718 0.525493 0.000000
0.909028 0.525493 0.000000
0.932101 0.525493 0.000000
0.954947 0.525493 0.000000
0.977578 0.525493 0.000000
1.000000 0.525493 0.000000
0.000000 0.554059 0.000000
0.084119 0.554059 0.000000
0.138011 0.554059 0.000000
0.184371 0.554059 0.000000
0.226431 0.554059 0.000000
0.265557 0.554059 0.000000
0.302493 0.554059 0.000000
0.337703 0.554059 0.000000
0.371499 0.554059 0.000000
0.404105 0.554059 0.000000
0.435691 0.554059 0.000000
0.466385 0.554059 0.000000
0.496291 0.554059 0.000000
0.525493 0.554059 0.000000
0.554059 0.554059 0.000000
0.582047 0.554059 0.000000
0.609507 0.554059 0.000000
0.636480 0.554059 0.000000
0.663004 0.554059 0.000000
0.689110 0.554059 0.000000
0.714825 0.554059 0.000000
0.740176 0.554059 0.000000
0.765185 0.554059 0.000000
0.789870 0.554059 0.000000
0.814251 0.554059 0.000000
0.838342 0.554059 0.000000
0.862160 0.554059 0.000000
0.885718 0.554059 0.000000
0.909028 0.554059 0.000000
0.932101 0.554059 0.000000
0.954947 0.554059 0.000000
0.977578 0.554059 0.000000
1.000000 0.554059 0.000000
0.000000 0.582047 0.000000
0.084119 0.582047 0.000000
0.138011 0.582047 0.000000
0.184371 0.582047 0.000000
0.226431 0.582047 0.000000
0.265557 0.582047 0.000000
0.302493 0.582047 0.000000
0.337703 0.582047 0.000000
0.371499 0.582047 0.000000
0.404105 0.582047 0.000000
0.435691 0.582047 0.000000
0.466385 0.582047 0.000000
0.496291 0.582047 0.000000
0.525493 0.582047 0.000000
0.554059 0.582047 0.000000
0.582047 0.582047 0.000000
0.609507 0.582047 0.000000
0.636480 0.582047 0.000000
0.663004 0.582047 0.000000
0.689110 0.582047 0.000000
0.714825 0.582047 0.000000
0.740176 0.582047 0.000000
0.765185 0.582047 0.000000
0.789870 0.582047 0.000000
0.814251 0.582047 0.000000
0.838342 0.582047 0.000000
0.862160 0.582047 0.000000
0.885718 0.582047 0.000000
0.909028 0.582047 0.000000
0.932101 0.582047 0.000000
0.954947 0.582047 0.000000
0.977578 0.582047 0.000000
1.000000 0.582047 0.000000
0.000000 0.609507 0.000000
0.084119 0.609507 0.000000
0.138011 0.609507 0.000000
0.184371 0.609507 0.000000
0.226431 0.609507 0.000000
0.265557 0.609507 0.000000
0.302493 0.609507 0.000000
0.337703 0.609507 0.000000
0.371499 0.609507 0.000000
0.404105 0.609507 0.000000
0.435691 0.609507 0.000000
0.466385 0.609507 0.000000
0.496291 0.609507 0.000000
0.525493 0.609507 0.000000
0.554059 0.609507 0.000000
0.582047 0.609507 0.000000
0.609507 0.609507 0.000000
0.636480 0.609507 0.000000
0.663004 0.609507 0.000000
0.689110 0.609507 0.000000
0.714825 0.609507 0.000000
0.740176 0.609507 0.000000
0.765185 0.609507 0.000000
0.789870 0.609507 0.000000
0.814251 0.609507 0.000000
0.838342 0.609507 0.000000
0.862160 0.609507 0.000000
0.885718 0.609507 0.000000
0.909028 0.609507 0.000000
0.932101 0.609507 0.000000
0.954947 0.609507 0.000000
0.977578 0.609507 0.000000
1.000000 0.609507 0.000000
0.000000 0.636480 0.000000
0.084119 0.636480 0.000000
0.138011 0.636480 0.000000
0.184371 0.636480 0.000000
0.226431 0.636480 0.000000
0.265557 0.636480 0.000000
0.302493 0.636480 0.000000
0.337703 0.636480 0.000000
0.371499 0.636480 0.000000
0.404105 0.636480 0.000000
0.435691 0.636480 0.000000
0.466385 0.636480 0.000000
0.496291 0.636480 0.000000
0.525493 0.636480 0.000000
0.554059 0.636480 0.000000
0.582047 0.636480 0.000000
0.609507 0.636480 0.000000
0.636480 0.636480 0.000000
0.663004 0.636480 0.000000
0.689110 0.636480 0.000000
0.714825 0.636480 0.000000
0.740176 0.636480 0.000000
0.765185 0.636480 0.000000
0.789870 0.636480 0.000000
0.814251 0.636480 0.000000
0.838342 0.636480 0.000000
0.862160 0.636480 0.000000
0.885718 0.636480 0.000000
0.909028 0.636480 0.000000
0.932101 0.636480 0.000000
0.954947 0.636480 0.000000
0.977578 0.636480 0.000000
1.000000 0.636480 0.000000
0.000000 0.663004 0.000000
0.084119 0.663004 0.000000
0.138011 0.663004 0.000000
0.184371 0.663004 0.000000
0.226431 0.663004 0.000000
0.265557 0.663004 0.000000
0.302493 0.663004 0.000000
0.337703 0.663004 0.000000
0.371499 0.663004 0.000000
0.404105 0.663004 0.000000
0.435691 0.663004 0.000000
0.466385 0.663004 0.000000
0.496291 0.663004 0.000000
0.525493 0.663004 0.000000
0.554059 0.663004 0.000000
0.582047 0.663004 0.000000
0.609507 0.663004 0.000000
0.636480 0.663004 0.000000
0.663004 0.663004 0.000000
0.689110 0.663004 0.000000
0.714825 0.663004 0.000000
0.740176 0.663004 0.000000
0.765185 0.663004 0.000000
0.789870 0.663004 0.000000
0.814251 0.663004 0.000000
0.838342 0.663004 0.000000
0.862160 0.663004 0.000000
0.885718 0.663004 0.000000
0.909028 0.663004 0.000000
0.932101 0.663004 0.000000
0.954947 0.663004 0.000000
0.977578 0.663004 0.000000
1.000000 0.663004 0.000000
0.000000 0.689110 0.000000
0.084119 0.689110 0.000000
0.138011 0.689110 0.000000
0.184371 0.689110 0.000000
0.226431 0.689110 0.000000
0.265557 0.689110 0.000000
0.302493 0.689110 0.000000
0.337703 0.689110 0.000000
0.371499 0.689110 0.000000
0.404105 0.689110 0.000000
0.435691 0.689110 0.000000
0.466385 0.689110 0.000000
0.496291 0.689110 0.000000
0.525493 0.689110 0.000000
0.554059 0.689110 0.000000
0.582047 0.689110 0.000000
0.609507 0.689110 0.000000
0.636480 0.689110 0.000000
0.663004 0.689110 0.000000
0.689110 0.689110 0.000000
0.714825 0.689110 0.000000
0.740176 0.689110 0.000000
0.765185 0.689110 0.000000
0.789870 0.689110 0.000000
0.814251 0.689110 0.000000
0.838342 0.689110 0.000000
0.862160 0.689110 0.000000
0.885718 0.689110 0.000000
0.909028 0.689110 0.000000
0.932101 0.689110 0.000000
0.954947 0.689110 0.000000
0.977578 0.689110 0.000000
1.000000 0.689110 0.000000
0.000000 0.714825 0.000000
0.084119 0.714825 0.000000
0.138011 0.714825 0.000000
0.184371 0.714825 0.000000
0.226431 0.714825 0.000000
0.265557 0.714825 0.000000
0.302493 0.714825 0.000000
0.337703 0.714825 0.000000
0.371499 0.714825 0.000000
0.404105 0.714825 0.000000
0.435691 0.714825 0.000000
0.466385 0.714825 0.000000
0.496291 0.714825 0.000000
0.525493 0.714825 0.000000
0.554059 0.714825 0.000000
0.582047 0.714825 0.000000
0.609507 0.714825 0.000000
0.636480 0.714825 0.000000
0.663004 0.714825 0.000000
0.689110 0.714825 0.000000
0.714825 0.714825 0.000000
0.740176 0.714825 0.000000
0.765185 0.714825 0.000000
0.789870 0.714825 0.000000
0.814251 0.714825 0.000000
0.838342 0.714825 0.000000
0.862160 0.714825 0.000000
0.885718 0.714825 0.000000
0.909028 0.714825 0.000000
0.932101 0.714825 0.000000
0.954947 0.714825 0.000000
0.977578 0.714825 0.000000
1.000000 0.714825 0.000000
0.000000 0.740176 0.000000
0.084119 0.740176 0.000000
0.138011 0.740176 0.000000
0.184371 0.740176 0.000000
0.226431 0.740176 0.000000
0.265557 0.740176 0.000000
0.302493 0.740176 0.000000
0.337703 0.740176 0.000000
0.371499 0.740176 0.000000
0.404105 0.740176 0.000000
0.435691 0.740176 0.000000
0.466385 0.740176 0.000000
0.496291 0.740176 0.000000
0.525493 0.740176 0.000000
0.554059 0.740176 0.000000
0.582047 0.740176 0.000000
0.609507 0.740176 0.000000
0.636480 0.740176 0.000000
0.663004 0.740176 0.000000
0.689110 0.740176 0.000000
0.714825 0.740176 0.000000
0.740176 0.740176 0.000000
0.765185 0.740176 0.000000
0.789870 0.740176 0.000000
0.814251 0.740176 0.000000
0.838342 0.740176 0.000000
0.862160 0.740176 0.000000
0.885718 0.740176 0.000000
0.909028 0.740176 0.000000
0.932101 0.740176 0.000000
0.954947 0.740176 0.000000
0.977578 0.740176 0.000000
1.000000 0.740176 0.000000
0.000000 0.765185 0.000000
0.084119 0.765185 0.000000
0.138011 0.765185 0.000000
0.184371 0.765185 0.000000
0.226431 0.765185 0.000000
0.265557 0.765185 0.000000
0.302493 0.765185 0.000000
0.337703 0.765185 0.000000
0.371499 0.765185 0.000000
0.404105 0.765185 0.000000
0.435691 0.765185 0.000000
0.466385 0.765185 0.000000
0.496291 0.765185 0.000000
0.525493 0.765185 0.000000
0.554059 0.765185 0.000000
0.582047 0.765185 0.000000
0.609507 0.765185 0.000000
0.636480 0.765185 0.000000
0.663004 0.765185 0.000000
0.689110 0.765185 0.000000
0.714825 0.765185 0.000000
0.740176 0.765185 0.000000
0.765185 0.765185 0.000000
0.789870 0.765185 0.000000
0.814251 0.765185 0.000000
0.838342 0.765185 0.000000
0.862160 0.765185 0.000000
0.885718 0.765185 0.000000
0.909028 0.765185 0.000000
0.932101 0.765185 0.000000
0.954947 0.765185 0.000000
0.977578 0.765185 0.000000
1.000000 0.765185 0.000000
0.000000 0.789870 0.000000
0.084119 0.789870 0.000000
0.138011 0.789870 0.000000
0.184371 0.789870 0.000000
0.226431 0.789870 0.000000
0.265557 0.789870 0.000000
0.302493 0.789870 0.000000
0.337703 0.789870 0.000000
0.371499 0.789870 0.000000
0.404105 0.789870 0.000000
0.435691 0.789870 0.000000
0.466385 0.789870 0.000000
0.496291 0.789870 0.000000
0.525493 0.789870 0.000000
0.554059 0.789870 0.000000
0.582047 0.789870 0.000000
0.609507 0.789870 0.000000
0.636480 0.789870 0.000000
0.663004 0.789870 0.000000
0.689110 0.789870 0.000000
0.714825 0.789870 0.000000
0.740176 0.789870 0.000000
0.765185 0.789870 0.000000
0.789870 0.789870 0.000000
0.814251 0.789870 0.000000
0.838342 0.789870 0.000000
0.862160 0.789870 0.000000
0.885718 0.789870 0.000000
0.909028 0.789870 0.000000
0.932101 0.789870 0.000000
0.954947 0.789870 0.000000
0.977578 0.789870 0.000000
1.000000 0.789870 0.000000
0.000000 0.814251 0.000000
0.084119 0.814251 0.000000
0.138011 0.814251 0.000000
0.184371 0.814251 0.000000
0.226431 0.814251 0.000000
0.265557 0.814251 0.000000
0.302493 0.814251 0.000000
0.337703 0.814251 0.000000
0.371499 0.814251 0.000000
0.404105 0.814251 0.000000
0.435691 0.814251 0.000000
0.466385 0.814251 0.000000
0.496291 0.814251 0.000000
0.525493 0.814251 0.000000
0.554059 0.814251 0.000000
0.582047 0.814251 0.000000
0.609507 0.814251 0.000000
0.636480 0.814251 0.000000
0.663004 0.814251 0.000000
0.689110 0.814251 0.000000
0.714825 0.814251 0.000000
0.740176 0.814251 0.000000
0.765185 0.814251 0.000000
0.789870 0.814251 0.000000
0.814251 0.814251 0.000000
0.838342 0.814251 0.000000
0.862160 0.814251 0.000000
0.885718 0.814251 0.000000
0.909028 0.814251 0.000000
0.932101 0.814251 0.000000
0.954947 0.814251 0.000000
0.977578 0.814251 0.000000
1.000000 0.814251 0.000000
0.000000 0.838342 0.000000
0.084119 0.838342 0.000000
0.138011 0.838342 0.000000
0.184371 0.838342 0.000000
0.226431 0.838342 0.000000
0.265557 0.838342 0.000000
0.302493 0.838342 0.000000
0.337703 0.838342 0.000000
0.371499 0.838342 0.000000
0.404105 0.838342 0.000000
0.435691 0.838342 0.000000
0.466385 0.838342 0.000000
0.496291 0.838342 0.000000
0.525493 0.838342 0.000000
0.554059 0.838342 0.000000
0.582047 0.838342 0.000000
0.609507 0.838342 0.000000
0.636480 0.838342 0.000000
0.663004 0.838342 0.000000
0.689110 0.838342 0.000000
0.714825 0.838342 0.000000
0.740176 0.838342 0.000000
0.765185 0.838342 0.000000
0.789870 0.838342 0.000000
0.814251 0.838342 0.000000
0.838342 0.838342 0.000000
0.862160 0.838342 0.000000
0.885718 0.838342 0.000000
0.909028 0.838342 0.000000
0.932101 0.838342 0.000000
0.954947 0.838342 0.000000
0.977578 0.838342 0.000000
1.000000 0.838342 0.000000
0.000000 0.862160 0.000000
0.084119 0.862160 0.000000
0.138011 0.862160 0.000000
0.184371 0.862160 0.000000
0.226431 0.862160 0.000000
0.265557 0.862160 0.000000
0.302493 0.862160 0.000000
0.337703 0.862160 0.000000
0.371499 0.862160 0.000000
0.404105 0.862160 0.000000
0.435691 0.862160 0.000000
0.466385 0.862160 0.000000
0.496291 0.862160 0.000000
0.525493 0.862160 0.000000
0.554059 0.862160 0.000000
0.582047 0.862160 0.000000
0.609507 0.862160 0.000000
0.636480 0.862160 0.000000
0.663004 0.862160 0.000000
0.689110 0.862160 0.000000
0.714825 0.862160 0.000000
0.740176 0.862160 0.000000
0.765185 0.862160 0.000000
0.789870 0.862160 0.000000
0.814251 0.862160 0.000000
