presets/film_stocks/Kodak_Portra_800.cube
# 独寻胶片模拟 -- Kodak Portra 800
# Kodak, ISO 800, 1998, negative
TITLE "Kodak Portra 800"
LUT_3D_SIZE 5
DOMAIN_MIN 0.0 0.0 0.0
DOMAIN_MAX 1.0 1.0 1.0
0.000000 0.000000 0.000000
0.326784 0.011849 0.000000
0.597071 0.021650 0.000000
0.849472 0.030802 0.000000
1.000000 0.039557 0.000000
0.000000 0.317125 0.000000
0.315976 0.323409 0.000000
0.587210 0.329675 0.000000
0.840122 0.335923 0.000000
1.000000 0.342153 0.000000
0.000000 0.579424 0.000000
0.305113 0.585168 0.000000
0.577324 0.590905 0.000000
0.830758 0.596633 0.000000
1.000000 0.602353 0.000000
0.000000 0.824364 0.000000
0.294191 0.829814 0.000000
0.567413 0.835259 0.000000
0.821377 0.840699 0.000000
1.000000 0.846133 0.000000
0.000000 1.000000 0.000000
0.283208 1.000000 0.000000
0.557475 1.000000 0.000000
0.811980 1.000000 0.000000
1.000000 1.000000 0.000000
0.000000 0.000000 0.314692
0.310443 0.000000 0.304615
0.582171 0.000000 0.294488
0.835348 0.000000 0.284309
1.000000 0.003164 0.274075
0.000000 0.293193 0.309651
0.299550 0.299550 0.299550
0.572273 0.305887 0.289397
0.825976 0.312205 0.279191
1.000000 0.318503 0.268928
0.000000 0.557624 0.304599
0.288597 0.563402 0.294472
0.562348 0.569171 0.284293
0.816587 0.574931 0.274059
1.000000 0.580683 0.263767
0.000000 0.803707 0.299534
0.277582 0.809178 0.289381
0.552397 0.814644 0.279175
0.807182 0.820104 0.268912
1.000000 0.825558 0.258590
0.000000 1.000000 0.294456
0.266501 1.000000 0.284277
0.542419 1.000000 0.274043
0.797760 1.000000 0.263751
1.000000 1.000000 0.253398
0.000000 0.000000 0.574977
0.293972 0.000000 0.565783
0.567214 0.000000 0.556566
0.821189 0.000000 0.547326
1.000000 0.000000 0.538063
0.000000 0.268963 0.570375
0.282988 0.275402 0.561170
0.557276 0.281819 0.551942
0.811792 0.288214 0.542691
1.000000 0.294587 0.533416
0.000000 0.535696 0.565768
0.271939 0.541509 0.556551
0.547312 0.547312 0.547312
0.802379 0.553106 0.538049
1.000000 0.558891 0.528762
0.000000 0.782971 0.561155
0.260823 0.788463 0.551927
0.537320 0.793950 0.542676
0.792949 0.799431 0.533401
1.000000 0.804906 0.524102
0.000000 1.000000 0.556537
0.249635 1.000000 0.547297
0.527300 1.000000 0.538034
0.783502 1.000000 0.528747
1.000000 1.000000 0.519435
0.000000 0.000000 0.818037
0.277361 0.000000 0.809320
0.552198 0.000000 0.800589
0.806994 0.000000 0.791844
1.000000 0.000000 0.783084
0.000000 0.244401 0.813674
0.266279 0.250932 0.804950
0.542219 0.257437 0.796211
0.797572 0.263918 0.787459
1.000000 0.270376 0.778691
0.000000 0.513633 0.809306
0.255126 0.519482 0.800575
0.532213 0.525321 0.791830
0.788133 0.531150 0.783070
1.000000 0.536970 0.774295
0.000000 0.762152 0.804936
0.243900 0.767666 0.796197
0.522179 0.773175 0.787445
0.778677 0.778677 0.778677
1.000000 0.784174 0.769895
0.000000 0.998840 0.800561
0.232596 1.000000 0.791816
0.512116 1.000000 0.783056
0.769205 1.000000 0.774281
1.000000 1.000000 0.765492
0.000000 0.000000 1.000000
0.260600 0.000000 1.000000
0.537120 0.000000 1.000000
0.792760 0.000000 1.000000
1.000000 0.000000 1.000000
0.000000 0.219462 1.000000
0.249410 0.226098 1.000000
0.527099 0.232704 1.000000
0.783313 0.239282 1.000000
1.000000 0.245834 1.000000
0.000000 0.491426 1.000000
0.238145 0.497314 1.000000
0.517050 0.503191 1.000000
0.773849 0.509058 1.000000
1.000000 0.514915 1.000000
0.000000 0.741247 1.000000
0.226799 0.746784 1.000000
0.506972 0.752316 1.000000
0.764367 0.757841 1.000000
1.000000 0.763360 1.000000
0.000000 0.978777 1.000000
0.215368 0.984089 1.000000
0.496863 0.989397 1.000000
0.754867 0.994701 1.000000
1.000000 1.000000 1.000000
