presets/film_stocks/Kodak_Portra_400.cube
# 独寻胶片模拟 -- Kodak Portra 400
# Kodak, ISO 400, 2010, negative
TITLE "Kodak Portra 400"
LUT_3D_SIZE 33
DOMAIN_MIN 0.0 0.0 0.0
DOMAIN_MAX 1.0 1.0 1.0
0.000000 0.000000 0.000000
0.062255 0.002668 0.000000
0.110397 0.004731 0.000000
0.154343 0.006615 0.000000
0.195768 0.008390 0.000000
0.235414 0.010089 0.000000
0.273698 0.011730 0.000000
0.310885 0.013324 0.000000
0.347158 0.014878 0.000000
0.382650 0.016399 0.000000
0.417463 0.017891 0.000000
0.451676 0.019357 0.000000
0.485352 0.020801 0.000000
0.518544 0.022223 0.000000
0.551296 0.023627 0.000000
0.583644 0.025013 0.000000
0.615619 0.026383 0.000000
0.647249 0.027739 0.000000
0.678558 0.029081 0.000000
0.709566 0.030410 0.000000
0.740292 0.031727 0.000000
0.770752 0.033032 0.000000
0.800962 0.034327 0.000000
0.830934 0.035611 0.000000
0.860681 0.036886 0.000000
0.890213 0.038152 0.000000
0.919541 0.039409 0.000000
0.948674 0.040657 0.000000
0.977620 0.041898 0.000000
1.000000 0.043131 0.000000
1.000000 0.044356 0.000000
1.000000 0.045574 0.000000
1.000000 0.046786 0.000000
0.000000 0.060646 0.000000
0.060297 0.061788 0.000000
0.108664 0.062926 0.000000
0.152729 0.064059 0.000000
0.194233 0.065188 0.000000
0.233938 0.066313 0.000000
0.272268 0.067434 0.000000
0.309492 0.068551 0.000000
0.345797 0.069664 0.000000
0.381317 0.070774 0.000000
0.416154 0.071880 0.000000
0.450388 0.072982 0.000000
0.484084 0.074081 0.000000
0.517294 0.075177 0.000000
0.550062 0.076269 0.000000
0.582424 0.077358 0.000000
0.614413 0.078443 0.000000
0.646056 0.079526 0.000000
0.677376 0.080605 0.000000
0.708395 0.081681 0.000000
0.739132 0.082755 0.000000
0.769602 0.083825 0.000000
0.799821 0.084893 0.000000
0.829802 0.085958 0.000000
0.859557 0.087020 0.000000
0.889097 0.088079 0.000000
0.918432 0.089136 0.000000
0.947572 0.090190 0.000000
0.976525 0.091241 0.000000
1.000000 0.092290 0.000000
1.000000 0.093337 0.000000
1.000000 0.094381 0.000000
1.000000 0.095422 0.000000
0.000000 0.107545 0.000000
0.058326 0.108558 0.000000
0.106925 0.109570 0.000000
0.151111 0.110579 0.000000
0.192695 0.111587 0.000000
0.232459 0.112593 0.000000
0.270836 0.113597 0.000000
0.308098 0.114599 0.000000
0.344435 0.115599 0.000000
0.379983 0.116597 0.000000
0.414844 0.117594 0.000000
0.449100 0.118589 0.000000
0.482815 0.119582 0.000000
0.516043 0.120573 0.000000
0.548827 0.121563 0.000000
0.581204 0.122551 0.000000
0.613206 0.123537 0.000000
0.644862 0.124521 0.000000
0.676194 0.125504 0.000000
0.707224 0.126486 0.000000
0.737971 0.127466 0.000000
0.768451 0.128444 0.000000
0.798679 0.129420 0.000000
0.828669 0.130395 0.000000
0.858432 0.131369 0.000000
0.887980 0.132341 0.000000
0.917324 0.133312 0.000000
0.946471 0.134281 0.000000
0.975431 0.135248 0.000000
1.000000 0.136214 0.000000
1.000000 0.137179 0.000000
1.000000 0.138142 0.000000
1.000000 0.139104 0.000000
0.000000 0.150355 0.000000
0.056340 0.151300 0.000000
0.105180 0.152244 0.000000
0.149489 0.153186 0.000000
0.191155 0.154128 0.000000
0.230978 0.155068 0.000000
0.269402 0.156007 0.000000
0.306703 0.156944 0.000000
0.343073 0.157881 0.000000
0.378648 0.158816 0.000000
0.413534 0.159751 0.000000
0.447811 0.160684 0.000000
0.481546 0.161616 0.000000
0.514791 0.162546 0.000000
0.547591 0.163476 0.000000
0.579983 0.164405 0.000000
0.611999 0.165332 0.000000
0.643667 0.166259 0.000000
0.675011 0.167184 0.000000
0.706053 0.168108 0.000000
0.736810 0.169031 0.000000
0.767300 0.169953 0.000000
0.797537 0.170875 0.000000
0.827536 0.171795 0.000000
0.857307 0.172714 0.000000
0.886864 0.173632 0.000000
0.916214 0.174548 0.000000
0.945369 0.175464 0.000000
0.974336 0.176379 0.000000
1.000000 0.177293 0.000000
1.000000 0.178206 0.000000
1.000000 0.179118 0.000000
1.000000 0.180029 0.000000
0.000000 0.190710 0.000000
0.054340 0.191609 0.000000
0.103430 0.192507 0.000000
0.147864 0.193405 0.000000
0.189612 0.194301 0.000000
0.229496 0.195197 0.000000
0.267967 0.196092 0.000000
0.305307 0.196985 0.000000
0.341708 0.197879 0.000000
0.377312 0.198771 0.000000
0.412222 0.199662 0.000000
0.446522 0.200553 0.000000
0.480276 0.201442 0.000000
0.513539 0.202331 0.000000
0.546355 0.203219 0.000000
0.578761 0.204106 0.000000
0.610791 0.204993 0.000000
0.642472 0.205878 0.000000
0.673828 0.206763 0.000000
0.704881 0.207647 0.000000
0.735648 0.208530 0.000000
0.766148 0.209413 0.000000
0.796395 0.210295 0.000000
0.826402 0.211175 0.000000
0.856182 0.212056 0.000000
0.885747 0.212935 0.000000
0.915105 0.213814 0.000000
0.944267 0.214691 0.000000
0.973241 0.215568 0.000000
1.000000 0.216445 0.000000
1.000000 0.217320 0.000000
1.000000 0.218195 0.000000
1.000000 0.219069 0.000000
0.000000 0.229332 0.000000
0.052325 0.230197 0.000000
0.101673 0.231061 0.000000
0.146235 0.231925 0.000000
0.188066 0.232788 0.000000
0.228011 0.233650 0.000000
0.266530 0.234512 0.000000
0.303909 0.235373 0.000000
0.340343 0.236233 0.000000
0.375975 0.237093 0.000000
0.410910 0.237952 0.000000
0.445231 0.238810 0.000000
0.479005 0.239668 0.000000
0.512286 0.240525 0.000000
0.545118 0.241382 0.000000
0.577540 0.242238 0.000000
0.609583 0.243093 0.000000
0.641277 0.243947 0.000000
0.672645 0.244801 0.000000
0.703708 0.245654 0.000000
0.734487 0.246507 0.000000
0.764996 0.247359 0.000000
0.795252 0.248211 0.000000
0.825268 0.249061 0.000000
0.855057 0.249912 0.000000
0.884629 0.250761 0.000000
0.913995 0.251610 0.000000
0.943164 0.252459 0.000000
0.972145 0.253306 0.000000
1.000000 0.254154 0.000000
1.000000 0.255000 0.000000
1.000000 0.255846 0.000000
1.000000 0.256692 0.000000
0.000000 0.266627 0.000000
0.050293 0.267465 0.000000
0.099909 0.268302 0.000000
0.144602 0.269139 0.000000
0.186518 0.269976 0.000000
0.226525 0.270812 0.000000
0.265091 0.271647 0.000000
0.302509 0.272482 0.000000
0.338977 0.273317 0.000000
0.374637 0.274150 0.000000
0.409597 0.274984 0.000000
0.443940 0.275816 0.000000
0.477734 0.276649 0.000000
0.511032 0.277480 0.000000
0.543880 0.278312 0.000000
0.576317 0.279142 0.000000
0.608375 0.279972 0.000000
0.640081 0.280802 0.000000
0.671461 0.281631 0.000000
0.702536 0.282460 0.000000
0.733324 0.283288 0.000000
0.763844 0.284115 0.000000
0.794109 0.284942 0.000000
0.824134 0.285769 0.000000
0.853931 0.286595 0.000000
0.883511 0.287421 0.000000
0.912885 0.288246 0.000000
0.942061 0.289070 0.000000
0.971049 0.289894 0.000000
0.999857 0.290718 0.000000
1.000000 0.291541 0.000000
1.000000 0.292363 0.000000
1.000000 0.293186 0.000000
0.000000 0.302853 0.000000
0.048243 0.303669 0.000000
0.098139 0.304484 0.000000
0.142966 0.305300 0.000000
0.184967 0.306114 0.000000
0.225036 0.306929 0.000000
0.263651 0.307742 0.000000
0.301109 0.308556 0.000000
0.337609 0.309368 0.000000
0.373298 0.310181 0.000000
0.408283 0.310993 0.000000
0.442648 0.311804 0.000000
0.476461 0.312616 0.000000
0.509778 0.313426 0.000000
0.542642 0.314236 0.000000
0.575094 0.315046 0.000000
0.607165 0.315856 0.000000
0.638885 0.316664 0.000000
0.670277 0.317473 0.000000
0.701363 0.318281 0.000000
0.732162 0.319089 0.000000
0.762691 0.319896 0.000000
0.792966 0.320702 0.000000
0.823000 0.321509 0.000000
0.852805 0.322315 0.000000
0.882393 0.323120 0.000000
0.911775 0.323925 0.000000
0.940958 0.324730 0.000000
0.969953 0.325534 0.000000
0.998767 0.326338 0.000000
1.000000 0.327141 0.000000
1.000000 0.327944 0.000000
1.000000 0.328747 0.000000
0.000000 0.338188 0.000000
0.046175 0.338986 0.000000
0.096362 0.339783 0.000000
0.141325 0.340579 0.000000
0.183413 0.341376 0.000000
0.223545 0.342172 0.000000
0.262209 0.342967 0.000000
0.299707 0.343762 0.000000
0.336241 0.344557 0.000000
0.371958 0.345351 0.000000
0.406968 0.346145 0.000000
0.441355 0.346938 0.000000
0.475188 0.347732 0.000000
0.508523 0.348524 0.000000
0.541404 0.349317 0.000000
0.573870 0.350109 0.000000
0.605956 0.350900 0.000000
0.637688 0.351692 0.000000
0.669092 0.352482 0.000000
0.700189 0.353273 0.000000
0.730999 0.354063 0.000000
0.761538 0.354853 0.000000
0.791822 0.355642 0.000000
0.821865 0.356431 0.000000
0.851679 0.357220 0.000000
0.881275 0.358008 0.000000
0.910664 0.358796 0.000000
0.939855 0.359584 0.000000
0.968857 0.360371 0.000000
0.997678 0.361158 0.000000
1.000000 0.361944 0.000000
1.000000 0.362730 0.000000
1.000000 0.363516 0.000000
0.000000 0.372764 0.000000
0.044088 0.373545 0.000000
0.094579 0.374326 0.000000
0.139680 0.375106 0.000000
0.181857 0.375887 0.000000
0.222052 0.376667 0.000000
0.260766 0.377446 0.000000
0.298303 0.378225 0.000000
0.334871 0.379004 0.000000
0.370617 0.379783 0.000000
0.405652 0.380561 0.000000
0.440061 0.381339 0.000000
0.473915 0.382117 0.000000
0.507267 0.382894 0.000000
0.540164 0.383671 0.000000
0.572646 0.384447 0.000000
0.604745 0.385224 0.000000
0.636491 0.386000 0.000000
0.667906 0.386775 0.000000
0.699015 0.387550 0.000000
0.729835 0.388325 0.000000
0.760385 0.389100 0.000000
0.790678 0.389874 0.000000
0.820730 0.390648 0.000000
0.850552 0.391422 0.000000
0.880157 0.392195 0.000000
0.909553 0.392968 0.000000
0.938752 0.393741 0.000000
0.967761 0.394513 0.000000
0.996588 0.395285 0.000000
1.000000 0.396057 0.000000
1.000000 0.396828 0.000000
1.000000 0.397600 0.000000
0.000000 0.406677 0.000000
0.041979 0.407444 0.000000
0.092788 0.408211 0.000000
0.138032 0.408978 0.000000
0.180297 0.409744 0.000000
0.220557 0.410510 0.000000
0.259320 0.411275 0.000000
0.296898 0.412041 0.000000
0.333500 0.412806 0.000000
0.369275 0.413571 0.000000
0.404335 0.414335 0.000000
0.438767 0.415099 0.000000
0.472640 0.415863 0.000000
0.506011 0.416627 0.000000
0.538925 0.417390 0.000000
0.571422 0.418153 0.000000
0.603535 0.418915 0.000000
0.635293 0.419678 0.000000
0.666721 0.420440 0.000000
0.697841 0.421202 0.000000
0.728671 0.421963 0.000000
0.759231 0.422725 0.000000
0.789534 0.423485 0.000000
0.819594 0.424246 0.000000
0.849425 0.425006 0.000000
0.879038 0.425767 0.000000
0.908442 0.426526 0.000000
0.937648 0.427286 0.000000
0.966664 0.428045 0.000000
0.995498 0.428804 0.000000
1.000000 0.429563 0.000000
1.000000 0.430321 0.000000
1.000000 0.431079 0.000000
0.000000 0.440006 0.000000
0.039848 0.440760 0.000000
0.090990 0.441515 0.000000
0.136379 0.442269 0.000000
0.178735 0.443023 0.000000
0.219060 0.443776 0.000000
0.257874 0.444529 0.000000
0.295492 0.445282 0.000000
0.332128 0.446035 0.000000
0.367932 0.446787 0.000000
0.403017 0.447540 0.000000
0.437472 0.448291 0.000000
0.471365 0.449043 0.000000
0.504754 0.449794 0.000000
0.537684 0.450546 0.000000
0.570196 0.451296 0.000000
0.602324 0.452047 0.000000
0.634095 0.452797 0.000000
0.665535 0.453547 0.000000
0.696666 0.454297 0.000000
0.727507 0.455047 0.000000
0.758077 0.455796 0.000000
0.788389 0.456545 0.000000
0.818459 0.457294 0.000000
0.848298 0.458042 0.000000
0.877919 0.458790 0.000000
0.907331 0.459538 0.000000
0.936544 0.460286 0.000000
0.965567 0.461034 0.000000
0.994408 0.461781 0.000000
1.000000 0.462528 0.000000
1.000000 0.463274 0.000000
1.000000 0.464021 0.000000
0.000000 0.472812 0.000000
0.037693 0.473556 0.000000
0.089184 0.474299 0.000000
0.134722 0.475041 0.000000
0.177170 0.475784 0.000000
0.217561 0.476526 0.000000
0.256425 0.477268 0.000000
0.294084 0.478010 0.000000
0.330754 0.478752 0.000000
0.366588 0.479493 0.000000
0.401699 0.480234 0.000000
0.436176 0.480975 0.000000
0.470089 0.481716 0.000000
0.503496 0.482456 0.000000
0.536443 0.483196 0.000000
0.568971 0.483936 0.000000
0.601112 0.484676 0.000000
0.632896 0.485415 0.000000
0.664348 0.486154 0.000000
0.695491 0.486893 0.000000
0.726343 0.487632 0.000000
0.756922 0.488370 0.000000
0.787244 0.489109 0.000000
0.817323 0.489847 0.000000
0.847170 0.490584 0.000000
0.876799 0.491322 0.000000
0.906219 0.492059 0.000000
0.935439 0.492796 0.000000
0.964469 0.493533 0.000000
0.993317 0.494270 0.000000
1.000000 0.495006 0.000000
1.000000 0.495742 0.000000
1.000000 0.496478 0.000000
0.000000 0.505147 0.000000
0.035511 0.505880 0.000000
0.087371 0.506613 0.000000
0.133060 0.507345 0.000000
0.175602 0.508078 0.000000
0.216059 0.508810 0.000000
0.254975 0.509542 0.000000
0.292675 0.510274 0.000000
0.329380 0.511005 0.000000
0.365242 0.511736 0.000000
0.400379 0.512467 0.000000
0.434879 0.513198 0.000000
0.468813 0.513929 0.000000
0.502238 0.514659 0.000000
0.535202 0.515389 0.000000
0.567744 0.516119 0.000000
0.599900 0.516849 0.000000
0.631697 0.517578 0.000000
0.663161 0.518308 0.000000
0.694315 0.519037 0.000000
0.725178 0.519766 0.000000
0.755767 0.520494 0.000000
0.786099 0.521223 0.000000
0.816186 0.521951 0.000000
0.846043 0.522679 0.000000
0.875679 0.523407 0.000000
0.905107 0.524134 0.000000
0.934335 0.524862 0.000000
0.963372 0.525589 0.000000
0.992226 0.526316 0.000000
1.000000 0.527043 0.000000
1.000000 0.527769 0.000000
1.000000 0.528496 0.000000
0.000000 0.537052 0.000000
0.033301 0.537776 0.000000
0.085550 0.538500 0.000000
0.131395 0.539223 0.000000
0.174031 0.539946 0.000000
0.214556 0.540669 0.000000
0.253523 0.541391 0.000000
0.291265 0.542114 0.000000
0.328004 0.542836 0.000000
0.363896 0.543558 0.000000
0.399059 0.544280 0.000000
0.433581 0.545002 0.000000
0.467535 0.545723 0.000000
0.500979 0.546444 0.000000
0.533959 0.547165 0.000000
0.566517 0.547886 0.000000
0.598687 0.548607 0.000000
0.630497 0.549327 0.000000
0.661974 0.550048 0.000000
0.693139 0.550768 0.000000
0.724012 0.551487 0.000000
0.754612 0.552207 0.000000
0.784953 0.552927 0.000000
0.815049 0.553646 0.000000
0.844914 0.554365 0.000000
0.874559 0.555084 0.000000
0.903994 0.555802 0.000000
0.933230 0.556521 0.000000
0.962274 0.557239 0.000000
0.991135 0.557957 0.000000
1.000000 0.558675 0.000000
1.000000 0.559393 0.000000
1.000000 0.560110 0.000000
0.000000 0.568564 0.000000
0.031060 0.569279 0.000000
0.083721 0.569994 0.000000
0.129725 0.570709 0.000000
0.172458 0.571424 0.000000
0.213050 0.572138 0.000000
0.252069 0.572852 0.000000
0.289853 0.573566 0.000000
0.326627 0.574280 0.000000
0.362549 0.574993 0.000000
0.397737 0.575707 0.000000
0.432283 0.576420 0.000000
0.466257 0.577133 0.000000
0.499719 0.577846 0.000000
0.532717 0.578558 0.000000
0.565290 0.579271 0.000000
0.597473 0.579983 0.000000
0.629297 0.580695 0.000000
0.660786 0.581407 0.000000
0.691962 0.582119 0.000000
0.722847 0.582830 0.000000
0.753456 0.583542 0.000000
0.783807 0.584253 0.000000
0.813912 0.584964 0.000000
0.843786 0.585675 0.000000
0.873439 0.586385 0.000000
0.902882 0.587096 0.000000
0.932125 0.587806 0.000000
0.961176 0.588516 0.000000
0.990044 0.589226 0.000000
1.000000 0.589936 0.000000
1.000000 0.590645 0.000000
1.000000 0.591355 0.000000
0.000000 0.599714 0.000000
0.028784 0.600421 0.000000
0.081883 0.601128 0.000000
0.128050 0.601834 0.000000
0.170881 0.602541 0.000000
0.211542 0.603247 0.000000
0.250613 0.603954 0.000000
0.288440 0.604660 0.000000
0.325249 0.605366 0.000000
0.361201 0.606071 0.000000
0.396415 0.606777 0.000000
0.430984 0.607482 0.000000
0.464979 0.608187 0.000000
0.498459 0.608892 0.000000
0.531473 0.609597 0.000000
0.564062 0.610302 0.000000
0.596260 0.611006 0.000000
0.628096 0.611711 0.000000
0.659597 0.612415 0.000000
0.690785 0.613119 0.000000
0.721680 0.613823 0.000000
0.752300 0.614526 0.000000
0.782660 0.615230 0.000000
0.812775 0.615933 0.000000
0.842657 0.616636 0.000000
0.872318 0.617339 0.000000
0.901769 0.618042 0.000000
0.931019 0.618745 0.000000
0.960078 0.619447 0.000000
0.988952 0.620150 0.000000
1.000000 0.620852 0.000000
1.000000 0.621554 0.000000
1.000000 0.622256 0.000000
0.000000 0.630526 0.000000
0.026470 0.631226 0.000000
0.080036 0.631926 0.000000
0.126370 0.632625 0.000000
0.169301 0.633324 0.000000
0.210032 0.634023 0.000000
0.249156 0.634722 0.000000
0.287025 0.635421 0.000000
0.323869 0.636120 0.000000
0.359851 0.636818 0.000000
0.395092 0.637516 0.000000
0.429683 0.638214 0.000000
0.463699 0.638912 0.000000
0.497198 0.639610 0.000000
0.530229 0.640308 0.000000
0.562833 0.641005 0.000000
0.595045 0.641702 0.000000
0.626895 0.642400 0.000000
0.658408 0.643097 0.000000
0.689608 0.643793 0.000000
0.720514 0.644490 0.000000
0.751144 0.645187 0.000000
0.781513 0.645883 0.000000
0.811637 0.646579 0.000000
0.841528 0.647275 0.000000
0.871197 0.647971 0.000000
0.900656 0.648667 0.000000
0.929913 0.649362 0.000000
0.958979 0.650058 0.000000
0.987861 0.650753 0.000000
1.000000 0.651448 0.000000
1.000000 0.652143 0.000000
1.000000 0.652838 0.000000
0.000000 0.661026 0.000000
0.024112 0.661719 0.000000
0.078181 0.662412 0.000000
0.124686 0.663104 0.000000
0.167718 0.663797 0.000000
0.208519 0.664489 0.000000
0.247697 0.665181 0.000000
0.285609 0.665873 0.000000
0.322488 0.666564 0.000000
0.358501 0.667256 0.000000
0.393768 0.667947 0.000000
0.428382 0.668639 0.000000
0.462419 0.669330 0.000000
0.495936 0.670021 0.000000
0.528984 0.670712 0.000000
0.561604 0.671402 0.000000
0.593831 0.672093 0.000000
0.625694 0.672783 0.000000
0.657219 0.673474 0.000000
0.688430 0.674164 0.000000
0.719347 0.674854 0.000000
0.749987 0.675544 0.000000
0.780366 0.676233 0.000000
0.810499 0.676923 0.000000
0.840398 0.677612 0.000000
0.870076 0.678301 0.000000
0.899542 0.678990 0.000000
0.928807 0.679679 0.000000
0.957880 0.680368 0.000000
0.986769 0.681057 0.000000
1.000000 0.681745 0.000000
1.000000 0.682433 0.000000
1.000000 0.683122 0.000000
0.000000 0.691233 0.000000
0.021705 0.691920 0.000000
0.076316 0.692606 0.000000
0.122998 0.693292 0.000000
0.166132 0.693978 0.000000
0.207004 0.694663 0.000000
0.246236 0.695349 0.000000
0.284191 0.696035 0.000000
0.321107 0.696720 0.000000
0.357149 0.697405 0.000000
0.392443 0.698090 0.000000
0.427081 0.698775 0.000000
0.461138 0.699460 0.000000
0.494674 0.700144 0.000000
0.527739 0.700829 0.000000
0.560374 0.701513 0.000000
0.592615 0.702198 0.000000
0.624491 0.702882 0.000000
0.656030 0.703566 0.000000
0.687252 0.704249 0.000000
0.718180 0.704933 0.000000
0.748830 0.705617 0.000000
0.779219 0.706300 0.000000
0.809361 0.706983 0.000000
0.839269 0.707666 0.000000
0.868954 0.708349 0.000000
0.898429 0.709032 0.000000
0.927701 0.709715 0.000000
0.956781 0.710397 0.000000
0.985676 0.711080 0.000000
1.000000 0.711762 0.000000
1.000000 0.712444 0.000000
1.000000 0.713126 0.000000
0.000000 0.721165 0.000000
0.019240 0.721846 0.000000
0.074442 0.722526 0.000000
0.121304 0.723206 0.000000
0.164542 0.723886 0.000000
0.205487 0.724565 0.000000
0.244773 0.725245 0.000000
0.282772 0.725924 0.000000
0.319723 0.726604 0.000000
0.355797 0.727283 0.000000
0.391117 0.727962 0.000000
0.425778 0.728641 0.000000
0.459856 0.729320 0.000000
0.493411 0.729998 0.000000
0.526493 0.730677 0.000000
0.559144 0.731355 0.000000
0.591399 0.732033 0.000000
0.623289 0.732712 0.000000
0.654839 0.733390 0.000000
0.686074 0.734067 0.000000
0.717012 0.734745 0.000000
0.747672 0.735423 0.000000
0.778071 0.736100 0.000000
0.808222 0.736778 0.000000
0.838138 0.737455 0.000000
0.867832 0.738132 0.000000
0.897315 0.738809 0.000000
0.926595 0.739486 0.000000
0.955681 0.740162 0.000000
0.984584 0.740839 0.000000
1.000000 0.741515 0.000000
1.000000 0.742192 0.000000
1.000000 0.742868 0.000000
0.000000 0.750839 0.000000
0.016707 0.751513 0.000000
0.072557 0.752188 0.000000
0.119605 0.752862 0.000000
0.162950 0.753536 0.000000
0.203967 0.754210 0.000000
0.243309 0.754884 0.000000
0.281351 0.755558 0.000000
0.318339 0.756231 0.000000
0.354443 0.756905 0.000000
0.389790 0.757578 0.000000
0.424475 0.758252 0.000000
0.458573 0.758925 0.000000
0.492147 0.759598 0.000000
0.525247 0.760271 0.000000
0.557913 0.760943 0.000000
0.590183 0.761616 0.000000
0.622086 0.762288 0.000000
0.653649 0.762961 0.000000
0.684895 0.763633 0.000000
0.715844 0.764305 0.000000
0.746514 0.764977 0.000000
0.776923 0.765649 0.000000
0.807083 0.766321 0.000000
0.837008 0.766993 0.000000
0.866710 0.767664 0.000000
0.896200 0.768336 0.000000
0.925488 0.769007 0.000000
0.954582 0.769678 0.000000
0.983491 0.770349 0.000000
1.000000 0.771020 0.000000
1.000000 0.771691 0.000000
1.000000 0.772361 0.000000
0.000000 0.780268 0.000000
0.014090 0.780937 0.000000
0.070663 0.781606 0.000000
0.117902 0.782275 0.000000
0.161354 0.782943 0.000000
0.202445 0.783612 0.000000
0.241842 0.784281 0.000000
0.279929 0.784949 0.000000
0.316953 0.785617 0.000000
0.353089 0.786285 0.000000
0.388462 0.786953 0.000000
0.423170 0.787621 0.000000
0.457290 0.788289 0.000000
0.490883 0.788957 0.000000
0.524000 0.789624 0.000000
0.556682 0.790292 0.000000
0.588966 0.790959 0.000000
0.620882 0.791626 0.000000
0.652458 0.792293 0.000000
0.683715 0.792960 0.000000
0.714675 0.793627 0.000000
0.745356 0.794294 0.000000
0.775774 0.794961 0.000000
0.805943 0.795627 0.000000
0.835877 0.796293 0.000000
0.865588 0.796960 0.000000
0.895086 0.797626 0.000000
0.924381 0.798292 0.000000
0.953482 0.798958 0.000000
0.982398 0.799623 0.000000
1.000000 0.800289 0.000000
1.000000 0.800955 0.000000
1.000000 0.801620 0.000000
0.000000 0.809465 0.000000
0.011366 0.810129 0.000000
0.068757 0.810793 0.000000
0.116193 0.811457 0.000000
0.159754 0.812121 0.000000
0.200921 0.812784 0.000000
0.240374 0.813448 0.000000
0.278505 0.814111 0.000000
0.315566 0.814774 0.000000
0.351733 0.815437 0.000000
0.387133 0.816100 0.000000
0.421865 0.816763 0.000000
0.456006 0.817426 0.000000
0.489618 0.818088 0.000000
0.522752 0.818751 0.000000
0.555450 0.819413 0.000000
0.587748 0.820075 0.000000
0.619678 0.820737 0.000000
0.651266 0.821399 0.000000
0.682535 0.822061 0.000000
0.713506 0.822723 0.000000
0.744197 0.823385 0.000000
0.774625 0.824047 0.000000
0.804804 0.824708 0.000000
0.834746 0.825369 0.000000
0.864465 0.826031 0.000000
0.893971 0.826692 0.000000
0.923273 0.827353 0.000000
0.952382 0.828014 0.000000
0.981304 0.828675 0.000000
1.000000 0.829335 0.000000
1.000000 0.829996 0.000000
1.000000 0.830656 0.000000
0.000000 0.838444 0.000000
0.008495 0.839103 0.000000
0.066841 0.839762 0.000000
0.114478 0.840421 0.000000
0.158152 0.841079 0.000000
0.199394 0.841738 0.000000
0.238904 0.842396 0.000000
0.277080 0.843055 0.000000
0.314178 0.843713 0.000000
0.350376 0.844371 0.000000
0.385803 0.845030 0.000000
0.420559 0.845688 0.000000
0.454721 0.846345 0.000000
0.488352 0.847003 0.000000
0.521503 0.847661 0.000000
0.554217 0.848319 0.000000
0.586530 0.848976 0.000000
0.618474 0.849633 0.000000
0.650074 0.850291 0.000000
0.681355 0.850948 0.000000
0.712337 0.851605 0.000000
0.743038 0.852262 0.000000
0.773476 0.852919 0.000000
0.803663 0.853575 0.000000
0.833615 0.854232 0.000000
0.863342 0.854888 0.000000
0.892855 0.855545 0.000000
0.922165 0.856201 0.000000
0.951281 0.856857 0.000000
0.980211 0.857513 0.000000
1.000000 0.858169 0.000000
1.000000 0.858825 0.000000
1.000000 0.859481 0.000000
0.000000 0.867213 0.000000
0.005398 0.867867 0.000000
0.064913 0.868522 0.000000
0.112759 0.869176 0.000000
0.156546 0.869830 0.000000
0.197865 0.870484 0.000000
0.237432 0.871138 0.000000
0.275653 0.871792 0.000000
0.312788 0.872445 0.000000
0.349018 0.873099 0.000000
0.384473 0.873753 0.000000
0.419252 0.874406 0.000000
0.453436 0.875059 0.000000
0.487086 0.875712 0.000000
0.520254 0.876366 0.000000
0.552984 0.877019 0.000000
0.585312 0.877671 0.000000
0.617269 0.878324 0.000000
0.648882 0.878977 0.000000
0.680174 0.879630 0.000000
0.711167 0.880282 0.000000
0.741879 0.880934 0.000000
0.772326 0.881587 0.000000
0.802523 0.882239 0.000000
0.832483 0.882891 0.000000
0.862218 0.883543 0.000000
0.891740 0.884195 0.000000
0.921057 0.884847 0.000000
0.950180 0.885498 0.000000
0.979117 0.886150 0.000000
1.000000 0.886801 0.000000
1.000000 0.887453 0.000000
1.000000 0.888104 0.000000
0.000000 0.895783 0.000000
0.001825 0.896433 0.000000
0.062972 0.897083 0.000000
0.111034 0.897733 0.000000
0.154937 0.898382 0.000000
0.196333 0.899032 0.000000
0.235958 0.899682 0.000000
0.274225 0.900331 0.000000
0.311398 0.900980 0.000000
0.347659 0.901630 0.000000
0.383141 0.902279 0.000000
0.417945 0.902928 0.000000
0.452150 0.903577 0.000000
0.485819 0.904225 0.000000
0.519005 0.904874 0.000000
0.551751 0.905523 0.000000
0.584093 0.906171 0.000000
0.616063 0.906820 0.000000
0.647689 0.907468 0.000000
0.678993 0.908116 0.000000
0.709997 0.908764 0.000000
0.740719 0.909412 0.000000
0.771176 0.910060 0.000000
0.801382 0.910708 0.000000
0.831351 0.911356 0.000000
