presets/film_stocks/Kodak_EXR_100T_5248.cube
# 独寻胶片模拟 -- Kodak EXR 100T 5248
# Kodak, ISO 100, 1990, negative
TITLE "Kodak EXR 100T 5248"
LUT_3D_SIZE 9
DOMAIN_MIN 0.0 0.0 0.0
DOMAIN_MAX 1.0 1.0 1.0
0.000000 0.000000 0.000000
0.163311 0.002974 0.000000
0.316018 0.005754 0.000000
0.464962 0.008466 0.000000
0.611515 0.011135 0.000000
0.756314 0.013771 0.000000
0.899732 0.016383 0.000000
1.000000 0.018973 0.000000
1.000000 0.021546 0.000000
0.000000 0.152302 0.000000
0.154903 0.154627 0.000000
0.307888 0.156951 0.000000
0.456990 0.159272 0.000000
0.603652 0.161592 0.000000
0.748535 0.163911 0.000000
0.892020 0.166228 0.000000
1.000000 0.168543 0.000000
1.000000 0.170856 0.000000
0.000000 0.294714 0.000000
0.146472 0.296964 0.000000
0.299748 0.299214 0.000000
0.449010 0.301462 0.000000
0.595783 0.303710 0.000000
0.740751 0.305956 0.000000
0.884304 0.308202 0.000000
1.000000 0.310447 0.000000
1.000000 0.312692 0.000000
0.000000 0.433618 0.000000
0.138017 0.435825 0.000000
0.291596 0.438032 0.000000
0.441023 0.440238 0.000000
0.587909 0.442443 0.000000
0.732963 0.444648 0.000000
0.876585 0.446853 0.000000
1.000000 0.449057 0.000000
1.000000 0.451260 0.000000
0.000000 0.570291 0.000000
0.129535 0.572468 0.000000
0.283433 0.574645 0.000000
0.433029 0.576821 0.000000
0.580031 0.578997 0.000000
0.725171 0.581173 0.000000
0.868863 0.583348 0.000000
1.000000 0.585523 0.000000
1.000000 0.587697 0.000000
0.000000 0.705329 0.000000
0.121026 0.707483 0.000000
0.275258 0.709637 0.000000
0.425028 0.711791 0.000000
0.572146 0.713944 0.000000
0.717375 0.716097 0.000000
0.861137 0.718250 0.000000
1.000000 0.720402 0.000000
1.000000 0.722554 0.000000
0.000000 0.839078 0.000000
0.112486 0.841213 0.000000
0.267071 0.843349 0.000000
0.417019 0.845484 0.000000
0.564257 0.847619 0.000000
0.709574 0.849754 0.000000
0.853408 0.851888 0.000000
0.996034 0.854022 0.000000
1.000000 0.856156 0.000000
0.000000 0.971765 0.000000
0.103914 0.973885 0.000000
0.258871 0.976005 0.000000
0.409003 0.978124 0.000000
0.556361 0.980244 0.000000
0.701770 0.982363 0.000000
0.845676 0.984482 0.000000
0.988361 0.986601 0.000000
1.000000 0.988719 0.000000
0.000000 1.000000 0.000000
0.095307 1.000000 0.000000
0.250659 1.000000 0.000000
0.400978 1.000000 0.000000
0.548460 1.000000 0.000000
0.693961 1.000000 0.000000
0.837939 1.000000 0.000000
0.980685 1.000000 0.000000
1.000000 1.000000 0.000000
0.000000 0.000000 0.142545
0.146467 0.000000 0.139899
0.299742 0.000000 0.137250
0.449005 0.000000 0.134599
0.595778 0.000000 0.131945
0.740746 0.000000 0.129288
0.884299 0.000000 0.126629
1.000000 0.000000 0.123967
1.000000 0.002607 0.121302
0.000000 0.135673 0.140659
0.138011 0.138011 0.138011
0.291591 0.140348 0.135361
0.441018 0.142682 0.132708
0.587904 0.145015 0.130052
0.732958 0.147346 0.127394
0.876580 0.149675 0.124732
1.000000 0.152002 0.122068
1.000000 0.154328 0.119401
0.000000 0.278648 0.138772
0.129530 0.280904 0.136123
0.283428 0.283160 0.133470
0.433024 0.285414 0.130815
0.580026 0.287668 0.128158
0.725166 0.289921 0.125497
0.868858 0.292173 0.122834
1.000000 0.294424 0.120168
1.000000 0.296674 0.117499
0.000000 0.417866 0.136884
0.121020 0.420077 0.134233
0.275253 0.422288 0.131578
0.425023 0.424498 0.128922
0.572141 0.426708 0.126262
0.717370 0.428917 0.123600
0.861132 0.431125 0.120934
1.000000 0.433333 0.118266
1.000000 0.435540 0.115595
0.000000 0.554757 0.134995
0.112481 0.556937 0.132341
0.267066 0.559117 0.129685
0.417014 0.561296 0.127027
0.564251 0.563475 0.124365
0.709569 0.565654 0.121701
0.853403 0.567832 0.119033
0.996029 0.570010 0.116363
1.000000 0.572187 0.113689
0.000000 0.689961 0.133104
0.103909 0.692118 0.130449
0.258866 0.694274 0.127791
0.408997 0.696430 0.125130
0.556356 0.698586 0.122466
0.701765 0.700741 0.119800
0.845671 0.702896 0.117130
0.988356 0.705051 0.114458
1.000000 0.707205 0.111782
0.000000 0.823845 0.131212
0.095301 0.825982 0.128555
0.250653 0.828120 0.125895
0.400973 0.830257 0.123232
0.548455 0.832394 0.120566
0.693956 0.834530 0.117898
0.837934 0.836666 0.115226
0.980680 0.838802 0.112551
1.000000 0.840938 0.109873
0.000000 0.956644 0.129319
0.086655 0.958766 0.126659
0.242427 0.960887 0.123997
0.392941 0.963008 0.121333
0.540549 0.965129 0.118665
0.686142 0.967250 0.115994
0.830195 0.969371 0.113320
0.973002 0.971491 0.110643
1.000000 0.973611 0.107963
0.000000 1.000000 0.127424
0.077965 1.000000 0.124763
0.234187 1.000000 0.122099
0.384900 1.000000 0.119432
0.532636 1.000000 0.116762
0.678324 1.000000 0.114089
0.822451 1.000000 0.111413
0.965320 1.000000 0.108734
1.000000 1.000000 0.106051
0.000000 0.000000 0.275833
0.129524 0.000000 0.273273
0.283422 0.000000 0.270712
0.433019 0.000000 0.268150
0.580020 0.000000 0.265587
0.725161 0.000000 0.263023
0.868853 0.000000 0.260457
1.000000 0.000000 0.257890
1.000000 0.000000 0.255322
0.000000 0.118940 0.274009
0.121015 0.121294 0.271448
0.275247 0.123646 0.268887
0.425018 0.125995 0.266324
0.572136 0.128342 0.263760
0.717365 0.130687 0.261194
0.861128 0.133030 0.258628
1.000000 0.135371 0.256060
1.000000 0.137710 0.253491
0.000000 0.262535 0.272184
0.112475 0.264798 0.269623
0.267060 0.267060 0.267060
0.417009 0.269322 0.264497
0.564246 0.271582 0.261932
0.709564 0.273841 0.259365
0.853398 0.276100 0.256798
0.996024 0.278357 0.254229
1.000000 0.280614 0.251659
0.000000 0.402085 0.270359
0.103903 0.404300 0.267797
0.258861 0.406515 0.265233
0.408992 0.408729 0.262669
0.556351 0.410943 0.260103
0.701760 0.413156 0.257536
0.845666 0.415369 0.254967
0.988351 0.417581 0.252398
1.000000 0.419792 0.249826
0.000000 0.539201 0.268533
0.095296 0.541385 0.265970
0.250648 0.543568 0.263406
0.400968 0.545750 0.260840
0.548450 0.547932 0.258273
0.693951 0.550114 0.255705
0.837930 0.552295 0.253136
0.980676 0.554476 0.250565
1.000000 0.556656 0.247993
0.000000 0.674577 0.266707
0.086649 0.676736 0.264143
0.242422 0.678894 0.261578
0.392935 0.681053 0.259011
0.540544 0.683211 0.256443
0.686137 0.685369 0.253874
0.830190 0.687526 0.251304
0.972997 0.689683 0.248733
1.000000 0.691840 0.246160
0.000000 0.808597 0.264880
0.077959 0.810737 0.262315
0.234182 0.812876 0.259749
0.384895 0.815015 0.257181
0.532631 0.817154 0.254613
0.678319 0.819293 0.252043
0.822446 0.821431 0.249472
0.965315 0.823569 0.246899
1.000000 0.825707 0.244325
0.000000 0.941511 0.263052
0.069220 0.943634 0.260486
0.225927 0.945758 0.257919
0.376846 0.947881 0.255351
0.524713 0.950003 0.252781
0.670497 0.952126 0.250211
0.814699 0.954248 0.247638
0.957630 0.956370 0.245065
1.000000 0.958492 0.242490
0.000000 1.000000 0.261224
0.060426 1.000000 0.258657
0.217658 1.000000 0.256089
0.368788 1.000000 0.253520
0.516789 1.000000 0.250949
0.662670 1.000000 0.248378
0.806949 1.000000 0.245804
0.949942 1.000000 0.243230
1.000000 1.000000 0.240654
0.000000 0.000000 0.405837
0.112470 0.000000 0.403327
0.267055 0.000000 0.400816
0.417004 0.000000 0.398304
0.564241 0.000000 0.395791
0.709559 0.000000 0.393277
0.853393 0.000000 0.390763
0.996019 0.000000 0.388248
1.000000 0.000000 0.385731
0.000000 0.102089 0.404048
0.103898 0.104461 0.401537
0.258856 0.106830 0.399026
0.408987 0.109196 0.396513
0.556346 0.111560 0.394000
0.701755 0.113921 0.391485
0.845661 0.116280 0.388970
0.988346 0.118637 0.386454
1.000000 0.120991 0.383938
0.000000 0.246373 0.402259
0.095290 0.248643 0.399747
0.250643 0.250912 0.397235
0.400963 0.253181 0.394722
0.548445 0.255448 0.392208
0.693946 0.257714 0.389693
0.837925 0.259979 0.387177
0.980671 0.262243 0.384661
1.000000 0.264507 0.382144
0.000000 0.386272 0.400469
0.086644 0.388492 0.397957
0.242417 0.390712 0.395444
0.392930 0.392930 0.392930
0.540539 0.395148 0.390416
0.686132 0.397366 0.387900
0.830185 0.399583 0.385384
0.972992 0.401799 0.382867
1.000000 0.404015 0.380349
0.000000 0.523623 0.398679
0.077953 0.525810 0.396166
0.234177 0.527996 0.393653
0.384890 0.530182 0.391138
0.532626 0.532367 0.388623
0.678314 0.534552 0.386107
0.822441 0.536736 0.383591
0.965310 0.538920 0.381073
1.000000 0.541103 0.378555
0.000000 0.659174 0.396888
0.069215 0.661336 0.394375
0.225922 0.663497 0.391861
0.376840 0.665658 0.389346
0.524708 0.667819 0.386830
0.670492 0.669979 0.384314
0.814694 0.672139 0.381796
0.957625 0.674298 0.379278
1.000000 0.676457 0.376759
0.000000 0.793336 0.395097
0.060420 0.795477 0.392583
0.217652 0.797619 0.390069
0.368783 0.799760 0.387553
0.516784 0.801901 0.385037
0.662665 0.804041 0.382520
0.806944 0.806182 0.380002
0.949937 0.808322 0.377483
1.000000 0.810461 0.374964
0.000000 0.926366 0.393306
0.051561 0.928491 0.390791
0.209367 0.930616 0.388276
0.360716 0.932741 0.385760
0.508854 0.934865 0.383243
0.654833 0.936990 0.380726
0.799189 0.939114 0.378207
0.942246 0.941237 0.375688
1.000000 0.943361 0.373167
0.000000 1.000000 0.391514
0.042624 1.000000 0.388999
0.201065 1.000000 0.386483
0.352641 1.000000 0.383966
0.500917 1.000000 0.381449
0.646997 1.000000 0.378931
0.791431 1.000000 0.376412
0.934552 1.000000 0.373892
1.000000 1.000000 0.371371
0.000000 0.000000 0.533754
0.095285 0.000000 0.531278
0.250638 0.000000 0.528801
0.400958 0.000000 0.526324
0.548440 0.000000 0.523846
0.693941 0.000000 0.521367
0.837920 0.000000 0.518888
0.980666 0.000000 0.516408
1.000000 0.000000 0.513928
0.000000 0.085097 0.531990
0.086638 0.087490 0.529513
0.242412 0.089880 0.527036
0.392925 0.092267 0.524558
0.540534 0.094650 0.522080
0.686127 0.097031 0.519601
0.830180 0.099408 0.517121
0.972987 0.101783 0.514641
1.000000 0.104155 0.512160
0.000000 0.230157 0.530225
0.077948 0.232435 0.527748
0.234171 0.234712 0.525270
0.384884 0.236988 0.522792
0.532621 0.239262 0.520313
0.678309 0.241536 0.517834
0.822437 0.243809 0.515354
0.965305 0.246080 0.512873
1.000000 0.248351 0.510392
0.000000 0.370427 0.528459
0.069209 0.372652 0.525982
0.225917 0.374876 0.523504
0.376835 0.377099 0.521025
0.524703 0.379322 0.518546
0.670487 0.381544 0.516066
0.814690 0.383765 0.513586
0.957620 0.385986 0.511105
1.000000 0.388206 0.508623
0.000000 0.508022 0.526694
0.060414 0.510212 0.524216
0.217647 0.512401 0.521738
0.368778 0.514590 0.519259
0.516779 0.516779 0.516779
0.662660 0.518967 0.514299
0.806939 0.521154 0.511818
0.949932 0.523342 0.509336
1.000000 0.525528 0.506854
0.000000 0.643754 0.524928
0.051555 0.645919 0.522450
0.209362 0.648082 0.519971
0.360711 0.650246 0.517491
0.508849 0.652409 0.515011
0.654828 0.654572 0.512531
0.799184 0.656734 0.510049
0.942241 0.658896 0.507568
1.000000 0.661058 0.505085
0.000000 0.778059 0.523162
0.042618 0.780203 0.520683
0.201060 0.782347 0.518204
0.352635 0.784490 0.515724
0.500912 0.786633 0.513244
0.646992 0.788775 0.510762
0.791426 0.790918 0.508281
0.934547 0.793060 0.505799
1.000000 0.795201 0.503316
0.000000 0.911209 0.521396
0.033586 0.913336 0.518916
0.192741 0.915462 0.516437
0.344551 0.917589 0.513956
0.492969 0.919715 0.511475
0.639151 0.921841 0.508994
0.783664 0.923967 0.506512
0.926849 0.926092 0.504029
1.000000 0.928217 0.501546
0.000000 1.000000 0.519629
0.024429 1.000000 0.517149
0.184404 1.000000 0.514669
0.336456 1.000000 0.512188
0.485020 1.000000 0.509707
0.631305 1.000000 0.507225
0.775898 1.000000 0.504743
0.919149 1.000000 0.502259
1.000000 1.000000 0.499776
0.000000 0.000000 0.660141
0.077942 0.000000 0.657691
0.234166 0.000000 0.655240
0.384879 0.000000 0.652789
0.532616 0.000000 0.650338
0.678304 0.000000 0.647886
0.822432 0.000000 0.645434
0.965300 0.000000 0.642981
1.000000 0.000000 0.640528
0.000000 0.067932 0.658395
0.069203 0.070352 0.655945
0.225912 0.072768 0.653494
0.376830 0.075179 0.651043
0.524698 0.077587 0.648591
0.670482 0.079991 0.646139
0.814685 0.082391 0.643686
0.957615 0.084788 0.641233
1.000000 0.087182 0.638779
0.000000 0.213884 0.656649
0.060409 0.216170 0.654198
0.217642 0.218456 0.651747
0.368772 0.220740 0.649295
0.516774 0.223022 0.646843
0.662655 0.225304 0.644391
0.806934 0.227584 0.641938
0.949927 0.229863 0.639484
1.000000 0.232142 0.637031
0.000000 0.354548 0.654902
0.051549 0.356778 0.652451
0.209356 0.359007 0.650000
0.360706 0.361235 0.647548
0.508844 0.363462 0.645096
0.654823 0.365689 0.642643
0.799179 0.367915 0.640189
0.942236 0.370141 0.637736
1.000000 0.372365 0.635282
0.000000 0.492397 0.653156
0.042612 0.494590 0.650704
0.201054 0.496783 0.648253
0.352630 0.498975 0.645800
0.500907 0.501167 0.643348
0.646987 0.503359 0.640894
0.791421 0.505550 0.638441
0.934542 0.507740 0.635987
1.000000 0.509930 0.633532
0.000000 0.628316 0.651409
0.033580 0.630483 0.648957
0.192735 0.632649 0.646505
0.344545 0.634815 0.644052
0.492964 0.636981 0.641599
0.639146 0.639146 0.639146
0.783659 0.641311 0.636692
0.926844 0.643475 0.634238
1.000000 0.645640 0.631783
0.000000 0.762768 0.649662
0.024423 0.764914 0.647210
0.184398 0.767059 0.644757
0.336451 0.769205 0.642304
0.485015 0.771350 0.639851
0.631300 0.773494 0.637397
0.775893 0.775639 0.634943
0.919144 0.777783 0.632488
1.000000 0.779927 0.630033
0.000000 0.896039 0.647914
0.015087 0.898168 0.645462
0.176042 0.900296 0.643009
0.328347 0.902424 0.640556
0.477059 0.904552 0.638102
0.623449 0.906680 0.635648
0.768124 0.908807 0.633193
0.911440 0.910935 0.630738
1.000000 0.913062 0.628283
0.000000 1.000000 0.646167
0.005425 1.000000 0.643714
0.167666 1.000000 0.641261
0.320233 1.000000 0.638807
0.469097 1.000000 0.636353
0.615594 1.000000 0.633899
0.760350 1.000000 0.631444
0.903733 1.000000 0.628988
1.000000 1.000000 0.626532
0.000000 0.000000 0.785321
0.060403 0.000000 0.782892
0.217637 0.000000 0.780463
0.368767 0.000000 0.778034
0.516769 0.000000 0.775604
0.662650 0.000000 0.773174
0.806929 0.000000 0.770743
0.949922 0.000000 0.768312
1.000000 0.000000 0.765880
0.000000 0.050545 0.783590
0.051543 0.053000 0.781161
0.209351 0.055450 0.778732
0.360701 0.057893 0.776302
0.508838 0.060332 0.773872
0.654818 0.062766 0.771441
0.799174 0.065195 0.769010
0.942231 0.067620 0.766579
1.000000 0.070040 0.764147
0.000000 0.197549 0.781859
0.042607 0.199844 0.779430
0.201049 0.202138 0.777000
0.352625 0.204431 0.774570
0.500902 0.206723 0.772140
0.646982 0.209013 0.769709
0.791416 0.211302 0.767278
0.934537 0.213589 0.764846
1.000000 0.215876 0.762414
0.000000 0.338634 0.780128
0.033575 0.340869 0.777698
0.192730 0.343102 0.775268
0.344540 0.345336 0.772838
0.492959 0.347568 0.770407
0.639141 0.349800 0.767976
0.783654 0.352031 0.765545
0.926839 0.354261 0.763113
1.000000 0.356491 0.760681
0.000000 0.476747 0.778397
0.024417 0.478944 0.775967
0.184393 0.481140 0.773537
0.336446 0.483336 0.771106
0.485010 0.485531 0.768675
0.631295 0.487726 0.766244
0.775888 0.489920 0.763812
0.919139 0.492114 0.761380
1.000000 0.494308 0.758947
0.000000 0.612858 0.776665
0.015081 0.615028 0.774235
0.176037 0.617197 0.771804
0.328342 0.619365 0.769373
0.477054 0.621534 0.766942
0.623444 0.623702 0.764511
0.768119 0.625869 0.762079
0.911435 0.628036 0.759646
1.000000 0.630203 0.757213
0.000000 0.747461 0.774933
0.005418 0.749609 0.772503
0.167661 0.751757 0.770072
0.320228 0.753904 0.767641
0.469092 0.756052 0.765209
0.615589 0.758199 0.762777
0.760345 0.760345 0.760345
0.903728 0.762491 0.757912
1.000000 0.764637 0.755479
0.000000 0.880856 0.773201
0.000000 0.882987 0.770770
0.159264 0.885117 0.768339
0.312103 0.887247 0.765908
0.461123 0.889377 0.763476
0.607728 0.891506 0.761044
0.752567 0.893636 0.758611
0.896017 0.895765 0.756178
1.000000 0.897893 0.753745
0.000000 1.000000 0.771469
0.000000 1.000000 0.769038
0.150845 1.000000 0.766607
0.303968 1.000000 0.764175
0.453147 1.000000 0.761743
0.599862 1.000000 0.759310
0.744786 1.000000 0.756878
0.888304 1.000000 0.754444
1.000000 1.000000 0.752011
0.000000 0.000000 0.909507
0.042601 0.000000 0.907096
0.201044 0.000000 0.904685
0.352620 0.000000 0.902273
0.500897 0.000000 0.899861
0.646977 0.000000 0.897449
0.791411 0.000000 0.895036
0.934532 0.000000 0.892624
1.000000 0.000000 0.890210
0.000000 0.032847 0.907789
0.033569 0.035354 0.905378
0.192725 0.037852 0.902966
0.344535 0.040341 0.900554
0.492954 0.042823 0.898142
0.639136 0.045298 0.895730
0.783649 0.047766 0.893317
0.926834 0.050228 0.890904
1.000000 0.052684 0.888490
0.000000 0.181146 0.906071
0.024412 0.183451 0.903659
0.184388 0.185755 0.901247
0.336441 0.188057 0.898835
0.485005 0.190358 0.896423
0.631290 0.192658 0.894010
0.775883 0.194956 0.891597
0.919134 0.197253 0.889184
1.000000 0.199549 0.886770
0.000000 0.322682 0.904352
0.015074 0.324922 0.901941
0.176032 0.327161 0.899529
0.328337 0.329400 0.897116
0.477049 0.331637 0.894704
0.623439 0.333874 0.892291
0.768114 0.336110 0.889877
0.911430 0.338346 0.887464
1.000000 0.340581 0.885050
0.000000 0.461071 0.902634
0.005412 0.463272 0.900222
0.167656 0.465472 0.897809
0.320222 0.467671 0.895397
0.469087 0.469870 0.892984
0.615584 0.472068 0.890571
0.760340 0.474266 0.888157
0.903723 0.476464 0.885743
1.000000 0.478661 0.883329
0.000000 0.597381 0.900915
0.000000 0.599553 0.898503
0.159259 0.601725 0.896090
0.312098 0.603897 0.893677
0.461118 0.606068 0.891264
0.607723 0.608238 0.888851
0.752562 0.610409 0.886437
0.896012 0.612578 0.884023
1.000000 0.614748 0.881609
0.000000 0.732139 0.899196
0.000000 0.734289 0.896783
0.150840 0.736439 0.894371
0.303963 0.738589 0.891958
0.453142 0.740738 0.889544
0.599857 0.742887 0.887131
0.744781 0.745036 0.884717
0.888299 0.747184 0.882302
1.000000 0.749332 0.879888
0.000000 0.865660 0.897477
0.000000 0.867793 0.895064
0.142397 0.869925 0.892651
0.295817 0.872057 0.890238
0.445159 0.874188 0.887824
0.591986 0.876320 0.885410
0.736995 0.878451 0.882996
0.880582 0.880582 0.880582
1.000000 0.882712 0.878167
0.000000 0.998156 0.895757
0.000000 1.000000 0.893344
0.133929 1.000000 0.890931
0.287660 1.000000 0.888518
0.437169 1.000000 0.886104
0.584110 1.000000 0.883690
0.729205 1.000000 0.881275
0.872861 1.000000 0.878861
1.000000 1.000000 0.876445
0.000000 0.000000 1.000000
0.024406 0.000000 1.000000
0.184382 0.000000 1.000000
0.336436 0.000000 1.000000
0.485000 0.000000 1.000000
0.631285 0.000000 1.000000
0.775879 0.000000 1.000000
0.919129 0.000000 1.000000
1.000000 0.000000 1.000000
0.000000 0.014627 1.000000
0.015068 0.017231 1.000000
0.176026 0.019816 1.000000
0.328331 0.022384 1.000000
0.477044 0.024937 1.000000
0.623434 0.027477 1.000000
0.768109 0.030005 1.000000
0.911425 0.032523 1.000000
1.000000 0.035031 1.000000
0.000000 0.164668 1.000000
0.005406 0.166984 1.000000
0.167650 0.169299 1.000000
0.320217 0.171612 1.000000
0.469082 0.173923 1.000000
0.615579 0.176233 1.000000
0.760335 0.178542 1.000000
0.903718 0.180849 1.000000
1.000000 0.183154 1.000000
0.000000 0.306690 1.000000
0.000000 0.308936 1.000000
0.159253 0.311181 1.000000
0.312093 0.313425 1.000000
0.461113 0.315668 1.000000
0.607718 0.317911 1.000000
0.752557 0.320152 1.000000
0.896007 0.322393 1.000000
1.000000 0.324633 1.000000
0.000000 0.445369 1.000000
0.000000 0.447573 1.000000
0.150834 0.449777 1.000000
0.303958 0.451980 1.000000
0.453137 0.454183 1.000000
0.599852 0.456385 1.000000
0.744776 0.458586 1.000000
0.888294 0.460788 1.000000
1.000000 0.462988 1.000000
0.000000 0.581884 1.000000
0.000000 0.584059 1.000000
0.142392 0.586234 1.000000
0.295812 0.588408 1.000000
0.445154 0.590582 1.000000
0.591981 0.592755 1.000000
0.736990 0.594928 1.000000
0.880577 0.597101 1.000000
1.000000 0.599273 1.000000
0.000000 0.716800 1.000000
0.000000 0.718953 1.000000
0.133924 0.721105 1.000000
0.287655 0.723257 1.000000
0.437163 0.725409 1.000000
0.584105 0.727560 1.000000
0.729200 0.729711 1.000000
0.872856 0.731862 1.000000
1.000000 0.734012 1.000000
0.000000 0.850451 1.000000
0.000000 0.852585 1.000000
0.125429 0.854719 1.000000
0.279486 0.856853 1.000000
0.429166 0.858987 1.000000
0.576223 0.861120 1.000000
0.721406 0.863253 1.000000
0.865132 0.865385 1.000000
1.000000 0.867518 1.000000
0.000000 0.983055 1.000000
0.000000 0.985174 1.000000
0.116905 0.987293 1.000000
0.271305 0.989411 1.000000
0.421161 0.991529 1.000000
0.568336 0.993647 1.000000
0.713608 0.995765 1.000000
0.857405 0.997883 1.000000
1.000000 1.000000 1.000000
