presets/film_stocks/Kodak_Vision_Premier_2393.cube
# 独寻胶片模拟 -- Kodak Vision Premier 2393
# Kodak, ISO 0, 1998, negative
TITLE "Kodak Vision Premier 2393"
LUT_3D_SIZE 5
DOMAIN_MIN 0.0 0.0 0.0
DOMAIN_MAX 1.0 1.0 1.0
0.000000 0.000000 0.000000
0.376716 0.000000 0.000000
0.613772 0.000000 0.000000
0.816611 0.000000 0.000000
1.000000 0.000000 0.000000
0.000000 0.376716 0.000000
0.376716 0.376716 0.000000
0.613772 0.376716 0.000000
0.816611 0.376716 0.000000
1.000000 0.376716 0.000000
0.000000 0.613772 0.000000
0.376716 0.613772 0.000000
0.613772 0.613772 0.000000
0.816611 0.613772 0.000000
1.000000 0.613772 0.000000
0.000000 0.816611 0.000000
0.376716 0.816611 0.000000
0.613772 0.816611 0.000000
0.816611 0.816611 0.000000
1.000000 0.816611 0.000000
0.000000 1.000000 0.000000
0.376716 1.000000 0.000000
0.613772 1.000000 0.000000
0.816611 1.000000 0.000000
1.000000 1.000000 0.000000
0.000000 0.000000 0.376716
0.376716 0.000000 0.376716
0.613772 0.000000 0.376716
0.816611 0.000000 0.376716
1.000000 0.000000 0.376716
0.000000 0.376716 0.376716
0.376716 0.376716 0.376716
0.613772 0.376716 0.376716
0.816611 0.376716 0.376716
1.000000 0.376716 0.376716
0.000000 0.613772 0.376716
0.376716 0.613772 0.376716
0.613772 0.613772 0.376716
0.816611 0.613772 0.376716
1.000000 0.613772 0.376716
0.000000 0.816611 0.376716
0.376716 0.816611 0.376716
0.613772 0.816611 0.376716
0.816611 0.816611 0.376716
1.000000 0.816611 0.376716
0.000000 1.000000 0.376716
0.376716 1.000000 0.376716
0.613772 1.000000 0.376716
0.816611 1.000000 0.376716
1.000000 1.000000 0.376716
0.000000 0.000000 0.613772
0.376716 0.000000 0.613772
0.613772 0.000000 0.613772
0.816611 0.000000 0.613772
1.000000 0.000000 0.613772
0.000000 0.376716 0.613772
0.376716 0.376716 0.613772
0.613772 0.376716 0.613772
0.816611 0.376716 0.613772
1.000000 0.376716 0.613772
0.000000 0.613772 0.613772
0.376716 0.613772 0.613772
0.613772 0.613772 0.613772
0.816611 0.613772 0.613772
1.000000 0.613772 0.613772
0.000000 0.816611 0.613772
0.376716 0.816611 0.613772
0.613772 0.816611 0.613772
0.816611 0.816611 0.613772
1.000000 0.816611 0.613772
0.000000 1.000000 0.613772
0.376716 1.000000 0.613772
0.613772 1.000000 0.613772
0.816611 1.000000 0.613772
1.000000 1.000000 0.613772
0.000000 0.000000 0.816611
0.376716 0.000000 0.816611
0.613772 0.000000 0.816611
0.816611 0.000000 0.816611
1.000000 0.000000 0.816611
0.000000 0.376716 0.816611
0.376716 0.376716 0.816611
0.613772 0.376716 0.816611
0.816611 0.376716 0.816611
1.000000 0.376716 0.816611
0.000000 0.613772 0.816611
0.376716 0.613772 0.816611
0.613772 0.613772 0.816611
0.816611 0.613772 0.816611
1.000000 0.613772 0.816611
0.000000 0.816611 0.816611
0.376716 0.816611 0.816611
0.613772 0.816611 0.816611
0.816611 0.816611 0.816611
1.000000 0.816611 0.816611
0.000000 1.000000 0.816611
0.376716 1.000000 0.816611
0.613772 1.000000 0.816611
0.816611 1.000000 0.816611
1.000000 1.000000 0.816611
0.000000 0.000000 1.000000
0.376716 0.000000 1.000000
0.613772 0.000000 1.000000
0.816611 0.000000 1.000000
1.000000 0.000000 1.000000
0.000000 0.376716 1.000000
0.376716 0.376716 1.000000
0.613772 0.376716 1.000000
0.816611 0.376716 1.000000
1.000000 0.376716 1.000000
0.000000 0.613772 1.000000
0.376716 0.613772 1.000000
0.613772 0.613772 1.000000
0.816611 0.613772 1.000000
1.000000 0.613772 1.000000
0.000000 0.816611 1.000000
0.376716 0.816611 1.000000
0.613772 0.816611 1.000000
0.816611 0.816611 1.000000
1.000000 0.816611 1.000000
0.000000 1.000000 1.000000
0.376716 1.000000 1.000000
0.613772 1.000000 1.000000
0.816611 1.000000 1.000000
1.000000 1.000000 1.000000
