presets/film_stocks/Kodak_Vision3_500T_5219.cube
# 独寻胶片模拟 -- Kodak Vision3 500T 5219
# Kodak, ISO 500, 2007, negative
TITLE "Kodak Vision3 500T 5219"
LUT_3D_SIZE 33
DOMAIN_MIN 0.0 0.0 0.0
DOMAIN_MAX 1.0 1.0 1.0
0.000000 0.000000 0.000000
0.045295 0.001200 0.000000
0.086057 0.002280 0.000000
0.125266 0.003319 0.000000
0.163500 0.004332 0.000000
0.201024 0.005326 0.000000
0.237993 0.006305 0.000000
0.274507 0.007272 0.000000
0.310634 0.008230 0.000000
0.346427 0.009178 0.000000
0.381927 0.010118 0.000000
0.417164 0.011052 0.000000
0.452164 0.011979 0.000000
0.486949 0.012901 0.000000
0.521536 0.013817 0.000000
0.555940 0.014728 0.000000
0.590174 0.015635 0.000000
0.624251 0.016538 0.000000
0.658179 0.017437 0.000000
0.691967 0.018332 0.000000
0.725624 0.019224 0.000000
0.759157 0.020112 0.000000
0.792571 0.020997 0.000000
0.825874 0.021880 0.000000
0.859069 0.022759 0.000000
0.892161 0.023636 0.000000
0.925156 0.024510 0.000000
0.958057 0.025382 0.000000
0.990868 0.026251 0.000000
1.000000 0.027118 0.000000
1.000000 0.027982 0.000000
1.000000 0.028845 0.000000
1.000000 0.029706 0.000000
0.000000 0.043660 0.000000
0.043531 0.044492 0.000000
0.084383 0.045324 0.000000
0.123642 0.046154 0.000000
0.161910 0.046984 0.000000
0.199461 0.047812 0.000000
0.236451 0.048638 0.000000
0.272981 0.049464 0.000000
0.309124 0.050289 0.000000
0.344931 0.051112 0.000000
0.380442 0.051935 0.000000
0.415689 0.052756 0.000000
0.450699 0.053577 0.000000
0.485492 0.054396 0.000000
0.520087 0.055215 0.000000
0.554499 0.056032 0.000000
0.588740 0.056849 0.000000
0.622823 0.057664 0.000000
0.656757 0.058479 0.000000
0.690551 0.059293 0.000000
0.724214 0.060105 0.000000
0.757751 0.060917 0.000000
0.791171 0.061729 0.000000
0.824477 0.062539 0.000000
0.857677 0.063348 0.000000
0.890774 0.064157 0.000000
0.923772 0.064965 0.000000
0.956677 0.065772 0.000000
0.989491 0.066578 0.000000
1.000000 0.067383 0.000000
1.000000 0.068188 0.000000
1.000000 0.068992 0.000000
1.000000 0.069795 0.000000
0.000000 0.082949 0.000000
0.041762 0.083741 0.000000
0.082705 0.084531 0.000000
0.122015 0.085322 0.000000
0.160319 0.086111 0.000000
0.197896 0.086900 0.000000
0.234907 0.087689 0.000000
0.271455 0.088477 0.000000
0.307613 0.089264 0.000000
0.343433 0.090051 0.000000
0.378956 0.090837 0.000000
0.414214 0.091623 0.000000
0.449233 0.092408 0.000000
0.484035 0.093193 0.000000
0.518638 0.093977 0.000000
0.553057 0.094761 0.000000
0.587305 0.095544 0.000000
0.621395 0.096326 0.000000
0.655335 0.097109 0.000000
0.689135 0.097890 0.000000
0.722802 0.098671 0.000000
0.756345 0.099452 0.000000
0.789769 0.100232 0.000000
0.823081 0.101012 0.000000
0.856285 0.101791 0.000000
0.889386 0.102569 0.000000
0.922389 0.103347 0.000000
0.955297 0.104125 0.000000
0.988115 0.104902 0.000000
1.000000 0.105679 0.000000
1.000000 0.106456 0.000000
1.000000 0.107231 0.000000
1.000000 0.108007 0.000000
0.000000 0.120742 0.000000
0.039986 0.121510 0.000000
0.081026 0.122278 0.000000
0.120388 0.123045 0.000000
0.158726 0.123812 0.000000
0.196330 0.124579 0.000000
0.233363 0.125345 0.000000
0.269929 0.126111 0.000000
0.306102 0.126877 0.000000
0.341935 0.127642 0.000000
0.377470 0.128406 0.000000
0.412738 0.129171 0.000000
0.447767 0.129935 0.000000
0.482578 0.130698 0.000000
0.517189 0.131462 0.000000
0.551615 0.132225 0.000000
0.585870 0.132987 0.000000
0.619966 0.133749 0.000000
0.653912 0.134511 0.000000
0.687718 0.135273 0.000000
0.721391 0.136034 0.000000
0.754939 0.136795 0.000000
0.788368 0.137555 0.000000
0.821684 0.138316 0.000000
0.854892 0.139075 0.000000
0.887998 0.139835 0.000000
0.921004 0.140594 0.000000
0.953917 0.141353 0.000000
0.986739 0.142112 0.000000
1.000000 0.142870 0.000000
1.000000 0.143628 0.000000
1.000000 0.144385 0.000000
1.000000 0.145142 0.000000
0.000000 0.157595 0.000000
0.038204 0.158347 0.000000
0.079343 0.159099 0.000000
0.118758 0.159850 0.000000
0.157132 0.160601 0.000000
0.194763 0.161352 0.000000
0.231818 0.162103 0.000000
0.268402 0.162853 0.000000
0.304590 0.163603 0.000000
0.340437 0.164353 0.000000
0.375983 0.165102 0.000000
0.411262 0.165852 0.000000
0.446301 0.166601 0.000000
0.481120 0.167349 0.000000
0.515739 0.168098 0.000000
0.550173 0.168846 0.000000
0.584435 0.169594 0.000000
0.618537 0.170341 0.000000
0.652490 0.171088 0.000000
0.686301 0.171835 0.000000
0.719980 0.172582 0.000000
0.753533 0.173329 0.000000
0.786967 0.174075 0.000000
0.820287 0.174821 0.000000
0.853500 0.175567 0.000000
0.886609 0.176312 0.000000
0.919620 0.177058 0.000000
0.952537 0.177803 0.000000
0.985362 0.178548 0.000000
1.000000 0.179292 0.000000
1.000000 0.180036 0.000000
1.000000 0.180780 0.000000
1.000000 0.181524 0.000000
0.000000 0.193765 0.000000
0.036415 0.194504 0.000000
0.077658 0.195244 0.000000
0.117126 0.195983 0.000000
0.155537 0.196722 0.000000
0.193196 0.197461 0.000000
0.230272 0.198199 0.000000
0.266874 0.198938 0.000000
0.303077 0.199676 0.000000
0.338937 0.200414 0.000000
0.374496 0.201152 0.000000
0.409786 0.201889 0.000000
0.444834 0.202626 0.000000
0.479662 0.203363 0.000000
0.514289 0.204100 0.000000
0.548731 0.204837 0.000000
0.583000 0.205573 0.000000
0.617108 0.206309 0.000000
0.651067 0.207045 0.000000
0.684884 0.207781 0.000000
0.718568 0.208517 0.000000
0.752126 0.209252 0.000000
0.785565 0.209987 0.000000
0.818890 0.210722 0.000000
0.852107 0.211457 0.000000
0.885221 0.212191 0.000000
0.918236 0.212926 0.000000
0.951156 0.213660 0.000000
0.983986 0.214394 0.000000
1.000000 0.215128 0.000000
1.000000 0.215861 0.000000
1.000000 0.216594 0.000000
1.000000 0.217327 0.000000
0.000000 0.229399 0.000000
0.034619 0.230128 0.000000
0.075969 0.230858 0.000000
0.115493 0.231587 0.000000
0.153941 0.232317 0.000000
0.191627 0.233046 0.000000
0.228725 0.233774 0.000000
0.265345 0.234503 0.000000
0.301564 0.235232 0.000000
0.337438 0.235960 0.000000
0.373008 0.236688 0.000000
0.408309 0.237416 0.000000
0.443367 0.238144 0.000000
0.478204 0.238871 0.000000
0.512839 0.239599 0.000000
0.547288 0.240326 0.000000
0.581564 0.241053 0.000000
0.615679 0.241780 0.000000
0.649643 0.242507 0.000000
0.683466 0.243233 0.000000
0.717156 0.243960 0.000000
0.750719 0.244686 0.000000
0.784163 0.245412 0.000000
0.817493 0.246138 0.000000
0.850714 0.246863 0.000000
0.883832 0.247589 0.000000
0.916851 0.248314 0.000000
0.949776 0.249039 0.000000
0.982609 0.249764 0.000000
1.000000 0.250489 0.000000
1.000000 0.251214 0.000000
1.000000 0.251938 0.000000
1.000000 0.252663 0.000000
0.000000 0.264593 0.000000
0.032816 0.265315 0.000000
0.074278 0.266036 0.000000
0.113858 0.266757 0.000000
0.152343 0.267478 0.000000
0.190057 0.268199 0.000000
0.227177 0.268920 0.000000
0.263816 0.269640 0.000000
0.300051 0.270361 0.000000
0.335938 0.271081 0.000000
0.371520 0.271801 0.000000
0.406831 0.272521 0.000000
0.441899 0.273241 0.000000
0.476745 0.273961 0.000000
0.511388 0.274680 0.000000
0.545845 0.275399 0.000000
0.580128 0.276119 0.000000
0.614249 0.276838 0.000000
0.648220 0.277557 0.000000
0.682049 0.278275 0.000000
0.715744 0.278994 0.000000
0.749312 0.279712 0.000000
0.782761 0.280431 0.000000
0.816095 0.281149 0.000000
0.849321 0.281867 0.000000
0.882444 0.282585 0.000000
0.915467 0.283302 0.000000
0.948395 0.284020 0.000000
0.981232 0.284737 0.000000
1.000000 0.285455 0.000000
1.000000 0.286172 0.000000
1.000000 0.286889 0.000000
1.000000 0.287606 0.000000
0.000000 0.299416 0.000000
0.031004 0.300130 0.000000
0.072583 0.300844 0.000000
0.112221 0.301559 0.000000
0.150744 0.302273 0.000000
0.188486 0.302987 0.000000
0.225629 0.303700 0.000000
0.262286 0.304414 0.000000
0.298536 0.305127 0.000000
0.334437 0.305841 0.000000
0.370032 0.306554 0.000000
0.405354 0.307267 0.000000
0.440431 0.307980 0.000000
0.475286 0.308693 0.000000
0.509937 0.309405 0.000000
0.544401 0.310118 0.000000
0.578691 0.310830 0.000000
0.612820 0.311543 0.000000
0.646796 0.312255 0.000000
0.680631 0.312967 0.000000
0.714331 0.313679 0.000000
0.747905 0.314390 0.000000
0.781359 0.315102 0.000000
0.814698 0.315813 0.000000
0.847928 0.316525 0.000000
0.881055 0.317236 0.000000
0.914082 0.317947 0.000000
0.947014 0.318658 0.000000
0.979855 0.319369 0.000000
1.000000 0.320080 0.000000
1.000000 0.320790 0.000000
1.000000 0.321501 0.000000
1.000000 0.322211 0.000000
0.000000 0.333917 0.000000
0.029185 0.334625 0.000000
0.070886 0.335333 0.000000
0.110582 0.336041 0.000000
0.149144 0.336749 0.000000
0.186914 0.337457 0.000000
0.224079 0.338164 0.000000
0.260755 0.338872 0.000000
0.297021 0.339579 0.000000
0.332936 0.340286 0.000000
0.368542 0.340993 0.000000
0.403875 0.341701 0.000000
0.438963 0.342407 0.000000
0.473826 0.343114 0.000000
0.508486 0.343821 0.000000
0.542958 0.344527 0.000000
0.577255 0.345234 0.000000
0.611390 0.345940 0.000000
0.645373 0.346646 0.000000
0.679213 0.347353 0.000000
0.712919 0.348059 0.000000
0.746498 0.348764 0.000000
0.779956 0.349470 0.000000
0.813300 0.350176 0.000000
0.846535 0.350881 0.000000
0.879666 0.351587 0.000000
0.912697 0.352292 0.000000
0.945633 0.352997 0.000000
0.978477 0.353702 0.000000
1.000000 0.354407 0.000000
1.000000 0.355112 0.000000
1.000000 0.355817 0.000000
1.000000 0.356521 0.000000
0.000000 0.368134 0.000000
0.027356 0.368837 0.000000
0.069185 0.369540 0.000000
0.108941 0.370242 0.000000
0.147542 0.370944 0.000000
0.185341 0.371647 0.000000
0.222529 0.372349 0.000000
0.259224 0.373051 0.000000
0.295506 0.373753 0.000000
0.331434 0.374455 0.000000
0.367053 0.375157 0.000000
0.402397 0.375858 0.000000
0.437494 0.376560 0.000000
0.472367 0.377261 0.000000
0.507034 0.377963 0.000000
0.541514 0.378664 0.000000
0.575818 0.379365 0.000000
0.609959 0.380066 0.000000
0.643948 0.380767 0.000000
0.677795 0.381468 0.000000
0.711506 0.382168 0.000000
0.745090 0.382869 0.000000
0.778553 0.383570 0.000000
0.811902 0.384270 0.000000
0.845141 0.384970 0.000000
0.878276 0.385670 0.000000
0.911312 0.386371 0.000000
0.944252 0.387071 0.000000
0.977100 0.387770 0.000000
1.000000 0.388470 0.000000
1.000000 0.389170 0.000000
1.000000 0.389870 0.000000
1.000000 0.390569 0.000000
0.000000 0.402099 0.000000
0.025517 0.402797 0.000000
0.067481 0.403494 0.000000
0.107299 0.404192 0.000000
0.145939 0.404889 0.000000
0.183767 0.405587 0.000000
0.220978 0.406284 0.000000
0.257691 0.406981 0.000000
0.293990 0.407678 0.000000
0.329932 0.408375 0.000000
0.365563 0.409072 0.000000
0.400918 0.409769 0.000000
0.436024 0.410466 0.000000
0.470906 0.411162 0.000000
0.505582 0.411859 0.000000
0.540069 0.412555 0.000000
0.574381 0.413252 0.000000
0.608529 0.413948 0.000000
0.642524 0.414644 0.000000
0.676376 0.415340 0.000000
0.710093 0.416036 0.000000
0.743682 0.416732 0.000000
0.777150 0.417428 0.000000
0.810504 0.418123 0.000000
0.843748 0.418819 0.000000
0.876887 0.419515 0.000000
0.909926 0.420210 0.000000
0.942870 0.420905 0.000000
0.975722 0.421601 0.000000
1.000000 0.422296 0.000000
1.000000 0.422991 0.000000
1.000000 0.423686 0.000000
1.000000 0.424381 0.000000
0.000000 0.435835 0.000000
0.023667 0.436528 0.000000
0.065773 0.437222 0.000000
0.105654 0.437915 0.000000
0.144334 0.438608 0.000000
0.182192 0.439301 0.000000
0.219426 0.439994 0.000000
0.256159 0.440686 0.000000
0.292473 0.441379 0.000000
0.328429 0.442072 0.000000
0.364072 0.442764 0.000000
0.399438 0.443457 0.000000
0.434555 0.444149 0.000000
0.469446 0.444841 0.000000
0.504130 0.445533 0.000000
0.538625 0.446225 0.000000
0.572943 0.446917 0.000000
0.607098 0.447609 0.000000
0.641099 0.448301 0.000000
0.674957 0.448993 0.000000
0.708680 0.449684 0.000000
0.742274 0.450376 0.000000
0.775747 0.451067 0.000000
0.809105 0.451759 0.000000
0.842354 0.452450 0.000000
0.875497 0.453141 0.000000
0.908541 0.453833 0.000000
0.941489 0.454524 0.000000
0.974344 0.455215 0.000000
1.000000 0.455905 0.000000
1.000000 0.456596 0.000000
1.000000 0.457287 0.000000
1.000000 0.457978 0.000000
0.000000 0.469364 0.000000
0.021806 0.470053 0.000000
0.064062 0.470742 0.000000
0.104007 0.471431 0.000000
0.142728 0.472120 0.000000
0.180616 0.472809 0.000000
0.217873 0.473497 0.000000
0.254625 0.474186 0.000000
0.290955 0.474875 0.000000
0.326926 0.475563 0.000000
0.362581 0.476252 0.000000
0.397958 0.476940 0.000000
0.433085 0.477629 0.000000
0.467985 0.478317 0.000000
0.502678 0.479005 0.000000
0.537180 0.479693 0.000000
0.571505 0.480381 0.000000
0.605667 0.481069 0.000000
0.639674 0.481757 0.000000
0.673538 0.482445 0.000000
0.707266 0.483132 0.000000
0.740866 0.483820 0.000000
0.774344 0.484507 0.000000
0.807707 0.485195 0.000000
0.840960 0.485882 0.000000
0.874108 0.486570 0.000000
0.907155 0.487257 0.000000
0.940107 0.487944 0.000000
0.972966 0.488631 0.000000
1.000000 0.489318 0.000000
1.000000 0.490005 0.000000
1.000000 0.490692 0.000000
1.000000 0.491378 0.000000
0.000000 0.502701 0.000000
0.019932 0.503387 0.000000
0.062347 0.504072 0.000000
0.102358 0.504757 0.000000
0.141121 0.505443 0.000000
0.179039 0.506128 0.000000
0.216319 0.506813 0.000000
0.253090 0.507498 0.000000
0.289437 0.508183 0.000000
0.325422 0.508867 0.000000
0.361090 0.509552 0.000000
0.396478 0.510237 0.000000
0.431614 0.510921 0.000000
0.466524 0.511606 0.000000
0.501225 0.512290 0.000000
0.535734 0.512975 0.000000
0.570067 0.513659 0.000000
0.604235 0.514343 0.000000
0.638249 0.515028 0.000000
0.672119 0.515712 0.000000
0.705852 0.516396 0.000000
0.739457 0.517080 0.000000
0.772940 0.517764 0.000000
0.806308 0.518447 0.000000
0.839565 0.519131 0.000000
0.872718 0.519815 0.000000
0.905769 0.520498 0.000000
0.938725 0.521182 0.000000
0.971588 0.521865 0.000000
1.000000 0.522549 0.000000
1.000000 0.523232 0.000000
1.000000 0.523915 0.000000
1.000000 0.524599 0.000000
0.000000 0.535863 0.000000
0.018044 0.536545 0.000000
0.060628 0.537227 0.000000
0.100707 0.537908 0.000000
0.139512 0.538590 0.000000
0.177460 0.539272 0.000000
0.214765 0.539953 0.000000
0.251555 0.540635 0.000000
0.287919 0.541316 0.000000
0.323917 0.541998 0.000000
0.359598 0.542679 0.000000
0.394997 0.543360 0.000000
0.430144 0.544042 0.000000
0.465062 0.544723 0.000000
0.499771 0.545404 0.000000
0.534289 0.546085 0.000000
0.568629 0.546766 0.000000
0.602803 0.547446 0.000000
0.636824 0.548127 0.000000
0.670699 0.548808 0.000000
0.704438 0.549489 0.000000
0.738049 0.550169 0.000000
0.771537 0.550850 0.000000
0.804909 0.551530 0.000000
0.838171 0.552210 0.000000
0.871327 0.552891 0.000000
0.904383 0.553571 0.000000
0.937343 0.554251 0.000000
0.970210 0.554931 0.000000
1.000000 0.555611 0.000000
1.000000 0.556291 0.000000
1.000000 0.556971 0.000000
1.000000 0.557651 0.000000
0.000000 0.568861 0.000000
0.016140 0.569540 0.000000
0.058905 0.570218 0.000000
0.099053 0.570897 0.000000
0.137901 0.571575 0.000000
0.175881 0.572254 0.000000
0.213209 0.572932 0.000000
0.250019 0.573611 0.000000
0.286399 0.574289 0.000000
0.322412 0.574967 0.000000
0.358105 0.575645 0.000000
0.393516 0.576323 0.000000
0.428672 0.577001 0.000000
0.463600 0.577679 0.000000
0.498318 0.578357 0.000000
0.532843 0.579035 0.000000
0.567190 0.579712 0.000000
0.601372 0.580390 0.000000
0.635398 0.581068 0.000000
0.669279 0.581745 0.000000
0.703024 0.582423 0.000000
0.736640 0.583100 0.000000
0.770133 0.583777 0.000000
0.803510 0.584455 0.000000
0.836776 0.585132 0.000000
0.869937 0.585809 0.000000
0.902997 0.586486 0.000000
0.935961 0.587163 0.000000
0.968832 0.587840 0.000000
1.000000 0.588517 0.000000
1.000000 0.589194 0.000000
1.000000 0.589871 0.000000
1.000000 0.590547 0.000000
0.000000 0.601707 0.000000
0.014218 0.602382 0.000000
0.057179 0.603058 0.000000
0.097398 0.603733 0.000000
0.136289 0.604409 0.000000
0.174300 0.605084 0.000000
0.211653 0.605760 0.000000
0.248483 0.606435 0.000000
0.284879 0.607110 0.000000
0.320907 0.607785 0.000000
0.356612 0.608460 0.000000
0.392034 0.609136 0.000000
0.427201 0.609810 0.000000
0.462137 0.610485 0.000000
0.496864 0.611160 0.000000
0.531397 0.611835 0.000000
0.565751 0.612510 0.000000
0.599939 0.613185 0.000000
0.633972 0.613859 0.000000
0.667859 0.614534 0.000000
0.701610 0.615208 0.000000
0.735230 0.615883 0.000000
0.768729 0.616557 0.000000
0.802110 0.617231 0.000000
0.835381 0.617906 0.000000
0.868547 0.618580 0.000000
0.901611 0.619254 0.000000
0.934578 0.619928 0.000000
0.967453 0.620602 0.000000
1.000000 0.621276 0.000000
1.000000 0.621950 0.000000
1.000000 0.622624 0.000000
1.000000 0.623298 0.000000
0.000000 0.634409 0.000000
0.012274 0.635082 0.000000
0.055448 0.635755 0.000000
0.095740 0.636428 0.000000
0.134676 0.637100 0.000000
0.172718 0.637773 0.000000
0.210096 0.638445 0.000000
0.246945 0.639118 0.000000
0.283359 0.639790 0.000000
0.319400 0.640463 0.000000
0.355119 0.641135 0.000000
0.390552 0.641807 0.000000
0.425729 0.642479 0.000000
0.460675 0.643151 0.000000
0.495409 0.643823 0.000000
0.529950 0.644495 0.000000
0.564312 0.645167 0.000000
0.598507 0.645839 0.000000
0.632546 0.646511 0.000000
0.666439 0.647183 0.000000
0.700195 0.647855 0.000000
0.733821 0.648526 0.000000
0.767324 0.649198 0.000000
0.800711 0.649869 0.000000
0.833986 0.650541 0.000000
0.867156 0.651212 0.000000
0.900224 0.651884 0.000000
0.933196 0.652555 0.000000
0.966074 0.653226 0.000000
0.998863 0.653898 0.000000
1.000000 0.654569 0.000000
1.000000 0.655240 0.000000
1.000000 0.655911 0.000000
0.000000 0.666978 0.000000
0.010306 0.667648 0.000000
0.053713 0.668318 0.000000
0.094080 0.668988 0.000000
0.133061 0.669658 0.000000
0.171135 0.670328 0.000000
0.208537 0.670998 0.000000
0.245407 0.671667 0.000000
0.281837 0.672337 0.000000
0.317894 0.673007 0.000000
0.353625 0.673677 0.000000
0.389069 0.674346 0.000000
0.424256 0.675016 0.000000
0.459211 0.675685 0.000000
0.493955 0.676354 0.000000
0.528503 0.677024 0.000000
0.562872 0.677693 0.000000
0.597074 0.678362 0.000000
0.631120 0.679032 0.000000
0.665019 0.679701 0.000000
0.698780 0.680370 0.000000
0.732411 0.681039 0.000000
0.765920 0.681708 0.000000
0.799311 0.682377 0.000000
0.832591 0.683046 0.000000
0.865765 0.683715 0.000000
0.898838 0.684383 0.000000
0.931813 0.685052 0.000000
0.964695 0.685721 0.000000
0.997488 0.686389 0.000000
1.000000 0.687058 0.000000
1.000000 0.687726 0.000000
1.000000 0.688395 0.000000
0.000000 0.699419 0.000000
0.008307 0.700087 0.000000
0.051973 0.700755 0.000000
0.092418 0.701422 0.000000
0.131444 0.702089 0.000000
0.169551 0.702757 0.000000
0.206978 0.703424 0.000000
0.243868 0.704091 0.000000
0.280315 0.704759 0.000000
0.316386 0.705426 0.000000
0.352130 0.706093 0.000000
0.387586 0.706760 0.000000
0.422784 0.707427 0.000000
0.457748 0.708094 0.000000
0.492500 0.708761 0.000000
0.527056 0.709428 0.000000
0.561432 0.710094 0.000000
0.595641 0.710761 0.000000
0.629693 0.711428 0.000000
0.663598 0.712095 0.000000
0.697365 0.712761 0.000000
0.731002 0.713428 0.000000
0.764515 0.714094 0.000000
0.797911 0.714761 0.000000
0.831196 0.715427 0.000000
0.864374 0.716093 0.000000
0.897451 0.716760 0.000000
0.930430 0.717426 0.000000
0.963316 0.718092 0.000000
0.996113 0.718758 0.000000
1.000000 0.719425 0.000000
1.000000 0.720091 0.000000
1.000000 0.720757 0.000000
0.000000 0.731741 0.000000
0.006268 0.732406 0.000000
0.050229 0.733071 0.000000
0.090753 0.733736 0.000000
0.129826 0.734401 0.000000
0.167966 0.735066 0.000000
0.205418 0.735731 0.000000
0.242329 0.736396 0.000000
0.278793 0.737061 0.000000
0.314878 0.737726 0.000000
0.350635 0.738390 0.000000
0.386102 0.739055 0.000000
0.421310 0.739720 0.000000
0.456284 0.740384 0.000000
0.491044 0.741049 0.000000
0.525609 0.741713 0.000000
0.559992 0.742378 0.000000
0.594208 0.743042 0.000000
0.628266 0.743707 0.000000
0.662177 0.744371 0.000000
0.695950 0.745035 0.000000
0.729592 0.745699 0.000000
0.763110 0.746364 0.000000
0.796511 0.747028 0.000000
0.829800 0.747692 0.000000
0.862983 0.748356 0.000000
0.896064 0.749020 0.000000
0.929047 0.749684 0.000000
0.961937 0.750347 0.000000
0.994737 0.751011 0.000000
1.000000 0.751675 0.000000
1.000000 0.752339 0.000000
1.000000 0.753002 0.000000
0.000000 0.763949 0.000000
0.004173 0.764612 0.000000
0.048479 0.765275 0.000000
0.089086 0.765937 0.000000
0.128207 0.766600 0.000000
0.166379 0.767263 0.000000
0.203857 0.767925 0.000000
0.240788 0.768588 0.000000
0.277270 0.769251 0.000000
0.313370 0.769913 0.000000
0.349140 0.770575 0.000000
0.384618 0.771238 0.000000
0.419837 0.771900 0.000000
0.454820 0.772563 0.000000
0.489589 0.773225 0.000000
0.524161 0.773887 0.000000
0.558552 0.774549 0.000000
0.592774 0.775211 0.000000
0.626839 0.775874 0.000000
0.660756 0.776536 0.000000
0.694534 0.777198 0.000000
0.728181 0.777860 0.000000
0.761705 0.778521 0.000000
0.795111 0.779183 0.000000
0.828404 0.779845 0.000000
0.861591 0.780507 0.000000
0.894676 0.781169 0.000000
0.927664 0.781830 0.000000
0.960558 0.782492 0.000000
0.993362 0.783154 0.000000
1.000000 0.783815 0.000000
1.000000 0.784477 0.000000
1.000000 0.785138 0.000000
0.000000 0.796048 0.000000
0.001986 0.796709 0.000000
0.046725 0.797370 0.000000
0.087416 0.798030 0.000000
0.126585 0.798691 0.000000
0.164791 0.799351 0.000000
0.202295 0.800012 0.000000
0.239247 0.800672 0.000000
0.275746 0.801333 0.000000
0.311861 0.801993 0.000000
0.347644 0.802653 0.000000
0.383134 0.803314 0.000000
0.418363 0.803974 0.000000
0.453355 0.804634 0.000000
0.488133 0.805294 0.000000
0.522713 0.805954 0.000000
0.557111 0.806614 0.000000
0.591340 0.807274 0.000000
0.625411 0.807934 0.000000
0.659334 0.808594 0.000000
0.693118 0.809254 0.000000
0.726771 0.809914 0.000000
0.760299 0.810574 0.000000
0.793710 0.811233 0.000000
0.827008 0.811893 0.000000
0.860200 0.812553 0.000000
0.893289 0.813212 0.000000
0.926281 0.813872 0.000000
0.959178 0.814531 0.000000
0.991986 0.815191 0.000000
1.000000 0.815850 0.000000
1.000000 0.816510 0.000000
1.000000 0.817169 0.000000
0.000000 0.828044 0.000000
0.000000 0.828703 0.000000
0.044966 0.829362 0.000000
0.085744 0.830020 0.000000
0.124962 0.830679 0.000000
0.163202 0.831337 0.000000
0.200732 0.831996 0.000000
0.237705 0.832654 0.000000
0.274221 0.833312 0.000000
0.310351 0.833971 0.000000
0.346147 0.834629 0.000000
0.381649 0.835287 0.000000
0.416888 0.835945 0.000000
0.451890 0.836603 0.000000
0.486676 0.837261 0.000000
0.521265 0.837919 0.000000
0.555670 0.838577 0.000000
0.589906 0.839235 0.000000
0.623983 0.839893 0.000000
0.657913 0.840551 0.000000
0.691702 0.841209 0.000000
0.725360 0.841867 0.000000
0.758894 0.842524 0.000000
0.792309 0.843182 0.000000
0.825612 0.843840 0.000000
0.858808 0.844497 0.000000
0.891902 0.845155 0.000000
0.924897 0.845813 0.000000
0.957799 0.846470 0.000000
0.990610 0.847128 0.000000
1.000000 0.847785 0.000000
1.000000 0.848442 0.000000
1.000000 0.849100 0.000000
0.000000 0.859942 0.000000
0.000000 0.860599 0.000000
0.043201 0.861255 0.000000
0.084069 0.861912 0.000000
0.123337 0.862568 0.000000
0.161612 0.863225 0.000000
0.199168 0.863881 0.000000
0.236162 0.864538 0.000000
0.272696 0.865194 0.000000
0.308841 0.865850 0.000000
0.344650 0.866507 0.000000
0.380164 0.867163 0.000000
0.415413 0.867819 0.000000
0.450425 0.868475 0.000000
0.485220 0.869131 0.000000
0.519816 0.869787 0.000000
0.554229 0.870443 0.000000
0.588471 0.871099 0.000000
0.622555 0.871755 0.000000
0.656491 0.872411 0.000000
0.690286 0.873067 0.000000
0.723949 0.873723 0.000000
0.757488 0.874379 0.000000
0.790908 0.875034 0.000000
0.824216 0.875690 0.000000
0.857416 0.876346 0.000000
0.890514 0.877001 0.000000
0.923513 0.877657 0.000000
0.956419 0.878313 0.000000
0.989234 0.878968 0.000000
1.000000 0.879624 0.000000
1.000000 0.880279 0.000000
1.000000 0.880934 0.000000
0.000000 0.891745 0.000000
0.000000 0.892400 0.000000
0.041430 0.893055 0.000000
0.082391 0.893709 0.000000
0.121711 0.894364 0.000000
0.160021 0.895018 0.000000
0.197603 0.895673 0.000000
0.234618 0.896328 0.000000
0.271170 0.896982 0.000000
0.307330 0.897636 0.000000
0.343153 0.898291 0.000000
0.378678 0.898945 0.000000
0.413938 0.899599 0.000000
0.448959 0.900254 0.000000
0.483763 0.900908 0.000000
0.518367 0.901562 0.000000
0.552787 0.902216 0.000000
0.587037 0.902870 0.000000
0.621127 0.903524 0.000000
0.655068 0.904178 0.000000
0.688869 0.904832 0.000000
0.722538 0.905486 0.000000
0.756082 0.906140 0.000000
0.789507 0.906794 0.000000
