presets/film_stocks/Kodak_Vision_Premier_2393.cube
# 独寻胶片模拟 -- Kodak Vision Premier 2393
# Kodak, ISO 0, 1998, negative
TITLE "Kodak Vision Premier 2393"
LUT_3D_SIZE 33
DOMAIN_MIN 0.0 0.0 0.0
DOMAIN_MAX 1.0 1.0 1.0
0.000000 0.000000 0.000000
0.087103 0.000000 0.000000
0.141915 0.000000 0.000000
0.188815 0.000000 0.000000
0.231218 0.000000 0.000000
0.270563 0.000000 0.000000
0.307630 0.000000 0.000000
0.342906 0.000000 0.000000
0.376716 0.000000 0.000000
0.409296 0.000000 0.000000
0.440819 0.000000 0.000000
0.471423 0.000000 0.000000
0.501213 0.000000 0.000000
0.530276 0.000000 0.000000
0.558686 0.000000 0.000000
0.586501 0.000000 0.000000
0.613772 0.000000 0.000000
0.640543 0.000000 0.000000
0.666853 0.000000 0.000000
0.692733 0.000000 0.000000
0.718213 0.000000 0.000000
0.743320 0.000000 0.000000
0.768074 0.000000 0.000000
0.792499 0.000000 0.000000
0.816611 0.000000 0.000000
0.840427 0.000000 0.000000
0.863963 0.000000 0.000000
0.887233 0.000000 0.000000
0.910250 0.000000 0.000000
0.933024 0.000000 0.000000
0.955568 0.000000 0.000000
0.977890 0.000000 0.000000
1.000000 0.000000 0.000000
0.000000 0.087103 0.000000
0.087103 0.087103 0.000000
0.141915 0.087103 0.000000
0.188815 0.087103 0.000000
0.231218 0.087103 0.000000
0.270563 0.087103 0.000000
0.307630 0.087103 0.000000
0.342906 0.087103 0.000000
0.376716 0.087103 0.000000
0.409296 0.087103 0.000000
0.440819 0.087103 0.000000
0.471423 0.087103 0.000000
0.501213 0.087103 0.000000
0.530276 0.087103 0.000000
0.558686 0.087103 0.000000
0.586501 0.087103 0.000000
0.613772 0.087103 0.000000
0.640543 0.087103 0.000000
0.666853 0.087103 0.000000
0.692733 0.087103 0.000000
0.718213 0.087103 0.000000
0.743320 0.087103 0.000000
0.768074 0.087103 0.000000
0.792499 0.087103 0.000000
0.816611 0.087103 0.000000
0.840427 0.087103 0.000000
0.863963 0.087103 0.000000
0.887233 0.087103 0.000000
0.910250 0.087103 0.000000
0.933024 0.087103 0.000000
0.955568 0.087103 0.000000
0.977890 0.087103 0.000000
1.000000 0.087103 0.000000
0.000000 0.141915 0.000000
0.087103 0.141915 0.000000
0.141915 0.141915 0.000000
0.188815 0.141915 0.000000
0.231218 0.141915 0.000000
0.270563 0.141915 0.000000
0.307630 0.141915 0.000000
0.342906 0.141915 0.000000
0.376716 0.141915 0.000000
0.409296 0.141915 0.000000
0.440819 0.141915 0.000000
0.471423 0.141915 0.000000
0.501213 0.141915 0.000000
0.530276 0.141915 0.000000
0.558686 0.141915 0.000000
0.586501 0.141915 0.000000
0.613772 0.141915 0.000000
0.640543 0.141915 0.000000
0.666853 0.141915 0.000000
0.692733 0.141915 0.000000
0.718213 0.141915 0.000000
0.743320 0.141915 0.000000
0.768074 0.141915 0.000000
0.792499 0.141915 0.000000
0.816611 0.141915 0.000000
0.840427 0.141915 0.000000
0.863963 0.141915 0.000000
0.887233 0.141915 0.000000
0.910250 0.141915 0.000000
0.933024 0.141915 0.000000
0.955568 0.141915 0.000000
0.977890 0.141915 0.000000
1.000000 0.141915 0.000000
0.000000 0.188815 0.000000
0.087103 0.188815 0.000000
0.141915 0.188815 0.000000
0.188815 0.188815 0.000000
0.231218 0.188815 0.000000
0.270563 0.188815 0.000000
0.307630 0.188815 0.000000
0.342906 0.188815 0.000000
0.376716 0.188815 0.000000
0.409296 0.188815 0.000000
0.440819 0.188815 0.000000
0.471423 0.188815 0.000000
0.501213 0.188815 0.000000
0.530276 0.188815 0.000000
0.558686 0.188815 0.000000
0.586501 0.188815 0.000000
0.613772 0.188815 0.000000
0.640543 0.188815 0.000000
0.666853 0.188815 0.000000
0.692733 0.188815 0.000000
0.718213 0.188815 0.000000
0.743320 0.188815 0.000000
0.768074 0.188815 0.000000
0.792499 0.188815 0.000000
0.816611 0.188815 0.000000
0.840427 0.188815 0.000000
0.863963 0.188815 0.000000
0.887233 0.188815 0.000000
0.910250 0.188815 0.000000
0.933024 0.188815 0.000000
0.955568 0.188815 0.000000
0.977890 0.188815 0.000000
1.000000 0.188815 0.000000
0.000000 0.231218 0.000000
0.087103 0.231218 0.000000
0.141915 0.231218 0.000000
0.188815 0.231218 0.000000
0.231218 0.231218 0.000000
0.270563 0.231218 0.000000
0.307630 0.231218 0.000000
0.342906 0.231218 0.000000
0.376716 0.231218 0.000000
0.409296 0.231218 0.000000
0.440819 0.231218 0.000000
0.471423 0.231218 0.000000
0.501213 0.231218 0.000000
0.530276 0.231218 0.000000
0.558686 0.231218 0.000000
0.586501 0.231218 0.000000
0.613772 0.231218 0.000000
0.640543 0.231218 0.000000
0.666853 0.231218 0.000000
0.692733 0.231218 0.000000
0.718213 0.231218 0.000000
0.743320 0.231218 0.000000
0.768074 0.231218 0.000000
0.792499 0.231218 0.000000
0.816611 0.231218 0.000000
0.840427 0.231218 0.000000
0.863963 0.231218 0.000000
0.887233 0.231218 0.000000
0.910250 0.231218 0.000000
0.933024 0.231218 0.000000
0.955568 0.231218 0.000000
0.977890 0.231218 0.000000
1.000000 0.231218 0.000000
0.000000 0.270563 0.000000
0.087103 0.270563 0.000000
0.141915 0.270563 0.000000
0.188815 0.270563 0.000000
0.231218 0.270563 0.000000
0.270563 0.270563 0.000000
0.307630 0.270563 0.000000
0.342906 0.270563 0.000000
0.376716 0.270563 0.000000
0.409296 0.270563 0.000000
0.440819 0.270563 0.000000
0.471423 0.270563 0.000000
0.501213 0.270563 0.000000
0.530276 0.270563 0.000000
0.558686 0.270563 0.000000
0.586501 0.270563 0.000000
0.613772 0.270563 0.000000
0.640543 0.270563 0.000000
0.666853 0.270563 0.000000
0.692733 0.270563 0.000000
0.718213 0.270563 0.000000
0.743320 0.270563 0.000000
0.768074 0.270563 0.000000
0.792499 0.270563 0.000000
0.816611 0.270563 0.000000
0.840427 0.270563 0.000000
0.863963 0.270563 0.000000
0.887233 0.270563 0.000000
0.910250 0.270563 0.000000
0.933024 0.270563 0.000000
0.955568 0.270563 0.000000
0.977890 0.270563 0.000000
1.000000 0.270563 0.000000
0.000000 0.307630 0.000000
0.087103 0.307630 0.000000
0.141915 0.307630 0.000000
0.188815 0.307630 0.000000
0.231218 0.307630 0.000000
0.270563 0.307630 0.000000
0.307630 0.307630 0.000000
0.342906 0.307630 0.000000
0.376716 0.307630 0.000000
0.409296 0.307630 0.000000
0.440819 0.307630 0.000000
0.471423 0.307630 0.000000
0.501213 0.307630 0.000000
0.530276 0.307630 0.000000
0.558686 0.307630 0.000000
0.586501 0.307630 0.000000
0.613772 0.307630 0.000000
0.640543 0.307630 0.000000
0.666853 0.307630 0.000000
0.692733 0.307630 0.000000
0.718213 0.307630 0.000000
0.743320 0.307630 0.000000
0.768074 0.307630 0.000000
0.792499 0.307630 0.000000
0.816611 0.307630 0.000000
0.840427 0.307630 0.000000
0.863963 0.307630 0.000000
0.887233 0.307630 0.000000
0.910250 0.307630 0.000000
0.933024 0.307630 0.000000
0.955568 0.307630 0.000000
0.977890 0.307630 0.000000
1.000000 0.307630 0.000000
0.000000 0.342906 0.000000
0.087103 0.342906 0.000000
0.141915 0.342906 0.000000
0.188815 0.342906 0.000000
0.231218 0.342906 0.000000
0.270563 0.342906 0.000000
0.307630 0.342906 0.000000
0.342906 0.342906 0.000000
0.376716 0.342906 0.000000
0.409296 0.342906 0.000000
0.440819 0.342906 0.000000
0.471423 0.342906 0.000000
0.501213 0.342906 0.000000
0.530276 0.342906 0.000000
0.558686 0.342906 0.000000
0.586501 0.342906 0.000000
0.613772 0.342906 0.000000
0.640543 0.342906 0.000000
0.666853 0.342906 0.000000
0.692733 0.342906 0.000000
0.718213 0.342906 0.000000
0.743320 0.342906 0.000000
0.768074 0.342906 0.000000
0.792499 0.342906 0.000000
0.816611 0.342906 0.000000
0.840427 0.342906 0.000000
0.863963 0.342906 0.000000
0.887233 0.342906 0.000000
0.910250 0.342906 0.000000
0.933024 0.342906 0.000000
0.955568 0.342906 0.000000
0.977890 0.342906 0.000000
1.000000 0.342906 0.000000
0.000000 0.376716 0.000000
0.087103 0.376716 0.000000
0.141915 0.376716 0.000000
0.188815 0.376716 0.000000
0.231218 0.376716 0.000000
0.270563 0.376716 0.000000
0.307630 0.376716 0.000000
0.342906 0.376716 0.000000
0.376716 0.376716 0.000000
0.409296 0.376716 0.000000
0.440819 0.376716 0.000000
0.471423 0.376716 0.000000
0.501213 0.376716 0.000000
0.530276 0.376716 0.000000
0.558686 0.376716 0.000000
0.586501 0.376716 0.000000
0.613772 0.376716 0.000000
0.640543 0.376716 0.000000
0.666853 0.376716 0.000000
0.692733 0.376716 0.000000
0.718213 0.376716 0.000000
0.743320 0.376716 0.000000
0.768074 0.376716 0.000000
0.792499 0.376716 0.000000
0.816611 0.376716 0.000000
0.840427 0.376716 0.000000
0.863963 0.376716 0.000000
0.887233 0.376716 0.000000
0.910250 0.376716 0.000000
0.933024 0.376716 0.000000
0.955568 0.376716 0.000000
0.977890 0.376716 0.000000
1.000000 0.376716 0.000000
0.000000 0.409296 0.000000
0.087103 0.409296 0.000000
0.141915 0.409296 0.000000
0.188815 0.409296 0.000000
0.231218 0.409296 0.000000
0.270563 0.409296 0.000000
0.307630 0.409296 0.000000
0.342906 0.409296 0.000000
0.376716 0.409296 0.000000
0.409296 0.409296 0.000000
0.440819 0.409296 0.000000
0.471423 0.409296 0.000000
0.501213 0.409296 0.000000
0.530276 0.409296 0.000000
0.558686 0.409296 0.000000
0.586501 0.409296 0.000000
0.613772 0.409296 0.000000
0.640543 0.409296 0.000000
0.666853 0.409296 0.000000
0.692733 0.409296 0.000000
0.718213 0.409296 0.000000
0.743320 0.409296 0.000000
0.768074 0.409296 0.000000
0.792499 0.409296 0.000000
0.816611 0.409296 0.000000
0.840427 0.409296 0.000000
0.863963 0.409296 0.000000
0.887233 0.409296 0.000000
0.910250 0.409296 0.000000
0.933024 0.409296 0.000000
0.955568 0.409296 0.000000
0.977890 0.409296 0.000000
1.000000 0.409296 0.000000
0.000000 0.440819 0.000000
0.087103 0.440819 0.000000
0.141915 0.440819 0.000000
0.188815 0.440819 0.000000
0.231218 0.440819 0.000000
0.270563 0.440819 0.000000
0.307630 0.440819 0.000000
0.342906 0.440819 0.000000
0.376716 0.440819 0.000000
0.409296 0.440819 0.000000
0.440819 0.440819 0.000000
0.471423 0.440819 0.000000
0.501213 0.440819 0.000000
0.530276 0.440819 0.000000
0.558686 0.440819 0.000000
0.586501 0.440819 0.000000
0.613772 0.440819 0.000000
0.640543 0.440819 0.000000
0.666853 0.440819 0.000000
0.692733 0.440819 0.000000
0.718213 0.440819 0.000000
0.743320 0.440819 0.000000
0.768074 0.440819 0.000000
0.792499 0.440819 0.000000
0.816611 0.440819 0.000000
0.840427 0.440819 0.000000
0.863963 0.440819 0.000000
0.887233 0.440819 0.000000
0.910250 0.440819 0.000000
0.933024 0.440819 0.000000
0.955568 0.440819 0.000000
0.977890 0.440819 0.000000
1.000000 0.440819 0.000000
0.000000 0.471423 0.000000
0.087103 0.471423 0.000000
0.141915 0.471423 0.000000
0.188815 0.471423 0.000000
0.231218 0.471423 0.000000
0.270563 0.471423 0.000000
0.307630 0.471423 0.000000
0.342906 0.471423 0.000000
0.376716 0.471423 0.000000
0.409296 0.471423 0.000000
0.440819 0.471423 0.000000
0.471423 0.471423 0.000000
0.501213 0.471423 0.000000
0.530276 0.471423 0.000000
0.558686 0.471423 0.000000
0.586501 0.471423 0.000000
0.613772 0.471423 0.000000
0.640543 0.471423 0.000000
0.666853 0.471423 0.000000
0.692733 0.471423 0.000000
0.718213 0.471423 0.000000
0.743320 0.471423 0.000000
0.768074 0.471423 0.000000
0.792499 0.471423 0.000000
0.816611 0.471423 0.000000
0.840427 0.471423 0.000000
0.863963 0.471423 0.000000
0.887233 0.471423 0.000000
0.910250 0.471423 0.000000
0.933024 0.471423 0.000000
0.955568 0.471423 0.000000
0.977890 0.471423 0.000000
1.000000 0.471423 0.000000
0.000000 0.501213 0.000000
0.087103 0.501213 0.000000
0.141915 0.501213 0.000000
0.188815 0.501213 0.000000
0.231218 0.501213 0.000000
0.270563 0.501213 0.000000
0.307630 0.501213 0.000000
0.342906 0.501213 0.000000
0.376716 0.501213 0.000000
0.409296 0.501213 0.000000
0.440819 0.501213 0.000000
0.471423 0.501213 0.000000
0.501213 0.501213 0.000000
0.530276 0.501213 0.000000
0.558686 0.501213 0.000000
0.586501 0.501213 0.000000
0.613772 0.501213 0.000000
0.640543 0.501213 0.000000
0.666853 0.501213 0.000000
0.692733 0.501213 0.000000
0.718213 0.501213 0.000000
0.743320 0.501213 0.000000
0.768074 0.501213 0.000000
0.792499 0.501213 0.000000
0.816611 0.501213 0.000000
0.840427 0.501213 0.000000
0.863963 0.501213 0.000000
0.887233 0.501213 0.000000
0.910250 0.501213 0.000000
0.933024 0.501213 0.000000
0.955568 0.501213 0.000000
0.977890 0.501213 0.000000
1.000000 0.501213 0.000000
0.000000 0.530276 0.000000
0.087103 0.530276 0.000000
0.141915 0.530276 0.000000
0.188815 0.530276 0.000000
0.231218 0.530276 0.000000
0.270563 0.530276 0.000000
0.307630 0.530276 0.000000
0.342906 0.530276 0.000000
0.376716 0.530276 0.000000
0.409296 0.530276 0.000000
0.440819 0.530276 0.000000
0.471423 0.530276 0.000000
0.501213 0.530276 0.000000
0.530276 0.530276 0.000000
0.558686 0.530276 0.000000
0.586501 0.530276 0.000000
0.613772 0.530276 0.000000
0.640543 0.530276 0.000000
0.666853 0.530276 0.000000
0.692733 0.530276 0.000000
0.718213 0.530276 0.000000
0.743320 0.530276 0.000000
0.768074 0.530276 0.000000
0.792499 0.530276 0.000000
0.816611 0.530276 0.000000
0.840427 0.530276 0.000000
0.863963 0.530276 0.000000
0.887233 0.530276 0.000000
0.910250 0.530276 0.000000
0.933024 0.530276 0.000000
0.955568 0.530276 0.000000
0.977890 0.530276 0.000000
1.000000 0.530276 0.000000
0.000000 0.558686 0.000000
0.087103 0.558686 0.000000
0.141915 0.558686 0.000000
0.188815 0.558686 0.000000
0.231218 0.558686 0.000000
0.270563 0.558686 0.000000
0.307630 0.558686 0.000000
0.342906 0.558686 0.000000
0.376716 0.558686 0.000000
0.409296 0.558686 0.000000
0.440819 0.558686 0.000000
0.471423 0.558686 0.000000
0.501213 0.558686 0.000000
0.530276 0.558686 0.000000
0.558686 0.558686 0.000000
0.586501 0.558686 0.000000
0.613772 0.558686 0.000000
0.640543 0.558686 0.000000
0.666853 0.558686 0.000000
0.692733 0.558686 0.000000
0.718213 0.558686 0.000000
0.743320 0.558686 0.000000
0.768074 0.558686 0.000000
0.792499 0.558686 0.000000
0.816611 0.558686 0.000000
0.840427 0.558686 0.000000
0.863963 0.558686 0.000000
0.887233 0.558686 0.000000
0.910250 0.558686 0.000000
0.933024 0.558686 0.000000
0.955568 0.558686 0.000000
0.977890 0.558686 0.000000
1.000000 0.558686 0.000000
0.000000 0.586501 0.000000
0.087103 0.586501 0.000000
0.141915 0.586501 0.000000
0.188815 0.586501 0.000000
0.231218 0.586501 0.000000
0.270563 0.586501 0.000000
0.307630 0.586501 0.000000
0.342906 0.586501 0.000000
0.376716 0.586501 0.000000
0.409296 0.586501 0.000000
0.440819 0.586501 0.000000
0.471423 0.586501 0.000000
0.501213 0.586501 0.000000
0.530276 0.586501 0.000000
0.558686 0.586501 0.000000
0.586501 0.586501 0.000000
0.613772 0.586501 0.000000
0.640543 0.586501 0.000000
0.666853 0.586501 0.000000
0.692733 0.586501 0.000000
0.718213 0.586501 0.000000
0.743320 0.586501 0.000000
0.768074 0.586501 0.000000
0.792499 0.586501 0.000000
0.816611 0.586501 0.000000
0.840427 0.586501 0.000000
0.863963 0.586501 0.000000
0.887233 0.586501 0.000000
0.910250 0.586501 0.000000
0.933024 0.586501 0.000000
0.955568 0.586501 0.000000
0.977890 0.586501 0.000000
1.000000 0.586501 0.000000
0.000000 0.613772 0.000000
0.087103 0.613772 0.000000
0.141915 0.613772 0.000000
0.188815 0.613772 0.000000
0.231218 0.613772 0.000000
0.270563 0.613772 0.000000
0.307630 0.613772 0.000000
0.342906 0.613772 0.000000
0.376716 0.613772 0.000000
0.409296 0.613772 0.000000
0.440819 0.613772 0.000000
0.471423 0.613772 0.000000
0.501213 0.613772 0.000000
0.530276 0.613772 0.000000
0.558686 0.613772 0.000000
0.586501 0.613772 0.000000
0.613772 0.613772 0.000000
0.640543 0.613772 0.000000
0.666853 0.613772 0.000000
0.692733 0.613772 0.000000
0.718213 0.613772 0.000000
0.743320 0.613772 0.000000
0.768074 0.613772 0.000000
0.792499 0.613772 0.000000
0.816611 0.613772 0.000000
0.840427 0.613772 0.000000
0.863963 0.613772 0.000000
0.887233 0.613772 0.000000
0.910250 0.613772 0.000000
0.933024 0.613772 0.000000
0.955568 0.613772 0.000000
0.977890 0.613772 0.000000
1.000000 0.613772 0.000000
0.000000 0.640543 0.000000
0.087103 0.640543 0.000000
0.141915 0.640543 0.000000
0.188815 0.640543 0.000000
0.231218 0.640543 0.000000
0.270563 0.640543 0.000000
0.307630 0.640543 0.000000
0.342906 0.640543 0.000000
0.376716 0.640543 0.000000
0.409296 0.640543 0.000000
0.440819 0.640543 0.000000
0.471423 0.640543 0.000000
0.501213 0.640543 0.000000
0.530276 0.640543 0.000000
0.558686 0.640543 0.000000
0.586501 0.640543 0.000000
0.613772 0.640543 0.000000
0.640543 0.640543 0.000000
0.666853 0.640543 0.000000
0.692733 0.640543 0.000000
0.718213 0.640543 0.000000
0.743320 0.640543 0.000000
0.768074 0.640543 0.000000
0.792499 0.640543 0.000000
0.816611 0.640543 0.000000
0.840427 0.640543 0.000000
0.863963 0.640543 0.000000
0.887233 0.640543 0.000000
0.910250 0.640543 0.000000
0.933024 0.640543 0.000000
0.955568 0.640543 0.000000
0.977890 0.640543 0.000000
1.000000 0.640543 0.000000
0.000000 0.666853 0.000000
0.087103 0.666853 0.000000
0.141915 0.666853 0.000000
0.188815 0.666853 0.000000
0.231218 0.666853 0.000000
0.270563 0.666853 0.000000
0.307630 0.666853 0.000000
0.342906 0.666853 0.000000
0.376716 0.666853 0.000000
0.409296 0.666853 0.000000
0.440819 0.666853 0.000000
0.471423 0.666853 0.000000
0.501213 0.666853 0.000000
0.530276 0.666853 0.000000
0.558686 0.666853 0.000000
0.586501 0.666853 0.000000
0.613772 0.666853 0.000000
0.640543 0.666853 0.000000
0.666853 0.666853 0.000000
0.692733 0.666853 0.000000
0.718213 0.666853 0.000000
0.743320 0.666853 0.000000
0.768074 0.666853 0.000000
0.792499 0.666853 0.000000
0.816611 0.666853 0.000000
0.840427 0.666853 0.000000
0.863963 0.666853 0.000000
0.887233 0.666853 0.000000
0.910250 0.666853 0.000000
0.933024 0.666853 0.000000
0.955568 0.666853 0.000000
0.977890 0.666853 0.000000
1.000000 0.666853 0.000000
0.000000 0.692733 0.000000
0.087103 0.692733 0.000000
0.141915 0.692733 0.000000
0.188815 0.692733 0.000000
0.231218 0.692733 0.000000
0.270563 0.692733 0.000000
0.307630 0.692733 0.000000
0.342906 0.692733 0.000000
0.376716 0.692733 0.000000
0.409296 0.692733 0.000000
0.440819 0.692733 0.000000
0.471423 0.692733 0.000000
0.501213 0.692733 0.000000
0.530276 0.692733 0.000000
0.558686 0.692733 0.000000
0.586501 0.692733 0.000000
0.613772 0.692733 0.000000
0.640543 0.692733 0.000000
0.666853 0.692733 0.000000
0.692733 0.692733 0.000000
0.718213 0.692733 0.000000
0.743320 0.692733 0.000000
0.768074 0.692733 0.000000
0.792499 0.692733 0.000000
0.816611 0.692733 0.000000
0.840427 0.692733 0.000000
0.863963 0.692733 0.000000
0.887233 0.692733 0.000000
0.910250 0.692733 0.000000
0.933024 0.692733 0.000000
0.955568 0.692733 0.000000
0.977890 0.692733 0.000000
1.000000 0.692733 0.000000
0.000000 0.718213 0.000000
0.087103 0.718213 0.000000
0.141915 0.718213 0.000000
0.188815 0.718213 0.000000
0.231218 0.718213 0.000000
0.270563 0.718213 0.000000
0.307630 0.718213 0.000000
0.342906 0.718213 0.000000
0.376716 0.718213 0.000000
0.409296 0.718213 0.000000
0.440819 0.718213 0.000000
0.471423 0.718213 0.000000
0.501213 0.718213 0.000000
0.530276 0.718213 0.000000
0.558686 0.718213 0.000000
0.586501 0.718213 0.000000
0.613772 0.718213 0.000000
0.640543 0.718213 0.000000
0.666853 0.718213 0.000000
0.692733 0.718213 0.000000
0.718213 0.718213 0.000000
0.743320 0.718213 0.000000
0.768074 0.718213 0.000000
0.792499 0.718213 0.000000
0.816611 0.718213 0.000000
0.840427 0.718213 0.000000
0.863963 0.718213 0.000000
0.887233 0.718213 0.000000
0.910250 0.718213 0.000000
0.933024 0.718213 0.000000
0.955568 0.718213 0.000000
0.977890 0.718213 0.000000
1.000000 0.718213 0.000000
0.000000 0.743320 0.000000
0.087103 0.743320 0.000000
0.141915 0.743320 0.000000
0.188815 0.743320 0.000000
0.231218 0.743320 0.000000
0.270563 0.743320 0.000000
0.307630 0.743320 0.000000
0.342906 0.743320 0.000000
0.376716 0.743320 0.000000
0.409296 0.743320 0.000000
0.440819 0.743320 0.000000
0.471423 0.743320 0.000000
0.501213 0.743320 0.000000
0.530276 0.743320 0.000000
0.558686 0.743320 0.000000
0.586501 0.743320 0.000000
0.613772 0.743320 0.000000
0.640543 0.743320 0.000000
0.666853 0.743320 0.000000
0.692733 0.743320 0.000000
0.718213 0.743320 0.000000
0.743320 0.743320 0.000000
0.768074 0.743320 0.000000
0.792499 0.743320 0.000000
0.816611 0.743320 0.000000
0.840427 0.743320 0.000000
0.863963 0.743320 0.000000
0.887233 0.743320 0.000000
0.910250 0.743320 0.000000
0.933024 0.743320 0.000000
0.955568 0.743320 0.000000
0.977890 0.743320 0.000000
1.000000 0.743320 0.000000
0.000000 0.768074 0.000000
0.087103 0.768074 0.000000
0.141915 0.768074 0.000000
0.188815 0.768074 0.000000
0.231218 0.768074 0.000000
0.270563 0.768074 0.000000
0.307630 0.768074 0.000000
0.342906 0.768074 0.000000
0.376716 0.768074 0.000000
0.409296 0.768074 0.000000
0.440819 0.768074 0.000000
0.471423 0.768074 0.000000
0.501213 0.768074 0.000000
0.530276 0.768074 0.000000
0.558686 0.768074 0.000000
0.586501 0.768074 0.000000
0.613772 0.768074 0.000000
0.640543 0.768074 0.000000
0.666853 0.768074 0.000000
0.692733 0.768074 0.000000
0.718213 0.768074 0.000000
0.743320 0.768074 0.000000
0.768074 0.768074 0.000000
0.792499 0.768074 0.000000
0.816611 0.768074 0.000000
0.840427 0.768074 0.000000
0.863963 0.768074 0.000000
0.887233 0.768074 0.000000
0.910250 0.768074 0.000000
0.933024 0.768074 0.000000
0.955568 0.768074 0.000000
0.977890 0.768074 0.000000
1.000000 0.768074 0.000000
0.000000 0.792499 0.000000
0.087103 0.792499 0.000000
0.141915 0.792499 0.000000
0.188815 0.792499 0.000000
0.231218 0.792499 0.000000
0.270563 0.792499 0.000000
0.307630 0.792499 0.000000
0.342906 0.792499 0.000000
0.376716 0.792499 0.000000
0.409296 0.792499 0.000000
0.440819 0.792499 0.000000
0.471423 0.792499 0.000000
0.501213 0.792499 0.000000
0.530276 0.792499 0.000000
0.558686 0.792499 0.000000
0.586501 0.792499 0.000000
0.613772 0.792499 0.000000
0.640543 0.792499 0.000000
0.666853 0.792499 0.000000
0.692733 0.792499 0.000000
0.718213 0.792499 0.000000
0.743320 0.792499 0.000000
0.768074 0.792499 0.000000
0.792499 0.792499 0.000000
0.816611 0.792499 0.000000
0.840427 0.792499 0.000000
0.863963 0.792499 0.000000
0.887233 0.792499 0.000000
0.910250 0.792499 0.000000
0.933024 0.792499 0.000000
0.955568 0.792499 0.000000
0.977890 0.792499 0.000000
1.000000 0.792499 0.000000
0.000000 0.816611 0.000000
0.087103 0.816611 0.000000
0.141915 0.816611 0.000000
0.188815 0.816611 0.000000
0.231218 0.816611 0.000000
0.270563 0.816611 0.000000
0.307630 0.816611 0.000000
0.342906 0.816611 0.000000
0.376716 0.816611 0.000000
0.409296 0.816611 0.000000
0.440819 0.816611 0.000000
0.471423 0.816611 0.000000
0.501213 0.816611 0.000000
0.530276 0.816611 0.000000
0.558686 0.816611 0.000000
0.586501 0.816611 0.000000
0.613772 0.816611 0.000000
0.640543 0.816611 0.000000
0.666853 0.816611 0.000000
0.692733 0.816611 0.000000
0.718213 0.816611 0.000000
0.743320 0.816611 0.000000
0.768074 0.816611 0.000000
0.792499 0.816611 0.000000
0.816611 0.816611 0.000000
0.840427 0.816611 0.000000
0.863963 0.816611 0.000000
0.887233 0.816611 0.000000
0.910250 0.816611 0.000000
0.933024 0.816611 0.000000
0.955568 0.816611 0.000000
0.977890 0.816611 0.000000
1.000000 0.816611 0.000000
0.000000 0.840427 0.000000
0.087103 0.840427 0.000000
0.141915 0.840427 0.000000
0.188815 0.840427 0.000000
0.231218 0.840427 0.000000
0.270563 0.840427 0.000000
0.307630 0.840427 0.000000
0.342906 0.840427 0.000000
0.376716 0.840427 0.000000
0.409296 0.840427 0.000000
0.440819 0.840427 0.000000
0.471423 0.840427 0.000000
0.501213 0.840427 0.000000
0.530276 0.840427 0.000000
0.558686 0.840427 0.000000
0.586501 0.840427 0.000000
0.613772 0.840427 0.000000
0.640543 0.840427 0.000000
0.666853 0.840427 0.000000
0.692733 0.840427 0.000000
0.718213 0.840427 0.000000
0.743320 0.840427 0.000000
0.768074 0.840427 0.000000
0.792499 0.840427 0.000000
0.816611 0.840427 0.000000
0.840427 0.840427 0.000000
0.863963 0.840427 0.000000
0.887233 0.840427 0.000000
0.910250 0.840427 0.000000
0.933024 0.840427 0.000000
0.955568 0.840427 0.000000
0.977890 0.840427 0.000000
1.000000 0.840427 0.000000
0.000000 0.863963 0.000000
0.087103 0.863963 0.000000
0.141915 0.863963 0.000000
0.188815 0.863963 0.000000
0.231218 0.863963 0.000000
0.270563 0.863963 0.000000
0.307630 0.863963 0.000000
0.342906 0.863963 0.000000
0.376716 0.863963 0.000000
0.409296 0.863963 0.000000
0.440819 0.863963 0.000000
0.471423 0.863963 0.000000
0.501213 0.863963 0.000000
0.530276 0.863963 0.000000
0.558686 0.863963 0.000000
0.586501 0.863963 0.000000
0.613772 0.863963 0.000000
0.640543 0.863963 0.000000
0.666853 0.863963 0.000000
0.692733 0.863963 0.000000
0.718213 0.863963 0.000000
0.743320 0.863963 0.000000
0.768074 0.863963 0.000000
0.792499 0.863963 0.000000
