presets/film_stocks/Kodak_Ektachrome_Radiance_III_Paper.cube
# 独寻胶片模拟 -- Kodak Ektachrome Radiance III Paper
# Kodak, ISO 0, 0, positive
TITLE "Kodak Ektachrome Radiance III Paper"
LUT_3D_SIZE 33
DOMAIN_MIN 0.0 0.0 0.0
DOMAIN_MAX 1.0 1.0 1.0
0.000000 0.000000 0.000000
0.017771 0.000000 0.000211
0.030542 0.000000 0.000363
0.041924 0.000000 0.000498
0.052490 0.000000 0.000624
0.062487 0.000000 0.000743
0.072052 0.000000 0.000856
0.081274 0.000000 0.000966
0.090210 0.000000 0.001072
0.098905 0.000000 0.001175
0.107391 0.000000 0.001276
0.115692 0.000000 0.001375
0.123830 0.000000 0.001472
0.131821 0.000000 0.001567
0.139678 0.000000 0.001660
0.147414 0.000000 0.001752
0.155037 0.000000 0.001842
0.162557 0.000000 0.001932
0.169980 0.000000 0.002020
0.177314 0.000000 0.002107
0.184564 0.000000 0.002193
0.191735 0.000000 0.002279
0.198831 0.000000 0.002363
0.205857 0.000000 0.002446
0.212817 0.000000 0.002529
0.219714 0.000000 0.002611
0.226550 0.000000 0.002692
0.233329 0.000000 0.002773
0.240054 0.000000 0.002853
0.246726 0.000000 0.002932
0.253348 0.000000 0.003011
0.259922 0.000000 0.003089
0.266450 0.000000 0.003166
0.018842 0.077794 0.000000
0.031466 0.077745 0.000000
0.042771 0.077696 0.000000
0.053285 0.077647 0.000000
0.063244 0.077598 0.000000
0.072781 0.077549 0.000000
0.081978 0.077501 0.000000
0.090894 0.077452 0.000000
0.099572 0.077403 0.000000
0.108043 0.077354 0.000000
0.116331 0.077305 0.000000
0.124457 0.077256 0.000000
0.132437 0.077207 0.000000
0.140284 0.077158 0.000000
0.148010 0.077109 0.000000
0.155625 0.077060 0.000173
0.163137 0.077011 0.000330
0.170554 0.076962 0.000469
0.177881 0.076913 0.000596
0.185124 0.076864 0.000716
0.192289 0.076815 0.000831
0.199380 0.076766 0.000941
0.206401 0.076717 0.001048
0.213356 0.076668 0.001152
0.220247 0.076619 0.001254
0.227079 0.076570 0.001353
0.233854 0.076521 0.001450
0.240575 0.076472 0.001545
0.247243 0.076423 0.001639
0.253861 0.076374 0.001731
0.260431 0.076325 0.001822
0.266955 0.076276 0.001912
0.273435 0.076227 0.002000
0.032382 0.133698 0.000000
0.043613 0.133656 0.000000
0.054078 0.133614 0.000000
0.064000 0.133572 0.000000
0.073507 0.133530 0.000000
0.082681 0.133488 0.000000
0.091577 0.133446 0.000000
0.100238 0.133404 0.000000
0.108693 0.133362 0.000000
0.116968 0.133320 0.000000
0.125082 0.133278 0.000000
0.133051 0.133236 0.000000
0.140889 0.133194 0.000000
0.148606 0.133152 0.000000
0.156213 0.133110 0.000000
0.163717 0.133068 0.000000
0.171126 0.133026 0.000000
0.178447 0.132984 0.000000
0.185684 0.132942 0.000000
0.192843 0.132900 0.000000
0.199928 0.132858 0.000000
0.206944 0.132816 0.000000
0.213894 0.132774 0.000000
0.220781 0.132732 0.000000
0.227608 0.132690 0.000000
0.234379 0.132648 0.000000
0.241095 0.132606 0.000000
0.247759 0.132564 0.000000
0.254374 0.132521 0.000000
0.260940 0.132479 0.000132
0.267461 0.132437 0.000297
0.273937 0.132395 0.000438
0.280371 0.132353 0.000568
0.044450 0.183525 0.000000
0.054866 0.183487 0.000000
0.064753 0.183448 0.000000
0.074232 0.183410 0.000000
0.083382 0.183371 0.000000
0.092259 0.183333 0.000000
0.100902 0.183295 0.000000
0.109343 0.183256 0.000000
0.117605 0.183218 0.000000
0.125707 0.183179 0.000000
0.133665 0.183141 0.000000
0.141493 0.183102 0.000000
0.149202 0.183064 0.000000
0.156800 0.183026 0.000000
0.164297 0.182987 0.000000
0.171699 0.182949 0.000000
0.179012 0.182910 0.000000
0.186243 0.182872 0.000000
0.193396 0.182833 0.000000
0.200476 0.182795 0.000000
0.207487 0.182757 0.000000
0.214431 0.182718 0.000000
0.221314 0.182680 0.000000
0.228137 0.182641 0.000000
0.234903 0.182603 0.000000
0.241615 0.182564 0.000000
0.248275 0.182526 0.000000
0.254886 0.182487 0.000000
0.261449 0.182449 0.000000
0.267966 0.182411 0.000000
0.274439 0.182372 0.000000
0.280869 0.182334 0.000000
0.287259 0.182295 0.000000
0.055652 0.229775 0.000000
0.065503 0.229739 0.000000
0.074954 0.229703 0.000000
0.084081 0.229667 0.000000
0.092939 0.229631 0.000000
0.101565 0.229595 0.000000
0.109991 0.229559 0.000000
0.118240 0.229523 0.000000
0.126331 0.229487 0.000000
0.134279 0.229451 0.000000
0.142097 0.229415 0.000000
0.149796 0.229379 0.000000
0.157387 0.229343 0.000000
0.164876 0.229307 0.000000
0.172270 0.229270 0.000000
0.179578 0.229234 0.000000
0.186802 0.229198 0.000000
0.193950 0.229162 0.000000
0.201024 0.229126 0.000000
0.208029 0.229090 0.000000
0.214969 0.229054 0.000000
0.221846 0.229018 0.000000
0.228665 0.228982 0.000000
0.235427 0.228946 0.000000
0.242135 0.228910 0.000000
0.248791 0.228874 0.000000
0.255398 0.228837 0.000000
0.261957 0.228801 0.000000
0.268471 0.228765 0.000000
0.274940 0.228729 0.000000
0.281368 0.228693 0.000000
0.287754 0.228657 0.000000
0.294101 0.228621 0.000000
0.066251 0.273536 0.000000
0.075674 0.273502 0.000000
0.084779 0.273467 0.000000
0.093617 0.273433 0.000000
0.102227 0.273399 0.000000
0.110639 0.273364 0.000000
0.118875 0.273330 0.000000
0.126954 0.273296 0.000000
0.134891 0.273261 0.000000
0.142700 0.273227 0.000000
0.150390 0.273193 0.000000
0.157972 0.273158 0.000000
0.165454 0.273124 0.000000
0.172842 0.273089 0.000000
0.180142 0.273055 0.000000
0.187361 0.273021 0.000000
0.194502 0.272986 0.000000
0.201571 0.272952 0.000000
0.208571 0.272918 0.000000
0.215506 0.272883 0.000000
0.222379 0.272849 0.000000
0.229193 0.272815 0.000000
0.235950 0.272780 0.000000
0.242654 0.272746 0.000000
0.249306 0.272712 0.000000
0.255909 0.272677 0.000000
0.262465 0.272643 0.000000
0.268975 0.272608 0.000000
0.275442 0.272574 0.000000
0.281866 0.272540 0.000000
0.288249 0.272505 0.000000
0.294593 0.272471 0.000000
0.300899 0.272437 0.000000
0.076393 0.315409 0.000000
0.085475 0.315376 0.000000
0.094295 0.315343 0.000000
0.102888 0.315310 0.000000
0.111285 0.315277 0.000000
0.119508 0.315244 0.000000
0.127576 0.315211 0.000000
0.135503 0.315178 0.000000
0.143302 0.315145 0.000000
0.150984 0.315112 0.000000
0.158558 0.315079 0.000000
0.166032 0.315046 0.000000
0.173412 0.315013 0.000000
0.180706 0.314980 0.000000
0.187919 0.314947 0.000000
0.195054 0.314914 0.000000
0.202118 0.314881 0.000000
0.209112 0.314848 0.000000
0.216042 0.314815 0.000000
0.222911 0.314782 0.000000
0.229720 0.314749 0.000000
0.236473 0.314716 0.000000
0.243173 0.314683 0.000000
0.249822 0.314650 0.000000
0.256421 0.314617 0.000000
0.262973 0.314584 0.000000
0.269480 0.314551 0.000000
0.275943 0.314518 0.000000
0.282363 0.314485 0.000000
0.288744 0.314452 0.000000
0.295085 0.314419 0.000000
0.301388 0.314386 0.000000
0.307654 0.314353 0.000000
0.086170 0.355776 0.000000
0.094970 0.355744 0.000000
0.103548 0.355712 0.000000
0.111931 0.355681 0.000000
0.120141 0.355649 0.000000
0.128197 0.355617 0.000000
0.136114 0.355585 0.000000
0.143903 0.355553 0.000000
0.151576 0.355521 0.000000
0.159142 0.355489 0.000000
0.166609 0.355457 0.000000
0.173983 0.355425 0.000000
0.181270 0.355393 0.000000
0.188476 0.355361 0.000000
0.195606 0.355330 0.000000
0.202664 0.355298 0.000000
0.209654 0.355266 0.000000
0.216579 0.355234 0.000000
0.223442 0.355202 0.000000
0.230247 0.355170 0.000000
0.236996 0.355138 0.000000
0.243692 0.355106 0.000000
0.250336 0.355074 0.000000
0.256932 0.355042 0.000000
0.263481 0.355010 0.000000
0.269984 0.354979 0.000000
0.276443 0.354947 0.000000
0.282861 0.354915 0.000000
0.289238 0.354883 0.000000
0.295576 0.354851 0.000000
0.301876 0.354819 0.000000
0.308140 0.354787 0.000000
0.314368 0.354755 0.000000
0.095645 0.394896 0.000000
0.104206 0.394865 0.000000
0.112575 0.394834 0.000000
0.120773 0.394803 0.000000
0.128817 0.394772 0.000000
0.136724 0.394741 0.000000
0.144504 0.394710 0.000000
0.152168 0.394679 0.000000
0.159726 0.394648 0.000000
0.167185 0.394617 0.000000
0.174552 0.394587 0.000000
0.181833 0.394556 0.000000
0.189033 0.394525 0.000000
0.196157 0.394494 0.000000
0.203210 0.394463 0.000000
0.210194 0.394432 0.000000
0.217114 0.394401 0.000000
0.223973 0.394370 0.000000
0.230774 0.394339 0.000000
0.237519 0.394308 0.000000
0.244210 0.394277 0.000000
0.250851 0.394246 0.000000
0.257443 0.394215 0.000000
0.263988 0.394184 0.000000
0.270488 0.394153 0.000000
0.276944 0.394122 0.000000
0.283358 0.394091 0.000000
0.289732 0.394060 0.000000
0.296067 0.394029 0.000000
0.302365 0.393998 0.000000
0.308625 0.393967 0.000000
0.314851 0.393936 0.000000
0.321042 0.393905 0.000000
0.104864 0.432958 0.000000
0.113218 0.432928 0.000000
0.121404 0.432898 0.000000
0.129437 0.432868 0.000000
0.137333 0.432837 0.000000
0.145104 0.432807 0.000000
0.152760 0.432777 0.000000
0.160310 0.432747 0.000000
0.167761 0.432717 0.000000
0.175121 0.432687 0.000000
0.182396 0.432656 0.000000
0.189590 0.432626 0.000000
0.196708 0.432596 0.000000
0.203755 0.432566 0.000000
0.210735 0.432536 0.000000
0.217650 0.432505 0.000000
0.224504 0.432475 0.000000
0.231300 0.432445 0.000000
0.238041 0.432415 0.000000
0.244729 0.432384 0.000000
0.251365 0.432354 0.000000
0.257953 0.432324 0.000000
0.264495 0.432294 0.000000
0.270991 0.432264 0.000000
0.277444 0.432233 0.000000
0.283855 0.432203 0.000000
0.290226 0.432173 0.000000
0.296558 0.432143 0.000000
0.302853 0.432113 0.000000
0.309111 0.432082 0.000000
0.315333 0.432052 0.000000
0.321522 0.432022 0.000000
0.327677 0.431992 0.000000
0.113861 0.470104 0.000000
0.122033 0.470075 0.000000
0.130056 0.470045 0.000000
0.137942 0.470016 0.000000
0.145703 0.469986 0.000000
0.153351 0.469957 0.000000
0.160893 0.469927 0.000000
0.168337 0.469898 0.000000
0.175690 0.469868 0.000000
0.182958 0.469839 0.000000
0.190146 0.469809 0.000000
0.197259 0.469780 0.000000
0.204300 0.469750 0.000000
0.211275 0.469721 0.000000
0.218185 0.469691 0.000000
0.225035 0.469662 0.000000
0.231826 0.469632 0.000000
0.238563 0.469602 0.000000
0.245246 0.469573 0.000000
0.251879 0.469543 0.000000
0.258464 0.469514 0.000000
0.265002 0.469484 0.000000
0.271494 0.469455 0.000000
0.277944 0.469425 0.000000
0.284352 0.469396 0.000000
0.290720 0.469366 0.000000
0.297049 0.469337 0.000000
0.303341 0.469307 0.000000
0.309596 0.469278 0.000000
0.315816 0.469248 0.000000
0.322002 0.469219 0.000000
0.328155 0.469189 0.000000
0.334275 0.469160 0.000000
0.122662 0.506445 0.000000
0.130674 0.506416 0.000000
0.138549 0.506387 0.000000
0.146302 0.506358 0.000000
0.153941 0.506329 0.000000
0.161475 0.506300 0.000000
0.168912 0.506271 0.000000
0.176258 0.506242 0.000000
0.183520 0.506214 0.000000
0.190702 0.506185 0.000000
0.197809 0.506156 0.000000
0.204845 0.506127 0.000000
0.211814 0.506098 0.000000
0.218720 0.506069 0.000000
0.225565 0.506040 0.000000
0.232352 0.506011 0.000000
0.239084 0.505982 0.000000
0.245764 0.505953 0.000000
0.252393 0.505925 0.000000
0.258974 0.505896 0.000000
0.265508 0.505867 0.000000
0.271997 0.505838 0.000000
0.278444 0.505809 0.000000
0.284849 0.505780 0.000000
0.291214 0.505751 0.000000
0.297540 0.505722 0.000000
0.303828 0.505693 0.000000
0.310081 0.505664 0.000000
0.316298 0.505636 0.000000
0.322481 0.505607 0.000000
0.328632 0.505578 0.000000
0.334750 0.505549 0.000000
0.340837 0.505520 0.000000
0.131291 0.542069 0.000000
0.139156 0.542040 0.000000
0.146900 0.542012 0.000000
0.154530 0.541984 0.000000
0.162057 0.541955 0.000000
0.169486 0.541927 0.000000
0.176826 0.541899 0.000000
0.184081 0.541870 0.000000
0.191257 0.541842 0.000000
0.198358 0.541814 0.000000
0.205389 0.541785 0.000000
0.212353 0.541757 0.000000
0.219254 0.541729 0.000000
0.226095 0.541700 0.000000
0.232877 0.541672 0.000000
0.239606 0.541643 0.000000
0.246281 0.541615 0.000000
0.252906 0.541587 0.000000
0.259483 0.541558 0.000000
0.266014 0.541530 0.000000
0.272500 0.541502 0.000000
0.278943 0.541473 0.000000
0.285345 0.541445 0.000000
0.291707 0.541417 0.000000
0.298030 0.541388 0.000000
0.304316 0.541360 0.000000
0.310565 0.541332 0.000000
0.316780 0.541303 0.000000
0.322961 0.541275 0.000000
0.329108 0.541246 0.000000
0.335224 0.541218 0.000000
0.341309 0.541190 0.000000
0.347363 0.541161 0.000000
0.139763 0.577048 0.000000
0.147497 0.577021 0.000000
0.155119 0.576993 0.000000
0.162638 0.576965 0.000000
0.170060 0.576937 0.000000
0.177393 0.576909 0.000000
0.184642 0.576881 0.000000
0.191812 0.576853 0.000000
0.198908 0.576826 0.000000
0.205933 0.576798 0.000000
0.212892 0.576770 0.000000
0.219788 0.576742 0.000000
0.226624 0.576714 0.000000
0.233403 0.576686 0.000000
0.240126 0.576658 0.000000
0.246798 0.576631 0.000000
0.253420 0.576603 0.000000
0.259993 0.576575 0.000000
0.266520 0.576547 0.000000
0.273003 0.576519 0.000000
0.279443 0.576491 0.000000
0.285841 0.576463 0.000000
0.292200 0.576436 0.000000
0.298520 0.576408 0.000000
0.304803 0.576380 0.000000
0.311050 0.576352 0.000000
0.317262 0.576324 0.000000
0.323440 0.576296 0.000000
0.329585 0.576268 0.000000
0.335698 0.576240 0.000000
0.341781 0.576213 0.000000
0.347833 0.576185 0.000000
0.353856 0.576157 0.000000
0.148093 0.611444 0.000000
0.155707 0.611416 0.000000
0.163218 0.611389 0.000000
0.170633 0.611362 0.000000
0.177959 0.611334 0.000000
0.185202 0.611307 0.000000
0.192366 0.611279 0.000000
0.199456 0.611252 0.000000
0.206477 0.611225 0.000000
0.213431 0.611197 0.000000
0.220322 0.611170 0.000000
0.227153 0.611142 0.000000
0.233927 0.611115 0.000000
0.240647 0.611087 0.000000
0.247315 0.611060 0.000000
0.253932 0.611033 0.000000
0.260502 0.611005 0.000000
0.267026 0.610978 0.000000
0.273505 0.610950 0.000000
0.279942 0.610923 0.000000
0.286337 0.610896 0.000000
0.292693 0.610868 0.000000
0.299010 0.610841 0.000000
0.305290 0.610813 0.000000
0.311534 0.610786 0.000000
0.317743 0.610758 0.000000
0.323919 0.610731 0.000000
0.330062 0.610704 0.000000
0.336172 0.610676 0.000000
0.342252 0.610649 0.000000
0.348302 0.610621 0.000000
0.354323 0.610594 0.000000
0.360315 0.610567 0.000000
0.156295 0.645305 0.000000
0.163798 0.645278 0.000000
0.171206 0.645251 0.000000
0.178526 0.645224 0.000000
0.185762 0.645197 0.000000
0.192920 0.645170 0.000000
0.200005 0.645143 0.000000
0.207020 0.645116 0.000000
0.213969 0.645089 0.000000
0.220855 0.645062 0.000000
0.227682 0.645035 0.000000
0.234452 0.645008 0.000000
0.241167 0.644981 0.000000
0.247831 0.644954 0.000000
0.254445 0.644927 0.000000
0.261011 0.644900 0.000000
0.267531 0.644873 0.000000
0.274007 0.644846 0.000000
0.280440 0.644819 0.000000
0.286833 0.644792 0.000000
0.293185 0.644765 0.000000
0.299500 0.644738 0.000000
0.305777 0.644711 0.000000
0.312018 0.644684 0.000000
0.318225 0.644657 0.000000
0.324398 0.644630 0.000000
0.330538 0.644603 0.000000
0.336646 0.644576 0.000000
0.342724 0.644549 0.000000
0.348771 0.644522 0.000000
0.354790 0.644495 0.000000
0.360779 0.644468 0.000000
0.366742 0.644441 0.000000
0.164377 0.678676 0.000000
0.171778 0.678650 0.000000
0.179091 0.678623 0.000000
0.186321 0.678597 0.000000
0.193474 0.678570 0.000000
0.200553 0.678543 0.000000
0.207562 0.678517 0.000000
0.214506 0.678490 0.000000
0.221388 0.678463 0.000000
0.228210 0.678437 0.000000
0.234976 0.678410 0.000000
0.241687 0.678384 0.000000
0.248347 0.678357 0.000000
0.254957 0.678330 0.000000
0.261520 0.678304 0.000000
0.268036 0.678277 0.000000
0.274509 0.678250 0.000000
0.280939 0.678224 0.000000
0.287328 0.678197 0.000000
0.293678 0.678171 0.000000
0.299989 0.678144 0.000000
0.306263 0.678117 0.000000
0.312502 0.678091 0.000000
0.318706 0.678064 0.000000
0.324876 0.678037 0.000000
0.331014 0.678011 0.000000
0.337120 0.677984 0.000000
0.343195 0.677958 0.000000
0.349240 0.677931 0.000000
0.355256 0.677904 0.000000
0.361244 0.677878 0.000000
0.367204 0.677851 0.000000
0.373137 0.677824 0.000000
0.172350 0.711594 0.000000
0.179656 0.711568 0.000000
0.186880 0.711541 0.000000
0.194027 0.711515 0.000000
0.201100 0.711489 0.000000
0.208105 0.711463 0.000000
0.215044 0.711436 0.000000
0.221921 0.711410 0.000000
0.228738 0.711384 0.000000
0.235500 0.711358 0.000000
0.242207 0.711331 0.000000
0.248863 0.711305 0.000000
0.255469 0.711279 0.000000
0.262028 0.711252 0.000000
0.268541 0.711226 0.000000
0.275010 0.711200 0.000000
0.281437 0.711174 0.000000
0.287823 0.711147 0.000000
0.294170 0.711121 0.000000
0.300478 0.711095 0.000000
0.306750 0.711069 0.000000
0.312986 0.711042 0.000000
0.319187 0.711016 0.000000
0.325355 0.710990 0.000000
0.331490 0.710963 0.000000
0.337593 0.710937 0.000000
0.343666 0.710911 0.000000
0.349709 0.710885 0.000000
0.355723 0.710858 0.000000
0.361708 0.710832 0.000000
0.367666 0.710806 0.000000
0.373597 0.710779 0.000000
0.379502 0.710753 0.000000
0.180221 0.744090 0.000000
0.187438 0.744064 0.000000
0.194579 0.744039 0.000000
0.201647 0.744013 0.000000
0.208646 0.743987 0.000000
0.215581 0.743961 0.000000
0.222453 0.743935 0.000000
0.229266 0.743909 0.000000
0.236023 0.743883 0.000000
0.242726 0.743857 0.000000
0.249378 0.743831 0.000000
0.255981 0.743805 0.000000
0.262536 0.743779 0.000000
0.269046 0.743753 0.000000
0.275511 0.743727 0.000000
0.281935 0.743701 0.000000
0.288318 0.743675 0.000000
0.294662 0.743649 0.000000
0.300967 0.743623 0.000000
0.307236 0.743597 0.000000
0.313469 0.743571 0.000000
0.319668 0.743546 0.000000
0.325833 0.743520 0.000000
0.331966 0.743494 0.000000
0.338067 0.743468 0.000000
0.344137 0.743442 0.000000
0.350178 0.743416 0.000000
0.356189 0.743390 0.000000
0.362173 0.743364 0.000000
0.368128 0.743338 0.000000
0.374057 0.743312 0.000000
0.379960 0.743286 0.000000
0.385837 0.743260 0.000000
0.187996 0.776194 0.000000
0.195131 0.776168 0.000000
0.202194 0.776143 0.000000
0.209188 0.776117 0.000000
0.216117 0.776091 0.000000
0.222985 0.776066 0.000000
0.229793 0.776040 0.000000
0.236546 0.776015 0.000000
0.243245 0.775989 0.000000
0.249893 0.775963 0.000000
0.256492 0.775938 0.000000
0.263044 0.775912 0.000000
0.269550 0.775886 0.000000
0.276012 0.775861 0.000000
0.282433 0.775835 0.000000
0.288813 0.775809 0.000000
0.295153 0.775784 0.000000
0.301456 0.775758 0.000000
0.307722 0.775733 0.000000
0.313952 0.775707 0.000000
0.320148 0.775681 0.000000
0.326311 0.775656 0.000000
0.332441 0.775630 0.000000
0.338540 0.775604 0.000000
0.344608 0.775579 0.000000
0.350646 0.775553 0.000000
0.356656 0.775527 0.000000
0.362637 0.775502 0.000000
0.368590 0.775476 0.000000
0.374517 0.775450 0.000000
0.380418 0.775425 0.000000
0.386293 0.775399 0.000000
0.392143 0.775373 0.000000
0.195683 0.807930 0.000000
0.202740 0.807905 0.000000
0.209729 0.807879 0.000000
0.216653 0.807854 0.000000
0.223516 0.807829 0.000000
0.230320 0.807803 0.000000
0.237069 0.807778 0.000000
0.243764 0.807753 0.000000
0.250408 0.807727 0.000000
0.257003 0.807702 0.000000
0.263551 0.807676 0.000000
0.270054 0.807651 0.000000
0.276513 0.807626 0.000000
0.282930 0.807600 0.000000
0.289307 0.807575 0.000000
0.295645 0.807550 0.000000
0.301944 0.807524 0.000000
0.308208 0.807499 0.000000
0.314435 0.807474 0.000000
0.320629 0.807448 0.000000
0.326789 0.807423 0.000000
0.332916 0.807398 0.000000
0.339013 0.807372 0.000000
0.345079 0.807347 0.000000
0.351115 0.807321 0.000000
0.357122 0.807296 0.000000
0.363101 0.807271 0.000000
0.369052 0.807245 0.000000
0.374977 0.807220 0.000000
0.380876 0.807195 0.000000
0.386749 0.807169 0.000000
0.392597 0.807144 0.000000
0.398421 0.807119 0.000000
0.203286 0.839321 0.000000
0.210270 0.839296 0.000000
0.217189 0.839270 0.000000
0.224047 0.839245 0.000000
0.230847 0.839220 0.000000
0.237591 0.839195 0.000000
0.244283 0.839170 0.000000
0.250923 0.839145 0.000000
0.257514 0.839120 0.000000
0.264058 0.839095 0.000000
0.270558 0.839070 0.000000
0.277014 0.839045 0.000000
0.283428 0.839020 0.000000
0.289801 0.838994 0.000000
0.296136 0.838969 0.000000
0.302433 0.838944 0.000000
0.308693 0.838919 0.000000
0.314918 0.838894 0.000000
0.321109 0.838869 0.000000
0.327266 0.838844 0.000000
0.333392 0.838819 0.000000
0.339486 0.838794 0.000000
0.345549 0.838769 0.000000
0.351583 0.838744 0.000000
0.357588 0.838719 0.000000
0.363564 0.838693 0.000000
0.369514 0.838668 0.000000
0.375437 0.838643 0.000000
0.381333 0.838618 0.000000
0.387204 0.838593 0.000000
0.393051 0.838568 0.000000
0.398873 0.838543 0.000000
0.404672 0.838518 0.000000
0.210810 0.870386 0.000000
0.217724 0.870361 0.000000
0.224578 0.870336 0.000000
0.231374 0.870311 0.000000
0.238114 0.870286 0.000000
0.244801 0.870262 0.000000
0.251437 0.870237 0.000000
0.258025 0.870212 0.000000
0.264565 0.870187 0.000000
0.271061 0.870162 0.000000
0.277514 0.870137 0.000000
0.283925 0.870113 0.000000
0.290295 0.870088 0.000000
0.296627 0.870063 0.000000
0.302921 0.870038 0.000000
0.309178 0.870013 0.000000
0.315401 0.869988 0.000000
0.321589 0.869964 0.000000
0.327744 0.869939 0.000000
0.333867 0.869914 0.000000
0.339958 0.869889 0.000000
0.346019 0.869864 0.000000
0.352051 0.869839 0.000000
0.358053 0.869815 0.000000
0.364028 0.869790 0.000000
0.369975 0.869765 0.000000
0.375896 0.869740 0.000000
0.381791 0.869715 0.000000
0.387660 0.869690 0.000000
0.393504 0.869666 0.000000
0.399325 0.869641 0.000000
0.405121 0.869616 0.000000
0.410895 0.869591 0.000000
0.218260 0.901143 0.000000
0.225108 0.901119 0.000000
0.231900 0.901094 0.000000
0.238635 0.901070 0.000000
0.245318 0.901045 0.000000
0.251951 0.901021 0.000000
0.258535 0.900996 0.000000
0.265072 0.900971 0.000000
0.271564 0.900947 0.000000
0.278014 0.900922 0.000000
0.284421 0.900898 0.000000
0.290789 0.900873 0.000000
0.297117 0.900848 0.000000
0.303409 0.900824 0.000000
0.309663 0.900799 0.000000
0.315883 0.900775 0.000000
0.322069 0.900750 0.000000
0.328221 0.900725 0.000000
0.334341 0.900701 0.000000
0.340430 0.900676 0.000000
0.346489 0.900652 0.000000
0.352518 0.900627 0.000000
0.358519 0.900602 0.000000
0.364491 0.900578 0.000000
0.370437 0.900553 0.000000
0.376355 0.900529 0.000000
0.382248 0.900504 0.000000
0.388115 0.900479 0.000000
0.393958 0.900455 0.000000
0.399776 0.900430 0.000000
0.405571 0.900406 0.000000
0.411343 0.900381 0.000000
0.417092 0.900356 0.000000
0.225639 0.931610 0.000000
0.232425 0.931586 0.000000
0.239157 0.931561 0.000000
0.245836 0.931537 0.000000
0.252465 0.931512 0.000000
0.259045 0.931488 0.000000
0.265578 0.931464 0.000000
0.272067 0.931439 0.000000
0.278513 0.931415 0.000000
0.284918 0.931391 0.000000
0.291282 0.931366 0.000000
0.297608 0.931342 0.000000
0.303896 0.931318 0.000000
0.310148 0.931293 0.000000
0.316365 0.931269 0.000000
0.322548 0.931244 0.000000
0.328698 0.931220 0.000000
0.334816 0.931196 0.000000
0.340903 0.931171 0.000000
0.346959 0.931147 0.000000
0.352986 0.931123 0.000000
0.358984 0.931098 0.000000
0.364955 0.931074 0.000000
0.370898 0.931050 0.000000
0.376814 0.931025 0.000000
0.382705 0.931001 0.000000
0.388570 0.930976 0.000000
0.394411 0.930952 0.000000
0.400228 0.930928 0.000000
0.406021 0.930903 0.000000
0.411791 0.930879 0.000000
0.417538 0.930855 0.000000
0.423264 0.930830 0.000000
0.232951 0.961800 0.000000
0.239678 0.961776 0.000000
0.246353 0.961752 0.000000
0.252978 0.961727 0.000000
0.259554 0.961703 0.000000
0.266085 0.961679 0.000000
0.272570 0.961655 0.000000
0.279013 0.961631 0.000000
0.285414 0.961607 0.000000
0.291776 0.961583 0.000000
0.298098 0.961558 0.000000
0.304384 0.961534 0.000000
0.310633 0.961510 0.000000
0.316847 0.961486 0.000000
0.323028 0.961462 0.000000
0.329175 0.961438 0.000000
0.335290 0.961413 0.000000
0.341375 0.961389 0.000000
0.347429 0.961365 0.000000
0.353453 0.961341 0.000000
0.359450 0.961317 0.000000
0.365418 0.961293 0.000000
0.371359 0.961269 0.000000
0.377273 0.961244 0.000000
0.383162 0.961220 0.000000
0.389025 0.961196 0.000000
0.394864 0.961172 0.000000
0.400679 0.961148 0.000000
0.406470 0.961124 0.000000
0.412238 0.961100 0.000000
0.417984 0.961075 0.000000
0.423708 0.961051 0.000000
0.429410 0.961027 0.000000
0.240199 0.991727 0.000000
0.246870 0.991703 0.000000
0.253491 0.991679 0.000000
0.260064 0.991655 0.000000
0.266590 0.991631 0.000000
0.273073 0.991607 0.000000
0.279512 0.991583 0.000000
0.285910 0.991559 0.000000
0.292269 0.991535 0.000000
0.298588 0.991511 0.000000
0.304871 0.991487 0.000000
0.311117 0.991463 0.000000
0.317329 0.991439 0.000000
0.323507 0.991415 0.000000
0.329652 0.991392 0.000000
0.335764 0.991368 0.000000
0.341846 0.991344 0.000000
0.347898 0.991320 0.000000
0.353921 0.991296 0.000000
0.359915 0.991272 0.000000
0.365881 0.991248 0.000000
0.371820 0.991224 0.000000
0.377732 0.991200 0.000000
0.383619 0.991176 0.000000
