presets/film_stocks/Kodak_Vision3_250D_5207.cube
# 独寻胶片模拟 -- Kodak Vision3 250D 5207
# Kodak, ISO 250, 2009, negative
TITLE "Kodak Vision3 250D 5207"
LUT_3D_SIZE 5
DOMAIN_MIN 0.0 0.0 0.0
DOMAIN_MAX 1.0 1.0 1.0
0.000000 0.000000 0.000000
0.311449 0.009850 0.000000
0.584859 0.018497 0.000000
0.845540 0.026742 0.000000
1.000000 0.034735 0.000000
0.000000 0.302674 0.000000
0.300821 0.309025 0.000000
0.574889 0.315363 0.000000
0.835933 0.321688 0.000000
1.000000 0.328001 0.000000
0.000000 0.568379 0.000000
0.290156 0.574346 0.000000
0.564901 0.580306 0.000000
0.826315 0.586260 0.000000
1.000000 0.592208 0.000000
0.000000 0.821715 0.000000
0.279451 0.827466 0.000000
0.554896 0.833214 0.000000
0.816687 0.838957 0.000000
1.000000 0.844697 0.000000
0.000000 1.000000 0.000000
0.268705 1.000000 0.000000
0.544873 1.000000 0.000000
0.807046 1.000000 0.000000
1.000000 1.000000 0.000000
0.000000 0.000000 0.297678
0.294268 0.000000 0.288252
0.568749 0.000000 0.278795
0.830020 0.000000 0.269306
1.000000 0.000096 0.259783
0.000000 0.277172 0.293019
0.283578 0.283578 0.283578
0.558751 0.289970 0.274106
0.820396 0.296348 0.264600
1.000000 0.302713 0.255060
0.000000 0.544487 0.288353
0.272848 0.550479 0.278897
0.548735 0.556464 0.269408
0.810760 0.562443 0.259886
1.000000 0.568416 0.250329
0.000000 0.798704 0.283680
0.262076 0.804472 0.274208
0.538700 0.810235 0.264703
0.801113 0.815995 0.255163
1.000000 0.821750 0.245588
0.000000 1.000000 0.278999
0.251259 1.000000 0.269510
0.528647 1.000000 0.259989
0.791454 1.000000 0.250432
1.000000 1.000000 0.240838
0.000000 0.000000 0.558997
0.276985 0.000000 0.550154
0.552594 0.000000 0.541297
0.814472 0.000000 0.532425
1.000000 0.000000 0.523538
0.000000 0.251432 0.554625
0.266229 0.257901 0.545775
0.542567 0.264353 0.536911
0.804829 0.270790 0.528031
1.000000 0.277211 0.519137
0.000000 0.520490 0.550250
0.255430 0.526509 0.541392
0.532521 0.532521 0.532521
0.795175 0.538526 0.523634
1.000000 0.544524 0.514732
0.000000 0.775627 0.545870
0.244585 0.781411 0.537006
0.522456 0.787192 0.528127
0.785509 0.792968 0.519233
1.000000 0.798739 0.510324
0.000000 1.000000 0.541488
0.233691 1.000000 0.532616
0.512371 1.000000 0.523730
0.775831 1.000000 0.514828
1.000000 1.000000 0.505911
0.000000 0.000000 0.808152
0.259594 0.000000 0.799631
0.536391 0.000000 0.791101
0.798894 0.000000 0.782562
1.000000 0.000000 0.774013
0.000000 0.225426 0.803938
0.248766 0.231965 0.795413
0.526334 0.238485 0.786878
0.789232 0.244987 0.778335
1.000000 0.251472 0.769781
0.000000 0.496381 0.799722
0.237892 0.502429 0.791193
0.516257 0.508468 0.782653
0.779559 0.514501 0.774105
1.000000 0.520527 0.765547
0.000000 0.752481 0.795504
0.226967 0.758283 0.786970
0.506160 0.764080 0.778426
0.769873 0.769873 0.769873
1.000000 0.775662 0.761311
0.000000 0.999965 0.791284
0.215990 1.000000 0.782745
0.496044 1.000000 0.774197
0.760176 1.000000 0.765639
1.000000 1.000000 0.757072
0.000000 0.000000 1.000000
0.242085 0.000000 1.000000
0.520140 0.000000 1.000000
0.783285 0.000000 1.000000
1.000000 0.000000 1.000000
0.000000 0.199116 1.000000
0.231180 0.205735 1.000000
0.510051 0.212332 1.000000
0.773605 0.218909 1.000000
1.000000 0.225466 1.000000
0.000000 0.472155 1.000000
0.220223 0.478232 1.000000
0.499942 0.484302 1.000000
0.763912 0.490364 1.000000
1.000000 0.496419 1.000000
0.000000 0.729263 1.000000
0.209212 0.735083 1.000000
0.489812 0.740899 1.000000
0.754206 0.746710 1.000000
1.000000 0.752516 1.000000
0.000000 0.977408 1.000000
0.198142 0.983061 1.000000
0.479662 0.988711 1.000000
0.744489 0.994357 1.000000
1.000000 1.000000 1.000000
