presets/film_stocks/Kodak_Vision_2383.cube
# 独寻胶片模拟 -- Kodak Vision 2383
# Kodak, ISO 0, 1998, negative
TITLE "Kodak Vision 2383"
LUT_3D_SIZE 9
DOMAIN_MIN 0.0 0.0 0.0
DOMAIN_MAX 1.0 1.0 1.0
0.000000 0.000000 0.000000
0.226431 0.000000 0.000000
0.371499 0.000000 0.000000
0.496291 0.000000 0.000000
0.609507 0.000000 0.000000
0.714825 0.000000 0.000000
0.814251 0.000000 0.000000
0.909028 0.000000 0.000000
1.000000 0.000000 0.000000
0.000000 0.226431 0.000000
0.226431 0.226431 0.000000
0.371499 0.226431 0.000000
0.496291 0.226431 0.000000
0.609507 0.226431 0.000000
0.714825 0.226431 0.000000
0.814251 0.226431 0.000000
0.909028 0.226431 0.000000
1.000000 0.226431 0.000000
0.000000 0.371499 0.000000
0.226431 0.371499 0.000000
0.371499 0.371499 0.000000
0.496291 0.371499 0.000000
0.609507 0.371499 0.000000
0.714825 0.371499 0.000000
0.814251 0.371499 0.000000
0.909028 0.371499 0.000000
1.000000 0.371499 0.000000
0.000000 0.496291 0.000000
0.226431 0.496291 0.000000
0.371499 0.496291 0.000000
0.496291 0.496291 0.000000
0.609507 0.496291 0.000000
0.714825 0.496291 0.000000
0.814251 0.496291 0.000000
0.909028 0.496291 0.000000
1.000000 0.496291 0.000000
0.000000 0.609507 0.000000
0.226431 0.609507 0.000000
0.371499 0.609507 0.000000
0.496291 0.609507 0.000000
0.609507 0.609507 0.000000
0.714825 0.609507 0.000000
0.814251 0.609507 0.000000
0.909028 0.609507 0.000000
1.000000 0.609507 0.000000
0.000000 0.714825 0.000000
0.226431 0.714825 0.000000
0.371499 0.714825 0.000000
0.496291 0.714825 0.000000
0.609507 0.714825 0.000000
0.714825 0.714825 0.000000
0.814251 0.714825 0.000000
0.909028 0.714825 0.000000
1.000000 0.714825 0.000000
0.000000 0.814251 0.000000
0.226431 0.814251 0.000000
0.371499 0.814251 0.000000
0.496291 0.814251 0.000000
0.609507 0.814251 0.000000
0.714825 0.814251 0.000000
0.814251 0.814251 0.000000
0.909028 0.814251 0.000000
1.000000 0.814251 0.000000
0.000000 0.909028 0.000000
0.226431 0.909028 0.000000
0.371499 0.909028 0.000000
0.496291 0.909028 0.000000
0.609507 0.909028 0.000000
0.714825 0.909028 0.000000
0.814251 0.909028 0.000000
0.909028 0.909028 0.000000
1.000000 0.909028 0.000000
0.000000 1.000000 0.000000
0.226431 1.000000 0.000000
0.371499 1.000000 0.000000
0.496291 1.000000 0.000000
0.609507 1.000000 0.000000
0.714825 1.000000 0.000000
0.814251 1.000000 0.000000
0.909028 1.000000 0.000000
1.000000 1.000000 0.000000
0.000000 0.000000 0.226431
0.226431 0.000000 0.226431
0.371499 0.000000 0.226431
0.496291 0.000000 0.226431
0.609507 0.000000 0.226431
0.714825 0.000000 0.226431
0.814251 0.000000 0.226431
0.909028 0.000000 0.226431
1.000000 0.000000 0.226431
0.000000 0.226431 0.226431
0.226431 0.226431 0.226431
0.371499 0.226431 0.226431
0.496291 0.226431 0.226431
0.609507 0.226431 0.226431
0.714825 0.226431 0.226431
0.814251 0.226431 0.226431
0.909028 0.226431 0.226431
1.000000 0.226431 0.226431
0.000000 0.371499 0.226431
0.226431 0.371499 0.226431
0.371499 0.371499 0.226431
0.496291 0.371499 0.226431
0.609507 0.371499 0.226431
0.714825 0.371499 0.226431
0.814251 0.371499 0.226431
0.909028 0.371499 0.226431
1.000000 0.371499 0.226431
0.000000 0.496291 0.226431
0.226431 0.496291 0.226431
0.371499 0.496291 0.226431
0.496291 0.496291 0.226431
0.609507 0.496291 0.226431
0.714825 0.496291 0.226431
0.814251 0.496291 0.226431
0.909028 0.496291 0.226431
1.000000 0.496291 0.226431
0.000000 0.609507 0.226431
0.226431 0.609507 0.226431
0.371499 0.609507 0.226431
0.496291 0.609507 0.226431
0.609507 0.609507 0.226431
0.714825 0.609507 0.226431
0.814251 0.609507 0.226431
0.909028 0.609507 0.226431
1.000000 0.609507 0.226431
0.000000 0.714825 0.226431
0.226431 0.714825 0.226431
0.371499 0.714825 0.226431
0.496291 0.714825 0.226431
0.609507 0.714825 0.226431
0.714825 0.714825 0.226431
0.814251 0.714825 0.226431
0.909028 0.714825 0.226431
1.000000 0.714825 0.226431
0.000000 0.814251 0.226431
0.226431 0.814251 0.226431
0.371499 0.814251 0.226431
0.496291 0.814251 0.226431
0.609507 0.814251 0.226431
0.714825 0.814251 0.226431
0.814251 0.814251 0.226431
0.909028 0.814251 0.226431
1.000000 0.814251 0.226431
0.000000 0.909028 0.226431
0.226431 0.909028 0.226431
0.371499 0.909028 0.226431
0.496291 0.909028 0.226431
0.609507 0.909028 0.226431
0.714825 0.909028 0.226431
0.814251 0.909028 0.226431
0.909028 0.909028 0.226431
1.000000 0.909028 0.226431
0.000000 1.000000 0.226431
0.226431 1.000000 0.226431
0.371499 1.000000 0.226431
0.496291 1.000000 0.226431
0.609507 1.000000 0.226431
0.714825 1.000000 0.226431
0.814251 1.000000 0.226431
0.909028 1.000000 0.226431
1.000000 1.000000 0.226431
0.000000 0.000000 0.371499
0.226431 0.000000 0.371499
0.371499 0.000000 0.371499
0.496291 0.000000 0.371499
0.609507 0.000000 0.371499
0.714825 0.000000 0.371499
0.814251 0.000000 0.371499
0.909028 0.000000 0.371499
1.000000 0.000000 0.371499
0.000000 0.226431 0.371499
0.226431 0.226431 0.371499
0.371499 0.226431 0.371499
0.496291 0.226431 0.371499
0.609507 0.226431 0.371499
0.714825 0.226431 0.371499
0.814251 0.226431 0.371499
0.909028 0.226431 0.371499
1.000000 0.226431 0.371499
0.000000 0.371499 0.371499
0.226431 0.371499 0.371499
0.371499 0.371499 0.371499
0.496291 0.371499 0.371499
0.609507 0.371499 0.371499
0.714825 0.371499 0.371499
0.814251 0.371499 0.371499
0.909028 0.371499 0.371499
1.000000 0.371499 0.371499
0.000000 0.496291 0.371499
0.226431 0.496291 0.371499
0.371499 0.496291 0.371499
0.496291 0.496291 0.371499
0.609507 0.496291 0.371499
0.714825 0.496291 0.371499
0.814251 0.496291 0.371499
0.909028 0.496291 0.371499
1.000000 0.496291 0.371499
0.000000 0.609507 0.371499
0.226431 0.609507 0.371499
0.371499 0.609507 0.371499
0.496291 0.609507 0.371499
0.609507 0.609507 0.371499
0.714825 0.609507 0.371499
0.814251 0.609507 0.371499
0.909028 0.609507 0.371499
1.000000 0.609507 0.371499
0.000000 0.714825 0.371499
0.226431 0.714825 0.371499
0.371499 0.714825 0.371499
0.496291 0.714825 0.371499
0.609507 0.714825 0.371499
0.714825 0.714825 0.371499
0.814251 0.714825 0.371499
0.909028 0.714825 0.371499
1.000000 0.714825 0.371499
0.000000 0.814251 0.371499
0.226431 0.814251 0.371499
0.371499 0.814251 0.371499
0.496291 0.814251 0.371499
0.609507 0.814251 0.371499
0.714825 0.814251 0.371499
0.814251 0.814251 0.371499
0.909028 0.814251 0.371499
1.000000 0.814251 0.371499
0.000000 0.909028 0.371499
0.226431 0.909028 0.371499
0.371499 0.909028 0.371499
0.496291 0.909028 0.371499
0.609507 0.909028 0.371499
0.714825 0.909028 0.371499
0.814251 0.909028 0.371499
0.909028 0.909028 0.371499
1.000000 0.909028 0.371499
0.000000 1.000000 0.371499
0.226431 1.000000 0.371499
0.371499 1.000000 0.371499
0.496291 1.000000 0.371499
0.609507 1.000000 0.371499
0.714825 1.000000 0.371499
0.814251 1.000000 0.371499
0.909028 1.000000 0.371499
1.000000 1.000000 0.371499
0.000000 0.000000 0.496291
0.226431 0.000000 0.496291
0.371499 0.000000 0.496291
0.496291 0.000000 0.496291
0.609507 0.000000 0.496291
0.714825 0.000000 0.496291
0.814251 0.000000 0.496291
0.909028 0.000000 0.496291
1.000000 0.000000 0.496291
0.000000 0.226431 0.496291
0.226431 0.226431 0.496291
0.371499 0.226431 0.496291
0.496291 0.226431 0.496291
0.609507 0.226431 0.496291
0.714825 0.226431 0.496291
0.814251 0.226431 0.496291
0.909028 0.226431 0.496291
1.000000 0.226431 0.496291
0.000000 0.371499 0.496291
0.226431 0.371499 0.496291
0.371499 0.371499 0.496291
0.496291 0.371499 0.496291
0.609507 0.371499 0.496291
0.714825 0.371499 0.496291
0.814251 0.371499 0.496291
0.909028 0.371499 0.496291
1.000000 0.371499 0.496291
0.000000 0.496291 0.496291
0.226431 0.496291 0.496291
0.371499 0.496291 0.496291
0.496291 0.496291 0.496291
0.609507 0.496291 0.496291
0.714825 0.496291 0.496291
0.814251 0.496291 0.496291
0.909028 0.496291 0.496291
1.000000 0.496291 0.496291
0.000000 0.609507 0.496291
0.226431 0.609507 0.496291
0.371499 0.609507 0.496291
0.496291 0.609507 0.496291
0.609507 0.609507 0.496291
0.714825 0.609507 0.496291
0.814251 0.609507 0.496291
0.909028 0.609507 0.496291
1.000000 0.609507 0.496291
0.000000 0.714825 0.496291
0.226431 0.714825 0.496291
0.371499 0.714825 0.496291
0.496291 0.714825 0.496291
0.609507 0.714825 0.496291
0.714825 0.714825 0.496291
0.814251 0.714825 0.496291
0.909028 0.714825 0.496291
1.000000 0.714825 0.496291
0.000000 0.814251 0.496291
0.226431 0.814251 0.496291
0.371499 0.814251 0.496291
0.496291 0.814251 0.496291
0.609507 0.814251 0.496291
0.714825 0.814251 0.496291
0.814251 0.814251 0.496291
0.909028 0.814251 0.496291
1.000000 0.814251 0.496291
0.000000 0.909028 0.496291
0.226431 0.909028 0.496291
0.371499 0.909028 0.496291
0.496291 0.909028 0.496291
0.609507 0.909028 0.496291
0.714825 0.909028 0.496291
0.814251 0.909028 0.496291
0.909028 0.909028 0.496291
1.000000 0.909028 0.496291
0.000000 1.000000 0.496291
0.226431 1.000000 0.496291
0.371499 1.000000 0.496291
0.496291 1.000000 0.496291
0.609507 1.000000 0.496291
0.714825 1.000000 0.496291
0.814251 1.000000 0.496291
0.909028 1.000000 0.496291
1.000000 1.000000 0.496291
0.000000 0.000000 0.609507
0.226431 0.000000 0.609507
0.371499 0.000000 0.609507
0.496291 0.000000 0.609507
0.609507 0.000000 0.609507
0.714825 0.000000 0.609507
0.814251 0.000000 0.609507
0.909028 0.000000 0.609507
1.000000 0.000000 0.609507
0.000000 0.226431 0.609507
0.226431 0.226431 0.609507
0.371499 0.226431 0.609507
0.496291 0.226431 0.609507
0.609507 0.226431 0.609507
0.714825 0.226431 0.609507
0.814251 0.226431 0.609507
0.909028 0.226431 0.609507
1.000000 0.226431 0.609507
0.000000 0.371499 0.609507
0.226431 0.371499 0.609507
0.371499 0.371499 0.609507
0.496291 0.371499 0.609507
0.609507 0.371499 0.609507
0.714825 0.371499 0.609507
0.814251 0.371499 0.609507
0.909028 0.371499 0.609507
1.000000 0.371499 0.609507
0.000000 0.496291 0.609507
0.226431 0.496291 0.609507
0.371499 0.496291 0.609507
0.496291 0.496291 0.609507
0.609507 0.496291 0.609507
0.714825 0.496291 0.609507
0.814251 0.496291 0.609507
0.909028 0.496291 0.609507
1.000000 0.496291 0.609507
0.000000 0.609507 0.609507
0.226431 0.609507 0.609507
0.371499 0.609507 0.609507
0.496291 0.609507 0.609507
0.609507 0.609507 0.609507
0.714825 0.609507 0.609507
0.814251 0.609507 0.609507
0.909028 0.609507 0.609507
1.000000 0.609507 0.609507
0.000000 0.714825 0.609507
0.226431 0.714825 0.609507
0.371499 0.714825 0.609507
0.496291 0.714825 0.609507
0.609507 0.714825 0.609507
0.714825 0.714825 0.609507
0.814251 0.714825 0.609507
0.909028 0.714825 0.609507
1.000000 0.714825 0.609507
0.000000 0.814251 0.609507
0.226431 0.814251 0.609507
0.371499 0.814251 0.609507
0.496291 0.814251 0.609507
0.609507 0.814251 0.609507
0.714825 0.814251 0.609507
0.814251 0.814251 0.609507
0.909028 0.814251 0.609507
1.000000 0.814251 0.609507
0.000000 0.909028 0.609507
0.226431 0.909028 0.609507
0.371499 0.909028 0.609507
0.496291 0.909028 0.609507
0.609507 0.909028 0.609507
0.714825 0.909028 0.609507
0.814251 0.909028 0.609507
0.909028 0.909028 0.609507
1.000000 0.909028 0.609507
0.000000 1.000000 0.609507
0.226431 1.000000 0.609507
0.371499 1.000000 0.609507
0.496291 1.000000 0.609507
0.609507 1.000000 0.609507
0.714825 1.000000 0.609507
0.814251 1.000000 0.609507
0.909028 1.000000 0.609507
1.000000 1.000000 0.609507
0.000000 0.000000 0.714825
0.226431 0.000000 0.714825
0.371499 0.000000 0.714825
0.496291 0.000000 0.714825
0.609507 0.000000 0.714825
0.714825 0.000000 0.714825
0.814251 0.000000 0.714825
0.909028 0.000000 0.714825
1.000000 0.000000 0.714825
0.000000 0.226431 0.714825
0.226431 0.226431 0.714825
0.371499 0.226431 0.714825
0.496291 0.226431 0.714825
0.609507 0.226431 0.714825
0.714825 0.226431 0.714825
0.814251 0.226431 0.714825
0.909028 0.226431 0.714825
1.000000 0.226431 0.714825
0.000000 0.371499 0.714825
0.226431 0.371499 0.714825
0.371499 0.371499 0.714825
0.496291 0.371499 0.714825
0.609507 0.371499 0.714825
0.714825 0.371499 0.714825
0.814251 0.371499 0.714825
0.909028 0.371499 0.714825
1.000000 0.371499 0.714825
0.000000 0.496291 0.714825
0.226431 0.496291 0.714825
0.371499 0.496291 0.714825
0.496291 0.496291 0.714825
0.609507 0.496291 0.714825
0.714825 0.496291 0.714825
0.814251 0.496291 0.714825
0.909028 0.496291 0.714825
1.000000 0.496291 0.714825
0.000000 0.609507 0.714825
0.226431 0.609507 0.714825
0.371499 0.609507 0.714825
0.496291 0.609507 0.714825
0.609507 0.609507 0.714825
0.714825 0.609507 0.714825
0.814251 0.609507 0.714825
0.909028 0.609507 0.714825
1.000000 0.609507 0.714825
0.000000 0.714825 0.714825
0.226431 0.714825 0.714825
0.371499 0.714825 0.714825
0.496291 0.714825 0.714825
0.609507 0.714825 0.714825
0.714825 0.714825 0.714825
0.814251 0.714825 0.714825
0.909028 0.714825 0.714825
1.000000 0.714825 0.714825
0.000000 0.814251 0.714825
0.226431 0.814251 0.714825
0.371499 0.814251 0.714825
0.496291 0.814251 0.714825
0.609507 0.814251 0.714825
0.714825 0.814251 0.714825
0.814251 0.814251 0.714825
0.909028 0.814251 0.714825
1.000000 0.814251 0.714825
0.000000 0.909028 0.714825
0.226431 0.909028 0.714825
0.371499 0.909028 0.714825
0.496291 0.909028 0.714825
0.609507 0.909028 0.714825
0.714825 0.909028 0.714825
0.814251 0.909028 0.714825
0.909028 0.909028 0.714825
1.000000 0.909028 0.714825
0.000000 1.000000 0.714825
0.226431 1.000000 0.714825
0.371499 1.000000 0.714825
0.496291 1.000000 0.714825
0.609507 1.000000 0.714825
0.714825 1.000000 0.714825
0.814251 1.000000 0.714825
0.909028 1.000000 0.714825
1.000000 1.000000 0.714825
0.000000 0.000000 0.814251
0.226431 0.000000 0.814251
0.371499 0.000000 0.814251
0.496291 0.000000 0.814251
0.609507 0.000000 0.814251
0.714825 0.000000 0.814251
0.814251 0.000000 0.814251
0.909028 0.000000 0.814251
1.000000 0.000000 0.814251
0.000000 0.226431 0.814251
0.226431 0.226431 0.814251
0.371499 0.226431 0.814251
0.496291 0.226431 0.814251
0.609507 0.226431 0.814251
0.714825 0.226431 0.814251
0.814251 0.226431 0.814251
0.909028 0.226431 0.814251
1.000000 0.226431 0.814251
0.000000 0.371499 0.814251
0.226431 0.371499 0.814251
0.371499 0.371499 0.814251
0.496291 0.371499 0.814251
0.609507 0.371499 0.814251
0.714825 0.371499 0.814251
0.814251 0.371499 0.814251
0.909028 0.371499 0.814251
1.000000 0.371499 0.814251
0.000000 0.496291 0.814251
0.226431 0.496291 0.814251
0.371499 0.496291 0.814251
0.496291 0.496291 0.814251
0.609507 0.496291 0.814251
0.714825 0.496291 0.814251
0.814251 0.496291 0.814251
0.909028 0.496291 0.814251
1.000000 0.496291 0.814251
0.000000 0.609507 0.814251
0.226431 0.609507 0.814251
0.371499 0.609507 0.814251
0.496291 0.609507 0.814251
0.609507 0.609507 0.814251
0.714825 0.609507 0.814251
0.814251 0.609507 0.814251
0.909028 0.609507 0.814251
1.000000 0.609507 0.814251
0.000000 0.714825 0.814251
0.226431 0.714825 0.814251
0.371499 0.714825 0.814251
0.496291 0.714825 0.814251
0.609507 0.714825 0.814251
0.714825 0.714825 0.814251
0.814251 0.714825 0.814251
0.909028 0.714825 0.814251
1.000000 0.714825 0.814251
0.000000 0.814251 0.814251
0.226431 0.814251 0.814251
0.371499 0.814251 0.814251
0.496291 0.814251 0.814251
0.609507 0.814251 0.814251
0.714825 0.814251 0.814251
0.814251 0.814251 0.814251
0.909028 0.814251 0.814251
1.000000 0.814251 0.814251
0.000000 0.909028 0.814251
0.226431 0.909028 0.814251
0.371499 0.909028 0.814251
0.496291 0.909028 0.814251
0.609507 0.909028 0.814251
0.714825 0.909028 0.814251
0.814251 0.909028 0.814251
0.909028 0.909028 0.814251
1.000000 0.909028 0.814251
0.000000 1.000000 0.814251
0.226431 1.000000 0.814251
0.371499 1.000000 0.814251
0.496291 1.000000 0.814251
0.609507 1.000000 0.814251
0.714825 1.000000 0.814251
0.814251 1.000000 0.814251
0.909028 1.000000 0.814251
1.000000 1.000000 0.814251
0.000000 0.000000 0.909028
0.226431 0.000000 0.909028
0.371499 0.000000 0.909028
0.496291 0.000000 0.909028
0.609507 0.000000 0.909028
0.714825 0.000000 0.909028
0.814251 0.000000 0.909028
0.909028 0.000000 0.909028
1.000000 0.000000 0.909028
0.000000 0.226431 0.909028
0.226431 0.226431 0.909028
0.371499 0.226431 0.909028
0.496291 0.226431 0.909028
0.609507 0.226431 0.909028
0.714825 0.226431 0.909028
0.814251 0.226431 0.909028
0.909028 0.226431 0.909028
1.000000 0.226431 0.909028
0.000000 0.371499 0.909028
0.226431 0.371499 0.909028
0.371499 0.371499 0.909028
0.496291 0.371499 0.909028
0.609507 0.371499 0.909028
0.714825 0.371499 0.909028
0.814251 0.371499 0.909028
0.909028 0.371499 0.909028
1.000000 0.371499 0.909028
0.000000 0.496291 0.909028
0.226431 0.496291 0.909028
0.371499 0.496291 0.909028
0.496291 0.496291 0.909028
0.609507 0.496291 0.909028
0.714825 0.496291 0.909028
0.814251 0.496291 0.909028
0.909028 0.496291 0.909028
1.000000 0.496291 0.909028
0.000000 0.609507 0.909028
0.226431 0.609507 0.909028
0.371499 0.609507 0.909028
0.496291 0.609507 0.909028
0.609507 0.609507 0.909028
0.714825 0.609507 0.909028
0.814251 0.609507 0.909028
0.909028 0.609507 0.909028
1.000000 0.609507 0.909028
0.000000 0.714825 0.909028
0.226431 0.714825 0.909028
0.371499 0.714825 0.909028
0.496291 0.714825 0.909028
0.609507 0.714825 0.909028
0.714825 0.714825 0.909028
0.814251 0.714825 0.909028
0.909028 0.714825 0.909028
1.000000 0.714825 0.909028
0.000000 0.814251 0.909028
0.226431 0.814251 0.909028
0.371499 0.814251 0.909028
0.496291 0.814251 0.909028
0.609507 0.814251 0.909028
0.714825 0.814251 0.909028
0.814251 0.814251 0.909028
0.909028 0.814251 0.909028
1.000000 0.814251 0.909028
0.000000 0.909028 0.909028
0.226431 0.909028 0.909028
0.371499 0.909028 0.909028
0.496291 0.909028 0.909028
0.609507 0.909028 0.909028
0.714825 0.909028 0.909028
0.814251 0.909028 0.909028
0.909028 0.909028 0.909028
1.000000 0.909028 0.909028
0.000000 1.000000 0.909028
0.226431 1.000000 0.909028
0.371499 1.000000 0.909028
0.496291 1.000000 0.909028
0.609507 1.000000 0.909028
0.714825 1.000000 0.909028
0.814251 1.000000 0.909028
0.909028 1.000000 0.909028
1.000000 1.000000 0.909028
0.000000 0.000000 1.000000
0.226431 0.000000 1.000000
0.371499 0.000000 1.000000
0.496291 0.000000 1.000000
0.609507 0.000000 1.000000
0.714825 0.000000 1.000000
0.814251 0.000000 1.000000
0.909028 0.000000 1.000000
1.000000 0.000000 1.000000
0.000000 0.226431 1.000000
0.226431 0.226431 1.000000
0.371499 0.226431 1.000000
0.496291 0.226431 1.000000
0.609507 0.226431 1.000000
0.714825 0.226431 1.000000
0.814251 0.226431 1.000000
0.909028 0.226431 1.000000
1.000000 0.226431 1.000000
0.000000 0.371499 1.000000
0.226431 0.371499 1.000000
0.371499 0.371499 1.000000
0.496291 0.371499 1.000000
0.609507 0.371499 1.000000
0.714825 0.371499 1.000000
0.814251 0.371499 1.000000
0.909028 0.371499 1.000000
1.000000 0.371499 1.000000
0.000000 0.496291 1.000000
0.226431 0.496291 1.000000
0.371499 0.496291 1.000000
0.496291 0.496291 1.000000
0.609507 0.496291 1.000000
0.714825 0.496291 1.000000
0.814251 0.496291 1.000000
0.909028 0.496291 1.000000
1.000000 0.496291 1.000000
0.000000 0.609507 1.000000
0.226431 0.609507 1.000000
0.371499 0.609507 1.000000
0.496291 0.609507 1.000000
0.609507 0.609507 1.000000
0.714825 0.609507 1.000000
0.814251 0.609507 1.000000
0.909028 0.609507 1.000000
1.000000 0.609507 1.000000
0.000000 0.714825 1.000000
0.226431 0.714825 1.000000
0.371499 0.714825 1.000000
0.496291 0.714825 1.000000
0.609507 0.714825 1.000000
0.714825 0.714825 1.000000
0.814251 0.714825 1.000000
0.909028 0.714825 1.000000
1.000000 0.714825 1.000000
0.000000 0.814251 1.000000
0.226431 0.814251 1.000000
0.371499 0.814251 1.000000
0.496291 0.814251 1.000000
0.609507 0.814251 1.000000
0.714825 0.814251 1.000000
0.814251 0.814251 1.000000
0.909028 0.814251 1.000000
1.000000 0.814251 1.000000
0.000000 0.909028 1.000000
0.226431 0.909028 1.000000
0.371499 0.909028 1.000000
0.496291 0.909028 1.000000
0.609507 0.909028 1.000000
0.714825 0.909028 1.000000
0.814251 0.909028 1.000000
0.909028 0.909028 1.000000
1.000000 0.909028 1.000000
0.000000 1.000000 1.000000
0.226431 1.000000 1.000000
0.371499 1.000000 1.000000
0.496291 1.000000 1.000000
0.609507 1.000000 1.000000
0.714825 1.000000 1.000000
0.814251 1.000000 1.000000
0.909028 1.000000 1.000000
1.000000 1.000000 1.000000
