presets/film_stocks/Kodak_EXR_200T_5293.cube
# 独寻胶片模拟 -- Kodak EXR 200T 5293
# Kodak, ISO 250, 1982, negative
TITLE "Kodak EXR 200T 5293"
LUT_3D_SIZE 9
DOMAIN_MIN 0.0 0.0 0.0
DOMAIN_MAX 1.0 1.0 1.0
0.000000 0.000000 0.000000
0.185502 0.005797 0.000000
0.338933 0.010592 0.000000
0.482211 0.015069 0.000000
0.619269 0.019352 0.000000
0.751881 0.023496 0.000000
0.881054 0.027533 0.000000
1.000000 0.031482 0.000000
1.000000 0.035359 0.000000
0.000000 0.178502 0.000000
0.178290 0.181512 0.000000
0.332355 0.184516 0.000000
0.475974 0.187512 0.000000
0.613264 0.190501 0.000000
0.746048 0.193483 0.000000
0.875359 0.196458 0.000000
1.000000 0.199426 0.000000
1.000000 0.202388 0.000000
0.000000 0.326143 0.000000
0.171034 0.328895 0.000000
0.325756 0.331644 0.000000
0.469725 0.334389 0.000000
0.607249 0.337131 0.000000
0.740209 0.339870 0.000000
0.869658 0.342605 0.000000
0.996268 0.345337 0.000000
1.000000 0.348066 0.000000
0.000000 0.464013 0.000000
0.163731 0.466624 0.000000
0.319137 0.469233 0.000000
0.463463 0.471840 0.000000
0.601225 0.474444 0.000000
0.734363 0.477047 0.000000
0.863952 0.479647 0.000000
0.990677 0.482245 0.000000
1.000000 0.484841 0.000000
0.000000 0.595899 0.000000
0.156380 0.598414 0.000000
0.312498 0.600928 0.000000
0.457189 0.603440 0.000000
0.595193 0.605950 0.000000
0.728509 0.608459 0.000000
0.858240 0.610966 0.000000
0.985082 0.613472 0.000000
1.000000 0.615976 0.000000
0.000000 0.723506 0.000000
0.148975 0.725949 0.000000
0.305838 0.728391 0.000000
0.450902 0.730832 0.000000
0.589151 0.733271 0.000000
0.722649 0.735710 0.000000
0.852523 0.738147 0.000000
0.979482 0.740583 0.000000
1.000000 0.743017 0.000000
0.000000 0.847804 0.000000
0.141516 0.850190 0.000000
0.299156 0.852575 0.000000
0.444601 0.854959 0.000000
0.583100 0.857341 0.000000
0.716781 0.859723 0.000000
0.846799 0.862104 0.000000
0.973877 0.864484 0.000000
1.000000 0.866863 0.000000
0.000000 0.969416 0.000000
0.133997 0.971754 0.000000
0.292451 0.974092 0.000000
0.438287 0.976429 0.000000
0.577039 0.978764 0.000000
0.710906 0.981100 0.000000
0.841070 0.983434 0.000000
0.968267 0.985767 0.000000
1.000000 0.988100 0.000000
0.000000 1.000000 0.000000
0.126413 1.000000 0.000000
0.285723 1.000000 0.000000
0.431959 1.000000 0.000000
0.570969 1.000000 0.000000
0.705024 1.000000 0.000000
0.835335 1.000000 0.000000
0.962652 1.000000 0.000000
1.000000 1.000000 0.000000
0.000000 0.000000 0.169573
0.171249 0.000000 0.166035
0.325951 0.000000 0.162485
0.469909 0.000000 0.158924
0.607426 0.000000 0.155351
0.740381 0.000000 0.151766
0.869826 0.001445 0.148168
0.996432 0.006804 0.144556
1.000000 0.011518 0.140931
0.000000 0.160890 0.167492
0.163947 0.163947 0.163947
0.319333 0.166996 0.160391
0.463648 0.170037 0.156823
0.601403 0.173070 0.153243
0.734535 0.176095 0.149650
0.864120 0.179111 0.146044
0.990842 0.182121 0.142425
1.000000 0.185123 0.138792
0.000000 0.310116 0.165408
0.156597 0.312889 0.161856
0.312694 0.315658 0.158293
0.457374 0.318424 0.154718
0.595371 0.321186 0.151130
0.728682 0.323945 0.147530
0.858409 0.326700 0.143916
0.985247 0.329451 0.140289
1.000000 0.332199 0.136647
0.000000 0.448831 0.163319
0.149195 0.451455 0.159761
0.306034 0.454077 0.156191
0.451087 0.456696 0.152608
0.589329 0.459314 0.149013
0.722822 0.461929 0.145405
0.852691 0.464542 0.141783
0.979647 0.467152 0.138148
1.000000 0.469761 0.134498
0.000000 0.581285 0.161227
0.141736 0.583810 0.157662
0.299353 0.586333 0.154084
0.444787 0.588854 0.150494
0.583279 0.591374 0.146892
0.716954 0.593892 0.143276
0.846968 0.596408 0.139646
0.974042 0.598923 0.136002
1.000000 0.601436 0.132343
0.000000 0.709317 0.159130
0.134219 0.711767 0.155558
0.292649 0.714216 0.151973
0.438473 0.716664 0.148376
0.577218 0.719111 0.144765
0.711080 0.721556 0.141141
0.841239 0.724001 0.137503
0.968432 0.726444 0.133851
1.000000 0.728885 0.130183
0.000000 0.833952 0.157030
0.126638 0.836343 0.153450
0.285922 0.838734 0.149858
0.432146 0.841124 0.146253
0.571148 0.843513 0.142635
0.705198 0.845900 0.139002
0.835505 0.848287 0.135356
0.962818 0.850673 0.131694
1.000000 0.853057 0.128018
0.000000 0.955842 0.154925
0.118988 0.958185 0.151338
0.279171 0.960527 0.147738
0.425805 0.962869 0.144125
0.565069 0.965210 0.140499
0.699309 0.967550 0.136858
0.829764 0.969889 0.133203
0.957199 0.972227 0.129533
1.000000 0.974565 0.125847
0.000000 1.000000 0.152816
0.111264 1.000000 0.149221
0.272395 1.000000 0.145614
0.419450 1.000000 0.141993
0.558980 1.000000 0.138358
0.693412 1.000000 0.134709
0.824017 1.000000 0.131045
0.951574 1.000000 0.127366
1.000000 1.000000 0.123670
0.000000 0.000000 0.309828
0.156814 0.000000 0.306598
0.312890 0.000000 0.303364
0.457559 0.000000 0.300124
0.595549 0.000000 0.296879
0.728855 0.000000 0.293628
0.858577 0.000000 0.290372
0.985412 0.000000 0.287111
1.000000 0.000000 0.283844
0.000000 0.142983 0.307928
0.149414 0.146095 0.304696
0.306231 0.149196 0.301458
0.451273 0.152288 0.298215
0.589508 0.155371 0.294967
0.722995 0.158444 0.291713
0.852860 0.161509 0.288454
0.979812 0.164565 0.285189
1.000000 0.167612 0.281919
0.000000 0.293964 0.306027
0.141957 0.296759 0.302791
0.299550 0.299550 0.299550
0.444973 0.302338 0.296304
0.583457 0.305121 0.293053
0.717127 0.307901 0.289796
0.847137 0.310677 0.286533
0.974207 0.313449 0.283266
1.000000 0.316218 0.279992
0.000000 0.433572 0.304123
0.134442 0.436209 0.300885
0.292847 0.438845 0.297641
0.438660 0.441477 0.294391
0.577397 0.444108 0.291137
0.711253 0.446736 0.287877
0.841408 0.449362 0.284611
0.968598 0.451986 0.281340
1.000000 0.454607 0.278063
0.000000 0.566616 0.302218
0.126862 0.569150 0.298976
0.286120 0.571683 0.295729
0.432333 0.574214 0.292477
0.571328 0.576743 0.289219
0.705371 0.579270 0.285956
0.835674 0.581796 0.282687
0.962984 0.584320 0.279412
1.000000 0.586843 0.276132
0.000000 0.695085 0.300311
0.119215 0.697543 0.297066
0.279370 0.699999 0.293816
0.425992 0.702455 0.290561
0.565248 0.704909 0.287300
0.699482 0.707361 0.284033
0.829933 0.709813 0.280761
0.957364 0.712263 0.277483
1.000000 0.714712 0.274199
0.000000 0.820065 0.298402
0.111493 0.822462 0.295154
0.272595 0.824859 0.291901
0.419637 0.827255 0.288642
0.559159 0.829650 0.285378
0.693586 0.832043 0.282108
0.824187 0.834436 0.278833
0.951740 0.836827 0.275551
1.000000 0.839218 0.272264
0.000000 0.942238 0.296492
0.103689 0.944587 0.293241
0.265795 0.946934 0.289984
0.413268 0.949281 0.286722
0.553060 0.951627 0.283455
0.687682 0.953972 0.280181
0.818434 0.956316 0.276902
0.946111 0.958659 0.273617
1.000000 0.961001 0.270327
0.000000 1.000000 0.294579
0.095797 1.000000 0.291325
0.258968 1.000000 0.288065
0.406884 1.000000 0.284800
0.546951 1.000000 0.281529
0.681770 1.000000 0.278253
0.812676 1.000000 0.274970
0.940477 1.000000 0.271682
1.000000 1.000000 0.268387
0.000000 0.000000 0.440802
0.142178 0.000000 0.437739
0.299747 0.000000 0.434674
0.445159 0.000000 0.431605
0.583636 0.000000 0.428533
0.717300 0.000000 0.425457
0.847306 0.000000 0.422378
0.974373 0.000000 0.419296
1.000000 0.000000 0.416211
0.000000 0.124732 0.439000
0.134664 0.127907 0.435936
0.293045 0.131071 0.432868
0.438846 0.134223 0.429798
0.577576 0.137364 0.426723
0.711426 0.140494 0.423646
0.841577 0.143613 0.420565
0.968763 0.146723 0.417481
1.000000 0.149823 0.414393
0.000000 0.277677 0.437197
0.127087 0.280496 0.434131
0.286319 0.283311 0.431062
0.432520 0.286122 0.427989
0.571507 0.288928 0.424913
0.705545 0.291731 0.421834
0.835843 0.294529 0.418751
0.963149 0.297324 0.415665
1.000000 0.300115 0.412575
0.000000 0.418231 0.435394
0.119441 0.420883 0.432325
0.279569 0.423532 0.429254
0.426179 0.426179 0.426179
0.565428 0.428824 0.423101
0.699656 0.431466 0.420020
0.830103 0.434105 0.416935
0.957530 0.436743 0.413847
1.000000 0.439378 0.410755
0.000000 0.551890 0.433589
0.111721 0.554434 0.430519
0.272795 0.556976 0.427445
0.419825 0.559517 0.424369
0.559339 0.562056 0.421289
0.693760 0.564593 0.418205
0.824356 0.567129 0.415118
0.951906 0.569663 0.412028
1.000000 0.572195 0.408934
0.000000 0.680809 0.431782
0.103921 0.683275 0.428710
0.265996 0.685739 0.425635
0.413456 0.688202 0.422557
0.553240 0.690663 0.419475
0.687856 0.693123 0.416389
0.818604 0.695582 0.413300
0.946277 0.698040 0.410208
1.000000 0.700496 0.407112
0.000000 0.806142 0.429975
0.096031 0.808546 0.426901
0.259170 0.810949 0.423824
0.407072 0.813351 0.420743
0.547132 0.815752 0.417659
0.681945 0.818151 0.414572
0.812846 0.820550 0.411481
0.940643 0.822948 0.408387
1.000000 0.825344 0.405289
0.000000 0.928606 0.428167
0.088043 0.930959 0.425091
0.252317 0.933312 0.422012
0.400673 0.935664 0.418929
0.541012 0.938015 0.415843
0.676026 0.940365 0.412754
0.807081 0.942714 0.409661
0.935004 0.945062 0.406564
1.000000 0.947409 0.403464
0.000000 1.000000 0.426357
0.079944 1.000000 0.423279
0.245437 1.000000 0.420198
0.394259 1.000000 0.417114
0.534883 1.000000 0.414026
0.670099 1.000000 0.410934
0.801310 1.000000 0.407839
0.929359 1.000000 0.404741
1.000000 1.000000 0.401639
0.000000 0.000000 0.566090
0.127311 0.000000 0.563141
0.286518 0.000000 0.560190
0.432706 0.000000 0.557236
0.571686 0.000000 0.554279
0.705718 0.000000 0.551321
0.836012 0.000000 0.548360
0.963315 0.000000 0.545396
1.000000 0.000000 0.542431
0.000000 0.106070 0.564355
0.119668 0.109322 0.561405
0.279769 0.112560 0.558452
0.426366 0.115783 0.555496
0.565607 0.118994 0.552539
0.699830 0.122191 0.549579
0.830272 0.125376 0.546616
0.957696 0.128548 0.543651
1.000000 0.131709 0.540684
0.000000 0.261246 0.562619
0.111950 0.264091 0.559667
0.272995 0.266931 0.556713
0.420012 0.269767 0.553756
0.559519 0.272598 0.550797
0.693934 0.275425 0.547836
0.824526 0.278248 0.544872
0.952072 0.281066 0.541906
1.000000 0.283880 0.538937
0.000000 0.402806 0.560883
0.104152 0.405473 0.557929
0.266197 0.408137 0.554973
0.413644 0.410798 0.552015
0.553420 0.413457 0.549055
0.688030 0.416114 0.546092
0.818774 0.418768 0.543127
0.946443 0.421419 0.540159
1.000000 0.424068 0.537189
0.000000 0.537104 0.559145
0.096265 0.539659 0.556190
0.259372 0.542212 0.553233
0.407261 0.544763 0.550274
0.547312 0.547312 0.547312
0.682119 0.549859 0.544347
0.813015 0.552405 0.541381
0.940809 0.554949 0.538412
1.000000 0.557491 0.535440
0.000000 0.666488 0.557407
0.088280 0.668962 0.554450
0.252520 0.671434 0.551492
0.400862 0.673904 0.548531
0.541193 0.676374 0.545568
0.676200 0.678842 0.542602
0.807251 0.681308 0.539634
0.935170 0.683773 0.536663
1.000000 0.686237 0.533690
0.000000 0.792184 0.555667
0.080184 0.794594 0.552710
0.245640 0.797003 0.549750
0.394449 0.799411 0.546788
0.535064 0.801818 0.543823
0.670274 0.804224 0.540856
0.801481 0.806629 0.537886
0.929526 0.809033 0.534914
1.000000 0.811435 0.531940
0.000000 0.914943 0.553927
0.071964 0.917302 0.550968
0.238731 0.919659 0.548007
0.388019 0.922016 0.545043
0.528924 0.924373 0.542077
0.664339 0.926728 0.539109
0.795704 0.929082 0.536138
0.923877 0.931435 0.533164
1.000000 0.933788 0.530188
0.000000 1.000000 0.552186
0.063601 1.000000 0.549226
0.231792 1.000000 0.546263
0.381574 1.000000 0.543298
0.522774 1.000000 0.540331
0.658397 1.000000 0.537361
0.789921 1.000000 0.534388
0.918222 1.000000 0.531413
1.000000 1.000000 0.528436
0.000000 0.000000 0.687314
0.112179 0.000000 0.684450
0.273195 0.000000 0.681584
0.420200 0.000000 0.678716
0.559698 0.000000 0.675846
0.694108 0.000000 0.672974
0.824695 0.000000 0.670101
0.952238 0.000000 0.667225
1.000000 0.000000 0.664348
0.000000 0.086899 0.685629
0.104383 0.090247 0.682764
0.266397 0.093578 0.679896
0.413832 0.096890 0.677027
0.553600 0.100186 0.674156
0.688204 0.103465 0.671283
0.818943 0.106729 0.668409
0.946609 0.109978 0.665532
1.000000 0.113213 0.662654
0.000000 0.244658 0.683943
0.096499 0.247531 0.681077
0.259573 0.250399 0.678208
0.407449 0.253262 0.675338
0.547492 0.256120 0.672466
0.682294 0.258973 0.669592
0.813185 0.261822 0.666716
0.940975 0.264666 0.663839
1.000000 0.267505 0.660959
0.000000 0.387291 0.682257
0.088516 0.389974 0.679389
0.252722 0.392653 0.676519
0.401051 0.395331 0.673648
0.541374 0.398005 0.670775
0.676375 0.400677 0.667900
0.807421 0.403345 0.665023
0.935336 0.406012 0.662145
1.000000 0.408676 0.659264
0.000000 0.522258 0.680569
0.080425 0.524823 0.677701
0.245843 0.527386 0.674830
0.394638 0.529948 0.671958
0.535245 0.532508 0.669084
0.670449 0.535065 0.666208
0.801651 0.537621 0.663330
0.929692 0.540176 0.660450
1.000000 0.542728 0.657568
0.000000 0.652121 0.678882
0.072209 0.654603 0.676012
0.238935 0.657083 0.673140
0.388209 0.659561 0.670267
0.529105 0.662038 0.667391
0.664514 0.664514 0.664514
0.795874 0.666989 0.661635
0.924043 0.669462 0.658754
1.000000 0.671934 0.655872
0.000000 0.778188 0.677193
0.063849 0.780605 0.674322
0.231997 0.783021 0.671450
0.381764 0.785435 0.668575
0.522955 0.787848 0.665699
0.658572 0.790261 0.662820
0.790091 0.792672 0.659940
0.918389 0.795082 0.657058
1.000000 0.797491 0.654174
0.000000 0.901249 0.675504
0.055322 0.903613 0.672632
0.225027 0.905977 0.669758
0.375303 0.908339 0.666883
0.516794 0.910700 0.664005
0.652622 0.913061 0.661126
0.784302 0.915420 0.658245
0.912730 0.917779 0.655362
1.000000 0.920136 0.652477
0.000000 1.000000 0.673814
0.046592 1.000000 0.670941
0.218026 1.000000 0.668066
0.368825 1.000000 0.665190
0.510622 1.000000 0.662311
0.646663 1.000000 0.659431
0.778507 1.000000 0.656548
0.907065 1.000000 0.653664
1.000000 1.000000 0.650778
0.000000 0.000000 0.805395
0.096732 0.000000 0.802598
0.259775 0.000000 0.799799
0.407637 0.000000 0.796999
0.547672 0.000000 0.794198
0.682468 0.000000 0.791395
0.813355 0.000000 0.788591
0.941141 0.000000 0.785785
1.000000 0.000000 0.782977
0.000000 0.067064 0.803749
0.088753 0.070542 0.800951
0.252925 0.073994 0.798152
0.401240 0.077423 0.795351
0.541554 0.080829 0.792549
0.676550 0.084213 0.789745
0.807591 0.087578 0.786940
0.935503 0.090923 0.784133
1.000000 0.094249 0.781325
0.000000 0.227900 0.802103
0.080665 0.230803 0.799304
0.246046 0.233701 0.796504
0.394827 0.236594 0.793702
0.535426 0.239481 0.790899
0.670623 0.242363 0.788094
0.801821 0.245240 0.785288
0.929859 0.248112 0.782481
1.000000 0.250979 0.779672
0.000000 0.371683 0.800456
0.072453 0.374382 0.797656
0.239139 0.377078 0.794855
0.388399 0.379771 0.792053
0.529287 0.382462 0.789249
0.664689 0.385149 0.786443
0.796045 0.387834 0.783636
0.924210 0.390516 0.780828
1.000000 0.393195 0.778018
0.000000 0.507347 0.798809
0.064098 0.509924 0.796008
0.232202 0.512498 0.793207
0.381954 0.515071 0.790403
0.523137 0.517641 0.787598
0.658747 0.520210 0.784792
0.790262 0.522777 0.781984
0.918556 0.525342 0.779175
1.000000 0.527905 0.776364
0.000000 0.637706 0.797161
0.055576 0.640196 0.794360
0.225233 0.642684 0.791557
0.375494 0.645171 0.788753
0.516976 0.647657 0.785947
0.652797 0.650141 0.783140
0.784473 0.652623 0.780331
0.912896 0.655104 0.777521
1.000000 0.657584 0.774709
0.000000 0.764155 0.795513
0.046853 0.766578 0.792711
0.218232 0.769000 0.789907
0.369016 0.771421 0.787102
0.510805 0.773841 0.784295
0.646839 0.776260 0.781487
0.778677 0.778677 0.778677
0.907232 0.781094 0.775866
1.000000 0.783509 0.773054
0.000000 0.887525 0.793864
0.037877 0.889894 0.791061
0.211198 0.892263 0.788257
0.362522 0.894630 0.785451
0.504622 0.896997 0.782643
0.640873 0.899363 0.779834
0.772876 0.901728 0.777023
0.901562 0.904092 0.774211
1.000000 0.906455 0.771398
0.000000 1.000000 0.792215
0.028566 1.000000 0.789411
0.204127 1.000000 0.786606
0.356010 1.000000 0.783799
0.498427 1.000000 0.780990
0.634898 1.000000 0.778180
0.767067 1.000000 0.775369
0.895887 1.000000 0.772556
1.000000 1.000000 0.769741
0.000000 0.000000 0.920923
0.080905 0.000000 0.918182
0.246250 0.000000 0.915439
0.395017 0.000000 0.912696
0.535606 0.000000 0.909951
0.670798 0.000000 0.907205
0.801991 0.000000 0.904457
0.930025 0.000000 0.901709
1.000000 0.000000 0.898959
0.000000 0.046289 0.919310
0.072697 0.049959 0.916568
0.239343 0.053588 0.913825
0.388589 0.057182 0.911081
0.529468 0.060741 0.908335
0.664864 0.064270 0.905588
0.796215 0.067770 0.902840
0.924377 0.071242 0.900091
1.000000 0.074690 0.897340
0.000000 0.210954 0.917697
0.064347 0.213891 0.914954
0.232407 0.216822 0.912210
0.382145 0.219747 0.909465
0.523318 0.222666 0.906719
0.658923 0.225580 0.903971
0.790433 0.228488 0.901222
0.918723 0.231390 0.898472
1.000000 0.234287 0.895721
0.000000 0.355975 0.916083
0.055830 0.358692 0.913340
0.225439 0.361405 0.910595
0.375684 0.364116 0.907849
0.517158 0.366823 0.905102
0.652973 0.369528 0.902354
0.784644 0.372229 0.899604
0.913063 0.374928 0.896853
1.000000 0.377623 0.894101
0.000000 0.492371 0.914469
0.047113 0.494959 0.911725
0.218439 0.497545 0.908979
0.369207 0.500129 0.906233
0.510987 0.502711 0.903485
0.647015 0.505291 0.900736
0.778848 0.507869 0.897986
0.907399 0.510445 0.895234
1.000000 0.513019 0.892481
0.000000 0.623242 0.912854
0.038146 0.625741 0.910109
0.211405 0.628238 0.907363
0.362713 0.630733 0.904616
0.504804 0.633227 0.901868
0.641049 0.635719 0.899118
0.773047 0.638210 0.896367
0.901729 0.640700 0.893614
1.000000 0.643188 0.890861
0.000000 0.750083 0.911239
0.028846 0.752513 0.908494
0.204336 0.754942 0.905747
0.356202 0.757369 0.902999
0.498610 0.759796 0.900250
0.635074 0.762221 0.897499
0.767238 0.764645 0.894747
0.896054 0.767069 0.891994
1.000000 0.769490 0.889240
0.000000 0.873768 0.909624
0.019062 0.876143 0.906878
0.197230 0.878517 0.904130
0.349672 0.880890 0.901381
0.492405 0.883263 0.898631
0.629091 0.885634 0.895880
0.761424 0.888004 0.893127
0.890373 0.890373 0.890373
1.000000 0.892742 0.887618
0.000000 0.994871 0.908008
0.008400 0.997200 0.905261
0.190086 0.999529 0.902513
0.343125 1.000000 0.899763
0.486188 1.000000 0.897012
0.623100 1.000000 0.894260
0.755602 1.000000 0.891507
0.884688 1.000000 0.888752
1.000000 1.000000 0.885997
0.000000 0.000000 1.000000
0.064595 0.000000 1.000000
0.232612 0.000000 1.000000
0.382335 0.000000 1.000000
0.523500 0.000000 1.000000
0.659098 0.000000 1.000000
0.790603 0.000000 1.000000
0.918889 0.000000 1.000000
1.000000 0.000000 1.000000
0.000000 0.023934 1.000000
0.056084 0.027960 1.000000
0.225645 0.031901 1.000000
0.375875 0.035770 1.000000
0.517340 0.039577 1.000000
0.653148 0.043330 1.000000
0.784814 0.047035 1.000000
0.913230 0.050696 1.000000
1.000000 0.054318 1.000000
0.000000 0.193802 1.000000
0.047374 0.196776 1.000000
0.218646 0.199744 1.000000
0.369399 0.202705 1.000000
0.511169 0.205659 1.000000
0.647191 0.208607 1.000000
0.779019 0.211549 1.000000
0.907566 0.214485 1.000000
1.000000 0.217415 1.000000
0.000000 0.340163 1.000000
0.038414 0.342898 1.000000
0.211613 0.345630 1.000000
0.362905 0.348359 1.000000
0.504987 0.351084 1.000000
0.641225 0.353806 1.000000
0.773218 0.356525 1.000000
0.901896 0.359241 1.000000
1.000000 0.361954 1.000000
0.000000 0.477326 1.000000
0.029126 0.479926 1.000000
0.204545 0.482524 1.000000
0.356394 0.485119 1.000000
0.498793 0.487713 1.000000
0.635251 0.490305 1.000000
0.767410 0.492895 1.000000
0.896221 0.495482 1.000000
1.000000 0.498068 1.000000
0.000000 0.608728 1.000000
0.019360 0.611235 1.000000
0.197440 0.613741 1.000000
0.349865 0.616245 1.000000
0.492588 0.618747 1.000000
0.629268 0.621248 1.000000
0.761595 0.623748 1.000000
0.890541 0.626246 1.000000
1.000000 0.628743 1.000000
0.000000 0.735971 1.000000
0.008737 0.738408 1.000000
0.190297 0.740844 1.000000
0.343318 0.743278 1.000000
0.486371 0.745712 1.000000
0.623277 0.748144 1.000000
0.755774 0.750575 1.000000
0.884855 0.753005 1.000000
1.000000 0.755433 1.000000
0.000000 0.859979 1.000000
0.000000 0.862359 1.000000
0.183113 0.864739 1.000000
0.336752 0.867118 1.000000
0.480142 0.869496 1.000000
0.617277 0.871873 1.000000
0.749946 0.874249 1.000000
0.879164 0.876623 1.000000
1.000000 0.878997 1.000000
0.000000 0.981350 1.000000
0.000000 0.983684 1.000000
0.175887 0.986017 1.000000
0.330166 0.988350 1.000000
0.473901 0.990682 1.000000
0.611268 0.993012 1.000000
0.744111 0.995342 1.000000
0.873467 0.997672 1.000000
1.000000 1.000000 1.000000
