presets/film_stocks/Kodak_Ektachrome_100D.cube
# 独寻胶片模拟 -- Kodak Ektachrome 100D
# Kodak, ISO 100, 2018, positive
TITLE "Kodak Ektachrome 100D"
LUT_3D_SIZE 33
DOMAIN_MIN 0.0 0.0 0.0
DOMAIN_MAX 1.0 1.0 1.0
0.000000 0.000000 0.000000
0.047136 0.001617 0.000000
0.088516 0.003037 0.000000
0.127968 0.004390 0.000000
0.166220 0.005703 0.000000
0.203603 0.006985 0.000000
0.240307 0.008244 0.000000
0.276457 0.009485 0.000000
0.312138 0.010709 0.000000
0.347416 0.011919 0.000000
0.382338 0.013117 0.000000
0.416943 0.014304 0.000000
0.451263 0.015482 0.000000
0.485324 0.016650 0.000000
0.519148 0.017811 0.000000
0.552752 0.018963 0.000000
0.586153 0.020109 0.000000
0.619364 0.021249 0.000000
0.652399 0.022382 0.000000
0.685267 0.023510 0.000000
0.717977 0.024632 0.000000
0.750540 0.025749 0.000000
0.782962 0.026861 0.000000
0.815250 0.027969 0.000000
0.847410 0.029072 0.000000
0.879449 0.030172 0.000000
0.911372 0.031267 0.000000
0.943183 0.032358 0.000000
0.974887 0.033446 0.000000
1.000000 0.034530 0.000000
1.000000 0.035611 0.000000
1.000000 0.036688 0.000000
1.000000 0.037763 0.000000
0.000000 0.046329 0.000000
0.045647 0.047379 0.000000
0.087119 0.048426 0.000000
0.126622 0.049471 0.000000
0.164909 0.050515 0.000000
0.202318 0.051556 0.000000
0.239044 0.052594 0.000000
0.275211 0.053631 0.000000
0.310908 0.054666 0.000000
0.346198 0.055699 0.000000
0.381132 0.056730 0.000000
0.415748 0.057759 0.000000
0.450077 0.058786 0.000000
0.484147 0.059812 0.000000
0.517978 0.060835 0.000000
0.551589 0.061857 0.000000
0.584997 0.062878 0.000000
0.618215 0.063896 0.000000
0.651255 0.064913 0.000000
0.684129 0.065929 0.000000
0.716845 0.066943 0.000000
0.749413 0.067955 0.000000
0.781839 0.068966 0.000000
0.814132 0.069975 0.000000
0.846297 0.070983 0.000000
0.878340 0.071990 0.000000
0.910266 0.072995 0.000000
0.942081 0.073998 0.000000
0.973789 0.075001 0.000000
1.000000 0.076002 0.000000
1.000000 0.077001 0.000000
1.000000 0.078000 0.000000
1.000000 0.078997 0.000000
0.000000 0.086999 0.000000
0.044154 0.087985 0.000000
0.085720 0.088970 0.000000
0.125275 0.089954 0.000000
0.163597 0.090938 0.000000
0.201033 0.091920 0.000000
0.237779 0.092901 0.000000
0.273964 0.093880 0.000000
0.309676 0.094859 0.000000
0.344980 0.095837 0.000000
0.379925 0.096814 0.000000
0.414552 0.097790 0.000000
0.448891 0.098765 0.000000
0.482969 0.099739 0.000000
0.516808 0.100712 0.000000
0.550427 0.101684 0.000000
0.583841 0.102655 0.000000
0.617066 0.103626 0.000000
0.650112 0.104595 0.000000
0.682991 0.105563 0.000000
0.715713 0.106531 0.000000
0.748285 0.107498 0.000000
0.780716 0.108463 0.000000
0.813014 0.109428 0.000000
0.845183 0.110392 0.000000
0.877230 0.111356 0.000000
0.909161 0.112318 0.000000
0.940979 0.113280 0.000000
0.972691 0.114241 0.000000
1.000000 0.115200 0.000000
1.000000 0.116160 0.000000
1.000000 0.117118 0.000000
1.000000 0.118076 0.000000
0.000000 0.125775 0.000000
0.042655 0.126726 0.000000
0.084318 0.127676 0.000000
0.123926 0.128626 0.000000
0.162284 0.129574 0.000000
0.199746 0.130523 0.000000
0.236515 0.131470 0.000000
0.272717 0.132416 0.000000
0.308445 0.133362 0.000000
0.343761 0.134308 0.000000
0.378718 0.135252 0.000000
0.413355 0.136196 0.000000
0.447704 0.137140 0.000000
0.481791 0.138082 0.000000
0.515638 0.139024 0.000000
0.549264 0.139966 0.000000
0.582685 0.140907 0.000000
0.615916 0.141847 0.000000
0.648968 0.142786 0.000000
0.681853 0.143725 0.000000
0.714580 0.144663 0.000000
0.747158 0.145601 0.000000
0.779594 0.146538 0.000000
0.811895 0.147475 0.000000
0.844069 0.148410 0.000000
0.876120 0.149346 0.000000
0.908055 0.150280 0.000000
0.939877 0.151215 0.000000
0.971593 0.152148 0.000000
1.000000 0.153081 0.000000
1.000000 0.154013 0.000000
1.000000 0.154945 0.000000
1.000000 0.155877 0.000000
0.000000 0.163372 0.000000
0.041150 0.164298 0.000000
0.082914 0.165224 0.000000
0.122576 0.166149 0.000000
0.160969 0.167074 0.000000
0.198459 0.167998 0.000000
0.235249 0.168922 0.000000
0.271470 0.169845 0.000000
0.307212 0.170768 0.000000
0.342542 0.171690 0.000000
0.377511 0.172612 0.000000
0.412159 0.173534 0.000000
0.446517 0.174454 0.000000
0.480612 0.175375 0.000000
0.514467 0.176295 0.000000
0.548101 0.177214 0.000000
0.581529 0.178133 0.000000
0.614766 0.179051 0.000000
0.647825 0.179969 0.000000
0.680715 0.180887 0.000000
0.713447 0.181804 0.000000
0.746030 0.182720 0.000000
0.778471 0.183636 0.000000
0.810777 0.184552 0.000000
0.842955 0.185467 0.000000
0.875010 0.186382 0.000000
0.906949 0.187296 0.000000
0.938775 0.188210 0.000000
0.970494 0.189123 0.000000
1.000000 0.190036 0.000000
1.000000 0.190949 0.000000
1.000000 0.191861 0.000000
1.000000 0.192772 0.000000
0.000000 0.200114 0.000000
0.039641 0.201021 0.000000
0.081508 0.201929 0.000000
0.121224 0.202836 0.000000
0.159654 0.203742 0.000000
0.197171 0.204649 0.000000
0.233983 0.205554 0.000000
0.270222 0.206460 0.000000
0.305980 0.207365 0.000000
0.341323 0.208269 0.000000
0.376304 0.209174 0.000000
0.410962 0.210077 0.000000
0.445329 0.210981 0.000000
0.479434 0.211884 0.000000
0.513297 0.212787 0.000000
0.546938 0.213689 0.000000
0.580373 0.214591 0.000000
0.613616 0.215492 0.000000
0.646681 0.216393 0.000000
0.679577 0.217294 0.000000
0.712314 0.218195 0.000000
0.744902 0.219095 0.000000
0.777347 0.219994 0.000000
0.809658 0.220893 0.000000
0.841841 0.221792 0.000000
0.873900 0.222691 0.000000
0.905843 0.223589 0.000000
0.937673 0.224487 0.000000
0.969395 0.225384 0.000000
1.000000 0.226282 0.000000
1.000000 0.227178 0.000000
1.000000 0.228075 0.000000
1.000000 0.228971 0.000000
0.000000 0.236189 0.000000
0.038125 0.237082 0.000000
0.080099 0.237974 0.000000
0.119870 0.238867 0.000000
0.158338 0.239759 0.000000
0.195882 0.240650 0.000000
0.232716 0.241541 0.000000
0.268973 0.242432 0.000000
0.304746 0.243323 0.000000
0.340103 0.244213 0.000000
0.375096 0.245103 0.000000
0.409764 0.245993 0.000000
0.444142 0.246882 0.000000
0.478255 0.247771 0.000000
0.512126 0.248660 0.000000
0.545774 0.249548 0.000000
0.579216 0.250436 0.000000
0.612466 0.251324 0.000000
0.645536 0.252211 0.000000
0.678438 0.253099 0.000000
0.711181 0.253985 0.000000
0.743774 0.254872 0.000000
0.776224 0.255758 0.000000
0.808539 0.256644 0.000000
0.840726 0.257529 0.000000
0.872790 0.258415 0.000000
0.904736 0.259300 0.000000
0.936570 0.260184 0.000000
0.968297 0.261069 0.000000
0.999919 0.261953 0.000000
1.000000 0.262836 0.000000
1.000000 0.263720 0.000000
1.000000 0.264603 0.000000
0.000000 0.271719 0.000000
0.036604 0.272600 0.000000
0.078688 0.273480 0.000000
0.118516 0.274360 0.000000
0.157020 0.275240 0.000000
0.194593 0.276119 0.000000
0.231448 0.276998 0.000000
0.267724 0.277877 0.000000
0.303513 0.278755 0.000000
0.338883 0.279634 0.000000
0.373887 0.280512 0.000000
0.408567 0.281389 0.000000
0.442954 0.282267 0.000000
0.477075 0.283144 0.000000
0.510955 0.284021 0.000000
0.544610 0.284898 0.000000
0.578059 0.285774 0.000000
0.611316 0.286650 0.000000
0.644392 0.287526 0.000000
0.677299 0.288402 0.000000
0.710048 0.289277 0.000000
0.742645 0.290152 0.000000
0.775101 0.291027 0.000000
0.807421 0.291901 0.000000
0.839612 0.292775 0.000000
0.871680 0.293649 0.000000
0.903630 0.294523 0.000000
0.935468 0.295397 0.000000
0.967198 0.296270 0.000000
0.998824 0.297143 0.000000
1.000000 0.298016 0.000000
1.000000 0.298888 0.000000
1.000000 0.299760 0.000000
0.000000 0.306789 0.000000
0.035076 0.307659 0.000000
0.077275 0.308529 0.000000
0.117159 0.309398 0.000000
0.155701 0.310267 0.000000
0.193302 0.311136 0.000000
0.230180 0.312005 0.000000
0.266474 0.312874 0.000000
0.302278 0.313742 0.000000
0.337662 0.314610 0.000000
0.372679 0.315477 0.000000
0.407369 0.316345 0.000000
0.441765 0.317212 0.000000
0.475896 0.318079 0.000000
0.509783 0.318946 0.000000
0.543446 0.319813 0.000000
0.576902 0.320679 0.000000
0.610165 0.321545 0.000000
0.643247 0.322411 0.000000
0.676161 0.323276 0.000000
0.708914 0.324142 0.000000
0.741517 0.325007 0.000000
0.773977 0.325872 0.000000
0.806302 0.326737 0.000000
0.838497 0.327601 0.000000
0.870569 0.328465 0.000000
0.902524 0.329329 0.000000
0.934365 0.330193 0.000000
0.966099 0.331057 0.000000
0.997728 0.331920 0.000000
1.000000 0.332783 0.000000
1.000000 0.333646 0.000000
1.000000 0.334509 0.000000
0.000000 0.341462 0.000000
0.033541 0.342323 0.000000
0.075859 0.343183 0.000000
0.115801 0.344043 0.000000
0.154382 0.344903 0.000000
0.192011 0.345763 0.000000
0.228911 0.346623 0.000000
0.265223 0.347482 0.000000
0.301044 0.348341 0.000000
0.336441 0.349200 0.000000
0.371470 0.350059 0.000000
0.406170 0.350918 0.000000
0.440577 0.351776 0.000000
0.474716 0.352634 0.000000
0.508611 0.353492 0.000000
0.542282 0.354350 0.000000
0.575745 0.355207 0.000000
0.609014 0.356064 0.000000
0.642103 0.356922 0.000000
0.675021 0.357778 0.000000
0.707780 0.358635 0.000000
0.740388 0.359492 0.000000
0.772853 0.360348 0.000000
0.805182 0.361204 0.000000
0.837382 0.362060 0.000000
0.869458 0.362915 0.000000
0.901417 0.363771 0.000000
0.933262 0.364626 0.000000
0.965000 0.365481 0.000000
0.996633 0.366336 0.000000
1.000000 0.367191 0.000000
1.000000 0.368045 0.000000
1.000000 0.368899 0.000000
0.000000 0.375786 0.000000
0.031999 0.376638 0.000000
0.074440 0.377490 0.000000
0.114441 0.378342 0.000000
0.153061 0.379194 0.000000
0.190718 0.380046 0.000000
0.227642 0.380898 0.000000
0.263972 0.381749 0.000000
0.299808 0.382600 0.000000
0.335220 0.383451 0.000000
0.370260 0.384302 0.000000
0.404972 0.385152 0.000000
0.439388 0.386003 0.000000
0.473536 0.386853 0.000000
0.507439 0.387703 0.000000
0.541117 0.388553 0.000000
0.574587 0.389402 0.000000
0.607863 0.390252 0.000000
0.640958 0.391101 0.000000
0.673882 0.391950 0.000000
0.706646 0.392799 0.000000
0.739260 0.393648 0.000000
0.771729 0.394496 0.000000
0.804063 0.395345 0.000000
0.836267 0.396193 0.000000
0.868348 0.397041 0.000000
0.900310 0.397889 0.000000
0.932159 0.398736 0.000000
0.963900 0.399584 0.000000
0.995537 0.400431 0.000000
1.000000 0.401278 0.000000
1.000000 0.402125 0.000000
1.000000 0.402972 0.000000
0.000000 0.409798 0.000000
0.030450 0.410643 0.000000
0.073018 0.411488 0.000000
0.113080 0.412333 0.000000
0.151739 0.413177 0.000000
0.189425 0.414022 0.000000
0.226371 0.414866 0.000000
0.262721 0.415710 0.000000
0.298572 0.416554 0.000000
0.333998 0.417398 0.000000
0.369050 0.418242 0.000000
0.403772 0.419085 0.000000
0.438198 0.419928 0.000000
0.472355 0.420771 0.000000
0.506267 0.421614 0.000000
0.539953 0.422457 0.000000
0.573429 0.423299 0.000000
0.606712 0.424142 0.000000
0.639812 0.424984 0.000000
0.672743 0.425826 0.000000
0.705512 0.426668 0.000000
0.738131 0.427510 0.000000
0.770605 0.428351 0.000000
0.802943 0.429193 0.000000
0.835152 0.430034 0.000000
0.867237 0.430875 0.000000
0.899203 0.431716 0.000000
0.931056 0.432557 0.000000
0.962801 0.433397 0.000000
0.994441 0.434238 0.000000
1.000000 0.435078 0.000000
1.000000 0.435918 0.000000
1.000000 0.436758 0.000000
0.000000 0.443530 0.000000
0.028893 0.444369 0.000000
0.071594 0.445207 0.000000
0.111717 0.446045 0.000000
0.150416 0.446883 0.000000
0.188131 0.447721 0.000000
0.225100 0.448559 0.000000
0.261469 0.449396 0.000000
0.297336 0.450234 0.000000
0.332775 0.451071 0.000000
0.367840 0.451908 0.000000
0.402573 0.452745 0.000000
0.437008 0.453581 0.000000
0.471174 0.454418 0.000000
0.505094 0.455255 0.000000
0.538788 0.456091 0.000000
0.572271 0.456927 0.000000
0.605560 0.457763 0.000000
0.638667 0.458599 0.000000
0.671603 0.459434 0.000000
0.704378 0.460270 0.000000
0.737001 0.461105 0.000000
0.769481 0.461941 0.000000
0.801824 0.462776 0.000000
0.834037 0.463611 0.000000
0.866126 0.464445 0.000000
0.898096 0.465280 0.000000
0.929953 0.466115 0.000000
0.961701 0.466949 0.000000
0.993345 0.467783 0.000000
1.000000 0.468617 0.000000
1.000000 0.469451 0.000000
1.000000 0.470285 0.000000
0.000000 0.477007 0.000000
0.027328 0.477840 0.000000
0.070167 0.478672 0.000000
0.110353 0.479504 0.000000
0.149091 0.480336 0.000000
0.186836 0.481168 0.000000
0.223828 0.482000 0.000000
0.260216 0.482831 0.000000
0.296099 0.483662 0.000000
0.331552 0.484494 0.000000
0.366629 0.485325 0.000000
0.401373 0.486156 0.000000
0.435819 0.486987 0.000000
0.469993 0.487817 0.000000
0.503921 0.488648 0.000000
0.537622 0.489478 0.000000
0.571113 0.490309 0.000000
0.604408 0.491139 0.000000
0.637521 0.491969 0.000000
0.670463 0.492798 0.000000
0.703244 0.493628 0.000000
0.735872 0.494458 0.000000
0.768356 0.495287 0.000000
0.800704 0.496116 0.000000
0.832921 0.496946 0.000000
0.865014 0.497775 0.000000
0.896989 0.498603 0.000000
0.928850 0.499432 0.000000
0.960602 0.500261 0.000000
0.992249 0.501089 0.000000
1.000000 0.501918 0.000000
1.000000 0.502746 0.000000
1.000000 0.503574 0.000000
0.000000 0.510251 0.000000
0.025753 0.511078 0.000000
0.068736 0.511904 0.000000
0.108987 0.512731 0.000000
0.147766 0.513557 0.000000
0.185541 0.514384 0.000000
0.222556 0.515210 0.000000
0.258962 0.516036 0.000000
0.294862 0.516862 0.000000
0.330329 0.517688 0.000000
0.365418 0.518513 0.000000
0.400173 0.519339 0.000000
0.434628 0.520164 0.000000
0.468812 0.520989 0.000000
0.502748 0.521814 0.000000
0.536457 0.522639 0.000000
0.569955 0.523464 0.000000
0.603257 0.524289 0.000000
0.636376 0.525113 0.000000
0.669323 0.525938 0.000000
0.702109 0.526762 0.000000
0.734743 0.527586 0.000000
0.767232 0.528411 0.000000
0.799584 0.529234 0.000000
0.831806 0.530058 0.000000
0.863903 0.530882 0.000000
0.895882 0.531706 0.000000
0.927746 0.532529 0.000000
0.959502 0.533352 0.000000
0.991153 0.534175 0.000000
1.000000 0.534998 0.000000
1.000000 0.535821 0.000000
1.000000 0.536644 0.000000
0.000000 0.543279 0.000000
0.024169 0.544101 0.000000
0.067303 0.544922 0.000000
0.107619 0.545744 0.000000
0.146439 0.546565 0.000000
0.184244 0.547386 0.000000
0.221283 0.548207 0.000000
0.257708 0.549028 0.000000
0.293624 0.549849 0.000000
0.329105 0.550670 0.000000
0.364207 0.551490 0.000000
0.398972 0.552311 0.000000
0.433438 0.553131 0.000000
0.467630 0.553951 0.000000
0.501575 0.554771 0.000000
0.535291 0.555591 0.000000
0.568796 0.556411 0.000000
0.602104 0.557231 0.000000
0.635230 0.558050 0.000000
0.668183 0.558870 0.000000
0.700974 0.559689 0.000000
0.733613 0.560508 0.000000
0.766107 0.561327 0.000000
0.798464 0.562146 0.000000
0.830690 0.562965 0.000000
0.862792 0.563784 0.000000
0.894774 0.564603 0.000000
0.926643 0.565421 0.000000
0.958402 0.566239 0.000000
0.990057 0.567058 0.000000
1.000000 0.567876 0.000000
1.000000 0.568694 0.000000
1.000000 0.569512 0.000000
0.000000 0.576108 0.000000
0.022574 0.576925 0.000000
0.065867 0.577741 0.000000
0.106249 0.578558 0.000000
0.145111 0.579375 0.000000
0.182946 0.580191 0.000000
0.220009 0.581007 0.000000
0.256454 0.581823 0.000000
0.292386 0.582639 0.000000
0.327881 0.583455 0.000000
0.362995 0.584271 0.000000
0.397772 0.585087 0.000000
0.432247 0.585902 0.000000
0.466448 0.586718 0.000000
0.500401 0.587533 0.000000
0.534125 0.588349 0.000000
0.567637 0.589164 0.000000
0.600952 0.589979 0.000000
0.634083 0.590794 0.000000
0.667042 0.591608 0.000000
0.699839 0.592423 0.000000
0.732483 0.593238 0.000000
0.764982 0.594052 0.000000
0.797343 0.594867 0.000000
0.829574 0.595681 0.000000
0.861680 0.596495 0.000000
0.893666 0.597309 0.000000
0.925539 0.598123 0.000000
0.957302 0.598937 0.000000
0.988960 0.599750 0.000000
1.000000 0.600564 0.000000
1.000000 0.601377 0.000000
1.000000 0.602191 0.000000
0.000000 0.608750 0.000000
0.020968 0.609563 0.000000
0.064428 0.610375 0.000000
0.104877 0.611187 0.000000
0.143782 0.611999 0.000000
0.181648 0.612811 0.000000
0.218734 0.613623 0.000000
0.255198 0.614435 0.000000
0.291147 0.615246 0.000000
0.326656 0.616058 0.000000
0.361782 0.616869 0.000000
0.396570 0.617680 0.000000
0.431055 0.618492 0.000000
0.465266 0.619303 0.000000
0.499227 0.620114 0.000000
0.532959 0.620924 0.000000
0.566478 0.621735 0.000000
0.599799 0.622546 0.000000
0.632937 0.623356 0.000000
0.665902 0.624167 0.000000
0.698704 0.624977 0.000000
0.731353 0.625787 0.000000
0.763857 0.626598 0.000000
0.796223 0.627408 0.000000
0.828458 0.628218 0.000000
0.860568 0.629027 0.000000
0.892559 0.629837 0.000000
0.924435 0.630647 0.000000
0.956202 0.631456 0.000000
0.987863 0.632266 0.000000
1.000000 0.633075 0.000000
1.000000 0.633884 0.000000
1.000000 0.634693 0.000000
0.000000 0.641219 0.000000
0.019350 0.642027 0.000000
0.062985 0.642835 0.000000
0.103504 0.643643 0.000000
0.142452 0.644451 0.000000
0.180348 0.645258 0.000000
0.217458 0.646066 0.000000
0.253942 0.646873 0.000000
0.289908 0.647681 0.000000
0.325431 0.648488 0.000000
0.360570 0.649296 0.000000
0.395369 0.650103 0.000000
0.429864 0.650910 0.000000
0.464084 0.651717 0.000000
0.498053 0.652524 0.000000
0.531792 0.653330 0.000000
0.565318 0.654137 0.000000
0.598646 0.654944 0.000000
0.631790 0.655750 0.000000
0.664761 0.656556 0.000000
0.697569 0.657363 0.000000
0.730223 0.658169 0.000000
0.762732 0.658975 0.000000
0.795102 0.659781 0.000000
0.827342 0.660587 0.000000
0.859456 0.661392 0.000000
0.891451 0.662198 0.000000
0.923331 0.663004 0.000000
0.955102 0.663809 0.000000
0.986767 0.664614 0.000000
1.000000 0.665420 0.000000
1.000000 0.666225 0.000000
1.000000 0.667030 0.000000
0.000000 0.673523 0.000000
0.017718 0.674327 0.000000
0.061540 0.675131 0.000000
0.102129 0.675935 0.000000
0.141120 0.676739 0.000000
0.179048 0.677543 0.000000
0.216182 0.678347 0.000000
0.252686 0.679151 0.000000
0.288668 0.679954 0.000000
0.324205 0.680757 0.000000
0.359357 0.681561 0.000000
0.394167 0.682364 0.000000
0.428672 0.683167 0.000000
0.462901 0.683970 0.000000
0.496879 0.684773 0.000000
0.530625 0.685576 0.000000
0.564158 0.686379 0.000000
0.597493 0.687182 0.000000
0.630643 0.687984 0.000000
0.663620 0.688787 0.000000
0.696433 0.689589 0.000000
0.729092 0.690391 0.000000
0.761606 0.691194 0.000000
0.793982 0.691996 0.000000
0.826225 0.692798 0.000000
0.858344 0.693600 0.000000
0.890343 0.694402 0.000000
0.922227 0.695203 0.000000
0.954001 0.696005 0.000000
0.985670 0.696806 0.000000
1.000000 0.697608 0.000000
1.000000 0.698409 0.000000
1.000000 0.699211 0.000000
0.000000 0.705673 0.000000
0.016070 0.706474 0.000000
0.060090 0.707274 0.000000
0.100752 0.708075 0.000000
0.139787 0.708875 0.000000
0.177747 0.709675 0.000000
0.214905 0.710475 0.000000
0.251429 0.711275 0.000000
0.287427 0.712075 0.000000
0.322979 0.712874 0.000000
0.358143 0.713674 0.000000
0.392964 0.714474 0.000000
0.427479 0.715273 0.000000
0.461718 0.716072 0.000000
0.495704 0.716872 0.000000
0.529458 0.717671 0.000000
0.562998 0.718470 0.000000
0.596340 0.719269 0.000000
0.629496 0.720068 0.000000
0.662478 0.720867 0.000000
0.695297 0.721666 0.000000
0.727962 0.722464 0.000000
0.760481 0.723263 0.000000
0.792861 0.724061 0.000000
0.825109 0.724860 0.000000
0.857232 0.725658 0.000000
0.889235 0.726456 0.000000
0.921123 0.727254 0.000000
0.952901 0.728052 0.000000
0.984573 0.728850 0.000000
1.000000 0.729648 0.000000
1.000000 0.730446 0.000000
1.000000 0.731244 0.000000
0.000000 0.737678 0.000000
0.014406 0.738475 0.000000
0.058638 0.739272 0.000000
0.099373 0.740068 0.000000
0.138453 0.740865 0.000000
0.176444 0.741662 0.000000
0.213627 0.742458 0.000000
0.250171 0.743255 0.000000
0.286186 0.744051 0.000000
0.321752 0.744847 0.000000
0.356929 0.745643 0.000000
0.391762 0.746439 0.000000
0.426287 0.747235 0.000000
0.460534 0.748031 0.000000
0.494529 0.748827 0.000000
0.528291 0.749623 0.000000
0.561838 0.750418 0.000000
0.595187 0.751214 0.000000
0.628349 0.752009 0.000000
0.661337 0.752805 0.000000
0.694161 0.753600 0.000000
0.726831 0.754395 0.000000
0.759355 0.755190 0.000000
0.791740 0.755986 0.000000
0.823992 0.756781 0.000000
0.856119 0.757575 0.000000
0.888126 0.758370 0.000000
0.920018 0.759165 0.000000
0.951800 0.759960 0.000000
0.983476 0.760754 0.000000
1.000000 0.761549 0.000000
1.000000 0.762343 0.000000
1.000000 0.763137 0.000000
0.000000 0.769544 0.000000
0.012722 0.770338 0.000000
0.057181 0.771131 0.000000
0.097993 0.771924 0.000000
0.137118 0.772718 0.000000
0.175141 0.773511 0.000000
0.212349 0.774304 0.000000
0.248913 0.775097 0.000000
0.284945 0.775890 0.000000
0.320525 0.776683 0.000000
0.355715 0.777476 0.000000
0.390559 0.778269 0.000000
0.425094 0.779061 0.000000
0.459351 0.779854 0.000000
0.493353 0.780646 0.000000
0.527123 0.781439 0.000000
0.560678 0.782231 0.000000
0.594033 0.783024 0.000000
0.627201 0.783816 0.000000
0.660195 0.784608 0.000000
0.693025 0.785400 0.000000
0.725700 0.786192 0.000000
0.758229 0.786984 0.000000
0.790618 0.787775 0.000000
0.822876 0.788567 0.000000
0.855007 0.789359 0.000000
0.887018 0.790150 0.000000
0.918914 0.790942 0.000000
0.950699 0.791733 0.000000
0.982379 0.792524 0.000000
1.000000 0.793316 0.000000
1.000000 0.794107 0.000000
1.000000 0.794898 0.000000
0.000000 0.801279 0.000000
0.011016 0.802069 0.000000
0.055721 0.802859 0.000000
0.096610 0.803650 0.000000
0.135781 0.804440 0.000000
0.173837 0.805230 0.000000
0.211070 0.806020 0.000000
0.247654 0.806810 0.000000
0.283703 0.807599 0.000000
0.319298 0.808389 0.000000
0.354500 0.809179 0.000000
0.389355 0.809968 0.000000
0.423901 0.810758 0.000000
0.458166 0.811547 0.000000
0.492178 0.812337 0.000000
0.525955 0.813126 0.000000
0.559517 0.813915 0.000000
0.592879 0.814704 0.000000
0.626054 0.815493 0.000000
0.659054 0.816282 0.000000
0.691889 0.817071 0.000000
0.724569 0.817860 0.000000
0.757103 0.818649 0.000000
0.789497 0.819438 0.000000
0.821759 0.820226 0.000000
0.853894 0.821015 0.000000
0.885909 0.821803 0.000000
0.917809 0.822591 0.000000
0.949598 0.823380 0.000000
0.981281 0.824168 0.000000
1.000000 0.824956 0.000000
1.000000 0.825744 0.000000
1.000000 0.826532 0.000000
0.000000 0.832888 0.000000
0.009282 0.833676 0.000000
0.054257 0.834463 0.000000
0.095225 0.835250 0.000000
0.134443 0.836037 0.000000
0.172532 0.836824 0.000000
0.209790 0.837611 0.000000
0.246394 0.838398 0.000000
0.282460 0.839185 0.000000
0.318070 0.839971 0.000000
0.353285 0.840758 0.000000
0.388151 0.841545 0.000000
0.422707 0.842331 0.000000
0.456982 0.843117 0.000000
0.491002 0.843904 0.000000
0.524787 0.844690 0.000000
0.558356 0.845476 0.000000
0.591725 0.846262 0.000000
0.624906 0.847049 0.000000
0.657912 0.847835 0.000000
0.690752 0.848620 0.000000
0.723438 0.849406 0.000000
0.755976 0.850192 0.000000
0.788375 0.850978 0.000000
0.820642 0.851763 0.000000
0.852781 0.852549 0.000000
0.884801 0.853334 0.000000
0.916704 0.854120 0.000000
0.948497 0.854905 0.000000
0.980184 0.855690 0.000000
1.000000 0.856476 0.000000
1.000000 0.857261 0.000000
1.000000 0.858046 0.000000
0.000000 0.864378 0.000000
0.007515 0.865163 0.000000
0.052790 0.865947 0.000000
0.093839 0.866731 0.000000
0.133104 0.867515 0.000000
0.171225 0.868299 0.000000
0.208509 0.869083 0.000000
0.245134 0.869867 0.000000
0.281217 0.870651 0.000000
0.316841 0.871435 0.000000
0.352069 0.872219 0.000000
0.386947 0.873003 0.000000
0.421513 0.873786 0.000000
0.455797 0.874570 0.000000
0.489826 0.875353 0.000000
0.523619 0.876137 0.000000
0.557195 0.876920 0.000000
0.590570 0.877703 0.000000
0.623758 0.878486 0.000000
0.656769 0.879270 0.000000
0.689616 0.880053 0.000000
0.722307 0.880836 0.000000
0.754850 0.881619 0.000000
0.787254 0.882401 0.000000
0.819524 0.883184 0.000000
0.851668 0.883967 0.000000
0.883692 0.884750 0.000000
0.915599 0.885532 0.000000
0.947396 0.886315 0.000000
0.979086 0.887097 0.000000
1.000000 0.887879 0.000000
1.000000 0.888662 0.000000
1.000000 0.889444 0.000000
0.000000 0.895754 0.000000
0.005705 0.896535 0.000000
0.051318 0.897317 0.000000
0.092450 0.898098 0.000000
0.131763 0.898880 0.000000
0.169918 0.899661 0.000000
0.207227 0.900442 0.000000
0.243873 0.901224 0.000000
0.279973 0.902005 0.000000
0.315612 0.902786 0.000000
0.350853 0.903567 0.000000
0.385742 0.904348 0.000000
0.420319 0.905129 0.000000
0.454612 0.905909 0.000000
0.488649 0.906690 0.000000
0.522450 0.907471 0.000000
0.556034 0.908251 0.000000
0.589416 0.909032 0.000000
0.622609 0.909812 0.000000
0.655627 0.910593 0.000000
0.688479 0.911373 0.000000
0.721175 0.912153 0.000000
0.753723 0.912933 0.000000
0.786132 0.913714 0.000000
0.818407 0.914494 0.000000
