presets/film_stocks/Kodak_5247.cube
# 独寻胶片模拟 -- Kodak 5247
# Kodak, ISO 16, 1950, negative
TITLE "Kodak 5247"
LUT_3D_SIZE 33
DOMAIN_MIN 0.0 0.0 0.0
DOMAIN_MAX 1.0 1.0 1.0
0.000000 0.000000 0.000000
0.056061 0.001749 0.000000
0.102430 0.003196 0.000000
0.145730 0.004547 0.000000
0.187151 0.005839 0.000000
0.227228 0.007089 0.000000
0.266266 0.008307 0.000000
0.304460 0.009499 0.000000
0.341946 0.010668 0.000000
0.378824 0.011819 0.000000
0.415171 0.012953 0.000000
0.451046 0.014072 0.000000
0.486497 0.015178 0.000000
0.521565 0.016272 0.000000
0.556282 0.017355 0.000000
0.590677 0.018428 0.000000
0.624773 0.019492 0.000000
0.658593 0.020547 0.000000
0.692154 0.021594 0.000000
0.725473 0.022634 0.000000
0.758564 0.023666 0.000000
0.791439 0.024692 0.000000
0.824111 0.025711 0.000000
0.856590 0.026724 0.000000
0.888885 0.027732 0.000000
0.921004 0.028734 0.000000
0.952957 0.029731 0.000000
0.984750 0.030723 0.000000
1.000000 0.031710 0.000000
1.000000 0.032692 0.000000
1.000000 0.033670 0.000000
1.000000 0.034644 0.000000
1.000000 0.035614 0.000000
0.000000 0.054024 0.000000
0.053874 0.054932 0.000000
0.100435 0.055838 0.000000
0.143839 0.056741 0.000000
0.185329 0.057643 0.000000
0.225459 0.058542 0.000000
0.264538 0.059439 0.000000
0.302767 0.060334 0.000000
0.340282 0.061228 0.000000
0.377186 0.062119 0.000000
0.413555 0.063008 0.000000
0.449450 0.063896 0.000000
0.484919 0.064781 0.000000
0.520003 0.065665 0.000000
0.554736 0.066547 0.000000
0.589144 0.067427 0.000000
0.623254 0.068306 0.000000
0.657086 0.069183 0.000000
0.690658 0.070058 0.000000
0.723988 0.070932 0.000000
0.757088 0.071804 0.000000
0.789973 0.072674 0.000000
0.822654 0.073543 0.000000
0.855141 0.074410 0.000000
0.887444 0.075276 0.000000
0.919571 0.076140 0.000000
0.951531 0.077003 0.000000
0.983331 0.077864 0.000000
1.000000 0.078724 0.000000
1.000000 0.079583 0.000000
1.000000 0.080440 0.000000
1.000000 0.081295 0.000000
1.000000 0.082150 0.000000
0.000000 0.098708 0.000000
0.051673 0.099538 0.000000
0.098433 0.100367 0.000000
0.141943 0.101195 0.000000
0.183505 0.102022 0.000000
0.223688 0.102848 0.000000
0.262809 0.103673 0.000000
0.301073 0.104497 0.000000
0.338618 0.105320 0.000000
0.375547 0.106142 0.000000
0.411939 0.106963 0.000000
0.447854 0.107783 0.000000
0.483341 0.108602 0.000000
0.518442 0.109420 0.000000
0.553189 0.110238 0.000000
0.587612 0.111054 0.000000
0.621734 0.111870 0.000000
0.655578 0.112684 0.000000
0.689162 0.113498 0.000000
0.722501 0.114311 0.000000
0.755612 0.115123 0.000000
0.788506 0.115934 0.000000
0.821196 0.116745 0.000000
0.853691 0.117554 0.000000
0.886002 0.118363 0.000000
0.918137 0.119171 0.000000
0.950105 0.119978 0.000000
0.981911 0.120784 0.000000
1.000000 0.121589 0.000000
1.000000 0.122394 0.000000
1.000000 0.123197 0.000000
1.000000 0.124000 0.000000
1.000000 0.124803 0.000000
0.000000 0.140435 0.000000
0.049458 0.141222 0.000000
0.096426 0.142009 0.000000
0.140044 0.142795 0.000000
0.181678 0.143581 0.000000
0.221915 0.144366 0.000000
0.261079 0.145150 0.000000
0.299377 0.145933 0.000000
0.336952 0.146716 0.000000
0.373907 0.147499 0.000000
0.410321 0.148280 0.000000
0.446256 0.149061 0.000000
0.481762 0.149842 0.000000
0.516879 0.150622 0.000000
0.551641 0.151401 0.000000
0.586078 0.152179 0.000000
0.620214 0.152957 0.000000
0.654070 0.153735 0.000000
0.687664 0.154512 0.000000
0.721015 0.155288 0.000000
0.754135 0.156064 0.000000
0.787039 0.156839 0.000000
0.819738 0.157613 0.000000
0.852241 0.158387 0.000000
0.884561 0.159161 0.000000
0.916703 0.159933 0.000000
0.948678 0.160706 0.000000
0.980492 0.161477 0.000000
1.000000 0.162249 0.000000
1.000000 0.163019 0.000000
1.000000 0.163789 0.000000
1.000000 0.164559 0.000000
1.000000 0.165328 0.000000
0.000000 0.180351 0.000000
0.047228 0.181109 0.000000
0.094412 0.181867 0.000000
0.138141 0.182625 0.000000
0.179849 0.183382 0.000000
0.220139 0.184138 0.000000
0.259346 0.184895 0.000000
0.297680 0.185650 0.000000
0.335285 0.186405 0.000000
0.372266 0.187160 0.000000
0.408703 0.187915 0.000000
0.444658 0.188668 0.000000
0.480182 0.189422 0.000000
0.515316 0.190175 0.000000
0.550093 0.190927 0.000000
0.584544 0.191679 0.000000
0.618693 0.192431 0.000000
0.652561 0.193182 0.000000
0.686167 0.193933 0.000000
0.719528 0.194683 0.000000
0.752658 0.195433 0.000000
0.785571 0.196183 0.000000
0.818279 0.196932 0.000000
0.850791 0.197680 0.000000
0.883118 0.198428 0.000000
0.915269 0.199176 0.000000
0.947251 0.199923 0.000000
0.979072 0.200670 0.000000
1.000000 0.201417 0.000000
1.000000 0.202163 0.000000
1.000000 0.202909 0.000000
1.000000 0.203654 0.000000
1.000000 0.204399 0.000000
0.000000 0.218971 0.000000
0.044982 0.219708 0.000000
0.092392 0.220445 0.000000
0.136234 0.221181 0.000000
0.178016 0.221916 0.000000
0.218362 0.222652 0.000000
0.257612 0.223387 0.000000
0.295981 0.224121 0.000000
0.333616 0.224855 0.000000
0.370623 0.225589 0.000000
0.407083 0.226323 0.000000
0.443059 0.227056 0.000000
0.478601 0.227789 0.000000
0.513752 0.228521 0.000000
0.548545 0.229253 0.000000
0.583009 0.229985 0.000000
0.617171 0.230716 0.000000
0.651051 0.231448 0.000000
0.684669 0.232178 0.000000
0.718040 0.232909 0.000000
0.751181 0.233639 0.000000
0.784103 0.234368 0.000000
0.816820 0.235098 0.000000
0.849341 0.235827 0.000000
0.881676 0.236555 0.000000
0.913834 0.237284 0.000000
0.945824 0.238012 0.000000
0.977651 0.238739 0.000000
1.000000 0.239467 0.000000
1.000000 0.240194 0.000000
1.000000 0.240920 0.000000
1.000000 0.241647 0.000000
1.000000 0.242373 0.000000
0.000000 0.256590 0.000000
0.042719 0.257310 0.000000
0.090365 0.258029 0.000000
0.134323 0.258748 0.000000
0.176181 0.259467 0.000000
0.216582 0.260185 0.000000
0.255876 0.260903 0.000000
0.294281 0.261621 0.000000
0.331947 0.262338 0.000000
0.368980 0.263055 0.000000
0.405463 0.263772 0.000000
0.441459 0.264489 0.000000
0.477020 0.265205 0.000000
0.512187 0.265921 0.000000
0.546995 0.266637 0.000000
0.581474 0.267352 0.000000
0.615649 0.268067 0.000000
0.649541 0.268782 0.000000
0.683170 0.269496 0.000000
0.716552 0.270211 0.000000
0.749703 0.270925 0.000000
0.782635 0.271638 0.000000
0.815360 0.272352 0.000000
0.847890 0.273065 0.000000
0.880233 0.273778 0.000000
0.912399 0.274490 0.000000
0.944396 0.275202 0.000000
0.976231 0.275914 0.000000
1.000000 0.276626 0.000000
1.000000 0.277338 0.000000
1.000000 0.278049 0.000000
1.000000 0.278760 0.000000
1.000000 0.279470 0.000000
0.000000 0.293397 0.000000
0.040438 0.294102 0.000000
0.088331 0.294807 0.000000
0.132408 0.295511 0.000000
0.174343 0.296216 0.000000
0.214800 0.296920 0.000000
0.254139 0.297624 0.000000
0.292580 0.298328 0.000000
0.330276 0.299031 0.000000
0.367336 0.299734 0.000000
0.403842 0.300437 0.000000
0.439858 0.301140 0.000000
0.475438 0.301843 0.000000
0.510622 0.302545 0.000000
0.545445 0.303247 0.000000
0.579938 0.303948 0.000000
0.614126 0.304650 0.000000
0.648031 0.305351 0.000000
0.681671 0.306052 0.000000
0.715064 0.306753 0.000000
0.748225 0.307453 0.000000
0.781166 0.308154 0.000000
0.813901 0.308854 0.000000
0.846439 0.309554 0.000000
0.878790 0.310253 0.000000
0.910964 0.310953 0.000000
0.942968 0.311652 0.000000
0.974810 0.312350 0.000000
1.000000 0.313049 0.000000
1.000000 0.313747 0.000000
1.000000 0.314446 0.000000
1.000000 0.315144 0.000000
1.000000 0.315841 0.000000
0.000000 0.329521 0.000000
0.038138 0.330214 0.000000
0.086291 0.330907 0.000000
0.130489 0.331599 0.000000
0.172502 0.332292 0.000000
0.213016 0.332984 0.000000
0.252399 0.333676 0.000000
0.290877 0.334368 0.000000
0.328604 0.335059 0.000000
0.365690 0.335750 0.000000
0.402219 0.336442 0.000000
0.438257 0.337132 0.000000
0.473855 0.337823 0.000000
0.509056 0.338514 0.000000
0.543895 0.339204 0.000000
0.578402 0.339894 0.000000
0.612603 0.340584 0.000000
0.646520 0.341273 0.000000
0.680171 0.341963 0.000000
0.713575 0.342652 0.000000
0.746746 0.343341 0.000000
0.779697 0.344030 0.000000
0.812440 0.344718 0.000000
0.844987 0.345407 0.000000
0.877347 0.346095 0.000000
0.909528 0.346783 0.000000
0.941540 0.347471 0.000000
0.973389 0.348158 0.000000
1.000000 0.348846 0.000000
1.000000 0.349533 0.000000
1.000000 0.350220 0.000000
1.000000 0.350906 0.000000
1.000000 0.351593 0.000000
0.000000 0.365059 0.000000
0.035816 0.365742 0.000000
0.084243 0.366424 0.000000
0.128565 0.367106 0.000000
0.170658 0.367788 0.000000
0.211230 0.368470 0.000000
0.250658 0.369151 0.000000
0.289173 0.369833 0.000000
0.326930 0.370514 0.000000
0.364043 0.371195 0.000000
0.400596 0.371876 0.000000
0.436654 0.372556 0.000000
0.472271 0.373237 0.000000
0.507489 0.373917 0.000000
0.542343 0.374597 0.000000
0.576865 0.375277 0.000000
0.611079 0.375956 0.000000
0.645008 0.376636 0.000000
0.678671 0.377315 0.000000
0.712086 0.377994 0.000000
0.745267 0.378673 0.000000
0.778227 0.379352 0.000000
0.810980 0.380031 0.000000
0.843535 0.380709 0.000000
0.875903 0.381387 0.000000
0.908092 0.382065 0.000000
0.940111 0.382743 0.000000
0.971967 0.383421 0.000000
1.000000 0.384098 0.000000
1.000000 0.384776 0.000000
1.000000 0.385453 0.000000
1.000000 0.386130 0.000000
1.000000 0.386807 0.000000
0.000000 0.400085 0.000000
0.033472 0.400758 0.000000
0.082187 0.401431 0.000000
0.126637 0.402104 0.000000
0.168810 0.402777 0.000000
0.209441 0.403449 0.000000
0.248915 0.404122 0.000000
0.287467 0.404794 0.000000
0.325256 0.405466 0.000000
0.362395 0.406138 0.000000
0.398972 0.406809 0.000000
0.435051 0.407481 0.000000
0.470686 0.408152 0.000000
0.505921 0.408823 0.000000
0.540791 0.409494 0.000000
0.575327 0.410165 0.000000
0.609554 0.410836 0.000000
0.643496 0.411507 0.000000
0.677171 0.412177 0.000000
0.710596 0.412847 0.000000
0.743787 0.413517 0.000000
0.776757 0.414187 0.000000
0.809519 0.414857 0.000000
0.842083 0.415526 0.000000
0.874459 0.416196 0.000000
0.906656 0.416865 0.000000
0.938682 0.417534 0.000000
0.970545 0.418203 0.000000
1.000000 0.418871 0.000000
1.000000 0.419540 0.000000
1.000000 0.420208 0.000000
1.000000 0.420877 0.000000
1.000000 0.421545 0.000000
0.000000 0.434656 0.000000
0.031103 0.435321 0.000000
0.080124 0.435986 0.000000
0.124705 0.436651 0.000000
0.166960 0.437315 0.000000
0.207651 0.437979 0.000000
0.247170 0.438643 0.000000
0.285759 0.439307 0.000000
0.323580 0.439971 0.000000
0.360746 0.440635 0.000000
0.397346 0.441298 0.000000
0.433447 0.441962 0.000000
0.469101 0.442625 0.000000
0.504353 0.443288 0.000000
0.539239 0.443951 0.000000
0.573789 0.444614 0.000000
0.608029 0.445276 0.000000
0.641983 0.445939 0.000000
0.675669 0.446601 0.000000
0.709106 0.447263 0.000000
0.742307 0.447925 0.000000
0.775287 0.448587 0.000000
0.808057 0.449249 0.000000
0.840630 0.449911 0.000000
0.873014 0.450572 0.000000
0.905219 0.451233 0.000000
0.937253 0.451894 0.000000
0.969123 0.452556 0.000000
1.000000 0.453216 0.000000
1.000000 0.453877 0.000000
1.000000 0.454538 0.000000
1.000000 0.455198 0.000000
1.000000 0.455858 0.000000
0.000000 0.468819 0.000000
0.028706 0.469477 0.000000
0.078053 0.470134 0.000000
0.122768 0.470791 0.000000
0.165107 0.471448 0.000000
0.205857 0.472105 0.000000
0.245423 0.472762 0.000000
0.284050 0.473418 0.000000
0.321902 0.474075 0.000000
0.359096 0.474731 0.000000
0.395720 0.475387 0.000000
0.431841 0.476043 0.000000
0.467515 0.476699 0.000000
0.502784 0.477355 0.000000
0.537685 0.478010 0.000000
0.572250 0.478666 0.000000
0.606504 0.479321 0.000000
0.640470 0.479976 0.000000
0.674168 0.480631 0.000000
0.707615 0.481286 0.000000
0.740826 0.481941 0.000000
0.773816 0.482596 0.000000
0.806596 0.483250 0.000000
0.839177 0.483905 0.000000
0.871569 0.484559 0.000000
0.903782 0.485213 0.000000
0.935823 0.485867 0.000000
0.967701 0.486521 0.000000
0.999422 0.487175 0.000000
1.000000 0.487828 0.000000
1.000000 0.488482 0.000000
1.000000 0.489135 0.000000
1.000000 0.489788 0.000000
0.000000 0.502613 0.000000
0.026279 0.503263 0.000000
0.075973 0.503914 0.000000
0.120827 0.504564 0.000000
0.163251 0.505214 0.000000
0.204062 0.505864 0.000000
0.243675 0.506514 0.000000
0.282340 0.507164 0.000000
0.320224 0.507814 0.000000
0.357445 0.508463 0.000000
0.394093 0.509113 0.000000
0.430235 0.509762 0.000000
0.465928 0.510411 0.000000
0.501214 0.511060 0.000000
0.536131 0.511709 0.000000
0.570710 0.512358 0.000000
0.604978 0.513007 0.000000
0.638956 0.513655 0.000000
0.672666 0.514304 0.000000
0.706124 0.514952 0.000000
0.739345 0.515600 0.000000
0.772344 0.516248 0.000000
0.805133 0.516896 0.000000
0.837723 0.517544 0.000000
0.870124 0.518192 0.000000
0.902344 0.518839 0.000000
0.934393 0.519487 0.000000
0.966278 0.520134 0.000000
0.998006 0.520782 0.000000
1.000000 0.521429 0.000000
1.000000 0.522076 0.000000
1.000000 0.522722 0.000000
1.000000 0.523369 0.000000
0.000000 0.536068 0.000000
0.023818 0.536713 0.000000
0.073885 0.537357 0.000000
0.118881 0.538001 0.000000
0.161391 0.538645 0.000000
0.202264 0.539289 0.000000
0.241924 0.539933 0.000000
0.280628 0.540576 0.000000
0.318544 0.541220 0.000000
0.355793 0.541863 0.000000
0.392464 0.542506 0.000000
0.428628 0.543149 0.000000
0.464340 0.543793 0.000000
0.499643 0.544435 0.000000
0.534576 0.545078 0.000000
0.569170 0.545721 0.000000
0.603451 0.546364 0.000000
0.637442 0.547006 0.000000
0.671163 0.547648 0.000000
0.704632 0.548291 0.000000
0.737864 0.548933 0.000000
0.770873 0.549575 0.000000
0.803671 0.550217 0.000000
0.836269 0.550858 0.000000
0.868678 0.551500 0.000000
0.900907 0.552142 0.000000
0.932963 0.552783 0.000000
0.964855 0.553425 0.000000
0.996590 0.554066 0.000000
1.000000 0.554707 0.000000
1.000000 0.555348 0.000000
1.000000 0.555989 0.000000
1.000000 0.556630 0.000000
0.000000 0.569214 0.000000
0.021318 0.569852 0.000000
0.071788 0.570490 0.000000
0.116930 0.571129 0.000000
0.159529 0.571767 0.000000
0.200464 0.572405 0.000000
0.240172 0.573043 0.000000
0.278914 0.573681 0.000000
0.316862 0.574319 0.000000
0.354139 0.574957 0.000000
0.390835 0.575594 0.000000
0.427021 0.576232 0.000000
0.462751 0.576869 0.000000
0.498072 0.577506 0.000000
0.533021 0.578143 0.000000
0.567629 0.578780 0.000000
0.601924 0.579417 0.000000
0.635927 0.580054 0.000000
0.669660 0.580691 0.000000
0.703140 0.581328 0.000000
0.736382 0.581964 0.000000
0.769401 0.582601 0.000000
0.802208 0.583237 0.000000
0.834815 0.583873 0.000000
0.867232 0.584509 0.000000
0.899469 0.585145 0.000000
0.931532 0.585781 0.000000
0.963432 0.586417 0.000000
0.995173 0.587053 0.000000
1.000000 0.587688 0.000000
1.000000 0.588324 0.000000
1.000000 0.588959 0.000000
1.000000 0.589594 0.000000
0.000000 0.602071 0.000000
0.018773 0.602705 0.000000
0.069682 0.603338 0.000000
0.114975 0.603971 0.000000
0.157663 0.604604 0.000000
0.198661 0.605236 0.000000
0.238418 0.605869 0.000000
0.277199 0.606502 0.000000
0.315180 0.607134 0.000000
0.352484 0.607767 0.000000
0.389205 0.608399 0.000000
0.425412 0.609031 0.000000
0.461162 0.609663 0.000000
0.496500 0.610295 0.000000
0.531465 0.610927 0.000000
0.566088 0.611559 0.000000
0.600396 0.612191 0.000000
0.634412 0.612822 0.000000
0.668156 0.613454 0.000000
0.701647 0.614085 0.000000
0.734900 0.614716 0.000000
0.767928 0.615348 0.000000
0.800744 0.615979 0.000000
0.833360 0.616610 0.000000
0.865786 0.617241 0.000000
0.898030 0.617872 0.000000
0.930102 0.618502 0.000000
0.962008 0.619133 0.000000
0.993756 0.619763 0.000000
1.000000 0.620394 0.000000
1.000000 0.621024 0.000000
1.000000 0.621655 0.000000
1.000000 0.622285 0.000000
0.000000 0.634662 0.000000
0.016175 0.635291 0.000000
0.067566 0.635919 0.000000
0.113014 0.636547 0.000000
0.155794 0.637175 0.000000
0.196856 0.637802 0.000000
0.236661 0.638430 0.000000
0.275482 0.639058 0.000000
0.313496 0.639685 0.000000
0.350828 0.640313 0.000000
0.387573 0.640940 0.000000
0.423802 0.641568 0.000000
0.459571 0.642195 0.000000
0.494927 0.642822 0.000000
0.529908 0.643449 0.000000
0.564546 0.644076 0.000000
0.598867 0.644703 0.000000
0.632896 0.645329 0.000000
0.666652 0.645956 0.000000
0.700154 0.646582 0.000000
0.733417 0.647209 0.000000
0.766455 0.647835 0.000000
0.799281 0.648462 0.000000
0.831905 0.649088 0.000000
0.864339 0.649714 0.000000
0.896591 0.650340 0.000000
0.928670 0.650966 0.000000
0.960584 0.651592 0.000000
0.992339 0.652217 0.000000
1.000000 0.652843 0.000000
1.000000 0.653468 0.000000
1.000000 0.654094 0.000000
1.000000 0.654719 0.000000
0.000000 0.667004 0.000000
0.013513 0.667628 0.000000
0.065440 0.668251 0.000000
0.111048 0.668874 0.000000
0.153921 0.669498 0.000000
0.195048 0.670121 0.000000
0.234903 0.670744 0.000000
0.273763 0.671367 0.000000
0.311810 0.671990 0.000000
0.349171 0.672613 0.000000
0.385941 0.673236 0.000000
0.422191 0.673858 0.000000
0.457980 0.674481 0.000000
0.493354 0.675103 0.000000
0.528351 0.675726 0.000000
0.563003 0.676348 0.000000
0.597338 0.676970 0.000000
0.631380 0.677592 0.000000
0.665148 0.678215 0.000000
0.698660 0.678837 0.000000
0.731934 0.679458 0.000000
0.764981 0.680080 0.000000
0.797816 0.680702 0.000000
0.830450 0.681324 0.000000
0.862892 0.681945 0.000000
0.895152 0.682567 0.000000
0.927239 0.683188 0.000000
0.959160 0.683809 0.000000
0.990922 0.684431 0.000000
1.000000 0.685052 0.000000
1.000000 0.685673 0.000000
1.000000 0.686294 0.000000
1.000000 0.686915 0.000000
0.000000 0.699112 0.000000
0.010768 0.699731 0.000000
0.063304 0.700350 0.000000
0.109077 0.700969 0.000000
0.152045 0.701588 0.000000
0.193238 0.702207 0.000000
0.233143 0.702826 0.000000
0.272043 0.703444 0.000000
0.310124 0.704063 0.000000
0.347513 0.704682 0.000000
0.384307 0.705300 0.000000
0.420580 0.705918 0.000000
0.456388 0.706537 0.000000
0.491780 0.707155 0.000000
0.526793 0.707773 0.000000
0.561460 0.708391 0.000000
0.595809 0.709009 0.000000
0.629863 0.709627 0.000000
0.663643 0.710245 0.000000
0.697166 0.710862 0.000000
0.730450 0.711480 0.000000
0.763508 0.712097 0.000000
0.796352 0.712715 0.000000
0.828994 0.713332 0.000000
0.861445 0.713949 0.000000
0.893713 0.714567 0.000000
0.925807 0.715184 0.000000
0.957735 0.715801 0.000000
0.989504 0.716418 0.000000
1.000000 0.717035 0.000000
1.000000 0.717652 0.000000
1.000000 0.718268 0.000000
1.000000 0.718885 0.000000
0.000000 0.731000 0.000000
0.007913 0.731615 0.000000
0.061157 0.732230 0.000000
0.107101 0.732845 0.000000
0.150165 0.733460 0.000000
0.191425 0.734075 0.000000
0.231381 0.734689 0.000000
0.270322 0.735304 0.000000
0.308436 0.735918 0.000000
0.345854 0.736533 0.000000
0.382673 0.737147 0.000000
0.418967 0.737761 0.000000
0.454796 0.738376 0.000000
0.490205 0.738990 0.000000
0.525234 0.739604 0.000000
0.559916 0.740218 0.000000
0.594278 0.740832 0.000000
0.628345 0.741445 0.000000
0.662137 0.742059 0.000000
0.695672 0.742673 0.000000
0.728966 0.743286 0.000000
0.762033 0.743900 0.000000
0.794887 0.744513 0.000000
0.827538 0.745127 0.000000
0.859997 0.745740 0.000000
0.892273 0.746353 0.000000
0.924375 0.746966 0.000000
0.956310 0.747579 0.000000
0.988086 0.748192 0.000000
1.000000 0.748805 0.000000
1.000000 0.749418 0.000000
1.000000 0.750031 0.000000
1.000000 0.750643 0.000000
0.000000 0.762681 0.000000
0.004890 0.763292 0.000000
0.058999 0.763903 0.000000
0.105119 0.764514 0.000000
0.148282 0.765125 0.000000
0.189610 0.765736 0.000000
0.229617 0.766347 0.000000
0.268598 0.766958 0.000000
0.306746 0.767568 0.000000
0.344193 0.768179 0.000000
0.381037 0.768789 0.000000
0.417354 0.769400 0.000000
0.453202 0.770010 0.000000
0.488629 0.770620 0.000000
0.523674 0.771230 0.000000
0.558371 0.771841 0.000000
0.592747 0.772451 0.000000
0.626827 0.773061 0.000000
0.660631 0.773671 0.000000
0.694177 0.774280 0.000000
0.727481 0.774890 0.000000
0.760559 0.775500 0.000000
0.793421 0.776109 0.000000
0.826081 0.776719 0.000000
0.858549 0.777328 0.000000
0.890833 0.777938 0.000000
0.922942 0.778547 0.000000
0.954885 0.779156 0.000000
0.986668 0.779766 0.000000
1.000000 0.780375 0.000000
1.000000 0.780984 0.000000
1.000000 0.781593 0.000000
1.000000 0.782202 0.000000
0.000000 0.794166 0.000000
0.001518 0.794773 0.000000
0.056828 0.795381 0.000000
0.103131 0.795988 0.000000
0.146396 0.796595 0.000000
0.187792 0.797202 0.000000
0.227850 0.797809 0.000000
0.266873 0.798417 0.000000
0.305055 0.799023 0.000000
0.342531 0.799630 0.000000
0.379401 0.800237 0.000000
0.415740 0.800844 0.000000
0.451607 0.801451 0.000000
0.487052 0.802057 0.000000
0.522114 0.802664 0.000000
0.556826 0.803270 0.000000
0.591216 0.803877 0.000000
0.625308 0.804483 0.000000
0.659124 0.805089 0.000000
0.692681 0.805695 0.000000
0.725996 0.806302 0.000000
0.759083 0.806908 0.000000
0.791956 0.807514 0.000000
0.824624 0.808120 0.000000
0.857100 0.808725 0.000000
0.889392 0.809331 0.000000
0.921509 0.809937 0.000000
0.953459 0.810543 0.000000
0.985249 0.811148 0.000000
1.000000 0.811754 0.000000
1.000000 0.812359 0.000000
1.000000 0.812964 0.000000
1.000000 0.813570 0.000000
0.000000 0.825464 0.000000
0.000000 0.826068 0.000000
0.054646 0.826672 0.000000
0.101138 0.827276 0.000000
0.144505 0.827880 0.000000
0.185971 0.828483 0.000000
0.226082 0.829087 0.000000
0.265147 0.829690 0.000000
0.303363 0.830294 0.000000
0.340868 0.830897 0.000000
0.377763 0.831501 0.000000
0.414124 0.832104 0.000000
0.450012 0.832707 0.000000
0.485475 0.833310 0.000000
0.520553 0.833913 0.000000
0.555280 0.834516 0.000000
0.589684 0.835119 0.000000
0.623789 0.835722 0.000000
0.657617 0.836325 0.000000
0.691185 0.836928 0.000000
0.724511 0.837530 0.000000
0.757608 0.838133 0.000000
0.790489 0.838736 0.000000
0.823167 0.839338 0.000000
0.855651 0.839941 0.000000
0.887951 0.840543 0.000000
0.920076 0.841145 0.000000
0.952033 0.841747 0.000000
0.983830 0.842350 0.000000
1.000000 0.842952 0.000000
1.000000 0.843554 0.000000
1.000000 0.844156 0.000000
1.000000 0.844758 0.000000
0.000000 0.856586 0.000000
0.000000 0.857186 0.000000
0.052450 0.857787 0.000000
0.099139 0.858387 0.000000
0.142611 0.858988 0.000000
0.184148 0.859588 0.000000
0.224312 0.860188 0.000000
0.263418 0.860789 0.000000
0.301669 0.861389 0.000000
0.339204 0.861989 0.000000
0.376125 0.862589 0.000000
0.412508 0.863189 0.000000
0.448416 0.863789 0.000000
0.483897 0.864388 0.000000
0.518992 0.864988 0.000000
0.553734 0.865588 0.000000
0.588151 0.866188 0.000000
0.622269 0.866787 0.000000
0.656109 0.867387 0.000000
0.689689 0.867986 0.000000
0.723025 0.868586 0.000000
0.756132 0.869185 0.000000
0.789023 0.869784 0.000000
0.821709 0.870383 0.000000
0.854202 0.870983 0.000000
0.886510 0.871582 0.000000
0.918642 0.872181 0.000000
0.950607 0.872780 0.000000
0.982411 0.873379 0.000000
1.000000 0.873977 0.000000
1.000000 0.874576 0.000000
1.000000 0.875175 0.000000
1.000000 0.875774 0.000000
0.000000 0.887538 0.000000
0.000000 0.888136 0.000000
0.050240 0.888733 0.000000
0.097134 0.889330 0.000000
0.140713 0.889928 0.000000
0.182322 0.890525 0.000000
0.222539 0.891122 0.000000
0.261688 0.891719 0.000000
0.299974 0.892316 0.000000
0.337539 0.892913 0.000000
0.374485 0.893510 0.000000
0.410891 0.894107 0.000000
0.446819 0.894703 0.000000
0.482318 0.895300 0.000000
0.517429 0.895897 0.000000
0.552186 0.896493 0.000000
0.586618 0.897090 0.000000
0.620749 0.897686 0.000000
0.654601 0.898282 0.000000
0.688192 0.898879 0.000000
0.721538 0.899475 0.000000
0.754655 0.900071 0.000000
0.787556 0.900667 0.000000
0.820251 0.901263 0.000000
0.852752 0.901859 0.000000
0.885068 0.902455 0.000000
0.917208 0.903051 0.000000
0.949180 0.903647 0.000000
0.980992 0.904243 0.000000
1.000000 0.904839 0.000000
1.000000 0.905434 0.000000
1.000000 0.906030 0.000000
1.000000 0.906626 0.000000
0.000000 0.918330 0.000000
0.000000 0.918924 0.000000
0.048015 0.919519 0.000000
0.095122 0.920113 0.000000
0.138812 0.920707 0.000000
0.180493 0.921301 0.000000
0.220765 0.921895 0.000000
0.259957 0.922489 0.000000
0.298278 0.923083 0.000000
0.335872 0.923677 0.000000
0.372844 0.924271 0.000000
0.409273 0.924865 0.000000
0.445221 0.925458 0.000000
0.480739 0.926052 0.000000
0.515866 0.926646 0.000000
0.550639 0.927239 0.000000
0.585084 0.927833 0.000000
0.619228 0.928426 0.000000
0.653092 0.929020 0.000000
0.686694 0.929613 0.000000
0.720052 0.930206 0.000000
0.753179 0.930799 0.000000
0.786088 0.931393 0.000000
0.818793 0.931986 0.000000
0.851302 0.932579 0.000000
