presets/film_stocks/Kodak_Portra_160.cube
# 独寻胶片模拟 -- Kodak Portra 160
# Kodak, ISO 160, 2011, negative
TITLE "Kodak Portra 160"
LUT_3D_SIZE 33
DOMAIN_MIN 0.0 0.0 0.0
DOMAIN_MAX 1.0 1.0 1.0
0.000000 0.000000 0.000000
0.044614 0.001348 0.000000
0.084762 0.002561 0.000000
0.123382 0.003728 0.000000
0.161040 0.004865 0.000000
0.198000 0.005982 0.000000
0.234413 0.007082 0.000000
0.270377 0.008169 0.000000
0.305961 0.009244 0.000000
0.341216 0.010309 0.000000
0.376182 0.011365 0.000000
0.410889 0.012414 0.000000
0.445362 0.013455 0.000000
0.479624 0.014490 0.000000
0.513690 0.015520 0.000000
0.547577 0.016543 0.000000
0.581296 0.017562 0.000000
0.614860 0.018576 0.000000
0.648278 0.019586 0.000000
0.681558 0.020591 0.000000
0.714709 0.021593 0.000000
0.747737 0.022591 0.000000
0.780649 0.023585 0.000000
0.813450 0.024576 0.000000
0.846145 0.025564 0.000000
0.878740 0.026548 0.000000
0.911239 0.027530 0.000000
0.943645 0.028509 0.000000
0.975962 0.029486 0.000000
1.000000 0.030459 0.000000
1.000000 0.031431 0.000000
1.000000 0.032400 0.000000
1.000000 0.033366 0.000000
0.000000 0.043503 0.000000
0.043088 0.044447 0.000000
0.083313 0.045390 0.000000
0.121976 0.046331 0.000000
0.159664 0.047271 0.000000
0.196647 0.048209 0.000000
0.233078 0.049146 0.000000
0.269057 0.050081 0.000000
0.304654 0.051015 0.000000
0.339921 0.051948 0.000000
0.374896 0.052879 0.000000
0.409612 0.053809 0.000000
0.444094 0.054737 0.000000
0.478363 0.055665 0.000000
0.512436 0.056591 0.000000
0.546329 0.057516 0.000000
0.580055 0.058439 0.000000
0.613624 0.059362 0.000000
0.647047 0.060283 0.000000
0.680332 0.061204 0.000000
0.713488 0.062123 0.000000
0.746520 0.063041 0.000000
0.779436 0.063958 0.000000
0.812241 0.064874 0.000000
0.844941 0.065789 0.000000
0.877539 0.066703 0.000000
0.910041 0.067616 0.000000
0.942450 0.068527 0.000000
0.974771 0.069438 0.000000
1.000000 0.070348 0.000000
1.000000 0.071257 0.000000
1.000000 0.072166 0.000000
1.000000 0.073073 0.000000
0.000000 0.082651 0.000000
0.041557 0.083549 0.000000
0.081863 0.084446 0.000000
0.120569 0.085341 0.000000
0.158287 0.086237 0.000000
0.195293 0.087131 0.000000
0.231742 0.088025 0.000000
0.267737 0.088918 0.000000
0.303347 0.089810 0.000000
0.338625 0.090702 0.000000
0.373610 0.091593 0.000000
0.408336 0.092483 0.000000
0.442826 0.093372 0.000000
0.477102 0.094261 0.000000
0.511183 0.095149 0.000000
0.545082 0.096037 0.000000
0.578813 0.096924 0.000000
0.612388 0.097810 0.000000
0.645816 0.098695 0.000000
0.679106 0.099580 0.000000
0.712267 0.100465 0.000000
0.745303 0.101348 0.000000
0.778224 0.102231 0.000000
0.811033 0.103114 0.000000
0.843736 0.103995 0.000000
0.876338 0.104877 0.000000
0.908844 0.105757 0.000000
0.941256 0.106637 0.000000
0.973580 0.107517 0.000000
1.000000 0.108396 0.000000
1.000000 0.109274 0.000000
1.000000 0.110152 0.000000
1.000000 0.111029 0.000000
0.000000 0.120309 0.000000
0.040022 0.121180 0.000000
0.080410 0.122050 0.000000
0.119161 0.122920 0.000000
0.156910 0.123790 0.000000
0.193938 0.124659 0.000000
0.230406 0.125528 0.000000
0.266416 0.126396 0.000000
0.302039 0.127263 0.000000
0.337328 0.128131 0.000000
0.372324 0.128997 0.000000
0.407059 0.129864 0.000000
0.441557 0.130729 0.000000
0.475841 0.131595 0.000000
0.509928 0.132459 0.000000
0.543834 0.133324 0.000000
0.577572 0.134188 0.000000
0.611152 0.135051 0.000000
0.644585 0.135914 0.000000
0.677880 0.136777 0.000000
0.711045 0.137639 0.000000
0.744087 0.138501 0.000000
0.777011 0.139362 0.000000
0.809824 0.140223 0.000000
0.842531 0.141084 0.000000
0.875137 0.141944 0.000000
0.907646 0.142803 0.000000
0.940062 0.143663 0.000000
0.972389 0.144522 0.000000
1.000000 0.145380 0.000000
1.000000 0.146238 0.000000
1.000000 0.147096 0.000000
1.000000 0.147953 0.000000
0.000000 0.157029 0.000000
0.038482 0.157882 0.000000
0.078954 0.158735 0.000000
0.117751 0.159587 0.000000
0.155531 0.160438 0.000000
0.192583 0.161290 0.000000
0.229069 0.162141 0.000000
0.265094 0.162991 0.000000
0.300731 0.163841 0.000000
0.336032 0.164691 0.000000
0.371038 0.165541 0.000000
0.405781 0.166390 0.000000
0.440288 0.167239 0.000000
0.474580 0.168087 0.000000
0.508674 0.168935 0.000000
0.542586 0.169783 0.000000
0.576330 0.170631 0.000000
0.609916 0.171478 0.000000
0.643354 0.172325 0.000000
0.676654 0.173171 0.000000
0.709824 0.174017 0.000000
0.742870 0.174863 0.000000
0.775798 0.175708 0.000000
0.808615 0.176554 0.000000
0.841326 0.177398 0.000000
0.873936 0.178243 0.000000
0.906448 0.179087 0.000000
0.938867 0.179931 0.000000
0.971197 0.180774 0.000000
1.000000 0.181618 0.000000
1.000000 0.182461 0.000000
1.000000 0.183303 0.000000
1.000000 0.184145 0.000000
0.000000 0.193069 0.000000
0.036937 0.193908 0.000000
0.077497 0.194746 0.000000
0.116340 0.195585 0.000000
0.154151 0.196423 0.000000
0.191226 0.197260 0.000000
0.227732 0.198098 0.000000
0.263772 0.198935 0.000000
0.299422 0.199772 0.000000
0.334735 0.200608 0.000000
0.369751 0.201444 0.000000
0.404504 0.202280 0.000000
0.439019 0.203116 0.000000
0.473318 0.203951 0.000000
0.507419 0.204787 0.000000
0.541338 0.205621 0.000000
0.575087 0.206456 0.000000
0.608679 0.207290 0.000000
0.642123 0.208124 0.000000
0.675428 0.208958 0.000000
0.708602 0.209792 0.000000
0.741652 0.210625 0.000000
0.774585 0.211458 0.000000
0.807406 0.212291 0.000000
0.840121 0.213123 0.000000
0.872734 0.213955 0.000000
0.905250 0.214787 0.000000
0.937673 0.215619 0.000000
0.970006 0.216451 0.000000
1.000000 0.217282 0.000000
1.000000 0.218113 0.000000
1.000000 0.218943 0.000000
1.000000 0.219774 0.000000
0.000000 0.228575 0.000000
0.035387 0.229403 0.000000
0.076038 0.230230 0.000000
0.114927 0.231057 0.000000
0.152770 0.231884 0.000000
0.189869 0.232710 0.000000
0.226394 0.233537 0.000000
0.262450 0.234363 0.000000
0.298113 0.235189 0.000000
0.333437 0.236015 0.000000
0.368464 0.236840 0.000000
0.403226 0.237665 0.000000
0.437749 0.238490 0.000000
0.472056 0.239315 0.000000
0.506164 0.240140 0.000000
0.540090 0.240964 0.000000
0.573845 0.241788 0.000000
0.607442 0.242612 0.000000
0.640891 0.243436 0.000000
0.674202 0.244259 0.000000
0.707380 0.245082 0.000000
0.740435 0.245905 0.000000
0.773372 0.246728 0.000000
0.806197 0.247551 0.000000
0.838916 0.248373 0.000000
0.871533 0.249195 0.000000
0.904052 0.250017 0.000000
0.936478 0.250839 0.000000
0.968815 0.251660 0.000000
1.000000 0.252481 0.000000
1.000000 0.253302 0.000000
1.000000 0.254123 0.000000
1.000000 0.254944 0.000000
0.000000 0.263643 0.000000
0.033832 0.264461 0.000000
0.074576 0.265279 0.000000
0.113514 0.266097 0.000000
0.151389 0.266915 0.000000
0.188512 0.267732 0.000000
0.225055 0.268549 0.000000
0.261127 0.269366 0.000000
0.296804 0.270183 0.000000
0.332139 0.271000 0.000000
0.367177 0.271816 0.000000
0.401948 0.272632 0.000000
0.436480 0.273448 0.000000
0.470794 0.274264 0.000000
0.504909 0.275080 0.000000
0.538841 0.275895 0.000000
0.572602 0.276710 0.000000
0.606205 0.277526 0.000000
0.639660 0.278340 0.000000
0.672975 0.279155 0.000000
0.706158 0.279970 0.000000
0.739218 0.280784 0.000000
0.772159 0.281598 0.000000
0.804988 0.282412 0.000000
0.837710 0.283226 0.000000
0.870331 0.284039 0.000000
0.902854 0.284852 0.000000
0.935283 0.285666 0.000000
0.967623 0.286479 0.000000
0.999876 0.287291 0.000000
1.000000 0.288104 0.000000
1.000000 0.288916 0.000000
1.000000 0.289729 0.000000
0.000000 0.298341 0.000000
0.032270 0.299151 0.000000
0.073112 0.299961 0.000000
0.112098 0.300771 0.000000
0.150006 0.301580 0.000000
0.187153 0.302390 0.000000
0.223715 0.303199 0.000000
0.259803 0.304008 0.000000
0.295494 0.304817 0.000000
0.330841 0.305626 0.000000
0.365889 0.306435 0.000000
0.400669 0.307243 0.000000
0.435209 0.308051 0.000000
0.469531 0.308859 0.000000
0.503654 0.309667 0.000000
0.537592 0.310475 0.000000
0.571360 0.311283 0.000000
0.604968 0.312090 0.000000
0.638428 0.312897 0.000000
0.671748 0.313704 0.000000
0.704936 0.314511 0.000000
0.738000 0.315318 0.000000
0.770945 0.316125 0.000000
0.803779 0.316931 0.000000
0.836505 0.317737 0.000000
0.869129 0.318543 0.000000
0.901656 0.319349 0.000000
0.934088 0.320155 0.000000
0.966431 0.320961 0.000000
0.998688 0.321766 0.000000
1.000000 0.322572 0.000000
1.000000 0.323377 0.000000
1.000000 0.324182 0.000000
0.000000 0.332718 0.000000
0.030703 0.333521 0.000000
0.071646 0.334324 0.000000
0.110682 0.335127 0.000000
0.148622 0.335929 0.000000
0.185794 0.336732 0.000000
0.222375 0.337534 0.000000
0.258479 0.338337 0.000000
0.294183 0.339139 0.000000
0.329543 0.339941 0.000000
0.364600 0.340742 0.000000
0.399390 0.341544 0.000000
0.433939 0.342345 0.000000
0.468269 0.343147 0.000000
0.502398 0.343948 0.000000
0.536343 0.344749 0.000000
0.570117 0.345550 0.000000
0.603731 0.346350 0.000000
0.637196 0.347151 0.000000
0.670521 0.347951 0.000000
0.703714 0.348752 0.000000
0.736782 0.349552 0.000000
0.769732 0.350352 0.000000
0.802569 0.351152 0.000000
0.835299 0.351951 0.000000
0.867927 0.352751 0.000000
0.900457 0.353550 0.000000
0.932893 0.354349 0.000000
0.965239 0.355149 0.000000
0.997499 0.355948 0.000000
1.000000 0.356746 0.000000
1.000000 0.357545 0.000000
1.000000 0.358344 0.000000
0.000000 0.366812 0.000000
0.029129 0.367609 0.000000
0.070177 0.368406 0.000000
0.109264 0.369203 0.000000
0.147237 0.369999 0.000000
0.184433 0.370796 0.000000
0.221034 0.371592 0.000000
0.257155 0.372388 0.000000
0.292872 0.373184 0.000000
0.328243 0.373980 0.000000
0.363312 0.374775 0.000000
0.398111 0.375571 0.000000
0.432668 0.376366 0.000000
0.467006 0.377162 0.000000
0.501142 0.377957 0.000000
0.535094 0.378752 0.000000
0.568873 0.379547 0.000000
0.602493 0.380341 0.000000
0.635964 0.381136 0.000000
0.669294 0.381930 0.000000
0.702491 0.382725 0.000000
0.735564 0.383519 0.000000
0.768518 0.384313 0.000000
0.801359 0.385107 0.000000
0.834093 0.385901 0.000000
0.866725 0.386694 0.000000
0.899258 0.387488 0.000000
0.931698 0.388281 0.000000
0.964048 0.389075 0.000000
0.996310 0.389868 0.000000
1.000000 0.390661 0.000000
1.000000 0.391454 0.000000
1.000000 0.392246 0.000000
0.000000 0.400655 0.000000
0.027549 0.401446 0.000000
0.068706 0.402238 0.000000
0.107844 0.403029 0.000000
0.145851 0.403820 0.000000
0.183072 0.404610 0.000000
0.219693 0.405401 0.000000
0.255830 0.406192 0.000000
0.291561 0.406982 0.000000
0.326944 0.407772 0.000000
0.362023 0.408563 0.000000
0.396831 0.409353 0.000000
0.431397 0.410143 0.000000
0.465742 0.410932 0.000000
0.499886 0.411722 0.000000
0.533844 0.412512 0.000000
0.567630 0.413301 0.000000
0.601255 0.414090 0.000000
0.634731 0.414880 0.000000
0.668066 0.415669 0.000000
0.701269 0.416458 0.000000
0.734346 0.417247 0.000000
0.767304 0.418035 0.000000
0.800150 0.418824 0.000000
0.832888 0.419612 0.000000
0.865523 0.420401 0.000000
0.898060 0.421189 0.000000
0.930503 0.421977 0.000000
0.962856 0.422765 0.000000
0.995121 0.423553 0.000000
1.000000 0.424341 0.000000
1.000000 0.425129 0.000000
1.000000 0.425916 0.000000
0.000000 0.434270 0.000000
0.025961 0.435056 0.000000
0.067232 0.435843 0.000000
0.106423 0.436629 0.000000
0.144464 0.437414 0.000000
0.181710 0.438200 0.000000
0.218351 0.438986 0.000000
0.254504 0.439771 0.000000
0.290249 0.440557 0.000000
0.325644 0.441342 0.000000
0.360734 0.442127 0.000000
0.395552 0.442912 0.000000
0.430126 0.443697 0.000000
0.464479 0.444482 0.000000
0.498630 0.445267 0.000000
0.532594 0.446052 0.000000
0.566386 0.446836 0.000000
0.600017 0.447621 0.000000
0.633499 0.448405 0.000000
0.666839 0.449189 0.000000
0.700046 0.449973 0.000000
0.733128 0.450757 0.000000
0.766090 0.451541 0.000000
0.798940 0.452325 0.000000
0.831681 0.453109 0.000000
0.864320 0.453892 0.000000
0.896861 0.454676 0.000000
0.929307 0.455459 0.000000
0.961663 0.456242 0.000000
0.993932 0.457025 0.000000
1.000000 0.457808 0.000000
1.000000 0.458591 0.000000
1.000000 0.459374 0.000000
0.000000 0.467678 0.000000
0.024365 0.468460 0.000000
0.065756 0.469241 0.000000
0.105001 0.470023 0.000000
0.143076 0.470804 0.000000
0.180348 0.471585 0.000000
0.217008 0.472366 0.000000
0.253178 0.473147 0.000000
0.288936 0.473928 0.000000
0.324344 0.474709 0.000000
0.359444 0.475489 0.000000
0.394271 0.476270 0.000000
0.428854 0.477050 0.000000
0.463215 0.477831 0.000000
0.497373 0.478611 0.000000
0.531344 0.479391 0.000000
0.565142 0.480171 0.000000
0.598779 0.480951 0.000000
0.632266 0.481731 0.000000
0.665611 0.482511 0.000000
0.698823 0.483290 0.000000
0.731909 0.484070 0.000000
0.764876 0.484849 0.000000
0.797730 0.485629 0.000000
0.830475 0.486408 0.000000
0.863118 0.487187 0.000000
0.895662 0.487966 0.000000
0.928112 0.488745 0.000000
0.960471 0.489524 0.000000
0.992743 0.490302 0.000000
1.000000 0.491081 0.000000
1.000000 0.491860 0.000000
1.000000 0.492638 0.000000
0.000000 0.500896 0.000000
0.022761 0.501674 0.000000
0.064277 0.502451 0.000000
0.103577 0.503228 0.000000
0.141687 0.504005 0.000000
0.178984 0.504782 0.000000
0.215665 0.505559 0.000000
0.251851 0.506335 0.000000
0.287624 0.507112 0.000000
0.323043 0.507889 0.000000
0.358154 0.508665 0.000000
0.392991 0.509441 0.000000
0.427582 0.510218 0.000000
0.461951 0.510994 0.000000
0.496116 0.511770 0.000000
0.530094 0.512546 0.000000
0.563898 0.513322 0.000000
0.597541 0.514098 0.000000
0.631033 0.514873 0.000000
0.664383 0.515649 0.000000
0.697600 0.516424 0.000000
0.730690 0.517200 0.000000
0.763662 0.517975 0.000000
0.796519 0.518750 0.000000
0.829269 0.519525 0.000000
0.861915 0.520300 0.000000
0.894463 0.521075 0.000000
0.926916 0.521850 0.000000
0.959279 0.522625 0.000000
0.991554 0.523400 0.000000
1.000000 0.524174 0.000000
1.000000 0.524949 0.000000
1.000000 0.525723 0.000000
0.000000 0.533939 0.000000
0.021148 0.534712 0.000000
0.062795 0.535486 0.000000
0.102151 0.536259 0.000000
0.140297 0.537032 0.000000
0.177620 0.537805 0.000000
0.214321 0.538578 0.000000
0.250523 0.539350 0.000000
0.286310 0.540123 0.000000
0.321742 0.540896 0.000000
0.356863 0.541668 0.000000
0.391710 0.542441 0.000000
0.426310 0.543213 0.000000
0.460686 0.543985 0.000000
0.494859 0.544758 0.000000
0.528843 0.545530 0.000000
0.562654 0.546302 0.000000
0.596302 0.547074 0.000000
0.629800 0.547846 0.000000
0.663155 0.548617 0.000000
0.696376 0.549389 0.000000
0.729472 0.550161 0.000000
0.762447 0.550932 0.000000
0.795309 0.551703 0.000000
0.828062 0.552475 0.000000
0.860712 0.553246 0.000000
0.893264 0.554017 0.000000
0.925720 0.554788 0.000000
0.958086 0.555559 0.000000
0.990365 0.556330 0.000000
1.000000 0.557101 0.000000
1.000000 0.557872 0.000000
1.000000 0.558642 0.000000
0.000000 0.566819 0.000000
0.019525 0.567588 0.000000
0.061311 0.568358 0.000000
0.100724 0.569127 0.000000
0.138906 0.569897 0.000000
0.176255 0.570666 0.000000
0.212976 0.571435 0.000000
0.249195 0.572204 0.000000
0.284996 0.572974 0.000000
0.320440 0.573743 0.000000
0.355572 0.574511 0.000000
0.390429 0.575280 0.000000
0.425037 0.576049 0.000000
0.459422 0.576818 0.000000
0.493601 0.577586 0.000000
0.527592 0.578355 0.000000
0.561409 0.579123 0.000000
0.595064 0.579892 0.000000
0.628566 0.580660 0.000000
0.661927 0.581428 0.000000
0.695153 0.582196 0.000000
0.728253 0.582964 0.000000
0.761233 0.583732 0.000000
0.794098 0.584500 0.000000
0.826856 0.585268 0.000000
0.859509 0.586035 0.000000
0.892064 0.586803 0.000000
0.924524 0.587570 0.000000
0.956893 0.588338 0.000000
0.989175 0.589105 0.000000
1.000000 0.589873 0.000000
1.000000 0.590640 0.000000
1.000000 0.591407 0.000000
0.000000 0.599546 0.000000
0.017891 0.600313 0.000000
0.059823 0.601079 0.000000
0.099295 0.601845 0.000000
0.137513 0.602611 0.000000
0.174889 0.603377 0.000000
0.211631 0.604142 0.000000
0.247867 0.604908 0.000000
0.283682 0.605674 0.000000
0.319138 0.606439 0.000000
0.354281 0.607205 0.000000
0.389147 0.607970 0.000000
0.423765 0.608736 0.000000
0.458157 0.609501 0.000000
0.492344 0.610266 0.000000
0.526341 0.611031 0.000000
0.560164 0.611796 0.000000
0.593825 0.612561 0.000000
0.627333 0.613326 0.000000
0.660698 0.614091 0.000000
0.693929 0.614856 0.000000
0.727034 0.615621 0.000000
0.760018 0.616385 0.000000
0.792888 0.617150 0.000000
0.825649 0.617914 0.000000
0.858306 0.618678 0.000000
0.890865 0.619443 0.000000
0.923328 0.620207 0.000000
0.955701 0.620971 0.000000
0.987986 0.621735 0.000000
1.000000 0.622499 0.000000
1.000000 0.623263 0.000000
1.000000 0.624027 0.000000
0.000000 0.632132 0.000000
0.016245 0.632895 0.000000
0.058333 0.633658 0.000000
0.097864 0.634420 0.000000
0.136120 0.635183 0.000000
0.173522 0.635946 0.000000
0.210285 0.636708 0.000000
0.246538 0.637471 0.000000
0.282367 0.638233 0.000000
0.317836 0.638996 0.000000
0.352990 0.639758 0.000000
0.387865 0.640520 0.000000
0.422491 0.641283 0.000000
0.456892 0.642045 0.000000
0.491086 0.642807 0.000000
0.525090 0.643569 0.000000
0.558919 0.644331 0.000000
0.592585 0.645092 0.000000
0.626099 0.645854 0.000000
0.659469 0.646616 0.000000
0.692705 0.647377 0.000000
0.725814 0.648139 0.000000
0.758803 0.648900 0.000000
0.791677 0.649662 0.000000
0.824442 0.650423 0.000000
0.857103 0.651184 0.000000
0.889665 0.651945 0.000000
0.922132 0.652707 0.000000
0.954508 0.653468 0.000000
0.986796 0.654229 0.000000
1.000000 0.654989 0.000000
1.000000 0.655750 0.000000
1.000000 0.656511 0.000000
0.000000 0.664583 0.000000
0.014585 0.665343 0.000000
0.056839 0.666103 0.000000
0.096432 0.666863 0.000000
0.134725 0.667622 0.000000
0.172154 0.668382 0.000000
0.208938 0.669142 0.000000
0.245208 0.669901 0.000000
0.281052 0.670661 0.000000
0.316533 0.671420 0.000000
0.351698 0.672179 0.000000
0.386583 0.672939 0.000000
0.421218 0.673698 0.000000
0.455626 0.674457 0.000000
0.489828 0.675216 0.000000
0.523839 0.675975 0.000000
0.557674 0.676734 0.000000
0.591346 0.677493 0.000000
0.624865 0.678251 0.000000
0.658241 0.679010 0.000000
0.691481 0.679769 0.000000
0.724595 0.680527 0.000000
0.757588 0.681286 0.000000
0.790466 0.682044 0.000000
0.823235 0.682802 0.000000
0.855900 0.683561 0.000000
0.888465 0.684319 0.000000
0.920936 0.685077 0.000000
0.953315 0.685835 0.000000
0.985606 0.686593 0.000000
1.000000 0.687351 0.000000
1.000000 0.688109 0.000000
1.000000 0.688867 0.000000
0.000000 0.696908 0.000000
0.012910 0.697665 0.000000
0.055343 0.698422 0.000000
0.094998 0.699179 0.000000
0.133329 0.699936 0.000000
0.170786 0.700693 0.000000
0.207591 0.701450 0.000000
0.243878 0.702206 0.000000
0.279736 0.702963 0.000000
0.315230 0.703719 0.000000
0.350405 0.704476 0.000000
0.385300 0.705232 0.000000
0.419944 0.705989 0.000000
0.454360 0.706745 0.000000
0.488569 0.707501 0.000000
0.522587 0.708257 0.000000
0.556429 0.709013 0.000000
0.590106 0.709769 0.000000
0.623631 0.710525 0.000000
0.657012 0.711281 0.000000
0.690257 0.712037 0.000000
0.723375 0.712793 0.000000
0.756372 0.713548 0.000000
0.789255 0.714304 0.000000
0.822028 0.715059 0.000000
0.854696 0.715815 0.000000
0.887266 0.716570 0.000000
0.919739 0.717326 0.000000
0.952122 0.718081 0.000000
0.984416 0.718836 0.000000
1.000000 0.719591 0.000000
1.000000 0.720347 0.000000
1.000000 0.721102 0.000000
0.000000 0.729114 0.000000
0.011218 0.729868 0.000000
0.053843 0.730622 0.000000
0.093562 0.731377 0.000000
0.131932 0.732131 0.000000
0.169416 0.732885 0.000000
0.206242 0.733639 0.000000
0.242547 0.734393 0.000000
0.278420 0.735147 0.000000
0.313926 0.735900 0.000000
0.349113 0.736654 0.000000
0.384018 0.737408 0.000000
0.418670 0.738162 0.000000
0.453094 0.738915 0.000000
0.487310 0.739669 0.000000
0.521335 0.740422 0.000000
0.555183 0.741175 0.000000
0.588866 0.741929 0.000000
0.622396 0.742682 0.000000
0.655782 0.743435 0.000000
0.689033 0.744188 0.000000
0.722155 0.744942 0.000000
0.755157 0.745695 0.000000
0.788043 0.746448 0.000000
0.820820 0.747200 0.000000
0.853493 0.747953 0.000000
0.886066 0.748706 0.000000
0.918543 0.749459 0.000000
0.950928 0.750211 0.000000
0.983226 0.750964 0.000000
1.000000 0.751717 0.000000
1.000000 0.752469 0.000000
1.000000 0.753221 0.000000
0.000000 0.761206 0.000000
0.009505 0.761958 0.000000
0.052340 0.762709 0.000000
0.092125 0.763461 0.000000
0.130534 0.764212 0.000000
0.168046 0.764964 0.000000
0.204894 0.765715 0.000000
0.241215 0.766467 0.000000
0.277103 0.767218 0.000000
0.312622 0.767969 0.000000
0.347820 0.768721 0.000000
0.382734 0.769472 0.000000
0.417396 0.770223 0.000000
0.451828 0.770974 0.000000
0.486051 0.771725 0.000000
0.520083 0.772476 0.000000
0.553937 0.773226 0.000000
0.587626 0.773977 0.000000
0.621162 0.774728 0.000000
0.654553 0.775479 0.000000
0.687808 0.776229 0.000000
0.720936 0.776980 0.000000
0.753941 0.777730 0.000000
0.786832 0.778481 0.000000
0.819613 0.779231 0.000000
0.852289 0.779981 0.000000
0.884865 0.780732 0.000000
0.917346 0.781482 0.000000
0.949735 0.782232 0.000000
0.982036 0.782982 0.000000
1.000000 0.783732 0.000000
1.000000 0.784482 0.000000
1.000000 0.785232 0.000000
0.000000 0.793190 0.000000
0.007766 0.793939 0.000000
0.050833 0.794689 0.000000
0.090686 0.795438 0.000000
0.129135 0.796187 0.000000
0.166675 0.796936 0.000000
0.203544 0.797685 0.000000
0.239883 0.798434 0.000000
0.275786 0.799183 0.000000
0.311317 0.799931 0.000000
0.346526 0.800680 0.000000
0.381451 0.801429 0.000000
0.416121 0.802177 0.000000
0.450561 0.802926 0.000000
0.484792 0.803675 0.000000
0.518830 0.804423 0.000000
0.552691 0.805171 0.000000
0.586386 0.805920 0.000000
0.619927 0.806668 0.000000
0.653323 0.807416 0.000000
0.686584 0.808165 0.000000
0.719715 0.808913 0.000000
0.752726 0.809661 0.000000
0.785620 0.810409 0.000000
0.818405 0.811157 0.000000
0.851085 0.811905 0.000000
0.883665 0.812653 0.000000
0.916149 0.813400 0.000000
0.948542 0.814148 0.000000
0.980846 0.814896 0.000000
1.000000 0.815643 0.000000
1.000000 0.816391 0.000000
1.000000 0.817139 0.000000
0.000000 0.825071 0.000000
0.005996 0.825818 0.000000
0.049323 0.826565 0.000000
0.089245 0.827312 0.000000
0.127734 0.828059 0.000000
0.165303 0.828805 0.000000
0.202194 0.829552 0.000000
0.238551 0.830299 0.000000
0.274468 0.831045 0.000000
0.310012 0.831792 0.000000
0.345232 0.832538 0.000000
0.380167 0.833284 0.000000
0.414846 0.834031 0.000000
0.449294 0.834777 0.000000
0.483533 0.835523 0.000000
0.517578 0.836269 0.000000
0.551445 0.837015 0.000000
0.585146 0.837761 0.000000
0.618692 0.838507 0.000000
0.652094 0.839253 0.000000
0.685359 0.839999 0.000000
0.718495 0.840745 0.000000
0.751510 0.841491 0.000000
0.784409 0.842237 0.000000
0.817197 0.842982 0.000000
0.849881 0.843728 0.000000
0.882465 0.844473 0.000000
0.914952 0.845219 0.000000
0.947348 0.845964 0.000000
0.979655 0.846710 0.000000
1.000000 0.847455 0.000000
1.000000 0.848200 0.000000
1.000000 0.848946 0.000000
0.000000 0.856855 0.000000
0.004182 0.857599 0.000000
0.047809 0.858344 0.000000
0.087802 0.859088 0.000000
0.126333 0.859833 0.000000
0.163930 0.860577 0.000000
0.200843 0.861322 0.000000
0.237218 0.862066 0.000000
0.273150 0.862810 0.000000
0.308707 0.863554 0.000000
0.343938 0.864299 0.000000
0.378882 0.865043 0.000000
0.413571 0.865787 0.000000
0.448027 0.866531 0.000000
0.482273 0.867275 0.000000
0.516325 0.868019 0.000000
0.550198 0.868763 0.000000
0.583905 0.869507 0.000000
0.617457 0.870250 0.000000
0.650864 0.870994 0.000000
0.684134 0.871738 0.000000
0.717275 0.872481 0.000000
0.750294 0.873225 0.000000
0.783197 0.873968 0.000000
0.815989 0.874712 0.000000
0.848677 0.875455 0.000000
0.881264 0.876199 0.000000
0.913755 0.876942 0.000000
0.946154 0.877685 0.000000
0.978465 0.878428 0.000000
1.000000 0.879172 0.000000
1.000000 0.879915 0.000000
1.000000 0.880658 0.000000
0.000000 0.888544 0.000000
0.002300 0.889286 0.000000
0.046291 0.890028 0.000000
0.086357 0.890771 0.000000
0.124929 0.891513 0.000000
0.162556 0.892255 0.000000
0.199491 0.892998 0.000000
0.235884 0.893740 0.000000
0.271831 0.894482 0.000000
0.307401 0.895224 0.000000
0.342643 0.895966 0.000000
0.377598 0.896708 0.000000
0.412295 0.897450 0.000000
0.446760 0.898192 0.000000
0.481013 0.898934 0.000000
0.515072 0.899676 0.000000
0.548951 0.900417 0.000000
0.582664 0.901159 0.000000
0.616222 0.901901 0.000000
0.649634 0.902642 0.000000
0.682908 0.903384 0.000000
0.716054 0.904125 0.000000
0.749077 0.904867 0.000000
0.781985 0.905608 0.000000
0.814781 0.906350 0.000000
