presets/film_stocks/Kodak_Ektachrome_100D.cube
# 独寻胶片模拟 -- Kodak Ektachrome 100D
# Kodak, ISO 100, 2018, positive
TITLE "Kodak Ektachrome 100D"
LUT_3D_SIZE 9
DOMAIN_MIN 0.0 0.0 0.0
DOMAIN_MAX 1.0 1.0 1.0
0.000000 0.000000 0.000000
0.166220 0.005703 0.000000
0.312138 0.010709 0.000000
0.451263 0.015482 0.000000
0.586153 0.020109 0.000000
0.717977 0.024632 0.000000
0.847410 0.029072 0.000000
0.974887 0.033446 0.000000
1.000000 0.037763 0.000000
0.000000 0.163372 0.000000
0.160969 0.167074 0.000000
0.307212 0.170768 0.000000
0.446517 0.174454 0.000000
0.581529 0.178133 0.000000
0.713447 0.181804 0.000000
0.842955 0.185467 0.000000
0.970494 0.189123 0.000000
1.000000 0.192772 0.000000
0.000000 0.306789 0.000000
0.155701 0.310267 0.000000
0.302278 0.313742 0.000000
0.441765 0.317212 0.000000
0.576902 0.320679 0.000000
0.708914 0.324142 0.000000
0.838497 0.327601 0.000000
0.966099 0.331057 0.000000
1.000000 0.334509 0.000000
0.000000 0.443530 0.000000
0.150416 0.446883 0.000000
0.297336 0.450234 0.000000
0.437008 0.453581 0.000000
0.572271 0.456927 0.000000
0.704378 0.460270 0.000000
0.834037 0.463611 0.000000
0.961701 0.466949 0.000000
1.000000 0.470285 0.000000
0.000000 0.576108 0.000000
0.145111 0.579375 0.000000
0.292386 0.582639 0.000000
0.432247 0.585902 0.000000
0.567637 0.589164 0.000000
0.699839 0.592423 0.000000
0.829574 0.595681 0.000000
0.957302 0.598937 0.000000
1.000000 0.602191 0.000000
0.000000 0.705673 0.000000
0.139787 0.708875 0.000000
0.287427 0.712075 0.000000
0.427479 0.715273 0.000000
0.562998 0.718470 0.000000
0.695297 0.721666 0.000000
0.825109 0.724860 0.000000
0.952901 0.728052 0.000000
1.000000 0.731244 0.000000
0.000000 0.832888 0.000000
0.134443 0.836037 0.000000
0.282460 0.839185 0.000000
0.422707 0.842331 0.000000
0.558356 0.845476 0.000000
0.690752 0.848620 0.000000
0.820642 0.851763 0.000000
0.948497 0.854905 0.000000
1.000000 0.858046 0.000000
0.000000 0.958181 0.000000
0.129078 0.961286 0.000000
0.277484 0.964390 0.000000
0.417929 0.967493 0.000000
0.553710 0.970595 0.000000
0.686205 0.973696 0.000000
0.816172 0.976796 0.000000
0.944092 0.979895 0.000000
1.000000 0.982993 0.000000
0.000000 1.000000 0.000000
0.123690 1.000000 0.000000
0.272499 1.000000 0.000000
0.413146 1.000000 0.000000
0.549060 1.000000 0.000000
0.681654 1.000000 0.000000
0.811699 1.000000 0.000000
0.939684 1.000000 0.000000
1.000000 1.000000 0.000000
0.000000 0.000000 0.157745
0.156295 0.000000 0.153129
0.302834 0.000000 0.148500
0.442300 0.000000 0.143856
0.577423 0.000000 0.139198
0.709424 0.004006 0.134523
0.838998 0.009130 0.129832
0.966593 0.013964 0.125125
1.000000 0.018633 0.120399
0.000000 0.147271 0.155633
0.151011 0.151011 0.151011
0.297892 0.154742 0.146375
0.437544 0.158465 0.141725
0.572792 0.162178 0.137059
0.704888 0.165883 0.132377
0.834538 0.169580 0.127679
0.962196 0.173269 0.122963
1.000000 0.176950 0.118229
0.000000 0.291711 0.153518
0.145709 0.295207 0.148890
0.292943 0.298698 0.144248
0.432782 0.302186 0.139590
0.568158 0.305669 0.134917
0.700350 0.309148 0.130228
0.830076 0.312624 0.125521
0.957797 0.316096 0.120797
1.000000 0.319564 0.116055
0.000000 0.429010 0.151401
0.140387 0.432374 0.146766
0.287985 0.435735 0.142117
0.428016 0.439094 0.137452
0.563520 0.442450 0.132772
0.695808 0.445804 0.128075
0.825611 0.449155 0.123360
0.953396 0.452504 0.118628
1.000000 0.455851 0.113876
0.000000 0.561968 0.149280
0.135045 0.565243 0.144639
0.283019 0.568516 0.139982
0.423244 0.571787 0.135311
0.558879 0.575056 0.130623
0.691264 0.578323 0.125918
0.821144 0.581589 0.121195
0.948993 0.584852 0.116454
1.000000 0.588114 0.111694
0.000000 0.691821 0.147156
0.129682 0.695029 0.142508
0.278044 0.698235 0.137845
0.418467 0.701440 0.133166
0.554233 0.704643 0.128470
0.686716 0.707845 0.123757
0.816675 0.711045 0.119027
0.944587 0.714244 0.114277
1.000000 0.717441 0.109507
0.000000 0.819266 0.145030
0.124297 0.822420 0.140375
0.273060 0.825573 0.135704
0.413684 0.828724 0.131018
0.549584 0.831875 0.126314
0.682166 0.835024 0.121593
0.812203 0.838172 0.116854
0.940180 0.841319 0.112095
1.000000 0.844464 0.107316
0.000000 0.944749 0.142900
0.118888 0.947859 0.138238
0.268067 0.950967 0.133560
0.408896 0.954075 0.128866
0.544930 0.957181 0.124155
0.677612 0.960287 0.119425
0.807728 0.963391 0.114677
0.935771 0.966494 0.109909
1.000000 0.969597 0.105121
0.000000 1.000000 0.140767
0.113454 1.000000 0.136098
0.263065 1.000000 0.131413
0.404102 1.000000 0.126711
0.540273 1.000000 0.121991
0.673056 1.000000 0.117253
0.803251 1.000000 0.112496
0.931359 1.000000 0.107719
1.000000 1.000000 0.102921
0.000000 0.000000 0.296223
0.146306 0.000000 0.291892
0.293500 0.000000 0.287556
0.433318 0.000000 0.283213
0.568680 0.000000 0.278863
0.700861 0.000000 0.274506
0.830578 0.000000 0.270142
0.958292 0.000000 0.265772
1.000000 0.000000 0.261394
0.000000 0.130991 0.294240
0.140987 0.134775 0.289907
0.288543 0.138549 0.285568
0.428552 0.142312 0.281221
0.564042 0.146065 0.276868
0.696319 0.149808 0.272508
0.826114 0.153543 0.268142
0.953891 0.157268 0.263768
1.000000 0.160984 0.259386
0.000000 0.276554 0.292257
0.135647 0.280068 0.287921
0.283578 0.283578 0.283578
0.423781 0.287084 0.279229
0.559401 0.290585 0.274873
0.691775 0.294082 0.270510
0.821647 0.297575 0.266140
0.949488 0.301064 0.261762
1.000000 0.304548 0.257378
0.000000 0.414440 0.290272
0.130287 0.417815 0.285933
0.278604 0.421188 0.281587
0.419004 0.424559 0.277235
0.554756 0.427926 0.272876
0.687228 0.431291 0.268509
0.817177 0.434654 0.264136
0.945083 0.438013 0.259755
1.000000 0.441370 0.255367
0.000000 0.547793 0.288286
0.124904 0.551076 0.283944
0.273621 0.554357 0.279595
0.414222 0.557636 0.275239
0.550107 0.560914 0.270877
0.682678 0.564189 0.266507
0.812706 0.567463 0.262131
0.940676 0.570734 0.257747
1.000000 0.574004 0.253355
0.000000 0.677941 0.286298
0.119498 0.681155 0.281953
0.268629 0.684368 0.277601
0.409435 0.687579 0.273243
0.545454 0.690788 0.268877
0.678125 0.693997 0.264504
0.808231 0.697203 0.260124
0.936267 0.700408 0.255737
1.000000 0.703612 0.251342
0.000000 0.805621 0.284309
0.114067 0.808780 0.279961
0.263628 0.811938 0.275606
0.404641 0.815095 0.271244
0.540797 0.818250 0.266875
0.673568 0.821405 0.262499
0.803755 0.824558 0.258116
0.931856 0.827710 0.253725
1.000000 0.830861 0.249327
0.000000 0.931299 0.282319
0.108610 0.934413 0.277968
0.258617 0.937526 0.273609
0.399842 0.940638 0.269244
0.536136 0.943749 0.264872
0.669009 0.946858 0.260493
0.799276 0.949967 0.256106
0.927442 0.953075 0.251712
1.000000 0.956182 0.247310
0.000000 1.000000 0.280327
0.103126 1.000000 0.275973
0.253596 1.000000 0.271611
0.395038 1.000000 0.267243
0.531471 1.000000 0.262868
0.664447 1.000000 0.258485
0.794794 1.000000 0.254095
0.923027 1.000000 0.249697
1.000000 1.000000 0.245291
0.000000 0.000000 0.428254
0.136249 0.000000 0.424081
0.284137 0.000000 0.419905
0.424318 0.000000 0.415724
0.559923 0.000000 0.411539
0.692286 0.000000 0.407350
0.822149 0.000000 0.403156
0.949983 0.000000 0.398958
1.000000 0.000000 0.394756
0.000000 0.114507 0.426344
0.130891 0.118341 0.422169
0.279164 0.122163 0.417991
0.419542 0.125973 0.413808
0.555278 0.129771 0.409621
0.687740 0.133559 0.405430
0.817680 0.137335 0.401234
0.945579 0.141102 0.397034
1.000000 0.144858 0.392830
0.000000 0.261314 0.424432
0.125510 0.264848 0.420256
0.274182 0.268377 0.416076
0.414760 0.271902 0.411891
0.550630 0.275422 0.407702
0.683190 0.278938 0.403509
0.813209 0.282449 0.399311
0.941172 0.285956 0.395109
1.000000 0.289458 0.390903
0.000000 0.399819 0.422521
0.120107 0.403206 0.418342
0.269191 0.406591 0.414160
0.409973 0.409973 0.409973
0.545977 0.413353 0.405783
0.678637 0.416729 0.401587
0.808735 0.420103 0.397388
0.936763 0.423474 0.393184
1.000000 0.426843 0.388975
0.000000 0.533580 0.420608
0.114679 0.536872 0.416428
0.264191 0.540162 0.412243
0.405181 0.543450 0.408055
0.541321 0.546736 0.403862
0.674081 0.550019 0.399665
0.804258 0.553301 0.395463
0.932352 0.556581 0.391257
1.000000 0.559859 0.387046
0.000000 0.664032 0.418694
0.109225 0.667253 0.414512
0.259181 0.670472 0.410326
0.400383 0.673690 0.406135
0.536660 0.676906 0.401940
0.669522 0.680121 0.397741
0.799779 0.683334 0.393538
0.927939 0.686545 0.389329
1.000000 0.689756 0.385117
0.000000 0.791953 0.416779
0.103744 0.795117 0.412595
0.254162 0.798281 0.408407
0.395578 0.801443 0.404215
0.531996 0.804604 0.400018
0.664960 0.807763 0.395817
0.795298 0.810922 0.391611
0.923524 0.814079 0.387401
1.000000 0.817235 0.383186
0.000000 0.917829 0.414864
0.098234 0.920948 0.410678
0.249132 0.924065 0.406488
0.390769 0.927181 0.402293
0.527327 0.930297 0.398095
0.660395 0.933411 0.393891
0.790814 0.936524 0.389684
0.919107 0.939636 0.385471
1.000000 0.942747 0.381254
0.000000 1.000000 0.412948
0.092693 1.000000 0.408760
0.244093 1.000000 0.404568
0.385953 1.000000 0.400371
0.522654 1.000000 0.396170
0.655826 1.000000 0.391965
0.786328 1.000000 0.387755
0.914687 1.000000 0.383541
1.000000 1.000000 0.379322
0.000000 0.000000 0.556265
0.126117 0.000000 0.552201
0.274743 0.000000 0.548134
0.415299 0.000000 0.544063
0.551153 0.000000 0.539990
0.683702 0.000000 0.535914
0.813712 0.000000 0.531834
0.941668 0.000000 0.527751
1.000000 0.000000 0.523665
0.000000 0.097780 0.554404
0.120716 0.101674 0.550339
0.269753 0.105553 0.546270
0.410512 0.109419 0.542198
0.546501 0.113270 0.538124
0.679149 0.117108 0.534046
0.809238 0.120934 0.529965
0.937259 0.124748 0.525881
1.000000 0.128550 0.521793
0.000000 0.245984 0.552543
0.115291 0.249539 0.548476
0.264754 0.253089 0.544406
0.405720 0.256635 0.540333
0.541845 0.260175 0.536257
0.674594 0.263711 0.532177
0.804762 0.267242 0.528095
0.932848 0.270768 0.524009
1.000000 0.274290 0.519921
0.000000 0.385144 0.550681
0.109840 0.388544 0.546612
0.259745 0.391942 0.542541
0.400923 0.395336 0.538466
0.537185 0.398728 0.534389
0.670035 0.402116 0.530308
0.800283 0.405502 0.526224
0.928435 0.408885 0.522137
1.000000 0.412265 0.518047
0.000000 0.519330 0.548818
0.104362 0.522631 0.544748
0.254727 0.525930 0.540675
0.396119 0.529226 0.536600
0.532521 0.532521 0.532521
0.665473 0.535813 0.528438
0.795802 0.539103 0.524353
0.924021 0.542392 0.520265
1.000000 0.545678 0.516173
0.000000 0.650094 0.546955
0.098855 0.653322 0.542884
0.249699 0.656548 0.538809
0.391310 0.659773 0.534732
0.527852 0.662995 0.530652
0.660908 0.666217 0.526568
0.791319 0.669436 0.522481
0.919604 0.672655 0.518391
1.000000 0.675871 0.514298
0.000000 0.778261 0.545091
0.093317 0.781431 0.541018
0.244660 0.784600 0.536943
0.386495 0.787767 0.532864
0.523180 0.790934 0.528782
0.656340 0.794099 0.524697
0.786832 0.797263 0.520609
0.915184 0.800425 0.516517
1.000000 0.803587 0.512423
0.000000 0.904340 0.543226
0.087747 0.907463 0.539152
0.239611 0.910585 0.535075
0.381674 0.913706 0.530995
0.518503 0.916825 0.526912
0.651769 0.919944 0.522825
0.782344 0.923062 0.518735
0.910763 0.926179 0.514642
1.000000 0.929294 0.510546
0.000000 1.000000 0.541361
0.082140 1.000000 0.537286
0.234552 1.000000 0.533207
0.376846 1.000000 0.529125
0.513823 1.000000 0.525041
0.647195 1.000000 0.520953
0.777852 1.000000 0.516862
0.906340 1.000000 0.512767
1.000000 1.000000 0.508669
0.000000 0.000000 0.681368
0.115902 0.000000 0.677386
0.265317 0.000000 0.673401
0.406259 0.000000 0.669414
0.542369 0.000000 0.665425
0.675106 0.000000 0.661433
0.805266 0.000000 0.657438
0.933344 0.000000 0.653442
1.000000 0.000000 0.649443
0.000000 0.080761 0.679545
0.110454 0.084728 0.675561
0.260309 0.088677 0.671576
0.401462 0.092609 0.667587
0.537709 0.096524 0.663597
0.670548 0.100423 0.659604
0.800787 0.104307 0.655609
0.928932 0.108176 0.651611
1.000000 0.112032 0.647610
0.000000 0.230558 0.677721
0.104980 0.234136 0.673737
0.255292 0.237709 0.669750
0.396660 0.241276 0.665760
0.533045 0.244838 0.661769
0.665987 0.248395 0.657775
0.796306 0.251947 0.653778
0.924517 0.255494 0.649779
1.000000 0.259036 0.645778
0.000000 0.370413 0.675897
0.099476 0.373826 0.671911
0.250265 0.377237 0.667923
0.391851 0.380644 0.663933
0.528378 0.384049 0.659940
0.661422 0.387450 0.655945
0.791823 0.390848 0.651947
0.920100 0.394244 0.647947
1.000000 0.397636 0.643944
0.000000 0.505041 0.674072
0.093942 0.508351 0.670085
0.245227 0.511658 0.666096
0.387037 0.514964 0.662105
0.523706 0.518268 0.658111
0.656854 0.521569 0.654114
0.787337 0.524868 0.650116
0.915682 0.528165 0.646114
1.000000 0.531460 0.642111
0.000000 0.636127 0.672246
0.088375 0.639361 0.668259
0.240180 0.642594 0.664268
0.382216 0.645826 0.660276
0.519030 0.649055 0.656281
0.652283 0.652283 0.652283
0.782849 0.655510 0.648284
0.911261 0.658735 0.644281
1.000000 0.661958 0.640276
0.000000 0.764545 0.670421
0.082773 0.767720 0.666432
0.235122 0.770895 0.662440
0.377390 0.774068 0.658447
0.514349 0.777240 0.654451
0.647709 0.780411 0.650452
0.778357 0.783580 0.646451
0.906837 0.786748 0.642448
1.000000 0.789915 0.638442
0.000000 0.890830 0.668594
0.077132 0.893958 0.664604
0.230052 0.897084 0.660612
0.372557 0.900210 0.656617
0.509665 0.903334 0.652620
0.643132 0.906458 0.648620
0.773864 0.909580 0.644618
0.902412 0.912701 0.640613
1.000000 0.915821 0.636606
0.000000 1.000000 0.666767
0.071450 1.000000 0.662776
0.224972 1.000000 0.658783
0.367718 1.000000 0.654787
0.504976 1.000000 0.650789
0.638552 1.000000 0.646788
0.769368 1.000000 0.642784
0.897985 1.000000 0.638779
1.000000 1.000000 0.634770
0.000000 0.000000 0.804202
0.105597 0.000000 0.800285
0.255857 0.000000 0.796366
0.397200 0.000000 0.792446
0.533570 0.000000 0.788523
0.666500 0.000000 0.784599
0.796811 0.000000 0.780672
0.925014 0.000000 0.776744
1.000000 0.000000 0.772813
0.000000 0.063372 0.802408
0.100097 0.067434 0.798491
0.250831 0.071471 0.794571
0.392392 0.075486 0.790650
0.528903 0.079480 0.786726
0.661936 0.083453 0.782801
0.792327 0.087408 0.778873
0.920597 0.091345 0.774944
1.000000 0.095265 0.771013
0.000000 0.215028 0.800614
0.094566 0.218631 0.796696
0.245794 0.222228 0.792775
0.387579 0.225819 0.788853
0.524231 0.229405 0.784929
0.657368 0.232985 0.781002
0.787842 0.236560 0.777074
0.916179 0.240129 0.773144
1.000000 0.243693 0.769212
0.000000 0.355623 0.798820
0.089003 0.359050 0.794901
0.240748 0.362474 0.790979
0.382759 0.365895 0.787056
0.519556 0.369313 0.783131
0.652798 0.372728 0.779204
0.783354 0.376139 0.775275
0.911758 0.379548 0.771343
1.000000 0.382953 0.767410
0.000000 0.490711 0.797026
0.083405 0.494030 0.793105
0.235691 0.497347 0.789183
0.377933 0.500662 0.785259
0.514876 0.503975 0.781333
0.648224 0.507286 0.777405
0.778863 0.510594 0.773475
0.907335 0.513900 0.769543
1.000000 0.517205 0.765608
0.000000 0.622128 0.795231
0.077769 0.625370 0.791309
0.230623 0.628610 0.787386
0.373101 0.631849 0.783461
0.510192 0.635085 0.779534
0.643647 0.638320 0.775605
0.774369 0.641554 0.771674
0.902910 0.644786 0.767741
1.000000 0.648016 0.763806
0.000000 0.750804 0.793435
0.072091 0.753986 0.789513
0.225544 0.757166 0.785589
0.368263 0.760345 0.781663
0.505504 0.763522 0.777735
0.639067 0.766699 0.773805
0.769873 0.769873 0.769873
0.898483 0.773047 0.765940
1.000000 0.776219 0.762004
0.000000 0.877300 0.791639
0.066369 0.880432 0.787716
0.220453 0.883564 0.783792
0.363418 0.886694 0.779865
0.500811 0.889823 0.775936
0.634484 0.892951 0.772005
0.765375 0.896078 0.768072
0.894053 0.899204 0.764137
1.000000 0.902329 0.760200
0.000000 1.000000 0.789843
0.060597 1.000000 0.785919
0.215351 1.000000 0.781994
0.358567 1.000000 0.778066
0.496114 1.000000 0.774136
0.629897 1.000000 0.770204
0.760874 1.000000 0.766271
0.889622 1.000000 0.762335
1.000000 1.000000 0.758397
0.000000 0.000000 0.925179
0.095190 0.000000 0.921317
0.246361 0.000000 0.917453
0.388120 0.000000 0.913588
0.524757 0.000000 0.909721
0.657882 0.000000 0.905852
0.788346 0.000000 0.901982
0.916676 0.000000 0.898110
1.000000 0.000000 0.894236
0.000000 0.045484 0.923410
0.089630 0.049677 0.919547
0.241316 0.053836 0.915683
0.383301 0.057962 0.911817
0.520082 0.062059 0.907949
0.653312 0.066129 0.904080
0.783859 0.070174 0.900209
0.912255 0.074196 0.896336
1.000000 0.078197 0.892462
0.000000 0.199385 0.921642
0.084036 0.203015 0.917778
0.236260 0.206638 0.913913
0.378476 0.210256 0.910046
0.515403 0.213867 0.906177
0.648739 0.217472 0.902307
0.779368 0.221071 0.898435
0.907833 0.224664 0.894562
1.000000 0.228252 0.890687
0.000000 0.340771 0.919872
0.078405 0.344213 0.916008
0.231194 0.347652 0.912142
0.373645 0.351087 0.908275
0.510719 0.354519 0.904405
0.644162 0.357947 0.900534
0.774875 0.361373 0.896662
0.903408 0.364795 0.892788
1.000000 0.368214 0.888912
0.000000 0.476339 0.918103
0.072732 0.479668 0.914238
0.226116 0.482995 0.910371
0.368807 0.486320 0.906503
0.506031 0.489642 0.902633
0.639582 0.492962 0.898761
0.770379 0.496280 0.894888
0.898981 0.499596 0.891013
1.000000 0.502909 0.887136
0.000000 0.608098 0.916333
0.067015 0.611347 0.912467
0.221027 0.614595 0.908600
0.363963 0.617840 0.904731
0.501339 0.621084 0.900860
0.634999 0.624327 0.896988
0.765881 0.627567 0.893114
0.894552 0.630806 0.889238
1.000000 0.634044 0.885360
0.000000 0.737038 0.914563
0.061249 0.740226 0.910697
0.215926 0.743412 0.906828
0.359113 0.746596 0.902958
0.496642 0.749780 0.899087
0.630413 0.752962 0.895214
0.761380 0.756142 0.891339
0.890120 0.759322 0.887462
1.000000 0.762500 0.883584
0.000000 0.863748 0.912793
0.055428 0.866886 0.908925
0.210813 0.870022 0.905056
0.354256 0.873157 0.901186
0.491941 0.876291 0.897313
0.625823 0.879424 0.893440
0.756876 0.882556 0.889564
0.885687 0.885687 0.885687
1.000000 0.888816 0.881808
0.000000 0.988619 0.911022
0.049544 0.991715 0.907154
0.205687 0.994809 0.903284
0.349392 0.997903 0.899413
0.487236 1.000000 0.895540
0.621230 1.000000 0.891665
0.752370 1.000000 0.887789
0.881251 1.000000 0.883910
1.000000 1.000000 0.880031
0.000000 0.000000 1.000000
0.084667 0.000000 1.000000
0.236830 0.000000 1.000000
0.379019 0.000000 1.000000
0.515929 0.000000 1.000000
0.649253 0.000000 1.000000
0.779873 0.000000 1.000000
0.908330 0.000000 1.000000
1.000000 0.000000 1.000000
0.000000 0.026839 1.000000
0.079040 0.031245 1.000000
0.231764 0.035589 1.000000
0.374188 0.039881 1.000000
0.511246 0.044126 1.000000
0.644677 0.048332 1.000000
0.775380 0.052501 1.000000
0.903906 0.056637 1.000000
1.000000 0.060743 1.000000
0.000000 0.183618 1.000000
0.073372 0.187277 1.000000
0.226688 0.190930 1.000000
0.369352 0.194576 1.000000
0.506559 0.198215 1.000000
0.640098 0.201847 1.000000
0.770885 0.205473 1.000000
0.899479 0.209092 1.000000
1.000000 0.212705 1.000000
0.000000 0.325854 1.000000
0.067661 0.329312 1.000000
0.221600 0.332766 1.000000
0.364508 0.336216 1.000000
0.501867 0.339662 1.000000
0.635515 0.343106 1.000000
0.766387 0.346545 1.000000
0.895050 0.349982 1.000000
1.000000 0.353415 1.000000
0.000000 0.461924 1.000000
0.061900 0.465263 1.000000
0.216500 0.468600 1.000000
0.359659 0.471935 1.000000
0.497171 0.475267 1.000000
0.630929 0.478597 1.000000
0.761886 0.481925 1.000000
0.890619 0.485250 1.000000
1.000000 0.488573 1.000000
0.000000 0.594036 1.000000
0.056085 0.597292 1.000000
0.211388 0.600547 1.000000
0.354802 0.603801 1.000000
0.492470 0.607052 1.000000
0.626339 0.610302 1.000000
0.757383 0.613550 1.000000
0.886185 0.616796 1.000000
1.000000 0.620041 1.000000
0.000000 0.723247 1.000000
0.050210 0.726440 1.000000
0.206264 0.729632 1.000000
0.349940 0.732823 1.000000
0.487765 0.736012 1.000000
0.621747 0.739200 1.000000
0.752877 0.742386 1.000000
0.881750 0.745572 1.000000
1.000000 0.748755 1.000000
0.000000 0.850176 1.000000
0.044264 0.853318 1.000000
0.201127 0.856460 1.000000
0.345070 0.859600 1.000000
0.483056 0.862738 1.000000
0.617151 0.865876 1.000000
0.748368 0.869013 1.000000
0.877312 0.872148 1.000000
1.000000 0.875283 1.000000
0.000000 0.975230 1.000000
0.038237 0.978330 1.000000
0.195977 0.981429 1.000000
0.340193 0.984526 1.000000
0.478342 0.987623 1.000000
0.612551 0.990719 1.000000
0.743857 0.993813 1.000000
0.872872 0.996907 1.000000
1.000000 1.000000 1.000000
