presets/film_stocks/Kodak_Verita_200D_5206.cube
# 独寻胶片模拟 -- Kodak Verita 200D 5206
# Kodak, ISO 200, 2026, negative
TITLE "Kodak Verita 200D 5206"
LUT_3D_SIZE 5
DOMAIN_MIN 0.0 0.0 0.0
DOMAIN_MAX 1.0 1.0 1.0
0.000000 0.000000 0.000000
0.403627 0.029230 0.000000
0.657617 0.047623 0.000000
0.874945 0.063361 0.000000
1.000000 0.077590 0.000000
0.000000 0.396497 0.000000
0.393594 0.403357 0.000000
0.649465 0.410169 0.000000
0.867721 0.416933 0.000000
1.000000 0.423652 0.000000
0.000000 0.646000 0.000000
0.383452 0.651598 0.000000
0.641270 0.657177 0.000000
0.860472 0.662736 0.000000
1.000000 0.668275 0.000000
0.000000 0.859489 0.000000
0.373197 0.864458 0.000000
0.633031 0.869415 0.000000
0.853196 0.874360 0.000000
1.000000 0.879294 0.000000
0.000000 1.000000 0.000000
0.362822 1.000000 0.000000
0.624747 1.000000 0.000000
0.845895 1.000000 0.000000
1.000000 1.000000 0.000000
0.000000 0.000000 0.391414
0.386932 0.000000 0.381396
0.644077 0.000000 0.371267
0.862953 0.000000 0.361021
1.000000 0.007953 0.350650
0.000000 0.369653 0.386785
0.376716 0.376716 0.376716
0.635853 0.383724 0.366533
0.855686 0.390678 0.356230
1.000000 0.397580 0.345800
0.000000 0.624293 0.382132
0.366382 0.629972 0.372011
0.627584 0.635630 0.361773
0.848394 0.641267 0.351412
1.000000 0.646883 0.340921
0.000000 0.840282 0.377455
0.355925 0.845298 0.367281
0.619270 0.850302 0.356987
0.841076 0.855293 0.346567
1.000000 0.860272 0.336013
0.000000 1.000000 0.372754
0.345337 1.000000 0.362525
0.610908 1.000000 0.352174
0.833730 1.000000 0.341692
1.000000 1.000000 0.331074
0.000000 0.000000 0.637719
0.369929 0.000000 0.629580
0.630416 0.000000 0.621398
0.850890 0.000000 0.613169
1.000000 0.000000 0.604894
0.000000 0.341964 0.633952
0.359514 0.349258 0.625793
0.622118 0.356489 0.617590
0.843581 0.363659 0.609340
1.000000 0.370769 0.601043
0.000000 0.602265 0.630176
0.348972 0.608030 0.621997
0.613772 0.613772 0.613772
0.836244 0.619492 0.605501
1.000000 0.625189 0.597181
0.000000 0.820888 0.626391
0.338294 0.825954 0.618191
0.605378 0.831006 0.609944
0.828881 0.836046 0.601651
1.000000 0.841073 0.593309
0.000000 1.000000 0.622596
0.327472 1.000000 0.614374
0.596936 1.000000 0.606106
0.821490 1.000000 0.597791
1.000000 1.000000 0.589426
0.000000 0.000000 0.848471
0.352591 0.000000 0.841259
0.616630 0.000000 0.834021
0.838755 0.000000 0.826756
1.000000 0.000000 0.819465
0.000000 0.313298 0.845132
0.341960 0.320861 0.837907
0.608253 0.328350 0.830657
0.831401 0.335768 0.823380
1.000000 0.343117 0.816076
0.000000 0.579893 0.841787
0.331188 0.585749 0.834550
0.599828 0.591582 0.827288
0.824020 0.597390 0.819998
1.000000 0.603174 0.812681
0.000000 0.801301 0.838436
0.320267 0.806417 0.831188
0.591352 0.811521 0.823913
0.816611 0.816611 0.816611
1.000000 0.821687 0.809281
0.000000 0.999265 0.835080
0.309188 1.000000 0.827819
0.582825 1.000000 0.820532
0.809173 1.000000 0.813217
1.000000 1.000000 0.805874
0.000000 0.000000 1.000000
0.334887 0.000000 1.000000
0.602714 0.000000 1.000000
0.826547 0.000000 1.000000
1.000000 0.000000 1.000000
0.000000 0.283484 1.000000
0.324018 0.291365 1.000000
0.594255 0.299158 1.000000
0.819147 0.306867 1.000000
1.000000 0.314495 1.000000
0.000000 0.557152 1.000000
0.312994 0.563107 1.000000
0.585746 0.569036 1.000000
0.811719 0.574939 1.000000
1.000000 0.580817 1.000000
0.000000 0.781510 1.000000
0.301804 0.786680 1.000000
0.577184 0.791837 1.000000
0.804262 0.796979 1.000000
1.000000 0.802107 1.000000
0.000000 0.981252 1.000000
0.290437 0.985953 1.000000
0.568569 0.990645 1.000000
0.796776 0.995327 1.000000
1.000000 1.000000 1.000000
