presets/film_stocks/Kodak_EXR_200T_5293.cube
# 独寻胶片模拟 -- Kodak EXR 200T 5293
# Kodak, ISO 250, 1982, negative
TITLE "Kodak EXR 200T 5293"
LUT_3D_SIZE 33
DOMAIN_MIN 0.0 0.0 0.0
DOMAIN_MAX 1.0 1.0 1.0
0.000000 0.000000 0.000000
0.055567 0.001736 0.000000
0.101528 0.003173 0.000000
0.144446 0.004514 0.000000
0.185502 0.005797 0.000000
0.225226 0.007038 0.000000
0.263920 0.008247 0.000000
0.301777 0.009431 0.000000
0.338933 0.010592 0.000000
0.375487 0.011734 0.000000
0.411513 0.012860 0.000000
0.447072 0.013971 0.000000
0.482211 0.015069 0.000000
0.516970 0.016155 0.000000
0.551381 0.017231 0.000000
0.585473 0.018296 0.000000
0.619269 0.019352 0.000000
0.652791 0.020400 0.000000
0.686057 0.021439 0.000000
0.719082 0.022471 0.000000
0.751881 0.023496 0.000000
0.784467 0.024515 0.000000
0.816851 0.025527 0.000000
0.849043 0.026533 0.000000
0.881054 0.027533 0.000000
0.912891 0.028528 0.000000
0.944562 0.029518 0.000000
0.976074 0.030502 0.000000
1.000000 0.031482 0.000000
1.000000 0.032458 0.000000
1.000000 0.033429 0.000000
1.000000 0.034396 0.000000
1.000000 0.035359 0.000000
0.000000 0.053470 0.000000
0.053407 0.054372 0.000000
0.099557 0.055272 0.000000
0.142578 0.056169 0.000000
0.183703 0.057065 0.000000
0.223479 0.057958 0.000000
0.262214 0.058849 0.000000
0.300105 0.059738 0.000000
0.337290 0.060625 0.000000
0.373869 0.061510 0.000000
0.409918 0.062394 0.000000
0.445496 0.063275 0.000000
0.480653 0.064155 0.000000
0.515428 0.065033 0.000000
0.549854 0.065909 0.000000
0.583959 0.066783 0.000000
0.617769 0.067655 0.000000
0.651302 0.068526 0.000000
0.684579 0.069396 0.000000
0.717615 0.070263 0.000000
0.750423 0.071129 0.000000
0.783019 0.071994 0.000000
0.815411 0.072856 0.000000
0.847612 0.073718 0.000000
0.879630 0.074578 0.000000
0.911475 0.075436 0.000000
0.943153 0.076293 0.000000
0.974673 0.077148 0.000000
1.000000 0.078002 0.000000
1.000000 0.078855 0.000000
1.000000 0.079706 0.000000
1.000000 0.080556 0.000000
1.000000 0.081404 0.000000
0.000000 0.097696 0.000000
0.051233 0.098521 0.000000
0.097580 0.099344 0.000000
0.140706 0.100166 0.000000
0.181902 0.100988 0.000000
0.221730 0.101808 0.000000
0.260506 0.102627 0.000000
0.298432 0.103446 0.000000
0.335646 0.104263 0.000000
0.372250 0.105080 0.000000
0.408321 0.105895 0.000000
0.443919 0.106710 0.000000
0.479094 0.107524 0.000000
0.513885 0.108336 0.000000
0.548326 0.109148 0.000000
0.582446 0.109959 0.000000
0.616268 0.110769 0.000000
0.649813 0.111578 0.000000
0.683101 0.112386 0.000000
0.716147 0.113194 0.000000
0.748966 0.114000 0.000000
0.781570 0.114806 0.000000
0.813971 0.115611 0.000000
0.846181 0.116415 0.000000
0.878207 0.117218 0.000000
0.910059 0.118020 0.000000
0.941744 0.118822 0.000000
0.973271 0.119623 0.000000
1.000000 0.120422 0.000000
1.000000 0.121222 0.000000
1.000000 0.122020 0.000000
1.000000 0.122817 0.000000
1.000000 0.123614 0.000000
0.000000 0.138995 0.000000
0.049046 0.139777 0.000000
0.095598 0.140559 0.000000
0.138831 0.141340 0.000000
0.180097 0.142120 0.000000
0.219978 0.142899 0.000000
0.258797 0.143678 0.000000
0.296758 0.144457 0.000000
0.334001 0.145234 0.000000
0.370630 0.146011 0.000000
0.406724 0.146788 0.000000
0.442342 0.147564 0.000000
0.477535 0.148339 0.000000
0.512342 0.149113 0.000000
0.546798 0.149887 0.000000
0.580931 0.150661 0.000000
0.614766 0.151433 0.000000
0.648323 0.152206 0.000000
0.681622 0.152977 0.000000
0.714679 0.153748 0.000000
0.747507 0.154519 0.000000
0.780121 0.155288 0.000000
0.812531 0.156058 0.000000
0.844749 0.156826 0.000000
0.876783 0.157595 0.000000
0.908643 0.158362 0.000000
0.940335 0.159129 0.000000
0.971869 0.159896 0.000000
1.000000 0.160662 0.000000
1.000000 0.161427 0.000000
1.000000 0.162192 0.000000
1.000000 0.162956 0.000000
1.000000 0.163720 0.000000
0.000000 0.178502 0.000000
0.046844 0.179255 0.000000
0.093609 0.180008 0.000000
0.136951 0.180760 0.000000
0.178290 0.181512 0.000000
0.218225 0.182264 0.000000
0.257086 0.183015 0.000000
0.295081 0.183766 0.000000
0.332355 0.184516 0.000000
0.369009 0.185266 0.000000
0.405125 0.186015 0.000000
0.440763 0.186764 0.000000
0.475974 0.187512 0.000000
0.510798 0.188260 0.000000
0.545269 0.189007 0.000000
0.579416 0.189754 0.000000
0.613264 0.190501 0.000000
0.646833 0.191247 0.000000
0.680143 0.191993 0.000000
0.713210 0.192738 0.000000
0.746048 0.193483 0.000000
0.778671 0.194227 0.000000
0.811091 0.194971 0.000000
0.843317 0.195715 0.000000
0.875359 0.196458 0.000000
0.907226 0.197200 0.000000
0.938926 0.197943 0.000000
0.970466 0.198684 0.000000
1.000000 0.199426 0.000000
1.000000 0.200167 0.000000
1.000000 0.200908 0.000000
1.000000 0.201648 0.000000
1.000000 0.202388 0.000000
0.000000 0.216726 0.000000
0.044626 0.217458 0.000000
0.091614 0.218190 0.000000
0.135068 0.218921 0.000000
0.176480 0.219652 0.000000
0.216470 0.220382 0.000000
0.255373 0.221112 0.000000
0.293404 0.221842 0.000000
0.330707 0.222571 0.000000
0.367387 0.223300 0.000000
0.403526 0.224029 0.000000
0.439184 0.224757 0.000000
0.474413 0.225485 0.000000
0.509253 0.226212 0.000000
0.543739 0.226939 0.000000
0.577900 0.227666 0.000000
0.611761 0.228393 0.000000
0.645342 0.229119 0.000000
0.678663 0.229845 0.000000
0.711741 0.230570 0.000000
0.744589 0.231295 0.000000
0.777222 0.232020 0.000000
0.809650 0.232744 0.000000
0.841884 0.233468 0.000000
0.873934 0.234192 0.000000
0.905809 0.234915 0.000000
0.937516 0.235639 0.000000
0.969064 0.236361 0.000000
1.000000 0.237084 0.000000
1.000000 0.237806 0.000000
1.000000 0.238528 0.000000
1.000000 0.239249 0.000000
1.000000 0.239970 0.000000
0.000000 0.253960 0.000000
0.042391 0.254675 0.000000
0.089612 0.255389 0.000000
0.133180 0.256103 0.000000
0.174668 0.256817 0.000000
0.214712 0.257530 0.000000
0.253659 0.258243 0.000000
0.291725 0.258956 0.000000
0.329058 0.259669 0.000000
0.365764 0.260381 0.000000
0.401925 0.261093 0.000000
0.437604 0.261805 0.000000
0.472851 0.262516 0.000000
0.507708 0.263228 0.000000
0.542209 0.263938 0.000000
0.576384 0.264649 0.000000
0.610257 0.265359 0.000000
0.643851 0.266069 0.000000
0.677183 0.266779 0.000000
0.710271 0.267488 0.000000
0.743130 0.268198 0.000000
0.775771 0.268906 0.000000
0.808208 0.269615 0.000000
0.840451 0.270323 0.000000
0.872509 0.271031 0.000000
0.904392 0.271739 0.000000
0.936106 0.272447 0.000000
0.967661 0.273154 0.000000
0.999061 0.273861 0.000000
1.000000 0.274567 0.000000
1.000000 0.275274 0.000000
1.000000 0.275980 0.000000
1.000000 0.276686 0.000000
0.000000 0.290389 0.000000
0.040139 0.291089 0.000000
0.087604 0.291789 0.000000
0.131289 0.292489 0.000000
0.172852 0.293189 0.000000
0.212952 0.293889 0.000000
0.251943 0.294588 0.000000
0.290045 0.295287 0.000000
0.327408 0.295985 0.000000
0.364140 0.296684 0.000000
0.400324 0.297382 0.000000
0.436023 0.298080 0.000000
0.471288 0.298778 0.000000
0.506162 0.299475 0.000000
0.540678 0.300173 0.000000
0.574867 0.300870 0.000000
0.608753 0.301566 0.000000
0.642359 0.302263 0.000000
0.675703 0.302959 0.000000
0.708801 0.303655 0.000000
0.741669 0.304351 0.000000
0.774321 0.305047 0.000000
0.806766 0.305742 0.000000
0.839018 0.306437 0.000000
0.871084 0.307132 0.000000
0.902974 0.307827 0.000000
0.934696 0.308521 0.000000
0.966257 0.309215 0.000000
0.997665 0.309909 0.000000
1.000000 0.310603 0.000000
1.000000 0.311296 0.000000
1.000000 0.311989 0.000000
1.000000 0.312682 0.000000
0.000000 0.326143 0.000000
0.037867 0.326831 0.000000
0.085588 0.327519 0.000000
0.129394 0.328207 0.000000
0.171034 0.328895 0.000000
0.211190 0.329582 0.000000
0.250225 0.330270 0.000000
0.288363 0.330957 0.000000
0.325756 0.331644 0.000000
0.362515 0.332330 0.000000
0.398722 0.333017 0.000000
0.434441 0.333703 0.000000
0.469725 0.334389 0.000000
0.504615 0.335075 0.000000
0.539147 0.335761 0.000000
0.573350 0.336446 0.000000
0.607249 0.337131 0.000000
0.640867 0.337816 0.000000
0.674222 0.338501 0.000000
0.707331 0.339186 0.000000
0.740209 0.339870 0.000000
0.772869 0.340554 0.000000
0.805324 0.341238 0.000000
0.837584 0.341922 0.000000
0.869658 0.342605 0.000000
0.901556 0.343289 0.000000
0.933285 0.343972 0.000000
0.964854 0.344655 0.000000
0.996268 0.345337 0.000000
1.000000 0.346020 0.000000
1.000000 0.346702 0.000000
1.000000 0.347384 0.000000
1.000000 0.348066 0.000000
0.000000 0.361317 0.000000
0.035575 0.361995 0.000000
0.083566 0.362672 0.000000
0.127494 0.363350 0.000000
0.169213 0.364027 0.000000
0.209426 0.364704 0.000000
0.248505 0.365381 0.000000
0.286679 0.366058 0.000000
0.324103 0.366735 0.000000
0.360888 0.367411 0.000000
0.397118 0.368087 0.000000
0.432858 0.368763 0.000000
0.468161 0.369439 0.000000
0.503068 0.370115 0.000000
0.537615 0.370790 0.000000
0.571832 0.371466 0.000000
0.605744 0.372141 0.000000
0.639374 0.372816 0.000000
0.672740 0.373490 0.000000
0.705860 0.374165 0.000000
0.738748 0.374839 0.000000
0.771418 0.375513 0.000000
0.803882 0.376187 0.000000
0.836150 0.376861 0.000000
0.868232 0.377535 0.000000
0.900138 0.378208 0.000000
0.931874 0.378882 0.000000
0.963450 0.379555 0.000000
0.994871 0.380228 0.000000
1.000000 0.380901 0.000000
1.000000 0.381573 0.000000
1.000000 0.382246 0.000000
1.000000 0.382918 0.000000
0.000000 0.395983 0.000000
0.033260 0.396652 0.000000
0.081536 0.397321 0.000000
0.125590 0.397989 0.000000
0.167389 0.398657 0.000000
0.207660 0.399325 0.000000
0.246784 0.399993 0.000000
0.284995 0.400661 0.000000
0.322449 0.401328 0.000000
0.359261 0.401995 0.000000
0.395514 0.402663 0.000000
0.431275 0.403330 0.000000
0.466596 0.403996 0.000000
0.501519 0.404663 0.000000
0.536082 0.405330 0.000000
0.570313 0.405996 0.000000
0.604238 0.406662 0.000000
0.637880 0.407328 0.000000
0.671258 0.407994 0.000000
0.704388 0.408660 0.000000
0.737287 0.409325 0.000000
0.769966 0.409991 0.000000
0.802439 0.410656 0.000000
0.834715 0.411321 0.000000
0.866806 0.411986 0.000000
0.898719 0.412650 0.000000
0.930463 0.413315 0.000000
0.962045 0.413979 0.000000
0.993473 0.414644 0.000000
1.000000 0.415308 0.000000
1.000000 0.415972 0.000000
1.000000 0.416635 0.000000
1.000000 0.417299 0.000000
0.000000 0.430200 0.000000
0.030922 0.430861 0.000000
0.079499 0.431521 0.000000
0.123682 0.432181 0.000000
0.165562 0.432841 0.000000
0.205891 0.433501 0.000000
0.245060 0.434161 0.000000
0.283308 0.434820 0.000000
0.320794 0.435479 0.000000
0.357632 0.436139 0.000000
0.393909 0.436798 0.000000
0.429690 0.437457 0.000000
0.465030 0.438115 0.000000
0.499971 0.438774 0.000000
0.534548 0.439432 0.000000
0.568794 0.440091 0.000000
0.602732 0.440749 0.000000
0.636386 0.441407 0.000000
0.669775 0.442065 0.000000
0.702917 0.442723 0.000000
0.735825 0.443380 0.000000
0.768514 0.444038 0.000000
0.800995 0.444695 0.000000
0.833281 0.445352 0.000000
0.865379 0.446009 0.000000
0.897300 0.446666 0.000000
0.929051 0.447323 0.000000
0.960641 0.447979 0.000000
0.992075 0.448636 0.000000
1.000000 0.449292 0.000000
1.000000 0.449948 0.000000
1.000000 0.450604 0.000000
1.000000 0.451260 0.000000
0.000000 0.464013 0.000000
0.028556 0.464666 0.000000
0.077453 0.465319 0.000000
0.121769 0.465972 0.000000
0.163731 0.466624 0.000000
0.204120 0.467277 0.000000
0.243335 0.467929 0.000000
0.281620 0.468581 0.000000
0.319137 0.469233 0.000000
0.356003 0.469885 0.000000
0.392303 0.470537 0.000000
0.428105 0.471188 0.000000
0.463463 0.471840 0.000000
0.498421 0.472491 0.000000
0.533014 0.473142 0.000000
0.567274 0.473793 0.000000
0.601225 0.474444 0.000000
0.634892 0.475095 0.000000
0.668292 0.475746 0.000000
0.701444 0.476396 0.000000
0.734363 0.477047 0.000000
0.767061 0.477697 0.000000
0.799552 0.478347 0.000000
0.831845 0.478997 0.000000
0.863952 0.479647 0.000000
0.895881 0.480297 0.000000
0.927639 0.480946 0.000000
0.959236 0.481596 0.000000
0.990677 0.482245 0.000000
1.000000 0.482894 0.000000
1.000000 0.483543 0.000000
1.000000 0.484192 0.000000
1.000000 0.484841 0.000000
0.000000 0.497460 0.000000
0.026160 0.498106 0.000000
0.075400 0.498752 0.000000
0.119852 0.499398 0.000000
0.161898 0.500044 0.000000
0.202347 0.500690 0.000000
0.241608 0.501335 0.000000
0.279931 0.501981 0.000000
0.317480 0.502626 0.000000
0.354372 0.503271 0.000000
0.390696 0.503916 0.000000
0.426519 0.504561 0.000000
0.461896 0.505206 0.000000
0.496871 0.505851 0.000000
0.531479 0.506495 0.000000
0.565753 0.507140 0.000000
0.599718 0.507784 0.000000
0.633397 0.508428 0.000000
0.666809 0.509073 0.000000
0.699971 0.509716 0.000000
0.732900 0.510360 0.000000
0.765608 0.511004 0.000000
0.798108 0.511648 0.000000
0.830410 0.512291 0.000000
0.862525 0.512934 0.000000
0.894461 0.513578 0.000000
0.926227 0.514221 0.000000
0.957831 0.514864 0.000000
0.989279 0.515507 0.000000
1.000000 0.516149 0.000000
1.000000 0.516792 0.000000
1.000000 0.517435 0.000000
1.000000 0.518077 0.000000
0.000000 0.530573 0.000000
0.023731 0.531213 0.000000
0.073338 0.531853 0.000000
0.117930 0.532492 0.000000
0.160062 0.533132 0.000000
0.200571 0.533771 0.000000
0.239880 0.534411 0.000000
0.278240 0.535050 0.000000
0.315821 0.535689 0.000000
0.352740 0.536328 0.000000
0.389087 0.536967 0.000000
0.424932 0.537606 0.000000
0.460328 0.538245 0.000000
0.495319 0.538884 0.000000
0.529944 0.539522 0.000000
0.564232 0.540160 0.000000
0.598210 0.540799 0.000000
0.631901 0.541437 0.000000
0.665325 0.542075 0.000000
0.698498 0.542713 0.000000
0.731437 0.543351 0.000000
0.764154 0.543988 0.000000
0.796663 0.544626 0.000000
0.828974 0.545263 0.000000
0.861097 0.545901 0.000000
0.893041 0.546538 0.000000
0.924815 0.547175 0.000000
0.956425 0.547812 0.000000
0.987880 0.548449 0.000000
1.000000 0.549086 0.000000
1.000000 0.549723 0.000000
1.000000 0.550359 0.000000
1.000000 0.550996 0.000000
0.000000 0.563378 0.000000
0.021264 0.564012 0.000000
0.071267 0.564646 0.000000
0.116004 0.565280 0.000000
0.158222 0.565914 0.000000
0.198793 0.566548 0.000000
0.238149 0.567182 0.000000
0.276548 0.567816 0.000000
0.314160 0.568449 0.000000
0.351107 0.569082 0.000000
0.387478 0.569716 0.000000
0.423344 0.570349 0.000000
0.458759 0.570982 0.000000
0.493768 0.571615 0.000000
0.528408 0.572248 0.000000
0.562710 0.572881 0.000000
0.596702 0.573513 0.000000
0.630405 0.574146 0.000000
0.663840 0.574778 0.000000
0.697024 0.575411 0.000000
0.729973 0.576043 0.000000
0.762700 0.576675 0.000000
0.795218 0.577307 0.000000
0.827538 0.577939 0.000000
0.859669 0.578571 0.000000
0.891621 0.579203 0.000000
0.923402 0.579834 0.000000
0.955020 0.580466 0.000000
0.986481 0.581097 0.000000
1.000000 0.581729 0.000000
1.000000 0.582360 0.000000
1.000000 0.582991 0.000000
1.000000 0.583622 0.000000
0.000000 0.595899 0.000000
0.018753 0.596528 0.000000
0.069188 0.597157 0.000000
0.114073 0.597786 0.000000
0.156380 0.598414 0.000000
0.197013 0.599043 0.000000
0.236417 0.599671 0.000000
0.274854 0.600300 0.000000
0.312498 0.600928 0.000000
0.349473 0.601556 0.000000
0.385868 0.602184 0.000000
0.421755 0.602812 0.000000
0.457189 0.603440 0.000000
0.492215 0.604068 0.000000
0.526871 0.604695 0.000000
0.561188 0.605323 0.000000
0.595193 0.605950 0.000000
0.628909 0.606578 0.000000
0.662355 0.607205 0.000000
0.695550 0.607832 0.000000
0.728509 0.608459 0.000000
0.761246 0.609086 0.000000
0.793773 0.609713 0.000000
0.826101 0.610340 0.000000
0.858240 0.610966 0.000000
0.890200 0.611593 0.000000
0.921989 0.612220 0.000000
0.953613 0.612846 0.000000
0.985082 0.613472 0.000000
1.000000 0.614098 0.000000
1.000000 0.614725 0.000000
1.000000 0.615351 0.000000
1.000000 0.615976 0.000000
0.000000 0.628156 0.000000
0.016190 0.628780 0.000000
0.067098 0.629404 0.000000
0.112136 0.630028 0.000000
0.154534 0.630651 0.000000
0.195230 0.631275 0.000000
0.234682 0.631898 0.000000
0.273158 0.632522 0.000000
0.310835 0.633145 0.000000
0.347837 0.633768 0.000000
0.384257 0.634392 0.000000
0.420165 0.635015 0.000000
0.455618 0.635638 0.000000
0.490662 0.636260 0.000000
0.525334 0.636883 0.000000
0.559665 0.637506 0.000000
0.593683 0.638129 0.000000
0.627411 0.638751 0.000000
0.660870 0.639374 0.000000
0.694076 0.639996 0.000000
0.727045 0.640618 0.000000
0.759791 0.641240 0.000000
0.792327 0.641862 0.000000
0.824664 0.642484 0.000000
0.856811 0.643106 0.000000
0.888779 0.643728 0.000000
0.920575 0.644350 0.000000
0.952207 0.644971 0.000000
0.983682 0.645593 0.000000
1.000000 0.646214 0.000000
1.000000 0.646836 0.000000
1.000000 0.647457 0.000000
1.000000 0.648078 0.000000
0.000000 0.660166 0.000000
0.013565 0.660785 0.000000
0.065000 0.661405 0.000000
0.110195 0.662024 0.000000
0.152684 0.662643 0.000000
0.193445 0.663262 0.000000
0.232946 0.663881 0.000000
0.271461 0.664500 0.000000
0.309171 0.665118 0.000000
0.346201 0.665737 0.000000
0.382645 0.666356 0.000000
0.418575 0.666974 0.000000
0.454047 0.667593 0.000000
0.489108 0.668211 0.000000
0.523795 0.668829 0.000000
0.558141 0.669447 0.000000
0.592173 0.670065 0.000000
0.625914 0.670683 0.000000
0.659384 0.671301 0.000000
0.692600 0.671919 0.000000
0.725580 0.672537 0.000000
0.758336 0.673154 0.000000
0.790881 0.673772 0.000000
0.823226 0.674389 0.000000
0.855382 0.675007 0.000000
0.887358 0.675624 0.000000
0.919161 0.676241 0.000000
0.950800 0.676858 0.000000
0.982282 0.677475 0.000000
1.000000 0.678092 0.000000
1.000000 0.678709 0.000000
1.000000 0.679326 0.000000
1.000000 0.679943 0.000000
0.000000 0.691945 0.000000
0.010861 0.692560 0.000000
0.062890 0.693175 0.000000
0.108249 0.693790 0.000000
0.150832 0.694404 0.000000
0.191657 0.695019 0.000000
0.231207 0.695634 0.000000
0.269762 0.696248 0.000000
0.307505 0.696863 0.000000
0.344563 0.697477 0.000000
0.381032 0.698091 0.000000
0.416983 0.698705 0.000000
0.452475 0.699320 0.000000
0.487553 0.699934 0.000000
0.522257 0.700548 0.000000
0.556617 0.701161 0.000000
0.590662 0.701775 0.000000
0.624416 0.702389 0.000000
0.657897 0.703003 0.000000
0.691125 0.703616 0.000000
0.724115 0.704230 0.000000
0.756880 0.704843 0.000000
0.789435 0.705456 0.000000
0.821789 0.706069 0.000000
0.853953 0.706683 0.000000
0.885936 0.707296 0.000000
0.917747 0.707909 0.000000
0.949393 0.708522 0.000000
0.980882 0.709134 0.000000
1.000000 0.709747 0.000000
1.000000 0.710360 0.000000
1.000000 0.710972 0.000000
1.000000 0.711585 0.000000
0.000000 0.723506 0.000000
0.008050 0.724117 0.000000
0.060771 0.724728 0.000000
0.106297 0.725339 0.000000
0.148975 0.725949 0.000000
0.189867 0.726560 0.000000
0.229467 0.727170 0.000000
0.268062 0.727781 0.000000
0.305838 0.728391 0.000000
0.342924 0.729002 0.000000
0.379417 0.729612 0.000000
0.415390 0.730222 0.000000
0.450902 0.730832 0.000000
0.485998 0.731442 0.000000
0.520717 0.732052 0.000000
0.555092 0.732662 0.000000
0.589151 0.733271 0.000000
0.622917 0.733881 0.000000
0.656410 0.734491 0.000000
0.689649 0.735100 0.000000
0.722649 0.735710 0.000000
0.755424 0.736319 0.000000
0.787988 0.736928 0.000000
0.820350 0.737538 0.000000
0.852523 0.738147 0.000000
0.884514 0.738756 0.000000
0.916332 0.739365 0.000000
0.947986 0.739974 0.000000
0.979482 0.740583 0.000000
1.000000 0.741191 0.000000
1.000000 0.741800 0.000000
1.000000 0.742409 0.000000
1.000000 0.743017 0.000000
0.000000 0.754862 0.000000
0.005079 0.755469 0.000000
0.058640 0.756076 0.000000
0.104340 0.756683 0.000000
0.147116 0.757290 0.000000
0.188074 0.757897 0.000000
0.227725 0.758503 0.000000
0.266360 0.759110 0.000000
0.304169 0.759717 0.000000
0.341284 0.760323 0.000000
0.377802 0.760929 0.000000
0.413797 0.761536 0.000000
0.449328 0.762142 0.000000
0.484441 0.762748 0.000000
0.519177 0.763354 0.000000
0.553567 0.763960 0.000000
0.587639 0.764566 0.000000
0.621418 0.765172 0.000000
0.654923 0.765778 0.000000
0.688172 0.766384 0.000000
0.721183 0.766989 0.000000
0.753968 0.767595 0.000000
0.786540 0.768200 0.000000
0.818912 0.768806 0.000000
0.851092 0.769411 0.000000
0.883091 0.770016 0.000000
0.914917 0.770622 0.000000
0.946578 0.771227 0.000000
0.978081 0.771832 0.000000
1.000000 0.772437 0.000000
1.000000 0.773042 0.000000
1.000000 0.773647 0.000000
1.000000 0.774252 0.000000
0.000000 0.786024 0.000000
0.001792 0.786627 0.000000
0.056497 0.787231 0.000000
0.102378 0.787834 0.000000
0.145253 0.788437 0.000000
0.186279 0.789040 0.000000
0.225981 0.789643 0.000000
0.264657 0.790246 0.000000
0.302499 0.790849 0.000000
0.339643 0.791452 0.000000
0.376186 0.792055 0.000000
0.412203 0.792657 0.000000
0.447753 0.793260 0.000000
0.482884 0.793862 0.000000
0.517636 0.794465 0.000000
0.552041 0.795067 0.000000
0.586127 0.795670 0.000000
0.619918 0.796272 0.000000
0.653434 0.796874 0.000000
0.686695 0.797476 0.000000
0.719716 0.798078 0.000000
0.752511 0.798680 0.000000
0.785093 0.799282 0.000000
0.817473 0.799884 0.000000
0.849662 0.800486 0.000000
0.881669 0.801088 0.000000
0.913502 0.801689 0.000000
0.945170 0.802291 0.000000
0.976680 0.802892 0.000000
1.000000 0.803494 0.000000
1.000000 0.804095 0.000000
1.000000 0.804696 0.000000
1.000000 0.805298 0.000000
0.000000 0.817002 0.000000
0.000000 0.817602 0.000000
0.054342 0.818201 0.000000
0.100409 0.818801 0.000000
0.143386 0.819401 0.000000
0.184481 0.820000 0.000000
0.224234 0.820600 0.000000
0.262951 0.821199 0.000000
0.300828 0.821799 0.000000
0.338001 0.822398 0.000000
0.374568 0.822998 0.000000
0.410607 0.823597 0.000000
0.446177 0.824196 0.000000
0.481326 0.824795 0.000000
0.516094 0.825394 0.000000
0.550514 0.825993 0.000000
0.584614 0.826592 0.000000
0.618417 0.827191 0.000000
0.651946 0.827789 0.000000
0.685218 0.828388 0.000000
0.718249 0.828987 0.000000
0.751054 0.829585 0.000000
0.783645 0.830184 0.000000
0.816034 0.830782 0.000000
0.848231 0.831381 0.000000
0.880246 0.831979 0.000000
0.912087 0.832577 0.000000
0.943762 0.833175 0.000000
0.975278 0.833774 0.000000
1.000000 0.834372 0.000000
1.000000 0.834970 0.000000
1.000000 0.835568 0.000000
1.000000 0.836165 0.000000
0.000000 0.847804 0.000000
0.000000 0.848401 0.000000
0.052174 0.848997 0.000000
0.098435 0.849594 0.000000
0.141516 0.850190 0.000000
0.182681 0.850786 0.000000
0.222486 0.851382 0.000000
0.261245 0.851979 0.000000
0.299156 0.852575 0.000000
0.336357 0.853171 0.000000
0.372950 0.853767 0.000000
0.409011 0.854363 0.000000
0.444601 0.854959 0.000000
0.479768 0.855554 0.000000
0.514552 0.856150 0.000000
0.548987 0.856746 0.000000
0.583100 0.857341 0.000000
0.616916 0.857937 0.000000
0.650457 0.858533 0.000000
0.683740 0.859128 0.000000
0.716781 0.859723 0.000000
0.749596 0.860319 0.000000
0.782196 0.860914 0.000000
0.814594 0.861509 0.000000
0.846799 0.862104 0.000000
0.878822 0.862699 0.000000
0.910671 0.863294 0.000000
0.942353 0.863889 0.000000
0.973877 0.864484 0.000000
1.000000 0.865079 0.000000
1.000000 0.865674 0.000000
1.000000 0.866268 0.000000
1.000000 0.866863 0.000000
0.000000 0.878439 0.000000
0.000000 0.879033 0.000000
0.049993 0.879626 0.000000
0.096455 0.880219 0.000000
0.139642 0.880813 0.000000
0.180877 0.881406 0.000000
0.220736 0.881999 0.000000
0.259536 0.882592 0.000000
0.297482 0.883185 0.000000
0.334712 0.883778 0.000000
0.371331 0.884371 0.000000
0.407414 0.884963 0.000000
0.443024 0.885556 0.000000
0.478209 0.886149 0.000000
0.513009 0.886741 0.000000
0.547459 0.887334 0.000000
0.581586 0.887927 0.000000
0.615415 0.888519 0.000000
0.648967 0.889111 0.000000
0.682261 0.889704 0.000000
0.715313 0.890296 0.000000
0.748138 0.890888 0.000000
0.780747 0.891480 0.000000
0.813154 0.892072 0.000000
0.845368 0.892664 0.000000
0.877398 0.893256 0.000000
0.909255 0.893848 0.000000
0.940944 0.894440 0.000000
0.972475 0.895032 0.000000
1.000000 0.895624 0.000000
1.000000 0.896215 0.000000
1.000000 0.896807 0.000000
1.000000 0.897398 0.000000
0.000000 0.908915 0.000000
0.000000 0.909506 0.000000
0.047797 0.910096 0.000000
0.094469 0.910686 0.000000
0.137764 0.911276 0.000000
0.179072 0.911867 0.000000
0.218983 0.912457 0.000000
0.257826 0.913047 0.000000
0.295806 0.913637 0.000000
0.333066 0.914227 0.000000
0.369710 0.914816 0.000000
0.405816 0.915406 0.000000
0.441446 0.915996 0.000000
0.476649 0.916586 0.000000
0.511465 0.917175 0.000000
0.545930 0.917765 0.000000
0.580071 0.918354 0.000000
0.613913 0.918944 0.000000
0.647477 0.919533 0.000000
0.680782 0.920122 0.000000
0.713845 0.920712 0.000000
0.746679 0.921301 0.000000
0.779298 0.921890 0.000000
0.811713 0.922479 0.000000
0.843936 0.923068 0.000000
