presets/film_stocks/Kodak_Vision3_200T_5213.cube
# 独寻胶片模拟 -- Kodak Vision3 200T 5213
# Kodak, ISO 200, 2010, negative
TITLE "Kodak Vision3 200T 5213"
LUT_3D_SIZE 5
DOMAIN_MIN 0.0 0.0 0.0
DOMAIN_MAX 1.0 1.0 1.0
0.000000 0.000000 0.000000
0.315026 0.008594 0.000000
0.595004 0.016232 0.000000
0.863121 0.023546 0.000000
1.000000 0.030658 0.000000
0.000000 0.303857 0.000000
0.302809 0.309572 0.000000
0.583478 0.315278 0.000000
0.851977 0.320975 0.000000
1.000000 0.326662 0.000000
0.000000 0.573910 0.000000
0.290549 0.579310 0.000000
0.571931 0.584705 0.000000
0.840821 0.590095 0.000000
1.000000 0.595482 0.000000
0.000000 0.832521 0.000000
0.278241 0.837744 0.000000
0.560363 0.842963 0.000000
0.829650 0.848180 0.000000
1.000000 0.853394 0.000000
0.000000 1.000000 0.000000
0.265884 1.000000 0.000000
0.548773 1.000000 0.000000
0.818467 1.000000 0.000000
1.000000 1.000000 0.000000
0.000000 0.000000 0.291684
0.292618 0.000000 0.284389
0.573878 0.000000 0.277077
0.842702 0.000000 0.269747
1.000000 0.000000 0.262399
0.000000 0.274551 0.287623
0.280318 0.280318 0.280318
0.562314 0.286075 0.272996
0.831534 0.291821 0.265657
1.000000 0.297557 0.258299
0.000000 0.546297 0.283557
0.267970 0.551721 0.276242
0.550728 0.557139 0.268911
0.820352 0.562554 0.261561
1.000000 0.567963 0.254193
0.000000 0.805837 0.279485
0.255570 0.811075 0.272161
0.539120 0.816310 0.264820
0.809157 0.821542 0.257460
1.000000 0.826771 0.250081
0.000000 1.000000 0.275408
0.243116 1.000000 0.268074
0.527489 1.000000 0.260723
0.797948 1.000000 0.253352
1.000000 1.000000 0.245962
0.000000 0.000000 0.550918
0.270054 0.000000 0.544033
0.552682 0.000000 0.537139
0.822237 0.000000 0.530238
1.000000 0.000000 0.523328
0.000000 0.244960 0.547084
0.257663 0.250786 0.540194
0.541077 0.256600 0.533296
0.811045 0.262402 0.526390
1.000000 0.268192 0.519476
0.000000 0.518558 0.543248
0.245219 0.524007 0.536353
0.529451 0.529451 0.529451
0.799838 0.534890 0.522540
1.000000 0.540324 0.515622
0.000000 0.779074 0.539409
0.232717 0.784328 0.532510
0.517801 0.789578 0.525603
0.788617 0.794826 0.518688
1.000000 0.800070 0.511765
0.000000 1.000000 0.535567
0.220154 1.000000 0.528664
0.506128 1.000000 0.521753
0.777382 1.000000 0.514833
1.000000 1.000000 0.507905
0.000000 0.000000 0.799169
0.247320 0.000000 0.792512
0.531412 0.000000 0.785849
0.801727 0.000000 0.779181
1.000000 0.000000 0.772508
0.000000 0.215043 0.795462
0.234828 0.220937 0.788801
0.519766 0.226816 0.782136
0.790509 0.232682 0.775465
1.000000 0.238535 0.768789
0.000000 0.490685 0.791753
0.222275 0.496161 0.785089
0.508097 0.501631 0.778421
0.779276 0.507096 0.771748
1.000000 0.512556 0.765069
0.000000 0.752227 0.788042
0.209659 0.757498 0.781376
0.496403 0.762765 0.774705
0.768028 0.768028 0.768028
1.000000 0.773289 0.761347
0.000000 1.000000 0.784330
0.196974 1.000000 0.777661
0.484685 1.000000 0.770987
0.756766 1.000000 0.764308
1.000000 1.000000 0.757623
0.000000 0.000000 1.000000
0.224395 0.000000 1.000000
0.510065 0.000000 1.000000
0.781170 0.000000 1.000000
1.000000 0.000000 1.000000
0.000000 0.184745 1.000000
0.211790 0.190719 1.000000
0.498376 0.196676 1.000000
0.769925 0.202616 1.000000
1.000000 0.208541 1.000000
0.000000 0.462668 1.000000
0.199117 0.468173 1.000000
0.486662 0.473672 1.000000
0.758665 0.479165 1.000000
1.000000 0.484653 1.000000
0.000000 0.725294 1.000000
0.186370 0.730582 1.000000
0.474922 0.735866 1.000000
0.747390 0.741147 1.000000
1.000000 0.746424 1.000000
0.000000 0.979426 1.000000
0.173545 0.984573 1.000000
0.463157 0.989718 1.000000
0.736100 0.994860 1.000000
1.000000 1.000000 1.000000
