presets/film_stocks/Kodak_Portra_800.cube
# 独寻胶片模拟 -- Kodak Portra 800
# Kodak, ISO 800, 1998, negative
TITLE "Kodak Portra 800"
LUT_3D_SIZE 9
DOMAIN_MIN 0.0 0.0 0.0
DOMAIN_MAX 1.0 1.0 1.0
0.000000 0.000000 0.000000
0.178853 0.006485 0.000000
0.326784 0.011849 0.000000
0.464926 0.016858 0.000000
0.597071 0.021650 0.000000
0.724929 0.026286 0.000000
0.849472 0.030802 0.000000
0.971323 0.035221 0.000000
1.000000 0.039557 0.000000
0.000000 0.173566 0.000000
0.172938 0.177006 0.000000
0.321387 0.180435 0.000000
0.459809 0.183854 0.000000
0.592144 0.187264 0.000000
0.720144 0.190665 0.000000
0.844799 0.194057 0.000000
0.966743 0.197439 0.000000
1.000000 0.200813 0.000000
0.000000 0.317125 0.000000
0.166992 0.320270 0.000000
0.315976 0.323409 0.000000
0.454683 0.326544 0.000000
0.587210 0.329675 0.000000
0.715354 0.332801 0.000000
0.840122 0.335923 0.000000
0.962161 0.339040 0.000000
1.000000 0.342153 0.000000
0.000000 0.451184 0.000000
0.161014 0.454167 0.000000
0.310552 0.457147 0.000000
0.449549 0.460124 0.000000
0.582270 0.463099 0.000000
0.710558 0.466070 0.000000
0.835442 0.469039 0.000000
0.957575 0.472004 0.000000
1.000000 0.474967 0.000000
0.000000 0.579424 0.000000
0.155003 0.582297 0.000000
0.305113 0.585168 0.000000
0.444406 0.588038 0.000000
0.577324 0.590905 0.000000
0.705758 0.593770 0.000000
0.830758 0.596633 0.000000
0.952986 0.599494 0.000000
1.000000 0.602353 0.000000
0.000000 0.703503 0.000000
0.148957 0.706294 0.000000
0.299659 0.709084 0.000000
0.439254 0.711872 0.000000
0.572372 0.714658 0.000000
0.700954 0.717443 0.000000
0.826069 0.720226 0.000000
0.948393 0.723007 0.000000
1.000000 0.725787 0.000000
0.000000 0.824364 0.000000
0.142873 0.827090 0.000000
0.294191 0.829814 0.000000
0.434093 0.832537 0.000000
0.567413 0.835259 0.000000
0.696144 0.837980 0.000000
0.821377 0.840699 0.000000
0.943797 0.843417 0.000000
1.000000 0.846133 0.000000
0.000000 0.942613 0.000000
0.136751 0.945285 0.000000
0.288707 0.947956 0.000000
0.428923 0.950625 0.000000
0.562447 0.953293 0.000000
0.691329 0.955960 0.000000
0.816681 0.958626 0.000000
0.939198 0.961291 0.000000
1.000000 0.963955 0.000000
0.000000 1.000000 0.000000
0.130587 1.000000 0.000000
0.283208 1.000000 0.000000
0.423744 1.000000 0.000000
0.557475 1.000000 0.000000
0.686509 1.000000 0.000000
0.811980 1.000000 0.000000
0.934595 1.000000 0.000000
1.000000 1.000000 0.000000
0.000000 0.000000 0.172234
0.169909 0.000000 0.166719
0.318629 0.000000 0.161177
0.457196 0.000000 0.155606
0.589628 0.001732 0.150005
0.717701 0.007704 0.144372
0.842415 0.012970 0.138706
0.964407 0.017924 0.133005
1.000000 0.022677 0.127267
0.000000 0.160468 0.169476
0.163947 0.163947 0.163947
0.313212 0.167416 0.158391
0.452066 0.170873 0.152805
0.584692 0.174321 0.147188
0.712909 0.177758 0.141538
0.837736 0.181185 0.135855
0.959822 0.184602 0.130136
1.000000 0.188010 0.124379
0.000000 0.305194 0.166711
0.157953 0.308357 0.161168
0.307780 0.311514 0.155597
0.446928 0.314667 0.149996
0.579749 0.317814 0.144363
0.708111 0.320958 0.138697
0.833054 0.324096 0.132996
0.955235 0.327230 0.127258
1.000000 0.330360 0.121481
0.000000 0.439879 0.163939
0.151924 0.442873 0.158382
0.302333 0.445864 0.152796
0.441780 0.448852 0.147179
0.574799 0.451838 0.141529
0.703309 0.454820 0.135846
0.828367 0.457800 0.130127
0.950644 0.460776 0.124370
1.000000 0.463750 0.118572
0.000000 0.568540 0.161159
0.145859 0.571421 0.155588
0.296872 0.574301 0.149987
0.436623 0.577178 0.144354
0.569843 0.580053 0.138688
0.698501 0.582926 0.132987
0.823677 0.585797 0.127249
0.946050 0.588666 0.121472
1.000000 0.591533 0.115653
0.000000 0.692934 0.158373
0.139756 0.695732 0.152787
0.291396 0.698527 0.147170
0.431458 0.701322 0.141520
0.564881 0.704114 0.135837
0.693689 0.706905 0.130118
0.818982 0.709694 0.124361
0.941452 0.712482 0.118563
1.000000 0.715268 0.112723
0.000000 0.814046 0.155579
0.133613 0.816777 0.149978
0.285905 0.819506 0.144345
0.426283 0.822234 0.138679
0.559912 0.824961 0.132977
0.688872 0.827687 0.127239
0.814284 0.830411 0.121462
0.936851 0.833134 0.115644
1.000000 0.835855 0.109781
0.000000 0.932502 0.152778
0.127427 0.935178 0.147161
0.280397 0.937853 0.141511
0.421098 0.940526 0.135828
0.554937 0.943199 0.130109
0.684049 0.945870 0.124351
0.809581 0.948540 0.118554
0.932247 0.951210 0.112713
1.000000 0.953878 0.106827
0.000000 1.000000 0.149969
0.121195 1.000000 0.144336
0.274873 1.000000 0.138670
0.415904 1.000000 0.132968
0.549955 1.000000 0.127230
0.679222 1.000000 0.121453
0.804875 1.000000 0.115634
0.927639 1.000000 0.109771
1.000000 1.000000 0.103861
0.000000 0.000000 0.314692
0.160894 0.000000 0.309659
0.310443 0.000000 0.304615
0.449447 0.000000 0.299558
0.582171 0.000000 0.294488
0.710463 0.000000 0.289406
0.835348 0.000000 0.284309
0.957483 0.000000 0.279199
1.000000 0.003164 0.274075
0.000000 0.147207 0.312173
0.154883 0.150731 0.307135
0.305004 0.154243 0.302084
0.444303 0.157743 0.297021
0.577225 0.161231 0.291945
0.705663 0.164708 0.286855
0.830664 0.168174 0.281752
0.952894 0.171629 0.276635
1.000000 0.175074 0.271504
0.000000 0.293193 0.309651
0.148835 0.296374 0.304607
0.299550 0.299550 0.299550
0.439151 0.302721 0.294480
0.572273 0.305887 0.289397
0.700858 0.309049 0.284301
0.825976 0.312205 0.279191
0.948301 0.315356 0.274067
1.000000 0.318503 0.268928
0.000000 0.428529 0.307127
0.142751 0.431535 0.302076
0.294081 0.434538 0.297013
0.433990 0.437538 0.291937
0.567314 0.440535 0.286847
0.696048 0.443528 0.281744
0.821283 0.446519 0.276627
0.943705 0.449507 0.271495
1.000000 0.452491 0.266350
0.000000 0.557624 0.304599
0.136628 0.560514 0.299542
0.288597 0.563402 0.294472
0.428820 0.566288 0.289389
0.562348 0.569171 0.284293
0.691233 0.572052 0.279183
0.816587 0.574931 0.274059
0.939106 0.577808 0.268920
1.000000 0.580683 0.263767
0.000000 0.682341 0.302068
0.130463 0.685145 0.297005
0.283098 0.687947 0.291929
0.423640 0.690748 0.286839
0.557376 0.693547 0.281736
0.686413 0.696344 0.276619
0.811886 0.699140 0.271487
0.934503 0.701933 0.266341
1.000000 0.704726 0.261180
0.000000 0.803707 0.299534
0.124254 0.806444 0.294464
0.277582 0.809178 0.289381
0.418451 0.811912 0.284285
0.552397 0.814644 0.279175
0.681588 0.817375 0.274051
0.807182 0.820104 0.268912
0.929897 0.822832 0.263759
1.000000 0.825558 0.258590
0.000000 0.922374 0.296997
0.117999 0.925054 0.291920
0.272050 0.927733 0.286831
0.413252 0.930411 0.281728
0.547411 0.933088 0.276610
0.676758 0.935764 0.271479
0.802473 0.938438 0.266333
0.925288 0.941112 0.261172
1.000000 0.943784 0.255996
0.000000 1.000000 0.294456
0.111693 1.000000 0.289373
0.266501 1.000000 0.284277
0.408043 1.000000 0.279167
0.542419 1.000000 0.274043
0.671922 1.000000 0.268904
0.797760 1.000000 0.263751
0.920675 1.000000 0.258582
1.000000 1.000000 0.253398
0.000000 0.000000 0.447721
0.151803 0.000000 0.442951
0.302224 0.000000 0.438172
0.441677 0.000000 0.433385
0.574700 0.000000 0.428591
0.703213 0.000000 0.423789
0.828273 0.000000 0.418978
0.950552 0.000000 0.414159
1.000000 0.000000 0.409332
0.000000 0.133764 0.445333
0.145737 0.137338 0.440558
0.296763 0.140899 0.435776
0.436520 0.144446 0.430985
0.569744 0.147980 0.426187
0.698405 0.151501 0.421380
0.823583 0.155010 0.416566
0.945958 0.158508 0.411742
1.000000 0.161994 0.406911
0.000000 0.281117 0.442943
0.139634 0.284318 0.438164
0.291287 0.287514 0.433378
0.431355 0.290705 0.428583
0.564782 0.293890 0.423781
0.693593 0.297070 0.418970
0.818889 0.300245 0.414151
0.941360 0.303415 0.409324
1.000000 0.306580 0.404488
0.000000 0.417135 0.440551
0.133489 0.420153 0.435768
0.285795 0.423168 0.430978
0.426179 0.426179 0.426179
0.559813 0.429188 0.421373
0.688775 0.432193 0.416558
0.814190 0.435195 0.411735
0.936759 0.438195 0.406903
1.000000 0.441191 0.402063
0.000000 0.546677 0.438157
0.127302 0.549575 0.433370
0.280287 0.552472 0.428576
0.420995 0.555366 0.423773
0.554838 0.558257 0.418963
0.683953 0.561147 0.414144
0.809487 0.564034 0.409316
0.932155 0.566919 0.404480
1.000000 0.569802 0.399636
0.000000 0.671723 0.435761
0.121070 0.674534 0.430970
0.274763 0.677343 0.426172
0.415801 0.680150 0.421365
0.549855 0.682955 0.416550
0.679125 0.685759 0.411727
0.804781 0.688561 0.406895
0.927547 0.691361 0.402055
1.000000 0.694160 0.397206
0.000000 0.793349 0.433363
0.114789 0.796091 0.428568
0.269222 0.798831 0.423766
0.410597 0.801570 0.418955
0.544866 0.804307 0.414136
0.674292 0.807043 0.409309
0.800070 0.809777 0.404473
0.922936 0.812510 0.399628
1.000000 0.815242 0.394774
0.000000 0.912229 0.430963
0.108456 0.914913 0.426164
0.263664 0.917597 0.421358
0.405383 0.920279 0.416543
0.539870 0.922961 0.411720
0.669454 0.925641 0.406888
0.795355 0.928320 0.402048
0.918321 0.930998 0.397198
1.000000 0.933674 0.392340
0.000000 1.000000 0.428561
0.102068 1.000000 0.423758
0.258088 1.000000 0.418947
0.400159 1.000000 0.414128
0.534868 1.000000 0.409301
0.664611 1.000000 0.404465
0.790636 1.000000 0.399620
0.913703 1.000000 0.394767
1.000000 1.000000 0.389904
0.000000 0.000000 0.574977
0.142629 0.000000 0.570382
0.293972 0.000000 0.565783
0.433887 0.000000 0.561177
0.567214 0.000000 0.556566
0.695951 0.000000 0.551949
0.821189 0.000000 0.547326
0.943613 0.000000 0.542698
1.000000 0.000000 0.538063
0.000000 0.120114 0.572677
0.136505 0.123746 0.568080
0.288488 0.127362 0.563477
0.428716 0.130962 0.558869
0.562249 0.134548 0.554255
0.691137 0.138119 0.549635
0.816493 0.141677 0.545009
0.939014 0.145221 0.540378
1.000000 0.148752 0.535740
0.000000 0.268963 0.570375
0.130340 0.272186 0.565775
0.282988 0.275402 0.561170
0.423536 0.278613 0.556559
0.557276 0.281819 0.551942
0.686316 0.285019 0.547319
0.811792 0.288214 0.542691
0.934411 0.291403 0.538056
1.000000 0.294587 0.533416
0.000000 0.405693 0.568072
0.124130 0.408724 0.563470
0.277472 0.411751 0.558861
0.418347 0.414775 0.554247
0.552297 0.417796 0.549628
0.681491 0.420813 0.545002
0.807088 0.423828 0.540370
0.929805 0.426839 0.535733
1.000000 0.429846 0.531089
0.000000 0.535696 0.565768
0.117873 0.538604 0.561163
0.271939 0.541509 0.556551
0.413148 0.544411 0.551934
0.547312 0.547312 0.547312
0.676661 0.550210 0.542683
0.802379 0.553106 0.538049
0.925196 0.555999 0.533408
1.000000 0.558891 0.528762
0.000000 0.661080 0.563462
0.111566 0.663897 0.558854
0.266390 0.666713 0.554240
0.407939 0.669527 0.549620
0.542319 0.672339 0.544995
0.671826 0.675149 0.540363
0.797666 0.677958 0.535726
0.920583 0.680764 0.531082
1.000000 0.683569 0.526432
0.000000 0.782971 0.561155
0.105205 0.785718 0.556544
0.260823 0.788463 0.551927
0.402720 0.791207 0.547304
0.537320 0.793950 0.542676
0.666985 0.796691 0.538041
0.792949 0.799431 0.533401
0.915966 0.802169 0.528754
1.000000 0.804906 0.524102
0.000000 0.902067 0.558847
0.098786 0.904756 0.554233
0.255238 0.907444 0.549613
0.397491 0.910131 0.544987
0.532313 0.912817 0.540356
0.662139 0.915501 0.535718
0.788227 0.918185 0.531075
0.911346 0.920867 0.526425
1.000000 0.923548 0.521769
0.000000 1.000000 0.556537
0.092304 1.000000 0.551920
0.249635 1.000000 0.547297
0.392251 1.000000 0.542669
0.527300 1.000000 0.538034
0.657288 1.000000 0.533394
0.783502 1.000000 0.528747
0.906723 1.000000 0.524094
1.000000 1.000000 0.519435
0.000000 0.000000 0.698104
0.133366 0.000000 0.693642
0.285685 0.000000 0.689175
0.426076 0.000000 0.684705
0.559714 0.000000 0.680230
0.688679 0.000000 0.675750
0.814096 0.000000 0.671266
0.936667 0.000000 0.666778
1.000000 0.000000 0.662285
0.000000 0.106228 0.695870
0.127178 0.109926 0.691405
0.280177 0.113605 0.686937
0.420891 0.117267 0.682464
0.554738 0.120911 0.677987
0.683856 0.124539 0.673505
0.809393 0.128152 0.669019
0.932063 0.131749 0.664529
1.000000 0.135331 0.660033
0.000000 0.256726 0.693635
0.120945 0.259971 0.689168
0.274652 0.263210 0.684698
0.415697 0.266443 0.680223
0.549756 0.269669 0.675743
0.679029 0.272891 0.671259
0.804687 0.276106 0.666771
0.927455 0.279316 0.662278
1.000000 0.282520 0.657781
0.000000 0.394203 0.691398
0.114663 0.397247 0.686930
0.269111 0.400287 0.682457
0.410493 0.403324 0.677980
0.544766 0.406357 0.673498
0.674196 0.409387 0.669012
0.799976 0.412414 0.664521
0.922844 0.415437 0.660026
1.000000 0.418457 0.655526
0.000000 0.524682 0.689161
0.108329 0.527598 0.684691
0.263553 0.530512 0.680216
0.405278 0.533424 0.675736
0.539770 0.536333 0.671252
0.669358 0.539240 0.666764
0.795261 0.542145 0.662271
0.918229 0.545047 0.657773
1.000000 0.547947 0.653271
0.000000 0.650411 0.686923
0.101939 0.653236 0.682450
0.257977 0.656058 0.677973
0.400054 0.658879 0.673491
0.534767 0.661697 0.669005
0.664514 0.664514 0.664514
0.790541 0.667330 0.660019
0.913610 0.670143 0.655519
1.000000 0.672955 0.651015
0.000000 0.772572 0.684683
0.095489 0.775324 0.680208
0.252383 0.778075 0.675729
0.394820 0.780825 0.671245
0.529757 0.783573 0.666757
0.659666 0.786319 0.662264
0.785818 0.789064 0.657766
0.908989 0.791808 0.653264
1.000000 0.794550 0.648757
0.000000 0.891888 0.682443
0.088972 0.894582 0.677966
0.246770 0.897274 0.673484
0.389575 0.899966 0.668998
0.524740 0.902656 0.664507
0.654812 0.905345 0.660012
0.781090 0.908033 0.655512
0.904363 0.910719 0.651008
1.000000 0.913405 0.646499
0.000000 1.000000 0.680201
0.082382 1.000000 0.675722
0.241138 1.000000 0.671238
0.384320 1.000000 0.666750
0.519716 1.000000 0.662257
0.649952 1.000000 0.657759
0.776358 1.000000 0.653257
0.899735 1.000000 0.648750
1.000000 1.000000 0.644239
0.000000 0.000000 0.818037
0.124005 0.000000 0.813681
0.277361 0.000000 0.809320
0.418243 0.000000 0.804957
0.552198 0.000000 0.800589
0.681395 0.000000 0.796218
0.806994 0.000000 0.791844
0.929713 0.000000 0.787466
1.000000 0.000000 0.783084
0.000000 0.092062 0.815856
0.117748 0.095839 0.811497
0.271828 0.099593 0.807135
0.413044 0.103326 0.802770
0.547212 0.107039 0.798401
0.676565 0.110733 0.794028
0.802285 0.114408 0.789652
0.925104 0.118066 0.785272
1.000000 0.121707 0.780888
0.000000 0.244401 0.813674
0.111440 0.247670 0.809313
0.266279 0.250932 0.804950
0.407835 0.254188 0.800582
0.542219 0.257437 0.796211
0.671729 0.260681 0.791837
0.797572 0.263918 0.787459
0.920490 0.267150 0.783077
1.000000 0.270376 0.778691
0.000000 0.382662 0.811490
0.105078 0.385720 0.807128
0.260711 0.388773 0.802763
0.402615 0.391823 0.798394
0.537220 0.394870 0.794021
0.666888 0.397913 0.789645
0.792854 0.400952 0.785265
0.915874 0.403988 0.780881
1.000000 0.407021 0.776494
0.000000 0.513633 0.809306
0.098657 0.516558 0.804943
0.255126 0.519482 0.800575
0.397386 0.522402 0.796204
0.532213 0.525321 0.791830
0.662042 0.528237 0.787452
0.788133 0.531150 0.783070
0.911254 0.534061 0.778684
1.000000 0.536970 0.774295
0.000000 0.639716 0.807122
0.092174 0.642548 0.802756
0.249523 0.645377 0.798387
0.392146 0.648204 0.794014
0.527200 0.651030 0.789638
0.657191 0.653854 0.785258
0.783407 0.656676 0.780874
0.906630 0.659496 0.776487
1.000000 0.662315 0.772096
0.000000 0.762152 0.804936
0.085621 0.764910 0.800568
0.243900 0.767666 0.796197
0.386896 0.770421 0.791823
0.522179 0.773175 0.787445
0.652334 0.775927 0.783063
0.778677 0.778677 0.778677
0.902003 0.781427 0.774288
1.000000 0.784174 0.769895
0.000000 0.881691 0.802749
0.078992 0.884390 0.798380
0.238258 0.887087 0.794007
0.381635 0.889783 0.789631
0.517151 0.892478 0.785251
0.647472 0.895172 0.780867
0.773943 0.897864 0.776480
0.897373 0.900555 0.772089
1.000000 0.903245 0.767694
0.000000 0.998840 0.800561
0.072278 1.000000 0.796191
0.232596 1.000000 0.791816
0.376363 1.000000 0.787438
0.512116 1.000000 0.783056
0.642604 1.000000 0.778671
0.769205 1.000000 0.774281
0.892738 1.000000 0.769888
1.000000 1.000000 0.765492
0.000000 0.000000 0.935379
0.114537 0.000000 0.931109
0.269000 0.000000 0.926837
0.410388 0.000000 0.922561
0.544667 0.000000 0.918282
0.674099 0.000000 0.914001
0.799882 0.000000 0.909716
0.922751 0.000000 0.905428
1.000000 0.000000 0.901138
0.000000 0.077560 0.933241
0.108202 0.081433 0.928970
0.263441 0.085278 0.924696
0.405174 0.089097 0.920419
0.539671 0.092891 0.916139
0.669261 0.096663 0.911855
0.795166 0.100412 0.907569
0.918136 0.104141 0.903280
1.000000 0.107850 0.898988
0.000000 0.231982 0.931103
0.101811 0.235276 0.926830
0.257865 0.238563 0.922554
0.399950 0.241844 0.918276
0.534667 0.245118 0.913994
0.664418 0.248385 0.909709
0.790447 0.251646 0.905422
0.913518 0.254900 0.901131
1.000000 0.258148 0.896837
0.000000 0.371069 0.928963
0.095359 0.374141 0.924689
0.252271 0.377208 0.920412
0.394715 0.380272 0.916132
0.529657 0.383332 0.911849
0.659569 0.386389 0.907562
0.785724 0.389442 0.903273
0.908896 0.392491 0.898981
1.000000 0.395537 0.894686
0.000000 0.502548 0.926823
0.088841 0.505483 0.922547
0.246658 0.508416 0.918269
0.389470 0.511346 0.913987
0.524640 0.514274 0.909702
0.654715 0.517199 0.905415
0.780996 0.520122 0.901124
0.904271 0.523042 0.896830
1.000000 0.525960 0.892533
0.000000 0.628994 0.924682
0.082250 0.631833 0.920405
0.241025 0.634669 0.916125
0.384215 0.637504 0.911842
0.519616 0.640337 0.907556
0.649855 0.643167 0.903266
0.776264 0.645996 0.898974
0.899642 0.648824 0.894679
1.000000 0.651649 0.890380
0.000000 0.751710 0.922541
0.075579 0.754474 0.918262
0.235373 0.757236 0.913980
0.378948 0.759997 0.909696
0.514584 0.762756 0.905408
0.644990 0.765514 0.901117
0.771527 0.768270 0.896823
0.895010 0.771024 0.892527
1.000000 0.773778 0.888227
0.000000 0.871477 0.920398
0.068818 0.874180 0.916118
0.229700 0.876882 0.911835
0.373671 0.879583 0.907549
0.509545 0.882282 0.903260
0.640120 0.884981 0.898967
0.766786 0.887678 0.894672
0.890373 0.890373 0.890373
1.000000 0.893068 0.886072
0.000000 0.988816 0.918255
0.061956 0.991468 0.913974
0.224007 0.994120 0.909689
0.368382 0.996770 0.905401
0.504498 0.999420 0.901110
0.635244 1.000000 0.896817
0.762041 1.000000 0.892520
0.885734 1.000000 0.888220
1.000000 1.000000 0.883917
0.000000 0.000000 1.000000
0.104950 0.000000 1.000000
0.260600 0.000000 1.000000
0.402511 0.000000 1.000000
0.537120 0.000000 1.000000
0.666792 0.000000 1.000000
0.792760 0.000000 1.000000
0.915782 0.000000 1.000000
1.000000 0.000000 1.000000
0.000000 0.062637 1.000000
0.098528 0.066631 1.000000
0.255014 0.070590 1.000000
0.397282 0.074516 1.000000
0.532113 0.078411 1.000000
0.661945 0.082277 1.000000
0.788039 0.086116 1.000000
0.911162 0.089930 1.000000
1.000000 0.093719 1.000000
0.000000 0.219462 1.000000
0.092043 0.222784 1.000000
0.249410 0.226098 1.000000
0.392042 0.229404 1.000000
0.527099 0.232704 1.000000
0.657094 0.235997 1.000000
0.783313 0.239282 1.000000
0.906538 0.242561 1.000000
1.000000 0.245834 1.000000
0.000000 0.359422 1.000000
0.085489 0.362508 1.000000
0.243788 0.365590 1.000000
0.386791 0.368668 1.000000
0.522079 0.371742 1.000000
0.652237 0.374813 1.000000
0.778583 0.377880 1.000000
0.901911 0.380943 1.000000
1.000000 0.384002 1.000000
0.000000 0.491426 1.000000
0.078858 0.494371 1.000000
0.238145 0.497314 1.000000
0.381530 0.500253 1.000000
0.517050 0.503191 1.000000
0.647375 0.506126 1.000000
0.773849 0.509058 1.000000
0.897280 0.511987 1.000000
1.000000 0.514915 1.000000
0.000000 0.618245 1.000000
0.072143 0.621091 1.000000
0.232483 0.623934 1.000000
0.376258 0.626776 1.000000
0.512015 0.629616 1.000000
0.642507 0.632454 1.000000
0.769110 0.635290 1.000000
0.892646 0.638124 1.000000
1.000000 0.640957 1.000000
0.000000 0.741247 1.000000
0.065332 0.744016 1.000000
0.226799 0.746784 1.000000
0.370975 0.749551 1.000000
0.506972 0.752316 1.000000
0.637634 0.755079 1.000000
0.764367 0.757841 1.000000
0.888008 0.760601 1.000000
1.000000 0.763360 1.000000
0.000000 0.861245 1.000000
0.058413 0.863953 1.000000
0.221095 0.866660 1.000000
0.365680 0.869365 1.000000
0.501921 0.872069 1.000000
0.632755 0.874772 1.000000
0.759619 0.877474 1.000000
0.883366 0.880174 1.000000
1.000000 0.882874 1.000000
0.000000 0.978777 1.000000
0.051368 0.981434 1.000000
0.215368 0.984089 1.000000
0.360374 0.986744 1.000000
0.496863 0.989397 1.000000
0.627870 0.992049 1.000000
0.754867 0.994701 1.000000
0.878721 0.997351 1.000000
1.000000 1.000000 1.000000
