presets/film_stocks/Kodak_Supra_Endura_Paper.cube
# 独寻胶片模拟 -- Kodak Supra Endura Paper
# Kodak, ISO 0, 0, negative
TITLE "Kodak Supra Endura Paper"
LUT_3D_SIZE 9
DOMAIN_MIN 0.0 0.0 0.0
DOMAIN_MAX 1.0 1.0 1.0
0.000000 0.000000 0.000000
0.174221 0.000000 0.000000
0.311937 0.000000 0.000000
0.438574 0.000000 0.000000
0.558513 0.000000 0.000000
0.673706 0.000000 0.000000
0.785253 0.000000 0.000000
0.893855 0.000000 0.000000
1.000000 0.000000 0.000000
0.000000 0.174221 0.000000
0.174221 0.174221 0.000000
0.311937 0.174221 0.000000
0.438574 0.174221 0.000000
0.558513 0.174221 0.000000
0.673706 0.174221 0.000000
0.785253 0.174221 0.000000
0.893855 0.174221 0.000000
1.000000 0.174221 0.000000
0.000000 0.311937 0.000000
0.174221 0.311937 0.000000
0.311937 0.311937 0.000000
0.438574 0.311937 0.000000
0.558513 0.311937 0.000000
0.673706 0.311937 0.000000
0.785253 0.311937 0.000000
0.893855 0.311937 0.000000
1.000000 0.311937 0.000000
0.000000 0.438574 0.000000
0.174221 0.438574 0.000000
0.311937 0.438574 0.000000
0.438574 0.438574 0.000000
0.558513 0.438574 0.000000
0.673706 0.438574 0.000000
0.785253 0.438574 0.000000
0.893855 0.438574 0.000000
1.000000 0.438574 0.000000
0.000000 0.558513 0.000000
0.174221 0.558513 0.000000
0.311937 0.558513 0.000000
0.438574 0.558513 0.000000
0.558513 0.558513 0.000000
0.673706 0.558513 0.000000
0.785253 0.558513 0.000000
0.893855 0.558513 0.000000
1.000000 0.558513 0.000000
0.000000 0.673706 0.000000
0.174221 0.673706 0.000000
0.311937 0.673706 0.000000
0.438574 0.673706 0.000000
0.558513 0.673706 0.000000
0.673706 0.673706 0.000000
0.785253 0.673706 0.000000
0.893855 0.673706 0.000000
1.000000 0.673706 0.000000
0.000000 0.785253 0.000000
0.174221 0.785253 0.000000
0.311937 0.785253 0.000000
0.438574 0.785253 0.000000
0.558513 0.785253 0.000000
0.673706 0.785253 0.000000
0.785253 0.785253 0.000000
0.893855 0.785253 0.000000
1.000000 0.785253 0.000000
0.000000 0.893855 0.000000
0.174221 0.893855 0.000000
0.311937 0.893855 0.000000
0.438574 0.893855 0.000000
0.558513 0.893855 0.000000
0.673706 0.893855 0.000000
0.785253 0.893855 0.000000
0.893855 0.893855 0.000000
1.000000 0.893855 0.000000
0.000000 1.000000 0.000000
0.174221 1.000000 0.000000
0.311937 1.000000 0.000000
0.438574 1.000000 0.000000
0.558513 1.000000 0.000000
0.673706 1.000000 0.000000
0.785253 1.000000 0.000000
0.893855 1.000000 0.000000
1.000000 1.000000 0.000000
0.000000 0.000000 0.174221
0.174221 0.000000 0.174221
0.311937 0.000000 0.174221
0.438574 0.000000 0.174221
0.558513 0.000000 0.174221
0.673706 0.000000 0.174221
0.785253 0.000000 0.174221
0.893855 0.000000 0.174221
1.000000 0.000000 0.174221
0.000000 0.174221 0.174221
0.174221 0.174221 0.174221
0.311937 0.174221 0.174221
0.438574 0.174221 0.174221
0.558513 0.174221 0.174221
0.673706 0.174221 0.174221
0.785253 0.174221 0.174221
0.893855 0.174221 0.174221
1.000000 0.174221 0.174221
0.000000 0.311937 0.174221
0.174221 0.311937 0.174221
0.311937 0.311937 0.174221
0.438574 0.311937 0.174221
0.558513 0.311937 0.174221
0.673706 0.311937 0.174221
0.785253 0.311937 0.174221
0.893855 0.311937 0.174221
1.000000 0.311937 0.174221
0.000000 0.438574 0.174221
0.174221 0.438574 0.174221
0.311937 0.438574 0.174221
0.438574 0.438574 0.174221
0.558513 0.438574 0.174221
0.673706 0.438574 0.174221
0.785253 0.438574 0.174221
0.893855 0.438574 0.174221
1.000000 0.438574 0.174221
0.000000 0.558513 0.174221
0.174221 0.558513 0.174221
0.311937 0.558513 0.174221
0.438574 0.558513 0.174221
0.558513 0.558513 0.174221
0.673706 0.558513 0.174221
0.785253 0.558513 0.174221
0.893855 0.558513 0.174221
1.000000 0.558513 0.174221
0.000000 0.673706 0.174221
0.174221 0.673706 0.174221
0.311937 0.673706 0.174221
0.438574 0.673706 0.174221
0.558513 0.673706 0.174221
0.673706 0.673706 0.174221
0.785253 0.673706 0.174221
0.893855 0.673706 0.174221
1.000000 0.673706 0.174221
0.000000 0.785253 0.174221
0.174221 0.785253 0.174221
0.311937 0.785253 0.174221
0.438574 0.785253 0.174221
0.558513 0.785253 0.174221
0.673706 0.785253 0.174221
0.785253 0.785253 0.174221
0.893855 0.785253 0.174221
1.000000 0.785253 0.174221
0.000000 0.893855 0.174221
0.174221 0.893855 0.174221
0.311937 0.893855 0.174221
0.438574 0.893855 0.174221
0.558513 0.893855 0.174221
0.673706 0.893855 0.174221
0.785253 0.893855 0.174221
0.893855 0.893855 0.174221
1.000000 0.893855 0.174221
0.000000 1.000000 0.174221
0.174221 1.000000 0.174221
0.311937 1.000000 0.174221
0.438574 1.000000 0.174221
0.558513 1.000000 0.174221
0.673706 1.000000 0.174221
0.785253 1.000000 0.174221
0.893855 1.000000 0.174221
1.000000 1.000000 0.174221
0.000000 0.000000 0.311937
0.174221 0.000000 0.311937
0.311937 0.000000 0.311937
0.438574 0.000000 0.311937
0.558513 0.000000 0.311937
0.673706 0.000000 0.311937
0.785253 0.000000 0.311937
0.893855 0.000000 0.311937
1.000000 0.000000 0.311937
0.000000 0.174221 0.311937
0.174221 0.174221 0.311937
0.311937 0.174221 0.311937
0.438574 0.174221 0.311937
0.558513 0.174221 0.311937
0.673706 0.174221 0.311937
0.785253 0.174221 0.311937
0.893855 0.174221 0.311937
1.000000 0.174221 0.311937
0.000000 0.311937 0.311937
0.174221 0.311937 0.311937
0.311937 0.311937 0.311937
0.438574 0.311937 0.311937
0.558513 0.311937 0.311937
0.673706 0.311937 0.311937
0.785253 0.311937 0.311937
0.893855 0.311937 0.311937
1.000000 0.311937 0.311937
0.000000 0.438574 0.311937
0.174221 0.438574 0.311937
0.311937 0.438574 0.311937
0.438574 0.438574 0.311937
0.558513 0.438574 0.311937
0.673706 0.438574 0.311937
0.785253 0.438574 0.311937
0.893855 0.438574 0.311937
1.000000 0.438574 0.311937
0.000000 0.558513 0.311937
0.174221 0.558513 0.311937
0.311937 0.558513 0.311937
0.438574 0.558513 0.311937
0.558513 0.558513 0.311937
0.673706 0.558513 0.311937
0.785253 0.558513 0.311937
0.893855 0.558513 0.311937
1.000000 0.558513 0.311937
0.000000 0.673706 0.311937
0.174221 0.673706 0.311937
0.311937 0.673706 0.311937
0.438574 0.673706 0.311937
0.558513 0.673706 0.311937
0.673706 0.673706 0.311937
0.785253 0.673706 0.311937
0.893855 0.673706 0.311937
1.000000 0.673706 0.311937
0.000000 0.785253 0.311937
0.174221 0.785253 0.311937
0.311937 0.785253 0.311937
0.438574 0.785253 0.311937
0.558513 0.785253 0.311937
0.673706 0.785253 0.311937
0.785253 0.785253 0.311937
0.893855 0.785253 0.311937
1.000000 0.785253 0.311937
0.000000 0.893855 0.311937
0.174221 0.893855 0.311937
0.311937 0.893855 0.311937
0.438574 0.893855 0.311937
0.558513 0.893855 0.311937
0.673706 0.893855 0.311937
0.785253 0.893855 0.311937
0.893855 0.893855 0.311937
1.000000 0.893855 0.311937
0.000000 1.000000 0.311937
0.174221 1.000000 0.311937
0.311937 1.000000 0.311937
0.438574 1.000000 0.311937
0.558513 1.000000 0.311937
0.673706 1.000000 0.311937
0.785253 1.000000 0.311937
0.893855 1.000000 0.311937
1.000000 1.000000 0.311937
0.000000 0.000000 0.438574
0.174221 0.000000 0.438574
0.311937 0.000000 0.438574
0.438574 0.000000 0.438574
0.558513 0.000000 0.438574
0.673706 0.000000 0.438574
0.785253 0.000000 0.438574
0.893855 0.000000 0.438574
1.000000 0.000000 0.438574
0.000000 0.174221 0.438574
0.174221 0.174221 0.438574
0.311937 0.174221 0.438574
0.438574 0.174221 0.438574
0.558513 0.174221 0.438574
0.673706 0.174221 0.438574
0.785253 0.174221 0.438574
0.893855 0.174221 0.438574
1.000000 0.174221 0.438574
0.000000 0.311937 0.438574
0.174221 0.311937 0.438574
0.311937 0.311937 0.438574
0.438574 0.311937 0.438574
0.558513 0.311937 0.438574
0.673706 0.311937 0.438574
0.785253 0.311937 0.438574
0.893855 0.311937 0.438574
1.000000 0.311937 0.438574
0.000000 0.438574 0.438574
0.174221 0.438574 0.438574
0.311937 0.438574 0.438574
0.438574 0.438574 0.438574
0.558513 0.438574 0.438574
0.673706 0.438574 0.438574
0.785253 0.438574 0.438574
0.893855 0.438574 0.438574
1.000000 0.438574 0.438574
0.000000 0.558513 0.438574
0.174221 0.558513 0.438574
0.311937 0.558513 0.438574
0.438574 0.558513 0.438574
0.558513 0.558513 0.438574
0.673706 0.558513 0.438574
0.785253 0.558513 0.438574
0.893855 0.558513 0.438574
1.000000 0.558513 0.438574
0.000000 0.673706 0.438574
0.174221 0.673706 0.438574
0.311937 0.673706 0.438574
0.438574 0.673706 0.438574
0.558513 0.673706 0.438574
0.673706 0.673706 0.438574
0.785253 0.673706 0.438574
0.893855 0.673706 0.438574
1.000000 0.673706 0.438574
0.000000 0.785253 0.438574
0.174221 0.785253 0.438574
0.311937 0.785253 0.438574
0.438574 0.785253 0.438574
0.558513 0.785253 0.438574
0.673706 0.785253 0.438574
0.785253 0.785253 0.438574
0.893855 0.785253 0.438574
1.000000 0.785253 0.438574
0.000000 0.893855 0.438574
0.174221 0.893855 0.438574
0.311937 0.893855 0.438574
0.438574 0.893855 0.438574
0.558513 0.893855 0.438574
0.673706 0.893855 0.438574
0.785253 0.893855 0.438574
0.893855 0.893855 0.438574
1.000000 0.893855 0.438574
0.000000 1.000000 0.438574
0.174221 1.000000 0.438574
0.311937 1.000000 0.438574
0.438574 1.000000 0.438574
0.558513 1.000000 0.438574
0.673706 1.000000 0.438574
0.785253 1.000000 0.438574
0.893855 1.000000 0.438574
1.000000 1.000000 0.438574
0.000000 0.000000 0.558513
0.174221 0.000000 0.558513
0.311937 0.000000 0.558513
0.438574 0.000000 0.558513
0.558513 0.000000 0.558513
0.673706 0.000000 0.558513
0.785253 0.000000 0.558513
0.893855 0.000000 0.558513
1.000000 0.000000 0.558513
0.000000 0.174221 0.558513
0.174221 0.174221 0.558513
0.311937 0.174221 0.558513
0.438574 0.174221 0.558513
0.558513 0.174221 0.558513
0.673706 0.174221 0.558513
0.785253 0.174221 0.558513
0.893855 0.174221 0.558513
1.000000 0.174221 0.558513
0.000000 0.311937 0.558513
0.174221 0.311937 0.558513
0.311937 0.311937 0.558513
0.438574 0.311937 0.558513
0.558513 0.311937 0.558513
0.673706 0.311937 0.558513
0.785253 0.311937 0.558513
0.893855 0.311937 0.558513
1.000000 0.311937 0.558513
0.000000 0.438574 0.558513
0.174221 0.438574 0.558513
0.311937 0.438574 0.558513
0.438574 0.438574 0.558513
0.558513 0.438574 0.558513
0.673706 0.438574 0.558513
0.785253 0.438574 0.558513
0.893855 0.438574 0.558513
1.000000 0.438574 0.558513
0.000000 0.558513 0.558513
0.174221 0.558513 0.558513
0.311937 0.558513 0.558513
0.438574 0.558513 0.558513
0.558513 0.558513 0.558513
0.673706 0.558513 0.558513
0.785253 0.558513 0.558513
0.893855 0.558513 0.558513
1.000000 0.558513 0.558513
0.000000 0.673706 0.558513
0.174221 0.673706 0.558513
0.311937 0.673706 0.558513
0.438574 0.673706 0.558513
0.558513 0.673706 0.558513
0.673706 0.673706 0.558513
0.785253 0.673706 0.558513
0.893855 0.673706 0.558513
1.000000 0.673706 0.558513
0.000000 0.785253 0.558513
0.174221 0.785253 0.558513
0.311937 0.785253 0.558513
0.438574 0.785253 0.558513
0.558513 0.785253 0.558513
0.673706 0.785253 0.558513
0.785253 0.785253 0.558513
0.893855 0.785253 0.558513
1.000000 0.785253 0.558513
0.000000 0.893855 0.558513
0.174221 0.893855 0.558513
0.311937 0.893855 0.558513
0.438574 0.893855 0.558513
0.558513 0.893855 0.558513
0.673706 0.893855 0.558513
0.785253 0.893855 0.558513
0.893855 0.893855 0.558513
1.000000 0.893855 0.558513
0.000000 1.000000 0.558513
0.174221 1.000000 0.558513
0.311937 1.000000 0.558513
0.438574 1.000000 0.558513
0.558513 1.000000 0.558513
0.673706 1.000000 0.558513
0.785253 1.000000 0.558513
0.893855 1.000000 0.558513
1.000000 1.000000 0.558513
0.000000 0.000000 0.673706
0.174221 0.000000 0.673706
0.311937 0.000000 0.673706
0.438574 0.000000 0.673706
0.558513 0.000000 0.673706
0.673706 0.000000 0.673706
0.785253 0.000000 0.673706
0.893855 0.000000 0.673706
1.000000 0.000000 0.673706
0.000000 0.174221 0.673706
0.174221 0.174221 0.673706
0.311937 0.174221 0.673706
0.438574 0.174221 0.673706
0.558513 0.174221 0.673706
0.673706 0.174221 0.673706
0.785253 0.174221 0.673706
0.893855 0.174221 0.673706
1.000000 0.174221 0.673706
0.000000 0.311937 0.673706
0.174221 0.311937 0.673706
0.311937 0.311937 0.673706
0.438574 0.311937 0.673706
0.558513 0.311937 0.673706
0.673706 0.311937 0.673706
0.785253 0.311937 0.673706
0.893855 0.311937 0.673706
1.000000 0.311937 0.673706
0.000000 0.438574 0.673706
0.174221 0.438574 0.673706
0.311937 0.438574 0.673706
0.438574 0.438574 0.673706
0.558513 0.438574 0.673706
0.673706 0.438574 0.673706
0.785253 0.438574 0.673706
0.893855 0.438574 0.673706
1.000000 0.438574 0.673706
0.000000 0.558513 0.673706
0.174221 0.558513 0.673706
0.311937 0.558513 0.673706
0.438574 0.558513 0.673706
0.558513 0.558513 0.673706
0.673706 0.558513 0.673706
0.785253 0.558513 0.673706
0.893855 0.558513 0.673706
1.000000 0.558513 0.673706
0.000000 0.673706 0.673706
0.174221 0.673706 0.673706
0.311937 0.673706 0.673706
0.438574 0.673706 0.673706
0.558513 0.673706 0.673706
0.673706 0.673706 0.673706
0.785253 0.673706 0.673706
0.893855 0.673706 0.673706
1.000000 0.673706 0.673706
0.000000 0.785253 0.673706
0.174221 0.785253 0.673706
0.311937 0.785253 0.673706
0.438574 0.785253 0.673706
0.558513 0.785253 0.673706
0.673706 0.785253 0.673706
0.785253 0.785253 0.673706
0.893855 0.785253 0.673706
1.000000 0.785253 0.673706
0.000000 0.893855 0.673706
0.174221 0.893855 0.673706
0.311937 0.893855 0.673706
0.438574 0.893855 0.673706
0.558513 0.893855 0.673706
0.673706 0.893855 0.673706
0.785253 0.893855 0.673706
0.893855 0.893855 0.673706
1.000000 0.893855 0.673706
0.000000 1.000000 0.673706
0.174221 1.000000 0.673706
0.311937 1.000000 0.673706
0.438574 1.000000 0.673706
0.558513 1.000000 0.673706
0.673706 1.000000 0.673706
0.785253 1.000000 0.673706
0.893855 1.000000 0.673706
1.000000 1.000000 0.673706
0.000000 0.000000 0.785253
0.174221 0.000000 0.785253
0.311937 0.000000 0.785253
0.438574 0.000000 0.785253
0.558513 0.000000 0.785253
0.673706 0.000000 0.785253
0.785253 0.000000 0.785253
0.893855 0.000000 0.785253
1.000000 0.000000 0.785253
0.000000 0.174221 0.785253
0.174221 0.174221 0.785253
0.311937 0.174221 0.785253
0.438574 0.174221 0.785253
0.558513 0.174221 0.785253
0.673706 0.174221 0.785253
0.785253 0.174221 0.785253
0.893855 0.174221 0.785253
1.000000 0.174221 0.785253
0.000000 0.311937 0.785253
0.174221 0.311937 0.785253
0.311937 0.311937 0.785253
0.438574 0.311937 0.785253
0.558513 0.311937 0.785253
0.673706 0.311937 0.785253
0.785253 0.311937 0.785253
0.893855 0.311937 0.785253
1.000000 0.311937 0.785253
0.000000 0.438574 0.785253
0.174221 0.438574 0.785253
0.311937 0.438574 0.785253
0.438574 0.438574 0.785253
0.558513 0.438574 0.785253
0.673706 0.438574 0.785253
0.785253 0.438574 0.785253
0.893855 0.438574 0.785253
1.000000 0.438574 0.785253
0.000000 0.558513 0.785253
0.174221 0.558513 0.785253
0.311937 0.558513 0.785253
0.438574 0.558513 0.785253
0.558513 0.558513 0.785253
0.673706 0.558513 0.785253
0.785253 0.558513 0.785253
0.893855 0.558513 0.785253
1.000000 0.558513 0.785253
0.000000 0.673706 0.785253
0.174221 0.673706 0.785253
0.311937 0.673706 0.785253
0.438574 0.673706 0.785253
0.558513 0.673706 0.785253
0.673706 0.673706 0.785253
0.785253 0.673706 0.785253
0.893855 0.673706 0.785253
1.000000 0.673706 0.785253
0.000000 0.785253 0.785253
0.174221 0.785253 0.785253
0.311937 0.785253 0.785253
0.438574 0.785253 0.785253
0.558513 0.785253 0.785253
0.673706 0.785253 0.785253
0.785253 0.785253 0.785253
0.893855 0.785253 0.785253
1.000000 0.785253 0.785253
0.000000 0.893855 0.785253
0.174221 0.893855 0.785253
0.311937 0.893855 0.785253
0.438574 0.893855 0.785253
0.558513 0.893855 0.785253
0.673706 0.893855 0.785253
0.785253 0.893855 0.785253
0.893855 0.893855 0.785253
1.000000 0.893855 0.785253
0.000000 1.000000 0.785253
0.174221 1.000000 0.785253
0.311937 1.000000 0.785253
0.438574 1.000000 0.785253
0.558513 1.000000 0.785253
0.673706 1.000000 0.785253
0.785253 1.000000 0.785253
0.893855 1.000000 0.785253
1.000000 1.000000 0.785253
0.000000 0.000000 0.893855
0.174221 0.000000 0.893855
0.311937 0.000000 0.893855
0.438574 0.000000 0.893855
0.558513 0.000000 0.893855
0.673706 0.000000 0.893855
0.785253 0.000000 0.893855
0.893855 0.000000 0.893855
1.000000 0.000000 0.893855
0.000000 0.174221 0.893855
0.174221 0.174221 0.893855
0.311937 0.174221 0.893855
0.438574 0.174221 0.893855
0.558513 0.174221 0.893855
0.673706 0.174221 0.893855
0.785253 0.174221 0.893855
0.893855 0.174221 0.893855
1.000000 0.174221 0.893855
0.000000 0.311937 0.893855
0.174221 0.311937 0.893855
0.311937 0.311937 0.893855
0.438574 0.311937 0.893855
0.558513 0.311937 0.893855
0.673706 0.311937 0.893855
0.785253 0.311937 0.893855
0.893855 0.311937 0.893855
1.000000 0.311937 0.893855
0.000000 0.438574 0.893855
0.174221 0.438574 0.893855
0.311937 0.438574 0.893855
0.438574 0.438574 0.893855
0.558513 0.438574 0.893855
0.673706 0.438574 0.893855
0.785253 0.438574 0.893855
0.893855 0.438574 0.893855
1.000000 0.438574 0.893855
0.000000 0.558513 0.893855
0.174221 0.558513 0.893855
0.311937 0.558513 0.893855
0.438574 0.558513 0.893855
0.558513 0.558513 0.893855
0.673706 0.558513 0.893855
0.785253 0.558513 0.893855
0.893855 0.558513 0.893855
1.000000 0.558513 0.893855
0.000000 0.673706 0.893855
0.174221 0.673706 0.893855
0.311937 0.673706 0.893855
0.438574 0.673706 0.893855
0.558513 0.673706 0.893855
0.673706 0.673706 0.893855
0.785253 0.673706 0.893855
0.893855 0.673706 0.893855
1.000000 0.673706 0.893855
0.000000 0.785253 0.893855
0.174221 0.785253 0.893855
0.311937 0.785253 0.893855
0.438574 0.785253 0.893855
0.558513 0.785253 0.893855
0.673706 0.785253 0.893855
0.785253 0.785253 0.893855
0.893855 0.785253 0.893855
1.000000 0.785253 0.893855
0.000000 0.893855 0.893855
0.174221 0.893855 0.893855
0.311937 0.893855 0.893855
0.438574 0.893855 0.893855
0.558513 0.893855 0.893855
0.673706 0.893855 0.893855
0.785253 0.893855 0.893855
0.893855 0.893855 0.893855
1.000000 0.893855 0.893855
0.000000 1.000000 0.893855
0.174221 1.000000 0.893855
0.311937 1.000000 0.893855
0.438574 1.000000 0.893855
0.558513 1.000000 0.893855
0.673706 1.000000 0.893855
0.785253 1.000000 0.893855
0.893855 1.000000 0.893855
1.000000 1.000000 0.893855
0.000000 0.000000 1.000000
0.174221 0.000000 1.000000
0.311937 0.000000 1.000000
0.438574 0.000000 1.000000
0.558513 0.000000 1.000000
0.673706 0.000000 1.000000
0.785253 0.000000 1.000000
0.893855 0.000000 1.000000
1.000000 0.000000 1.000000
0.000000 0.174221 1.000000
0.174221 0.174221 1.000000
0.311937 0.174221 1.000000
0.438574 0.174221 1.000000
0.558513 0.174221 1.000000
0.673706 0.174221 1.000000
0.785253 0.174221 1.000000
0.893855 0.174221 1.000000
1.000000 0.174221 1.000000
0.000000 0.311937 1.000000
0.174221 0.311937 1.000000
0.311937 0.311937 1.000000
0.438574 0.311937 1.000000
0.558513 0.311937 1.000000
0.673706 0.311937 1.000000
0.785253 0.311937 1.000000
0.893855 0.311937 1.000000
1.000000 0.311937 1.000000
0.000000 0.438574 1.000000
0.174221 0.438574 1.000000
0.311937 0.438574 1.000000
0.438574 0.438574 1.000000
0.558513 0.438574 1.000000
0.673706 0.438574 1.000000
0.785253 0.438574 1.000000
0.893855 0.438574 1.000000
1.000000 0.438574 1.000000
0.000000 0.558513 1.000000
0.174221 0.558513 1.000000
0.311937 0.558513 1.000000
0.438574 0.558513 1.000000
0.558513 0.558513 1.000000
0.673706 0.558513 1.000000
0.785253 0.558513 1.000000
0.893855 0.558513 1.000000
1.000000 0.558513 1.000000
0.000000 0.673706 1.000000
0.174221 0.673706 1.000000
0.311937 0.673706 1.000000
0.438574 0.673706 1.000000
0.558513 0.673706 1.000000
0.673706 0.673706 1.000000
0.785253 0.673706 1.000000
0.893855 0.673706 1.000000
1.000000 0.673706 1.000000
0.000000 0.785253 1.000000
0.174221 0.785253 1.000000
0.311937 0.785253 1.000000
0.438574 0.785253 1.000000
0.558513 0.785253 1.000000
0.673706 0.785253 1.000000
0.785253 0.785253 1.000000
0.893855 0.785253 1.000000
1.000000 0.785253 1.000000
0.000000 0.893855 1.000000
0.174221 0.893855 1.000000
0.311937 0.893855 1.000000
0.438574 0.893855 1.000000
0.558513 0.893855 1.000000
0.673706 0.893855 1.000000
0.785253 0.893855 1.000000
0.893855 0.893855 1.000000
1.000000 0.893855 1.000000
0.000000 1.000000 1.000000
0.174221 1.000000 1.000000
0.311937 1.000000 1.000000
0.438574 1.000000 1.000000
0.558513 1.000000 1.000000
0.673706 1.000000 1.000000
0.785253 1.000000 1.000000
0.893855 1.000000 1.000000
1.000000 1.000000 1.000000
