presets/film_stocks/Kodak_Vision_320T_5277.cube
# 独寻胶片模拟 -- Kodak Vision 320T 5277
# Kodak, ISO 320, 1996, negative
TITLE "Kodak Vision 320T 5277"
LUT_3D_SIZE 9
DOMAIN_MIN 0.0 0.0 0.0
DOMAIN_MAX 1.0 1.0 1.0
0.000000 0.000000 0.000000
0.180411 0.005521 0.000000
0.331379 0.010142 0.000000
0.472923 0.014474 0.000000
0.608676 0.018628 0.000000
0.740278 0.022656 0.000000
0.868665 0.026585 0.000000
0.994438 0.030434 0.000000
1.000000 0.034216 0.000000
0.000000 0.173311 0.000000
0.173424 0.176297 0.000000
0.324971 0.179276 0.000000
0.466829 0.182248 0.000000
0.602795 0.185213 0.000000
0.734557 0.188172 0.000000
0.863071 0.191124 0.000000
0.988949 0.194069 0.000000
1.000000 0.197009 0.000000
0.000000 0.318338 0.000000
0.166397 0.321082 0.000000
0.318545 0.323822 0.000000
0.460724 0.326560 0.000000
0.596906 0.329294 0.000000
0.728829 0.332025 0.000000
0.857471 0.334753 0.000000
0.983455 0.337477 0.000000
1.000000 0.340199 0.000000
0.000000 0.454312 0.000000
0.159329 0.456923 0.000000
0.312101 0.459532 0.000000
0.454608 0.462139 0.000000
0.591008 0.464744 0.000000
0.723095 0.467347 0.000000
0.851867 0.469948 0.000000
0.977958 0.472547 0.000000
1.000000 0.475143 0.000000
0.000000 0.584722 0.000000
0.152216 0.587243 0.000000
0.305638 0.589762 0.000000
0.448480 0.592280 0.000000
0.585103 0.594796 0.000000
0.717355 0.597311 0.000000
0.846257 0.599824 0.000000
0.972456 0.602336 0.000000
1.000000 0.604846 0.000000
0.000000 0.711145 0.000000
0.145056 0.713598 0.000000
0.299156 0.716050 0.000000
0.442340 0.718500 0.000000
0.579189 0.720949 0.000000
0.711608 0.723397 0.000000
0.840643 0.725844 0.000000
0.966950 0.728290 0.000000
1.000000 0.730735 0.000000
0.000000 0.834479 0.000000
0.137847 0.836878 0.000000
0.292655 0.839276 0.000000
0.436188 0.841672 0.000000
0.573267 0.844068 0.000000
0.705855 0.846463 0.000000
0.835023 0.848856 0.000000
0.961439 0.851249 0.000000
1.000000 0.853641 0.000000
0.000000 0.955302 0.000000
0.130584 0.957656 0.000000
0.286133 0.960009 0.000000
0.430024 0.962361 0.000000
0.567336 0.964712 0.000000
0.700095 0.967062 0.000000
0.829397 0.969412 0.000000
0.955924 0.971761 0.000000
1.000000 0.974109 0.000000
0.000000 1.000000 0.000000
0.123265 1.000000 0.000000
0.279590 1.000000 0.000000
0.423848 1.000000 0.000000
0.561396 1.000000 0.000000
0.694329 1.000000 0.000000
0.823767 1.000000 0.000000
0.950405 1.000000 0.000000
1.000000 1.000000 0.000000
0.000000 0.000000 0.167885
0.168424 0.000000 0.163767
0.320396 0.000000 0.159635
0.462482 0.000000 0.155487
0.598601 0.000000 0.151324
0.730478 0.000212 0.147145
0.859083 0.005639 0.142949
0.985037 0.010250 0.138736
1.000000 0.014577 0.134505
0.000000 0.158344 0.165494
0.161367 0.161367 0.161367
0.313957 0.164383 0.157226
0.456369 0.167391 0.153070
0.592706 0.170391 0.148897
0.724746 0.173384 0.144709
0.853480 0.176370 0.140503
0.979540 0.179348 0.136279
1.000000 0.182320 0.132037
0.000000 0.304635 0.163097
0.154268 0.307396 0.158962
0.307500 0.310153 0.154812
0.450244 0.312907 0.150647
0.586803 0.315658 0.146465
0.719008 0.318405 0.142266
0.847872 0.321148 0.138050
0.974040 0.323889 0.133816
1.000000 0.326626 0.129563
0.000000 0.441288 0.160696
0.147122 0.443910 0.156552
0.301024 0.446530 0.152393
0.444108 0.449147 0.148218
0.580892 0.451762 0.144027
0.713263 0.454376 0.139818
0.842259 0.456987 0.135592
0.968535 0.459596 0.131347
1.000000 0.462203 0.127083
0.000000 0.572157 0.158290
0.139927 0.574686 0.154137
0.294528 0.577212 0.149969
0.437960 0.579738 0.145784
0.574972 0.582261 0.141583
0.707511 0.584784 0.137364
0.836641 0.587304 0.133127
0.963026 0.589824 0.128871
1.000000 0.592341 0.124595
0.000000 0.698924 0.155878
0.132680 0.701382 0.151717
0.288012 0.703840 0.147539
0.431799 0.706296 0.143345
0.569043 0.708751 0.139133
0.701753 0.711205 0.134904
0.831017 0.713658 0.130656
0.957512 0.716109 0.126388
1.000000 0.718560 0.122100
0.000000 0.822531 0.153461
0.125377 0.824934 0.149291
0.281475 0.827337 0.145103
0.425627 0.829738 0.140899
0.563106 0.832138 0.136677
0.695989 0.834538 0.132437
0.825388 0.836936 0.128178
0.951994 0.839334 0.123899
1.000000 0.841731 0.119599
0.000000 0.943580 0.151039
0.118014 0.945937 0.146859
0.274917 0.948294 0.142662
0.419441 0.950650 0.138448
0.557160 0.953005 0.134215
0.690218 0.955360 0.129964
0.819753 0.957713 0.125693
0.946471 0.960066 0.121402
1.000000 0.962418 0.117090
0.000000 1.000000 0.148612
0.110586 1.000000 0.144422
0.268337 1.000000 0.140215
0.413243 1.000000 0.135990
0.551205 1.000000 0.131747
0.684440 1.000000 0.127484
0.814113 1.000000 0.123202
0.940944 1.000000 0.118898
1.000000 1.000000 0.114573
0.000000 0.000000 0.308371
0.156315 0.000000 0.304593
0.309360 0.000000 0.300808
0.452008 0.000000 0.297016
0.588503 0.000000 0.293217
0.720660 0.000000 0.289412
0.849487 0.000000 0.285599
0.975623 0.000000 0.281779
1.000000 0.000000 0.277952
0.000000 0.143175 0.306176
0.149183 0.146241 0.302394
0.302890 0.149298 0.298605
0.445875 0.152347 0.294809
0.582594 0.155386 0.291006
0.714917 0.158418 0.287197
0.843875 0.161441 0.283380
0.970120 0.164456 0.279556
1.000000 0.167464 0.275725
0.000000 0.290846 0.303979
0.142003 0.293624 0.300192
0.296399 0.296399 0.296399
0.439730 0.299171 0.292600
0.576676 0.301938 0.288793
0.709167 0.304702 0.284979
0.838258 0.307463 0.281158
0.964612 0.310220 0.277330
1.000000 0.312974 0.273495
0.000000 0.428211 0.301779
0.134771 0.430844 0.297989
0.289889 0.433474 0.294192
0.433573 0.436102 0.290388
0.570750 0.438728 0.286577
0.703411 0.441352 0.282759
0.832636 0.443974 0.278934
0.959099 0.446594 0.275102
1.000000 0.449211 0.271262
0.000000 0.559553 0.299577
0.127485 0.562090 0.295783
0.283358 0.564624 0.291982
0.427404 0.567157 0.288174
0.564816 0.569689 0.284359
0.697649 0.572219 0.280537
0.827008 0.574747 0.276708
0.953582 0.577274 0.272871
1.000000 0.579799 0.269027
0.000000 0.686672 0.297373
0.120140 0.689137 0.293575
0.276807 0.691600 0.289770
0.421223 0.694063 0.285958
0.558872 0.696524 0.282139
0.691879 0.698984 0.278312
0.821375 0.701442 0.274479
0.948061 0.703900 0.270638
1.000000 0.706356 0.266789
0.000000 0.810558 0.295166
0.112731 0.812966 0.291364
0.270233 0.815373 0.287555
0.415028 0.817780 0.283739
0.552920 0.820185 0.279916
0.686103 0.822589 0.276085
0.815737 0.824993 0.272247
0.942535 0.827395 0.268402
1.000000 0.829796 0.264548
0.000000 0.931836 0.292957
0.105253 0.934198 0.289151
0.263637 0.936559 0.285338
0.408821 0.938919 0.281518
0.546959 0.941279 0.277690
0.680320 0.943637 0.273856
0.810093 0.945995 0.270013
0.937004 0.948352 0.266163
1.000000 0.950708 0.262305
0.000000 1.000000 0.290746
0.097701 1.000000 0.286936
0.257018 1.000000 0.283119
0.402600 1.000000 0.279294
0.540988 1.000000 0.275463
0.674531 1.000000 0.271623
0.804444 1.000000 0.267776
0.931469 1.000000 0.263922
1.000000 1.000000 0.260059
0.000000 0.000000 0.440088
0.144074 0.000000 0.436494
0.298269 0.000000 0.432896
0.441500 0.000000 0.429294
0.578380 0.000000 0.425687
0.710822 0.000000 0.422076
0.839875 0.000000 0.418461
0.966197 0.000000 0.414842
1.000000 0.000000 0.411218
0.000000 0.127778 0.438000
0.136858 0.130893 0.434404
0.291765 0.133997 0.430803
0.435346 0.137091 0.427198
0.572456 0.140175 0.423589
0.705068 0.143250 0.419976
0.834254 0.146316 0.416358
0.960686 0.149373 0.412736
1.000000 0.152421 0.409109
0.000000 0.276964 0.435910
0.129587 0.279762 0.432312
0.285240 0.282555 0.428709
0.429181 0.285345 0.425101
0.566524 0.288131 0.421490
0.699308 0.290913 0.417874
0.828628 0.293692 0.414253
0.955170 0.296467 0.410629
1.000000 0.299238 0.407000
0.000000 0.415077 0.433819
0.122260 0.417721 0.430218
0.278694 0.420363 0.426613
0.423003 0.423003 0.423003
0.560583 0.425640 0.419389
0.693540 0.428275 0.415770
0.822997 0.430908 0.412147
0.949650 0.433538 0.408520
1.000000 0.436166 0.404888
0.000000 0.546910 0.431727
0.114870 0.549454 0.428123
0.272127 0.551997 0.424515
0.416812 0.554538 0.420903
0.554634 0.557077 0.417286
0.687766 0.559615 0.413665
0.817360 0.562151 0.410040
0.944126 0.564686 0.406410
1.000000 0.567219 0.402775
0.000000 0.674390 0.429633
0.107413 0.676861 0.426027
0.265538 0.679330 0.422416
0.410608 0.681799 0.418801
0.548675 0.684266 0.415182
0.681985 0.686732 0.411559
0.811718 0.689197 0.407931
0.938596 0.691660 0.404298
1.000000 0.694123 0.400661
0.000000 0.798560 0.427537
0.099882 0.800973 0.423929
0.258925 0.803386 0.420316
0.404392 0.805797 0.416698
0.542707 0.808207 0.413077
0.676197 0.810616 0.409451
0.806070 0.813025 0.405820
0.933063 0.815432 0.402185
1.000000 0.817838 0.398545
0.000000 0.920072 0.425441
0.092272 0.922438 0.421830
0.252289 0.924803 0.418214
0.398162 0.927168 0.414594
0.536730 0.929531 0.410970
0.670403 0.931894 0.407341
0.800417 0.934256 0.403708
0.927525 0.936617 0.400070
1.000000 0.938977 0.396427
0.000000 1.000000 0.423342
0.084572 1.000000 0.419729
0.245628 1.000000 0.416111
0.391918 1.000000 0.412488
0.530744 1.000000 0.408861
0.664601 1.000000 0.405230
0.794758 1.000000 0.401594
0.921982 1.000000 0.397953
1.000000 1.000000 0.394308
0.000000 0.000000 0.566416
0.131685 0.000000 0.562947
0.287120 0.000000 0.559475
0.430956 0.000000 0.556001
0.568232 0.000000 0.552523
0.700966 0.000000 0.549042
0.830248 0.000000 0.545558
0.956758 0.000000 0.542071
1.000000 0.000000 0.538580
0.000000 0.112116 0.564400
0.124375 0.115287 0.560930
0.280580 0.118446 0.557456
0.424782 0.121593 0.553980
0.562294 0.124729 0.550500
0.695201 0.127854 0.547017
0.824618 0.130968 0.543532
0.951239 0.134072 0.540043
1.000000 0.137166 0.536551
0.000000 0.262984 0.562384
0.117003 0.265802 0.558911
0.274019 0.268616 0.555436
0.418595 0.271425 0.551958
0.556347 0.274231 0.548476
0.689428 0.277032 0.544992
0.818983 0.279830 0.541504
0.945716 0.282623 0.538013
1.000000 0.285413 0.534520
0.000000 0.401885 0.560366
0.109566 0.404541 0.556892
0.267436 0.407195 0.553415
0.412395 0.409846 0.549935
0.550391 0.412495 0.546452
0.683649 0.415142 0.542965
0.813342 0.417786 0.539476
0.940188 0.420428 0.535983
1.000000 0.423067 0.532487
0.000000 0.534225 0.558347
0.102057 0.536778 0.554871
0.260830 0.539329 0.551393
0.406182 0.541878 0.547911
0.544426 0.544426 0.544426
0.677864 0.546972 0.540938
0.807696 0.549516 0.537446
0.934656 0.552059 0.533952
1.000000 0.554600 0.530454
0.000000 0.662076 0.556327
0.094471 0.664553 0.552850
0.254201 0.667029 0.549369
0.399956 0.669504 0.545886
0.538451 0.671978 0.542399
0.672071 0.674450 0.538909
0.802044 0.676921 0.535416
0.929119 0.679391 0.531919
1.000000 0.681859 0.528420
0.000000 0.786537 0.554307
0.086797 0.788955 0.550827
0.247547 0.791373 0.547345
0.393716 0.793789 0.543859
0.532468 0.796204 0.540371
0.666271 0.798619 0.536879
0.796387 0.801032 0.533384
0.923577 0.803444 0.529886
1.000000 0.805856 0.526385
0.000000 0.908287 0.552285
0.079028 0.910657 0.548804
0.240869 0.913027 0.545320
0.387462 0.915395 0.541832
0.526475 0.917763 0.538342
0.660464 0.920130 0.534848
0.790724 0.922496 0.531351
0.918031 0.924861 0.527851
1.000000 0.927225 0.524348
0.000000 1.000000 0.550262
0.071150 1.000000 0.546779
0.234164 1.000000 0.543293
0.381194 1.000000 0.539804
0.520472 1.000000 0.536312
0.654651 1.000000 0.532816
0.785055 1.000000 0.529318
0.912480 1.000000 0.525816
1.000000 1.000000 0.522310
0.000000 0.000000 0.688881
0.119131 0.000000 0.685506
0.275910 0.000000 0.682129
0.420377 0.000000 0.678750
0.558059 0.000000 0.675368
0.691090 0.000000 0.671984
0.820605 0.000000 0.668597
0.947306 0.000000 0.665209
1.000000 0.000000 0.661817
0.000000 0.096139 0.686920
0.111713 0.099378 0.683544
0.269333 0.102603 0.680165
0.414181 0.105813 0.676785
0.552106 0.109009 0.673402
0.685313 0.112193 0.670016
0.814966 0.115364 0.666628
0.941779 0.118523 0.663238
1.000000 0.121670 0.659845
0.000000 0.248900 0.684958
0.104226 0.251739 0.681581
0.262734 0.254574 0.678201
0.407971 0.257405 0.674819
0.546143 0.260231 0.671434
0.679529 0.263053 0.668047
0.809321 0.265871 0.664658
0.936248 0.268684 0.661266
1.000000 0.271494 0.657872
0.000000 0.388632 0.682995
0.096662 0.391300 0.679617
0.256111 0.393966 0.676235
0.401749 0.396630 0.672852
0.540172 0.399291 0.669466
0.673739 0.401950 0.666078
0.803671 0.404606 0.662687
0.930713 0.407259 0.659294
1.000000 0.409911 0.655898
0.000000 0.521498 0.681032
0.089015 0.524059 0.677652
0.249465 0.526619 0.674269
0.395513 0.529177 0.670884
0.534191 0.531733 0.667497
0.667941 0.534287 0.664107
0.798015 0.536840 0.660715
0.925172 0.539391 0.657321
1.000000 0.541940 0.653924
0.000000 0.649730 0.679068
0.081274 0.652214 0.675686
0.242793 0.654696 0.672302
0.389263 0.657178 0.668916
0.528200 0.659658 0.665527
0.662136 0.662136 0.662136
0.792354 0.664614 0.658743
0.919628 0.667090 0.655347
1.000000 0.669564 0.651948
0.000000 0.774488 0.677103
0.073429 0.776912 0.673720
0.236096 0.779334 0.670335
0.383000 0.781756 0.666947
0.522201 0.784176 0.663557
0.656324 0.786596 0.660164
0.786687 0.789014 0.656769
0.914078 0.791432 0.653372
1.000000 0.793848 0.649972
0.000000 0.896480 0.675137
0.065464 0.898855 0.671753
0.229372 0.901229 0.668366
0.376721 0.903602 0.664977
0.516191 0.905974 0.661585
0.650505 0.908345 0.658191
0.781014 0.910715 0.654795
0.908524 0.913084 0.651396
1.000000 0.915453 0.647995
0.000000 1.000000 0.673170
0.057361 1.000000 0.669785
0.222620 1.000000 0.666397
0.370428 1.000000 0.663006
0.510172 1.000000 0.659613
0.644679 1.000000 0.656218
0.775336 1.000000 0.652820
0.902965 1.000000 0.649420
1.000000 1.000000 0.646017
0.000000 0.000000 0.808354
0.106388 0.000000 0.805054
0.264635 0.000000 0.801752
0.409760 0.000000 0.798449
0.547860 0.000000 0.795143
0.681195 0.000000 0.791836
0.810946 0.000000 0.788526
0.937840 0.000000 0.785215
1.000000 0.000000 0.781902
0.000000 0.079781 0.806436
0.098847 0.083103 0.803135
0.258019 0.086408 0.799832
0.403541 0.089695 0.796528
0.541891 0.092965 0.793221
0.675406 0.096219 0.789912
0.805298 0.099457 0.786602
0.932306 0.102681 0.783290
1.000000 0.105891 0.779975
0.000000 0.234702 0.804518
0.091225 0.237565 0.801216
0.251380 0.240423 0.797912
0.397309 0.243276 0.794606
0.535913 0.246125 0.791298
0.669610 0.248969 0.787989
0.799643 0.251808 0.784677
0.926767 0.254643 0.781363
1.000000 0.257474 0.778048
0.000000 0.375315 0.802599
0.083512 0.377997 0.799296
0.244716 0.380676 0.795991
0.391063 0.383352 0.792684
0.529925 0.386026 0.789375
0.663807 0.388697 0.786064
0.793984 0.391365 0.782751
0.921224 0.394031 0.779437
1.000000 0.396695 0.776120
0.000000 0.508727 0.800679
0.075698 0.511297 0.797375
0.238026 0.513866 0.794069
0.384804 0.516432 0.790761
0.523928 0.518997 0.787451
0.657998 0.521560 0.784139
0.788318 0.524122 0.780825
0.915676 0.526681 0.777509
1.000000 0.529239 0.774191
0.000000 0.637351 0.798759
0.067769 0.639842 0.795454
0.231310 0.642331 0.792147
0.378530 0.644819 0.788838
0.517922 0.647305 0.785526
0.652181 0.649791 0.782213
0.782647 0.652274 0.778898
0.910123 0.654757 0.775581
1.000000 0.657238 0.772262
0.000000 0.762413 0.796839
0.059708 0.764842 0.793532
0.224566 0.767270 0.790224
0.372241 0.769697 0.786913
0.511905 0.772122 0.783601
0.646356 0.774547 0.780287
0.776971 0.776971 0.776971
0.904565 0.779393 0.773652
1.000000 0.781815 0.770332
0.000000 0.884652 0.794917
0.051491 0.887031 0.791609
0.217794 0.889409 0.788300
0.365937 0.891786 0.784989
0.505879 0.894163 0.781675
0.640525 0.896538 0.778360
0.771288 0.898913 0.775042
0.899002 0.901287 0.771723
1.000000 0.903659 0.768402
0.000000 1.000000 0.792995
0.043085 1.000000 0.789686
0.210993 1.000000 0.786376
0.359619 1.000000 0.783063
0.499842 1.000000 0.779748
0.634686 1.000000 0.776432
0.765600 1.000000 0.773113
0.893435 1.000000 0.769793
1.000000 1.000000 0.766470
0.000000 0.000000 0.925394
0.093427 0.000000 0.922156
0.253293 0.000000 0.918917
0.399104 0.000000 0.915676
0.537634 0.000000 0.912433
0.671279 0.000000 0.909189
0.801271 0.000000 0.905943
0.928362 0.000000 0.902696
1.000000 0.000000 0.899447
0.000000 0.062934 0.923512
0.085741 0.066366 0.920274
0.246636 0.069773 0.917033
0.392862 0.073157 0.913791
0.531649 0.076520 0.910548
0.665478 0.079862 0.907303
0.795613 0.083184 0.904056
0.922820 0.086488 0.900808
1.000000 0.089774 0.897558
0.000000 0.220384 0.921630
0.077958 0.223272 0.918391
0.239954 0.226155 0.915149
0.386606 0.229032 0.911907
0.525655 0.231905 0.908662
0.659670 0.234772 0.905416
0.789949 0.237635 0.902168
0.917273 0.240493 0.898919
1.000000 0.243346 0.895668
0.000000 0.361932 0.919748
0.070064 0.364627 0.916507
0.233245 0.367319 0.913265
0.380337 0.370009 0.910021
0.519651 0.372696 0.906776
0.653855 0.375380 0.903529
0.784280 0.378062 0.900280
0.911721 0.380741 0.897030
1.000000 0.383417 0.893778
0.000000 0.495911 0.917864
0.062043 0.498491 0.914623
0.226510 0.501068 0.911380
0.374052 0.503644 0.908135
0.513638 0.506218 0.904889
0.648033 0.508790 0.901641
0.778605 0.511360 0.898391
0.906165 0.513928 0.895140
1.000000 0.516495 0.891887
0.000000 0.624939 0.915981
0.053873 0.627436 0.912738
0.219746 0.629932 0.909494
0.367753 0.632427 0.906249
0.507614 0.634920 0.903001
0.642204 0.637412 0.899752
0.772924 0.639902 0.896502
0.900604 0.642392 0.893249
1.000000 0.644879 0.889996
0.000000 0.750311 0.914096
0.045526 0.752745 0.910853
0.212953 0.755179 0.907608
0.361439 0.757611 0.904361
0.501581 0.760042 0.901113
0.636367 0.762472 0.897863
0.767237 0.764901 0.894612
0.895038 0.767329 0.891359
1.000000 0.769756 0.888104
0.000000 0.872801 0.912212
0.036957 0.875185 0.908967
0.206130 0.877568 0.905721
0.355109 0.879949 0.902474
0.495537 0.882330 0.899225
0.630522 0.884710 0.895974
0.761545 0.887089 0.892721
0.889467 0.889467 0.889467
1.000000 0.891844 0.886211
0.000000 0.992923 0.910326
0.028097 0.995263 0.907081
0.199274 0.997604 0.903834
0.348763 0.999943 0.900586
0.489483 1.000000 0.897335
0.624670 1.000000 0.894084
0.755846 1.000000 0.890830
0.883891 1.000000 0.887575
1.000000 1.000000 0.884318
0.000000 0.000000 1.000000
0.080209 0.000000 1.000000
0.241879 0.000000 1.000000
0.388408 0.000000 1.000000
0.527381 0.000000 1.000000
0.661342 0.000000 1.000000
0.791580 0.000000 1.000000
0.918869 0.000000 1.000000
1.000000 0.000000 1.000000
0.000000 0.045420 1.000000
0.072348 0.049007 1.000000
0.235179 0.052557 1.000000
0.382142 0.056073 1.000000
0.521380 0.059560 1.000000
0.655530 0.063017 1.000000
0.785912 0.066449 1.000000
0.913319 0.069856 1.000000
1.000000 0.073239 1.000000
0.000000 0.205934 1.000000
0.064365 0.208849 1.000000
0.228451 0.211759 1.000000
0.375862 0.214663 1.000000
0.515369 0.217561 1.000000
0.649709 0.220454 1.000000
0.780239 0.223342 1.000000
0.907764 0.226225 1.000000
1.000000 0.229102 1.000000
0.000000 0.348479 1.000000
0.056241 0.351188 1.000000
0.221696 0.353895 1.000000
0.369567 0.356599 1.000000
0.509349 0.359299 1.000000
0.643882 0.361997 1.000000
0.774559 0.364693 1.000000
0.902205 0.367385 1.000000
1.000000 0.370075 1.000000
0.000000 0.483049 1.000000
0.047949 0.485638 1.000000
0.214911 0.488225 1.000000
0.363257 0.490810 1.000000
0.503318 0.493393 1.000000
0.638047 0.495974 1.000000
0.768874 0.498554 1.000000
0.896640 0.501131 1.000000
1.000000 0.503707 1.000000
0.000000 0.612491 1.000000
0.039449 0.614996 1.000000
0.208096 0.617499 1.000000
0.356932 0.620000 1.000000
0.497277 0.622501 1.000000
0.632205 0.624999 1.000000
0.763183 0.627497 1.000000
0.891071 0.629993 1.000000
1.000000 0.632487 1.000000
0.000000 0.738181 1.000000
0.030682 0.740621 1.000000
0.201251 0.743060 1.000000
0.350591 0.745498 1.000000
0.491226 0.747935 1.000000
0.626355 0.750370 1.000000
0.757486 0.752804 1.000000
0.885496 0.755238 1.000000
1.000000 0.757670 1.000000
0.000000 0.860928 1.000000
0.021544 0.863316 1.000000
0.194372 0.865703 1.000000
0.344234 0.868090 1.000000
0.485165 0.870475 1.000000
0.620498 0.872859 1.000000
0.751783 0.875243 1.000000
0.879917 0.877626 1.000000
1.000000 0.880007 1.000000
0.000000 0.981263 1.000000
0.011801 0.983608 1.000000
0.187459 0.985952 1.000000
0.337860 0.988295 1.000000
0.479093 0.990638 1.000000
0.614632 0.992980 1.000000
0.746075 0.995320 1.000000
0.874333 0.997661 1.000000
1.000000 1.000000 1.000000
