presets/film_stocks/Kodak_EXR_5386.cube
# 独寻胶片模拟 -- Kodak EXR 5386
# Kodak, ISO 0, 1993, negative
TITLE "Kodak EXR 5386"
LUT_3D_SIZE 33
DOMAIN_MIN 0.0 0.0 0.0
DOMAIN_MAX 1.0 1.0 1.0
0.000000 0.000000 0.000000
0.058381 0.000000 0.000000
0.103043 0.000000 0.000000
0.143666 0.000000 0.000000
0.181871 0.000000 0.000000
0.218372 0.000000 0.000000
0.253571 0.000000 0.000000
0.287722 0.000000 0.000000
0.321002 0.000000 0.000000
0.353538 0.000000 0.000000
0.385427 0.000000 0.000000
0.416746 0.000000 0.000000
0.447554 0.000000 0.000000
0.477902 0.000000 0.000000
0.507832 0.000000 0.000000
0.537378 0.000000 0.000000
0.566571 0.000000 0.000000
0.595436 0.000000 0.000000
0.623997 0.000000 0.000000
0.652273 0.000000 0.000000
0.680281 0.000000 0.000000
0.708038 0.000000 0.000000
0.735558 0.000000 0.000000
0.762853 0.000000 0.000000
0.789935 0.000000 0.000000
0.816814 0.000000 0.000000
0.843499 0.000000 0.000000
0.870000 0.000000 0.000000
0.896325 0.000000 0.000000
0.922481 0.000000 0.000000
0.948474 0.000000 0.000000
0.974312 0.000000 0.000000
1.000000 0.000000 0.000000
0.000000 0.058381 0.000000
0.058381 0.058381 0.000000
0.103043 0.058381 0.000000
0.143666 0.058381 0.000000
0.181871 0.058381 0.000000
0.218372 0.058381 0.000000
0.253571 0.058381 0.000000
0.287722 0.058381 0.000000
0.321002 0.058381 0.000000
0.353538 0.058381 0.000000
0.385427 0.058381 0.000000
0.416746 0.058381 0.000000
0.447554 0.058381 0.000000
0.477902 0.058381 0.000000
0.507832 0.058381 0.000000
0.537378 0.058381 0.000000
0.566571 0.058381 0.000000
0.595436 0.058381 0.000000
0.623997 0.058381 0.000000
0.652273 0.058381 0.000000
0.680281 0.058381 0.000000
0.708038 0.058381 0.000000
0.735558 0.058381 0.000000
0.762853 0.058381 0.000000
0.789935 0.058381 0.000000
0.816814 0.058381 0.000000
0.843499 0.058381 0.000000
0.870000 0.058381 0.000000
0.896325 0.058381 0.000000
0.922481 0.058381 0.000000
0.948474 0.058381 0.000000
0.974312 0.058381 0.000000
1.000000 0.058381 0.000000
0.000000 0.103043 0.000000
0.058381 0.103043 0.000000
0.103043 0.103043 0.000000
0.143666 0.103043 0.000000
0.181871 0.103043 0.000000
0.218372 0.103043 0.000000
0.253571 0.103043 0.000000
0.287722 0.103043 0.000000
0.321002 0.103043 0.000000
0.353538 0.103043 0.000000
0.385427 0.103043 0.000000
0.416746 0.103043 0.000000
0.447554 0.103043 0.000000
0.477902 0.103043 0.000000
0.507832 0.103043 0.000000
0.537378 0.103043 0.000000
0.566571 0.103043 0.000000
0.595436 0.103043 0.000000
0.623997 0.103043 0.000000
0.652273 0.103043 0.000000
0.680281 0.103043 0.000000
0.708038 0.103043 0.000000
0.735558 0.103043 0.000000
0.762853 0.103043 0.000000
0.789935 0.103043 0.000000
0.816814 0.103043 0.000000
0.843499 0.103043 0.000000
0.870000 0.103043 0.000000
0.896325 0.103043 0.000000
0.922481 0.103043 0.000000
0.948474 0.103043 0.000000
0.974312 0.103043 0.000000
1.000000 0.103043 0.000000
0.000000 0.143666 0.000000
0.058381 0.143666 0.000000
0.103043 0.143666 0.000000
0.143666 0.143666 0.000000
0.181871 0.143666 0.000000
0.218372 0.143666 0.000000
0.253571 0.143666 0.000000
0.287722 0.143666 0.000000
0.321002 0.143666 0.000000
0.353538 0.143666 0.000000
0.385427 0.143666 0.000000
0.416746 0.143666 0.000000
0.447554 0.143666 0.000000
0.477902 0.143666 0.000000
0.507832 0.143666 0.000000
0.537378 0.143666 0.000000
0.566571 0.143666 0.000000
0.595436 0.143666 0.000000
0.623997 0.143666 0.000000
0.652273 0.143666 0.000000
0.680281 0.143666 0.000000
0.708038 0.143666 0.000000
0.735558 0.143666 0.000000
0.762853 0.143666 0.000000
0.789935 0.143666 0.000000
0.816814 0.143666 0.000000
0.843499 0.143666 0.000000
0.870000 0.143666 0.000000
0.896325 0.143666 0.000000
0.922481 0.143666 0.000000
0.948474 0.143666 0.000000
0.974312 0.143666 0.000000
1.000000 0.143666 0.000000
0.000000 0.181871 0.000000
0.058381 0.181871 0.000000
0.103043 0.181871 0.000000
0.143666 0.181871 0.000000
0.181871 0.181871 0.000000
0.218372 0.181871 0.000000
0.253571 0.181871 0.000000
0.287722 0.181871 0.000000
0.321002 0.181871 0.000000
0.353538 0.181871 0.000000
0.385427 0.181871 0.000000
0.416746 0.181871 0.000000
0.447554 0.181871 0.000000
0.477902 0.181871 0.000000
0.507832 0.181871 0.000000
0.537378 0.181871 0.000000
0.566571 0.181871 0.000000
0.595436 0.181871 0.000000
0.623997 0.181871 0.000000
0.652273 0.181871 0.000000
0.680281 0.181871 0.000000
0.708038 0.181871 0.000000
0.735558 0.181871 0.000000
0.762853 0.181871 0.000000
0.789935 0.181871 0.000000
0.816814 0.181871 0.000000
0.843499 0.181871 0.000000
0.870000 0.181871 0.000000
0.896325 0.181871 0.000000
0.922481 0.181871 0.000000
0.948474 0.181871 0.000000
0.974312 0.181871 0.000000
1.000000 0.181871 0.000000
0.000000 0.218372 0.000000
0.058381 0.218372 0.000000
0.103043 0.218372 0.000000
0.143666 0.218372 0.000000
0.181871 0.218372 0.000000
0.218372 0.218372 0.000000
0.253571 0.218372 0.000000
0.287722 0.218372 0.000000
0.321002 0.218372 0.000000
0.353538 0.218372 0.000000
0.385427 0.218372 0.000000
0.416746 0.218372 0.000000
0.447554 0.218372 0.000000
0.477902 0.218372 0.000000
0.507832 0.218372 0.000000
0.537378 0.218372 0.000000
0.566571 0.218372 0.000000
0.595436 0.218372 0.000000
0.623997 0.218372 0.000000
0.652273 0.218372 0.000000
0.680281 0.218372 0.000000
0.708038 0.218372 0.000000
0.735558 0.218372 0.000000
0.762853 0.218372 0.000000
0.789935 0.218372 0.000000
0.816814 0.218372 0.000000
0.843499 0.218372 0.000000
0.870000 0.218372 0.000000
0.896325 0.218372 0.000000
0.922481 0.218372 0.000000
0.948474 0.218372 0.000000
0.974312 0.218372 0.000000
1.000000 0.218372 0.000000
0.000000 0.253571 0.000000
0.058381 0.253571 0.000000
0.103043 0.253571 0.000000
0.143666 0.253571 0.000000
0.181871 0.253571 0.000000
0.218372 0.253571 0.000000
0.253571 0.253571 0.000000
0.287722 0.253571 0.000000
0.321002 0.253571 0.000000
0.353538 0.253571 0.000000
0.385427 0.253571 0.000000
0.416746 0.253571 0.000000
0.447554 0.253571 0.000000
0.477902 0.253571 0.000000
0.507832 0.253571 0.000000
0.537378 0.253571 0.000000
0.566571 0.253571 0.000000
0.595436 0.253571 0.000000
0.623997 0.253571 0.000000
0.652273 0.253571 0.000000
0.680281 0.253571 0.000000
0.708038 0.253571 0.000000
0.735558 0.253571 0.000000
0.762853 0.253571 0.000000
0.789935 0.253571 0.000000
0.816814 0.253571 0.000000
0.843499 0.253571 0.000000
0.870000 0.253571 0.000000
0.896325 0.253571 0.000000
0.922481 0.253571 0.000000
0.948474 0.253571 0.000000
0.974312 0.253571 0.000000
1.000000 0.253571 0.000000
0.000000 0.287722 0.000000
0.058381 0.287722 0.000000
0.103043 0.287722 0.000000
0.143666 0.287722 0.000000
0.181871 0.287722 0.000000
0.218372 0.287722 0.000000
0.253571 0.287722 0.000000
0.287722 0.287722 0.000000
0.321002 0.287722 0.000000
0.353538 0.287722 0.000000
0.385427 0.287722 0.000000
0.416746 0.287722 0.000000
0.447554 0.287722 0.000000
0.477902 0.287722 0.000000
0.507832 0.287722 0.000000
0.537378 0.287722 0.000000
0.566571 0.287722 0.000000
0.595436 0.287722 0.000000
0.623997 0.287722 0.000000
0.652273 0.287722 0.000000
0.680281 0.287722 0.000000
0.708038 0.287722 0.000000
0.735558 0.287722 0.000000
0.762853 0.287722 0.000000
0.789935 0.287722 0.000000
0.816814 0.287722 0.000000
0.843499 0.287722 0.000000
0.870000 0.287722 0.000000
0.896325 0.287722 0.000000
0.922481 0.287722 0.000000
0.948474 0.287722 0.000000
0.974312 0.287722 0.000000
1.000000 0.287722 0.000000
0.000000 0.321002 0.000000
0.058381 0.321002 0.000000
0.103043 0.321002 0.000000
0.143666 0.321002 0.000000
0.181871 0.321002 0.000000
0.218372 0.321002 0.000000
0.253571 0.321002 0.000000
0.287722 0.321002 0.000000
0.321002 0.321002 0.000000
0.353538 0.321002 0.000000
0.385427 0.321002 0.000000
0.416746 0.321002 0.000000
0.447554 0.321002 0.000000
0.477902 0.321002 0.000000
0.507832 0.321002 0.000000
0.537378 0.321002 0.000000
0.566571 0.321002 0.000000
0.595436 0.321002 0.000000
0.623997 0.321002 0.000000
0.652273 0.321002 0.000000
0.680281 0.321002 0.000000
0.708038 0.321002 0.000000
0.735558 0.321002 0.000000
0.762853 0.321002 0.000000
0.789935 0.321002 0.000000
0.816814 0.321002 0.000000
0.843499 0.321002 0.000000
0.870000 0.321002 0.000000
0.896325 0.321002 0.000000
0.922481 0.321002 0.000000
0.948474 0.321002 0.000000
0.974312 0.321002 0.000000
1.000000 0.321002 0.000000
0.000000 0.353538 0.000000
0.058381 0.353538 0.000000
0.103043 0.353538 0.000000
0.143666 0.353538 0.000000
0.181871 0.353538 0.000000
0.218372 0.353538 0.000000
0.253571 0.353538 0.000000
0.287722 0.353538 0.000000
0.321002 0.353538 0.000000
0.353538 0.353538 0.000000
0.385427 0.353538 0.000000
0.416746 0.353538 0.000000
0.447554 0.353538 0.000000
0.477902 0.353538 0.000000
0.507832 0.353538 0.000000
0.537378 0.353538 0.000000
0.566571 0.353538 0.000000
0.595436 0.353538 0.000000
0.623997 0.353538 0.000000
0.652273 0.353538 0.000000
0.680281 0.353538 0.000000
0.708038 0.353538 0.000000
0.735558 0.353538 0.000000
0.762853 0.353538 0.000000
0.789935 0.353538 0.000000
0.816814 0.353538 0.000000
0.843499 0.353538 0.000000
0.870000 0.353538 0.000000
0.896325 0.353538 0.000000
0.922481 0.353538 0.000000
0.948474 0.353538 0.000000
0.974312 0.353538 0.000000
1.000000 0.353538 0.000000
0.000000 0.385427 0.000000
0.058381 0.385427 0.000000
0.103043 0.385427 0.000000
0.143666 0.385427 0.000000
0.181871 0.385427 0.000000
0.218372 0.385427 0.000000
0.253571 0.385427 0.000000
0.287722 0.385427 0.000000
0.321002 0.385427 0.000000
0.353538 0.385427 0.000000
0.385427 0.385427 0.000000
0.416746 0.385427 0.000000
0.447554 0.385427 0.000000
0.477902 0.385427 0.000000
0.507832 0.385427 0.000000
0.537378 0.385427 0.000000
0.566571 0.385427 0.000000
0.595436 0.385427 0.000000
0.623997 0.385427 0.000000
0.652273 0.385427 0.000000
0.680281 0.385427 0.000000
0.708038 0.385427 0.000000
0.735558 0.385427 0.000000
0.762853 0.385427 0.000000
0.789935 0.385427 0.000000
0.816814 0.385427 0.000000
0.843499 0.385427 0.000000
0.870000 0.385427 0.000000
0.896325 0.385427 0.000000
0.922481 0.385427 0.000000
0.948474 0.385427 0.000000
0.974312 0.385427 0.000000
1.000000 0.385427 0.000000
0.000000 0.416746 0.000000
0.058381 0.416746 0.000000
0.103043 0.416746 0.000000
0.143666 0.416746 0.000000
0.181871 0.416746 0.000000
0.218372 0.416746 0.000000
0.253571 0.416746 0.000000
0.287722 0.416746 0.000000
0.321002 0.416746 0.000000
0.353538 0.416746 0.000000
0.385427 0.416746 0.000000
0.416746 0.416746 0.000000
0.447554 0.416746 0.000000
0.477902 0.416746 0.000000
0.507832 0.416746 0.000000
0.537378 0.416746 0.000000
0.566571 0.416746 0.000000
0.595436 0.416746 0.000000
0.623997 0.416746 0.000000
0.652273 0.416746 0.000000
0.680281 0.416746 0.000000
0.708038 0.416746 0.000000
0.735558 0.416746 0.000000
0.762853 0.416746 0.000000
0.789935 0.416746 0.000000
0.816814 0.416746 0.000000
0.843499 0.416746 0.000000
0.870000 0.416746 0.000000
0.896325 0.416746 0.000000
0.922481 0.416746 0.000000
0.948474 0.416746 0.000000
0.974312 0.416746 0.000000
1.000000 0.416746 0.000000
0.000000 0.447554 0.000000
0.058381 0.447554 0.000000
0.103043 0.447554 0.000000
0.143666 0.447554 0.000000
0.181871 0.447554 0.000000
0.218372 0.447554 0.000000
0.253571 0.447554 0.000000
0.287722 0.447554 0.000000
0.321002 0.447554 0.000000
0.353538 0.447554 0.000000
0.385427 0.447554 0.000000
0.416746 0.447554 0.000000
0.447554 0.447554 0.000000
0.477902 0.447554 0.000000
0.507832 0.447554 0.000000
0.537378 0.447554 0.000000
0.566571 0.447554 0.000000
0.595436 0.447554 0.000000
0.623997 0.447554 0.000000
0.652273 0.447554 0.000000
0.680281 0.447554 0.000000
0.708038 0.447554 0.000000
0.735558 0.447554 0.000000
0.762853 0.447554 0.000000
0.789935 0.447554 0.000000
0.816814 0.447554 0.000000
0.843499 0.447554 0.000000
0.870000 0.447554 0.000000
0.896325 0.447554 0.000000
0.922481 0.447554 0.000000
0.948474 0.447554 0.000000
0.974312 0.447554 0.000000
1.000000 0.447554 0.000000
0.000000 0.477902 0.000000
0.058381 0.477902 0.000000
0.103043 0.477902 0.000000
0.143666 0.477902 0.000000
0.181871 0.477902 0.000000
0.218372 0.477902 0.000000
0.253571 0.477902 0.000000
0.287722 0.477902 0.000000
0.321002 0.477902 0.000000
0.353538 0.477902 0.000000
0.385427 0.477902 0.000000
0.416746 0.477902 0.000000
0.447554 0.477902 0.000000
0.477902 0.477902 0.000000
0.507832 0.477902 0.000000
0.537378 0.477902 0.000000
0.566571 0.477902 0.000000
0.595436 0.477902 0.000000
0.623997 0.477902 0.000000
0.652273 0.477902 0.000000
0.680281 0.477902 0.000000
0.708038 0.477902 0.000000
0.735558 0.477902 0.000000
0.762853 0.477902 0.000000
0.789935 0.477902 0.000000
0.816814 0.477902 0.000000
0.843499 0.477902 0.000000
0.870000 0.477902 0.000000
0.896325 0.477902 0.000000
0.922481 0.477902 0.000000
0.948474 0.477902 0.000000
0.974312 0.477902 0.000000
1.000000 0.477902 0.000000
0.000000 0.507832 0.000000
0.058381 0.507832 0.000000
0.103043 0.507832 0.000000
0.143666 0.507832 0.000000
0.181871 0.507832 0.000000
0.218372 0.507832 0.000000
0.253571 0.507832 0.000000
0.287722 0.507832 0.000000
0.321002 0.507832 0.000000
0.353538 0.507832 0.000000
0.385427 0.507832 0.000000
0.416746 0.507832 0.000000
0.447554 0.507832 0.000000
0.477902 0.507832 0.000000
0.507832 0.507832 0.000000
0.537378 0.507832 0.000000
0.566571 0.507832 0.000000
0.595436 0.507832 0.000000
0.623997 0.507832 0.000000
0.652273 0.507832 0.000000
0.680281 0.507832 0.000000
0.708038 0.507832 0.000000
0.735558 0.507832 0.000000
0.762853 0.507832 0.000000
0.789935 0.507832 0.000000
0.816814 0.507832 0.000000
0.843499 0.507832 0.000000
0.870000 0.507832 0.000000
0.896325 0.507832 0.000000
0.922481 0.507832 0.000000
0.948474 0.507832 0.000000
0.974312 0.507832 0.000000
1.000000 0.507832 0.000000
0.000000 0.537378 0.000000
0.058381 0.537378 0.000000
0.103043 0.537378 0.000000
0.143666 0.537378 0.000000
0.181871 0.537378 0.000000
0.218372 0.537378 0.000000
0.253571 0.537378 0.000000
0.287722 0.537378 0.000000
0.321002 0.537378 0.000000
0.353538 0.537378 0.000000
0.385427 0.537378 0.000000
0.416746 0.537378 0.000000
0.447554 0.537378 0.000000
0.477902 0.537378 0.000000
0.507832 0.537378 0.000000
0.537378 0.537378 0.000000
0.566571 0.537378 0.000000
0.595436 0.537378 0.000000
0.623997 0.537378 0.000000
0.652273 0.537378 0.000000
0.680281 0.537378 0.000000
0.708038 0.537378 0.000000
0.735558 0.537378 0.000000
0.762853 0.537378 0.000000
0.789935 0.537378 0.000000
0.816814 0.537378 0.000000
0.843499 0.537378 0.000000
0.870000 0.537378 0.000000
0.896325 0.537378 0.000000
0.922481 0.537378 0.000000
0.948474 0.537378 0.000000
0.974312 0.537378 0.000000
1.000000 0.537378 0.000000
0.000000 0.566571 0.000000
0.058381 0.566571 0.000000
0.103043 0.566571 0.000000
0.143666 0.566571 0.000000
0.181871 0.566571 0.000000
0.218372 0.566571 0.000000
0.253571 0.566571 0.000000
0.287722 0.566571 0.000000
0.321002 0.566571 0.000000
0.353538 0.566571 0.000000
0.385427 0.566571 0.000000
0.416746 0.566571 0.000000
0.447554 0.566571 0.000000
0.477902 0.566571 0.000000
0.507832 0.566571 0.000000
0.537378 0.566571 0.000000
0.566571 0.566571 0.000000
0.595436 0.566571 0.000000
0.623997 0.566571 0.000000
0.652273 0.566571 0.000000
0.680281 0.566571 0.000000
0.708038 0.566571 0.000000
0.735558 0.566571 0.000000
0.762853 0.566571 0.000000
0.789935 0.566571 0.000000
0.816814 0.566571 0.000000
0.843499 0.566571 0.000000
0.870000 0.566571 0.000000
0.896325 0.566571 0.000000
0.922481 0.566571 0.000000
0.948474 0.566571 0.000000
0.974312 0.566571 0.000000
1.000000 0.566571 0.000000
0.000000 0.595436 0.000000
0.058381 0.595436 0.000000
0.103043 0.595436 0.000000
0.143666 0.595436 0.000000
0.181871 0.595436 0.000000
0.218372 0.595436 0.000000
0.253571 0.595436 0.000000
0.287722 0.595436 0.000000
0.321002 0.595436 0.000000
0.353538 0.595436 0.000000
0.385427 0.595436 0.000000
0.416746 0.595436 0.000000
0.447554 0.595436 0.000000
0.477902 0.595436 0.000000
0.507832 0.595436 0.000000
0.537378 0.595436 0.000000
0.566571 0.595436 0.000000
0.595436 0.595436 0.000000
0.623997 0.595436 0.000000
0.652273 0.595436 0.000000
0.680281 0.595436 0.000000
0.708038 0.595436 0.000000
0.735558 0.595436 0.000000
0.762853 0.595436 0.000000
0.789935 0.595436 0.000000
0.816814 0.595436 0.000000
0.843499 0.595436 0.000000
0.870000 0.595436 0.000000
0.896325 0.595436 0.000000
0.922481 0.595436 0.000000
0.948474 0.595436 0.000000
0.974312 0.595436 0.000000
1.000000 0.595436 0.000000
0.000000 0.623997 0.000000
0.058381 0.623997 0.000000
0.103043 0.623997 0.000000
0.143666 0.623997 0.000000
0.181871 0.623997 0.000000
0.218372 0.623997 0.000000
0.253571 0.623997 0.000000
0.287722 0.623997 0.000000
0.321002 0.623997 0.000000
0.353538 0.623997 0.000000
0.385427 0.623997 0.000000
0.416746 0.623997 0.000000
0.447554 0.623997 0.000000
0.477902 0.623997 0.000000
0.507832 0.623997 0.000000
0.537378 0.623997 0.000000
0.566571 0.623997 0.000000
0.595436 0.623997 0.000000
0.623997 0.623997 0.000000
0.652273 0.623997 0.000000
0.680281 0.623997 0.000000
0.708038 0.623997 0.000000
0.735558 0.623997 0.000000
0.762853 0.623997 0.000000
0.789935 0.623997 0.000000
0.816814 0.623997 0.000000
0.843499 0.623997 0.000000
0.870000 0.623997 0.000000
0.896325 0.623997 0.000000
0.922481 0.623997 0.000000
0.948474 0.623997 0.000000
0.974312 0.623997 0.000000
1.000000 0.623997 0.000000
0.000000 0.652273 0.000000
0.058381 0.652273 0.000000
0.103043 0.652273 0.000000
0.143666 0.652273 0.000000
0.181871 0.652273 0.000000
0.218372 0.652273 0.000000
0.253571 0.652273 0.000000
0.287722 0.652273 0.000000
0.321002 0.652273 0.000000
0.353538 0.652273 0.000000
0.385427 0.652273 0.000000
0.416746 0.652273 0.000000
0.447554 0.652273 0.000000
0.477902 0.652273 0.000000
0.507832 0.652273 0.000000
0.537378 0.652273 0.000000
0.566571 0.652273 0.000000
0.595436 0.652273 0.000000
0.623997 0.652273 0.000000
0.652273 0.652273 0.000000
0.680281 0.652273 0.000000
0.708038 0.652273 0.000000
0.735558 0.652273 0.000000
0.762853 0.652273 0.000000
0.789935 0.652273 0.000000
0.816814 0.652273 0.000000
0.843499 0.652273 0.000000
0.870000 0.652273 0.000000
0.896325 0.652273 0.000000
0.922481 0.652273 0.000000
0.948474 0.652273 0.000000
0.974312 0.652273 0.000000
1.000000 0.652273 0.000000
0.000000 0.680281 0.000000
0.058381 0.680281 0.000000
0.103043 0.680281 0.000000
0.143666 0.680281 0.000000
0.181871 0.680281 0.000000
0.218372 0.680281 0.000000
0.253571 0.680281 0.000000
0.287722 0.680281 0.000000
0.321002 0.680281 0.000000
0.353538 0.680281 0.000000
0.385427 0.680281 0.000000
0.416746 0.680281 0.000000
0.447554 0.680281 0.000000
0.477902 0.680281 0.000000
0.507832 0.680281 0.000000
0.537378 0.680281 0.000000
0.566571 0.680281 0.000000
0.595436 0.680281 0.000000
0.623997 0.680281 0.000000
0.652273 0.680281 0.000000
0.680281 0.680281 0.000000
0.708038 0.680281 0.000000
0.735558 0.680281 0.000000
0.762853 0.680281 0.000000
0.789935 0.680281 0.000000
0.816814 0.680281 0.000000
0.843499 0.680281 0.000000
0.870000 0.680281 0.000000
0.896325 0.680281 0.000000
0.922481 0.680281 0.000000
0.948474 0.680281 0.000000
0.974312 0.680281 0.000000
1.000000 0.680281 0.000000
0.000000 0.708038 0.000000
0.058381 0.708038 0.000000
0.103043 0.708038 0.000000
0.143666 0.708038 0.000000
0.181871 0.708038 0.000000
0.218372 0.708038 0.000000
0.253571 0.708038 0.000000
0.287722 0.708038 0.000000
0.321002 0.708038 0.000000
0.353538 0.708038 0.000000
0.385427 0.708038 0.000000
0.416746 0.708038 0.000000
0.447554 0.708038 0.000000
0.477902 0.708038 0.000000
0.507832 0.708038 0.000000
0.537378 0.708038 0.000000
0.566571 0.708038 0.000000
0.595436 0.708038 0.000000
0.623997 0.708038 0.000000
0.652273 0.708038 0.000000
0.680281 0.708038 0.000000
0.708038 0.708038 0.000000
0.735558 0.708038 0.000000
0.762853 0.708038 0.000000
0.789935 0.708038 0.000000
0.816814 0.708038 0.000000
0.843499 0.708038 0.000000
0.870000 0.708038 0.000000
0.896325 0.708038 0.000000
0.922481 0.708038 0.000000
0.948474 0.708038 0.000000
0.974312 0.708038 0.000000
1.000000 0.708038 0.000000
0.000000 0.735558 0.000000
0.058381 0.735558 0.000000
0.103043 0.735558 0.000000
0.143666 0.735558 0.000000
0.181871 0.735558 0.000000
0.218372 0.735558 0.000000
0.253571 0.735558 0.000000
0.287722 0.735558 0.000000
0.321002 0.735558 0.000000
0.353538 0.735558 0.000000
0.385427 0.735558 0.000000
0.416746 0.735558 0.000000
0.447554 0.735558 0.000000
0.477902 0.735558 0.000000
0.507832 0.735558 0.000000
0.537378 0.735558 0.000000
0.566571 0.735558 0.000000
0.595436 0.735558 0.000000
0.623997 0.735558 0.000000
0.652273 0.735558 0.000000
0.680281 0.735558 0.000000
0.708038 0.735558 0.000000
0.735558 0.735558 0.000000
0.762853 0.735558 0.000000
0.789935 0.735558 0.000000
0.816814 0.735558 0.000000
0.843499 0.735558 0.000000
0.870000 0.735558 0.000000
0.896325 0.735558 0.000000
0.922481 0.735558 0.000000
0.948474 0.735558 0.000000
0.974312 0.735558 0.000000
1.000000 0.735558 0.000000
0.000000 0.762853 0.000000
0.058381 0.762853 0.000000
0.103043 0.762853 0.000000
0.143666 0.762853 0.000000
0.181871 0.762853 0.000000
0.218372 0.762853 0.000000
0.253571 0.762853 0.000000
0.287722 0.762853 0.000000
0.321002 0.762853 0.000000
0.353538 0.762853 0.000000
0.385427 0.762853 0.000000
0.416746 0.762853 0.000000
0.447554 0.762853 0.000000
0.477902 0.762853 0.000000
0.507832 0.762853 0.000000
0.537378 0.762853 0.000000
0.566571 0.762853 0.000000
0.595436 0.762853 0.000000
0.623997 0.762853 0.000000
0.652273 0.762853 0.000000
0.680281 0.762853 0.000000
0.708038 0.762853 0.000000
0.735558 0.762853 0.000000
0.762853 0.762853 0.000000
0.789935 0.762853 0.000000
0.816814 0.762853 0.000000
0.843499 0.762853 0.000000
0.870000 0.762853 0.000000
0.896325 0.762853 0.000000
0.922481 0.762853 0.000000
0.948474 0.762853 0.000000
0.974312 0.762853 0.000000
1.000000 0.762853 0.000000
0.000000 0.789935 0.000000
0.058381 0.789935 0.000000
0.103043 0.789935 0.000000
0.143666 0.789935 0.000000
0.181871 0.789935 0.000000
0.218372 0.789935 0.000000
0.253571 0.789935 0.000000
0.287722 0.789935 0.000000
0.321002 0.789935 0.000000
0.353538 0.789935 0.000000
0.385427 0.789935 0.000000
0.416746 0.789935 0.000000
0.447554 0.789935 0.000000
0.477902 0.789935 0.000000
0.507832 0.789935 0.000000
0.537378 0.789935 0.000000
0.566571 0.789935 0.000000
0.595436 0.789935 0.000000
0.623997 0.789935 0.000000
0.652273 0.789935 0.000000
0.680281 0.789935 0.000000
0.708038 0.789935 0.000000
0.735558 0.789935 0.000000
0.762853 0.789935 0.000000
0.789935 0.789935 0.000000
0.816814 0.789935 0.000000
0.843499 0.789935 0.000000
0.870000 0.789935 0.000000
0.896325 0.789935 0.000000
0.922481 0.789935 0.000000
0.948474 0.789935 0.000000
0.974312 0.789935 0.000000
1.000000 0.789935 0.000000
0.000000 0.816814 0.000000
0.058381 0.816814 0.000000
0.103043 0.816814 0.000000
0.143666 0.816814 0.000000
0.181871 0.816814 0.000000
0.218372 0.816814 0.000000
0.253571 0.816814 0.000000
0.287722 0.816814 0.000000
0.321002 0.816814 0.000000
0.353538 0.816814 0.000000
0.385427 0.816814 0.000000
0.416746 0.816814 0.000000
0.447554 0.816814 0.000000
0.477902 0.816814 0.000000
0.507832 0.816814 0.000000
0.537378 0.816814 0.000000
0.566571 0.816814 0.000000
0.595436 0.816814 0.000000
0.623997 0.816814 0.000000
0.652273 0.816814 0.000000
0.680281 0.816814 0.000000
0.708038 0.816814 0.000000
0.735558 0.816814 0.000000
0.762853 0.816814 0.000000
0.789935 0.816814 0.000000
0.816814 0.816814 0.000000
0.843499 0.816814 0.000000
0.870000 0.816814 0.000000
0.896325 0.816814 0.000000
0.922481 0.816814 0.000000
0.948474 0.816814 0.000000
0.974312 0.816814 0.000000
1.000000 0.816814 0.000000
0.000000 0.843499 0.000000
0.058381 0.843499 0.000000
0.103043 0.843499 0.000000
0.143666 0.843499 0.000000
0.181871 0.843499 0.000000
0.218372 0.843499 0.000000
0.253571 0.843499 0.000000
0.287722 0.843499 0.000000
0.321002 0.843499 0.000000
0.353538 0.843499 0.000000
0.385427 0.843499 0.000000
0.416746 0.843499 0.000000
0.447554 0.843499 0.000000
0.477902 0.843499 0.000000
0.507832 0.843499 0.000000
0.537378 0.843499 0.000000
0.566571 0.843499 0.000000
0.595436 0.843499 0.000000
0.623997 0.843499 0.000000
0.652273 0.843499 0.000000
0.680281 0.843499 0.000000
0.708038 0.843499 0.000000
0.735558 0.843499 0.000000
0.762853 0.843499 0.000000
0.789935 0.843499 0.000000
