presets/film_stocks/Kodak_Ultramax_400.cube
# 独寻胶片模拟 -- Kodak Ultramax 400
# Kodak, ISO 400, 2007, negative
TITLE "Kodak Ultramax 400"
LUT_3D_SIZE 9
DOMAIN_MIN 0.0 0.0 0.0
DOMAIN_MAX 1.0 1.0 1.0
0.000000 0.000000 0.000000
0.195802 0.008109 0.000000
0.347219 0.014381 0.000000
0.485437 0.020105 0.000000
0.615727 0.025501 0.000000
0.740422 0.030666 0.000000
0.860832 0.035653 0.000000
0.977791 0.040497 0.000000
1.000000 0.045222 0.000000
0.000000 0.189976 0.000000
0.189415 0.193426 0.000000
0.341565 0.196862 0.000000
0.480171 0.200286 0.000000
0.610719 0.203698 0.000000
0.735605 0.207098 0.000000
0.856165 0.210486 0.000000
0.973248 0.213862 0.000000
1.000000 0.217228 0.000000
0.000000 0.336887 0.000000
0.182983 0.339948 0.000000
0.335893 0.343004 0.000000
0.474893 0.346054 0.000000
0.605702 0.349098 0.000000
0.730781 0.352137 0.000000
0.851493 0.355170 0.000000
0.968701 0.358197 0.000000
1.000000 0.361220 0.000000
0.000000 0.470993 0.000000
0.176502 0.473847 0.000000
0.330199 0.476697 0.000000
0.469602 0.479544 0.000000
0.600677 0.482388 0.000000
0.725950 0.485228 0.000000
0.846816 0.488064 0.000000
0.964149 0.490897 0.000000
1.000000 0.493727 0.000000
0.000000 0.597406 0.000000
0.169972 0.600121 0.000000
0.324486 0.602834 0.000000
0.464299 0.605545 0.000000
0.595642 0.608253 0.000000
0.721113 0.610958 0.000000
0.842133 0.613661 0.000000
0.959592 0.616361 0.000000
1.000000 0.619059 0.000000
0.000000 0.718390 0.000000
0.163388 0.721003 0.000000
0.318751 0.723613 0.000000
0.458983 0.726222 0.000000
0.590599 0.728829 0.000000
0.716269 0.731434 0.000000
0.837445 0.734037 0.000000
0.955032 0.736638 0.000000
1.000000 0.739237 0.000000
0.000000 0.835217 0.000000
0.156747 0.837748 0.000000
0.312994 0.840278 0.000000
0.453655 0.842806 0.000000
0.585546 0.845333 0.000000
0.711418 0.847858 0.000000
0.832751 0.850382 0.000000
0.950466 0.852904 0.000000
1.000000 0.855424 0.000000
0.000000 0.948696 0.000000
0.150048 0.951161 0.000000
0.307215 0.953624 0.000000
0.448313 0.956086 0.000000
0.580485 0.958547 0.000000
0.706561 0.961007 0.000000
0.828052 0.963465 0.000000
0.945896 0.965922 0.000000
1.000000 0.968377 0.000000
0.000000 1.000000 0.000000
0.143285 1.000000 0.000000
0.301413 1.000000 0.000000
0.442957 1.000000 0.000000
0.575414 1.000000 0.000000
0.701696 1.000000 0.000000
0.823347 1.000000 0.000000
0.941321 1.000000 0.000000
1.000000 1.000000 0.000000
0.000000 0.000000 0.187407
0.185786 0.000000 0.182096
0.338362 0.000000 0.176753
0.477190 0.000000 0.171376
0.607885 0.000000 0.165964
0.732879 0.007684 0.160513
0.853525 0.014005 0.155024
0.970679 0.019755 0.149494
1.000000 0.025169 0.143920
0.000000 0.175821 0.184654
0.179327 0.179327 0.179327
0.332678 0.182818 0.173966
0.471905 0.186295 0.168571
0.602863 0.189758 0.163139
0.728052 0.193208 0.157668
0.848851 0.196646 0.152158
0.966129 0.200070 0.146605
1.000000 0.203483 0.141008
0.000000 0.324387 0.181892
0.172818 0.327473 0.176548
0.326973 0.330553 0.171169
0.466607 0.333626 0.165755
0.597833 0.336694 0.160303
0.723218 0.339755 0.154813
0.844170 0.342811 0.149280
0.961574 0.345861 0.143705
1.000000 0.348906 0.138084
0.000000 0.459358 0.179121
0.166258 0.462227 0.173759
0.321247 0.465093 0.168363
0.461297 0.467954 0.162929
0.592793 0.470812 0.157458
0.718377 0.473667 0.151946
0.839485 0.476518 0.146391
0.957016 0.479365 0.140792
1.000000 0.482209 0.135146
0.000000 0.586345 0.176342
0.159642 0.589071 0.170962
0.315500 0.591795 0.165546
0.455974 0.594516 0.160093
0.587745 0.597234 0.154601
0.713529 0.599950 0.149067
0.834793 0.602663 0.143490
0.952452 0.605374 0.137867
1.000000 0.608082 0.132195
0.000000 0.707753 0.173553
0.152969 0.710374 0.168155
0.309731 0.712993 0.162720
0.450637 0.715610 0.157247
0.582687 0.718225 0.151733
0.708674 0.720838 0.146177
0.830096 0.723449 0.140576
0.947884 0.726058 0.134928
1.000000 0.728664 0.129230
0.000000 0.824914 0.170755
0.146234 0.827452 0.165338
0.303939 0.829989 0.159883
0.445288 0.832524 0.154389
0.577620 0.835057 0.148854
0.703812 0.837589 0.143275
0.825394 0.840119 0.137650
0.943311 0.842647 0.131976
1.000000 0.845174 0.126251
0.000000 0.938668 0.167947
0.139433 0.941138 0.162510
0.298123 0.943607 0.157036
0.439925 0.946074 0.151520
0.572544 0.948541 0.145963
0.698943 0.951005 0.140360
0.820686 0.953469 0.134711
0.938734 0.955931 0.129011
1.000000 0.958392 0.123257
0.000000 1.000000 0.165129
0.132561 1.000000 0.159673
0.292284 1.000000 0.154177
0.434548 1.000000 0.148640
0.567459 1.000000 0.143060
0.694067 1.000000 0.137433
0.815972 1.000000 0.131758
0.934152 1.000000 0.126030
1.000000 1.000000 0.120248
0.000000 0.000000 0.332331
0.175655 0.000000 0.327629
0.329456 0.000000 0.322914
0.468912 0.000000 0.318184
0.600021 0.000000 0.313439
0.725321 0.000000 0.308679
0.846206 0.000000 0.303904
0.963556 0.000000 0.299113
1.000000 0.000000 0.294305
0.000000 0.161423 0.329891
0.169117 0.164991 0.325183
0.323740 0.168542 0.320460
0.463608 0.172079 0.315722
0.594986 0.175600 0.310970
0.720483 0.179106 0.306202
0.841523 0.182598 0.301418
0.958999 0.186076 0.296619
1.000000 0.189540 0.291803
0.000000 0.311786 0.327449
0.162526 0.314897 0.322732
0.318002 0.318002 0.318002
0.458290 0.321100 0.313257
0.589941 0.324193 0.308496
0.715638 0.327279 0.303720
0.836834 0.330358 0.298928
0.954437 0.333432 0.294120
1.000000 0.336500 0.289296
0.000000 0.447661 0.325002
0.155878 0.450546 0.320278
0.312242 0.453427 0.315540
0.452960 0.456304 0.310787
0.584888 0.459177 0.306018
0.710786 0.462046 0.301234
0.832140 0.464912 0.296434
0.949871 0.467774 0.291617
1.000000 0.470632 0.286784
0.000000 0.575240 0.322551
0.149170 0.577977 0.317820
0.306460 0.580712 0.313074
0.447616 0.583444 0.308313
0.579825 0.586173 0.303536
0.705927 0.588899 0.298744
0.827440 0.591623 0.293935
0.945300 0.594344 0.289110
1.000000 0.597063 0.284268
0.000000 0.697083 0.320097
0.142399 0.699713 0.315358
0.300655 0.702340 0.310604
0.442259 0.704965 0.305835
0.574753 0.707588 0.301050
0.701062 0.710209 0.296249
0.822734 0.712828 0.291432
0.940725 0.715445 0.286598
1.000000 0.718060 0.281747
0.000000 0.814585 0.317638
0.135559 0.817130 0.312891
0.294826 0.819673 0.308130
0.436888 0.822214 0.303353
0.569671 0.824754 0.298560
0.696189 0.827292 0.293750
0.818023 0.829829 0.288924
0.936145 0.832364 0.284082
1.000000 0.834897 0.279221
0.000000 0.928616 0.315175
0.128645 0.931092 0.310421
0.288973 0.933567 0.305651
0.431503 0.936040 0.300866
0.564580 0.938512 0.296065
0.691309 0.940982 0.291247
0.813306 0.943451 0.286412
0.931560 0.945919 0.281560
1.000000 0.948385 0.276691
0.000000 1.000000 0.312709
0.121653 1.000000 0.307947
0.283095 1.000000 0.303169
0.426104 1.000000 0.298375
0.559480 1.000000 0.293565
0.686421 1.000000 0.288739
0.808583 1.000000 0.283895
0.926971 1.000000 0.279034
1.000000 1.000000 0.274156
0.000000 0.000000 0.464623
0.165399 0.000000 0.460243
0.320500 0.000000 0.455855
0.460604 0.000000 0.451457
0.592136 0.000000 0.447051
0.717746 0.000000 0.442636
0.838874 0.000000 0.438211
0.956421 0.000000 0.433777
1.000000 0.000000 0.429333
0.000000 0.146749 0.462350
0.158776 0.150388 0.457966
0.314750 0.154008 0.453573
0.455279 0.157611 0.449171
0.587086 0.161197 0.444760
0.712897 0.164766 0.440339
0.834182 0.168319 0.435910
0.951857 0.171856 0.431471
1.000000 0.175378 0.427022
0.000000 0.299076 0.460075
0.152095 0.302215 0.455686
0.308977 0.305346 0.451288
0.449941 0.308471 0.446882
0.582028 0.311589 0.442466
0.708041 0.314701 0.438041
0.829484 0.317806 0.433606
0.947289 0.320905 0.429162
1.000000 0.323998 0.424709
0.000000 0.435900 0.457797
0.145352 0.438800 0.453404
0.303182 0.441697 0.449001
0.444590 0.444590 0.444590
0.576960 0.447479 0.440169
0.703178 0.450364 0.435740
0.824781 0.453245 0.431300
0.942715 0.456122 0.426851
1.000000 0.458996 0.422392
0.000000 0.564090 0.455517
0.138542 0.566839 0.451119
0.297364 0.569584 0.446712
0.439225 0.572327 0.442296
0.571882 0.575067 0.437871
0.698309 0.577805 0.433436
0.820072 0.580539 0.428991
0.938137 0.583271 0.424537
1.000000 0.586001 0.420073
0.000000 0.686379 0.453235
0.131661 0.689017 0.448832
0.291522 0.691652 0.444420
0.433847 0.694286 0.439999
0.566796 0.696917 0.435569
0.693432 0.699547 0.431129
0.815358 0.702174 0.426680
0.933554 0.704799 0.422221
1.000000 0.707423 0.417752
0.000000 0.804228 0.450950
0.124704 0.806779 0.446543
0.285655 0.809329 0.442126
0.428454 0.811878 0.437700
0.561699 0.814424 0.433265
0.688548 0.816969 0.428820
0.810638 0.819512 0.424366
0.928967 0.822054 0.419902
1.000000 0.824594 0.415427
0.000000 0.918542 0.448663
0.117664 0.921024 0.444251
0.279762 0.923504 0.439830
0.423047 0.925983 0.435399
0.556593 0.928460 0.430959
0.683656 0.930936 0.426509
0.805912 0.933411 0.422049
0.924375 0.935884 0.417580
1.000000 0.938356 0.413100
0.000000 1.000000 0.446373
0.110534 1.000000 0.441956
0.273844 1.000000 0.437530
0.417625 1.000000 0.433095
0.551477 1.000000 0.428650
0.678757 1.000000 0.424195
0.801180 1.000000 0.419730
0.919778 1.000000 0.415255
1.000000 1.000000 0.410771
0.000000 0.000000 0.589326
0.155008 0.000000 0.585161
0.311490 0.000000 0.580989
0.452264 0.000000 0.576811
0.584229 0.000000 0.572627
0.710154 0.000000 0.568436
0.831528 0.000000 0.564239
0.949276 0.000000 0.560036
1.000000 0.000000 0.555825
0.000000 0.131759 0.587164
0.148292 0.135480 0.582995
0.305705 0.139180 0.578821
0.446919 0.142859 0.574640
0.579165 0.146518 0.570452
0.705294 0.150159 0.566258
0.826827 0.153781 0.562057
0.944705 0.157385 0.557850
1.000000 0.160971 0.553637
0.000000 0.286253 0.585000
0.141512 0.289420 0.580829
0.299897 0.292580 0.576651
0.441560 0.295733 0.572466
0.574092 0.298878 0.568275
0.700427 0.302017 0.564078
0.822121 0.305149 0.559874
0.940129 0.308274 0.555663
1.000000 0.311393 0.551446
0.000000 0.424071 0.582835
0.134662 0.426989 0.578660
0.294065 0.429902 0.574479
0.436187 0.432811 0.570291
0.569009 0.435716 0.566097
0.695554 0.438618 0.561896
0.817409 0.441515 0.557689
0.935548 0.444408 0.553475
1.000000 0.447297 0.549254
0.000000 0.552894 0.580668
0.127739 0.555654 0.576490
0.288209 0.558411 0.572305
0.430801 0.561165 0.568114
0.563917 0.563917 0.563917
0.690673 0.566665 0.559712
0.812691 0.569411 0.555502
0.930963 0.572154 0.551284
1.000000 0.574894 0.547060
0.000000 0.675639 0.578500
0.120736 0.678286 0.574318
0.282328 0.680930 0.570130
0.425400 0.683572 0.565936
0.558815 0.686212 0.561735
0.685784 0.688850 0.557527
0.807968 0.691486 0.553313
0.926372 0.694120 0.549092
1.000000 0.696751 0.544864
0.000000 0.793843 0.576329
0.113646 0.796401 0.572145
0.276421 0.798958 0.567953
0.419985 0.801513 0.563755
0.553703 0.804067 0.559551
0.680889 0.806619 0.555340
0.803239 0.809169 0.551122
0.921777 0.811717 0.546897
1.000000 0.814264 0.542666
0.000000 0.908445 0.574157
0.106462 0.910932 0.569969
0.270487 0.913418 0.565774
0.414555 0.915903 0.561573
0.548581 0.918386 0.557365
0.675986 0.920867 0.553151
0.798503 0.923348 0.548929
0.917178 0.925827 0.544701
1.000000 0.928304 0.540466
0.000000 1.000000 0.571984
0.099175 1.000000 0.567792
0.264526 1.000000 0.563594
0.409110 1.000000 0.559389
0.543450 1.000000 0.555178
0.671075 1.000000 0.550960
0.793762 1.000000 0.546735
0.912573 1.000000 0.542503
1.000000 1.000000 0.538265
0.000000 0.000000 0.708674
0.144469 0.000000 0.704667
0.302426 0.000000 0.700656
0.443892 0.000000 0.696640
0.576299 0.000000 0.692619
0.702545 0.000000 0.688593
0.824168 0.000000 0.684562
0.942119 0.000000 0.680527
1.000000 0.000000 0.676486
0.000000 0.116402 0.706594
0.137650 0.120219 0.702585
0.296605 0.124011 0.698572
0.438525 0.127779 0.694553
0.571220 0.131524 0.690529
0.697674 0.135246 0.686501
0.819459 0.138947 0.682468
0.937540 0.142628 0.678429
1.000000 0.146288 0.674386
0.000000 0.273307 0.704513
0.130759 0.276505 0.700502
0.290759 0.279695 0.696486
0.433145 0.282878 0.692465
0.566132 0.286053 0.688438
0.692796 0.289220 0.684407
0.814744 0.292381 0.680371
0.932957 0.295534 0.676330
1.000000 0.298680 0.672284
0.000000 0.412173 0.702431
0.123791 0.415108 0.698417
0.284889 0.418039 0.694399
0.427750 0.420965 0.690375
0.561035 0.423887 0.686346
0.687911 0.426805 0.682313
0.810023 0.429718 0.678274
0.928369 0.432628 0.674230
1.000000 0.435533 0.670182
0.000000 0.541649 0.700348
0.116740 0.544421 0.696331
0.278993 0.547190 0.692310
0.422342 0.549956 0.688284
0.555927 0.552719 0.684253
0.683019 0.555480 0.680216
0.805296 0.558237 0.676175
0.923776 0.560991 0.672129
1.000000 0.563743 0.668077
0.000000 0.664864 0.698263
0.109599 0.667519 0.694244
0.273071 0.670172 0.690220
0.416918 0.672823 0.686191
0.550810 0.675472 0.682158
0.678119 0.678119 0.678119
0.800563 0.680763 0.674075
0.919179 0.683406 0.670026
1.000000 0.686046 0.665972
0.000000 0.783429 0.696177
0.102358 0.785995 0.692155
0.267122 0.788558 0.688129
0.411480 0.791121 0.684098
0.545682 0.793681 0.680061
0.673212 0.796240 0.676020
0.795825 0.798797 0.671973
0.914576 0.801352 0.667922
1.000000 0.803906 0.663865
0.000000 0.898324 0.694090
0.095007 0.900817 0.690066
0.261144 0.903309 0.686037
0.406026 0.905799 0.682003
0.540545 0.908288 0.677964
0.668297 0.910776 0.673920
0.791081 0.913262 0.669870
0.909969 0.915746 0.665816
1.000000 0.918229 0.661757
0.000000 1.000000 0.692001
0.087536 1.000000 0.687974
0.255138 1.000000 0.683943
0.400558 1.000000 0.679906
0.535397 1.000000 0.675865
0.663375 1.000000 0.671818
0.786330 1.000000 0.667766
0.905357 1.000000 0.663709
1.000000 1.000000 0.659647
0.000000 0.000000 0.823921
0.133765 0.000000 0.820039
0.293304 0.000000 0.816154
0.435486 0.000000 0.812265
0.568346 0.000000 0.808372
0.694918 0.000000 0.804475
0.816795 0.000000 0.800575
0.934951 0.000000 0.796670
1.000000 0.000000 0.792761
0.000000 0.100605 0.821906
0.126831 0.104538 0.818023
0.287445 0.108441 0.814136
0.430098 0.112314 0.810245
0.563253 0.116160 0.806350
0.690036 0.119979 0.802451
0.812076 0.123773 0.798548
0.930365 0.127542 0.794641
1.000000 0.131288 0.790730
0.000000 0.260231 0.819890
0.119817 0.263462 0.816005
0.281560 0.266684 0.812116
0.424696 0.269899 0.808223
0.558149 0.273105 0.804326
0.685147 0.276303 0.800425
0.807352 0.279494 0.796520
0.925774 0.282677 0.792611
1.000000 0.285853 0.788698
0.000000 0.400202 0.817874
0.112716 0.403155 0.813986
0.275649 0.406104 0.810095
0.419278 0.409048 0.806200
0.553036 0.411988 0.802301
0.680251 0.414923 0.798398
0.802622 0.417854 0.794491
0.921179 0.420780 0.790579
1.000000 0.423703 0.786664
0.000000 0.530356 0.815856
0.105519 0.533140 0.811966
0.269712 0.535921 0.808073
0.413847 0.538699 0.804176
0.547913 0.541474 0.800275
0.675347 0.544247 0.796370
0.797886 0.547016 0.792460
0.916578 0.549782 0.788547
1.000000 0.552545 0.784630
0.000000 0.654051 0.813837
0.098218 0.656716 0.809945
0.263747 0.659378 0.806050
0.408400 0.662038 0.802151
0.542780 0.664696 0.798248
0.670435 0.667352 0.794340
0.793145 0.670005 0.790429
0.911973 0.672656 0.786514
1.000000 0.675305 0.782594
0.000000 0.772986 0.811817
0.090801 0.775559 0.807924
0.257754 0.778130 0.804026
0.402938 0.780699 0.800125
0.537637 0.783267 0.796220
0.665516 0.785833 0.792310
0.788397 0.788397 0.788397
0.907363 0.790959 0.784479
1.000000 0.793520 0.780558
0.000000 0.888179 0.809796
0.083254 0.890678 0.805901
0.251731 0.893176 0.802001
0.397460 0.895672 0.798098
0.532483 0.898167 0.794190
0.660589 0.900660 0.790279
0.783643 0.903152 0.786363
0.902748 0.905642 0.782444
1.000000 0.908131 0.778520
0.000000 1.000000 0.807774
0.075560 1.000000 0.803876
0.245678 1.000000 0.799975
0.391966 1.000000 0.796069
0.527319 1.000000 0.792160
0.655655 1.000000 0.788246
0.778883 1.000000 0.784329
0.898128 1.000000 0.780407
1.000000 1.000000 0.776481
0.000000 0.000000 0.935865
0.122878 0.000000 0.932087
0.284122 0.000000 0.928305
0.427047 0.000000 0.924520
0.560370 0.000000 0.920732
0.687274 0.000000 0.916940
0.809407 0.000000 0.913145
0.927771 0.000000 0.909347
1.000000 0.000000 0.905546
0.000000 0.084266 0.933904
0.115815 0.088345 0.930124
0.278223 0.092384 0.926340
0.421636 0.096387 0.922553
0.555261 0.100355 0.918764
0.682381 0.104291 0.914970
0.804680 0.108196 0.911174
0.923178 0.112071 0.907374
1.000000 0.115918 0.903571
0.000000 0.247016 0.931942
0.108661 0.250282 0.928160
0.272297 0.253539 0.924375
0.416211 0.256787 0.920586
0.550142 0.260027 0.916794
0.677480 0.263258 0.912999
0.799946 0.266481 0.909201
0.918579 0.269696 0.905400
1.000000 0.272903 0.901595
0.000000 0.388156 0.929978
0.101407 0.391128 0.926195
0.266345 0.394095 0.922408
0.410770 0.397058 0.918618
0.545014 0.400016 0.914825
0.672572 0.402969 0.911028
0.795207 0.405918 0.907228
0.913976 0.408862 0.903424
1.000000 0.411802 0.899618
0.000000 0.519012 0.928014
0.094041 0.521808 0.924229
0.260364 0.524602 0.920441
0.405315 0.527393 0.916649
0.539875 0.530180 0.912854
0.667656 0.532965 0.909055
0.790462 0.535746 0.905254
0.909368 0.538524 0.901448
1.000000 0.541299 0.897640
0.000000 0.643201 0.926049
0.086553 0.645875 0.922263
0.254354 0.648547 0.918472
0.399844 0.651216 0.914679
0.534726 0.653883 0.910882
0.662733 0.656548 0.907082
0.785711 0.659210 0.903278
0.904755 0.661870 0.899471
1.000000 0.664528 0.895661
0.000000 0.762513 0.924084
0.078925 0.765094 0.920295
0.248314 0.767672 0.916503
0.394357 0.770249 0.912708
0.529566 0.772824 0.908909
0.657802 0.775397 0.905107
0.780954 0.777968 0.901302
0.900138 0.780537 0.897494
1.000000 0.783105 0.893682
0.000000 0.878010 0.922117
0.071139 0.880515 0.918327
0.242243 0.883019 0.914533
0.388855 0.885521 0.910736
0.524396 0.888022 0.906936
0.652863 0.890521 0.903132
0.776191 0.893019 0.899325
0.895515 0.895515 0.895515
1.000000 0.898010 0.891701
0.000000 0.990391 0.920149
0.063170 0.992833 0.916357
0.236140 0.995275 0.912562
0.383336 0.997715 0.908763
0.519215 1.000000 0.904961
0.647916 1.000000 0.901156
0.771421 1.000000 0.897347
0.890887 1.000000 0.893535
1.000000 1.000000 0.889720
0.000000 0.000000 1.000000
0.111784 0.000000 1.000000
0.274878 0.000000 1.000000
0.418572 0.000000 1.000000
0.552370 0.000000 1.000000
0.679612 0.000000 1.000000
0.802006 0.000000 1.000000
0.920580 0.000000 1.000000
1.000000 0.000000 1.000000
0.000000 0.067227 1.000000
0.104575 0.071498 1.000000
0.268937 0.075715 1.000000
0.413138 0.079884 1.000000
0.547245 0.084007 1.000000
0.674707 0.088089 1.000000
0.797269 0.092131 1.000000
0.915979 0.096136 1.000000
1.000000 0.100106 1.000000
0.000000 0.233650 1.000000
0.097259 0.236954 1.000000
0.262968 0.240249 1.000000
0.407689 0.243534 1.000000
0.542111 0.246809 1.000000
0.669795 0.250076 1.000000
0.792526 0.253334 1.000000
0.911373 0.256583 1.000000
1.000000 0.259823 1.000000
0.000000 0.376030 1.000000
0.089825 0.379022 1.000000
0.256971 0.382009 1.000000
0.402225 0.384991 1.000000
0.536966 0.387968 1.000000
0.664875 0.390940 1.000000
0.787778 0.393908 1.000000
0.906762 0.396871 1.000000
1.000000 0.399829 1.000000
0.000000 0.507615 1.000000
0.082260 0.510425 1.000000
0.250944 0.513232 1.000000
0.396745 0.516035 1.000000
0.531811 0.518835 1.000000
0.659947 0.521632 1.000000
0.783023 0.524426 1.000000
0.902146 0.527217 1.000000
1.000000 0.530004 1.000000
0.000000 0.632312 1.000000
0.074546 0.634996 1.000000
0.244887 0.637677 1.000000
0.391250 0.640356 1.000000
0.526646 0.643032 1.000000
0.655012 0.645706 1.000000
0.778263 0.648378 1.000000
0.897526 0.651048 1.000000
1.000000 0.653715 1.000000
0.000000 0.752010 1.000000
0.066660 0.754598 1.000000
0.238798 0.757184 1.000000
0.385738 0.759768 1.000000
0.521470 0.762350 1.000000
0.650069 0.764931 1.000000
0.773496 0.767509 1.000000
0.892900 0.770086 1.000000
1.000000 0.772661 1.000000
0.000000 0.867816 1.000000
0.058572 0.870327 1.000000
0.232677 0.872837 1.000000
0.380209 0.875345 1.000000
0.516283 0.877852 1.000000
0.645118 0.880357 1.000000
0.768723 0.882861 1.000000
0.888269 0.885363 1.000000
1.000000 0.887864 1.000000
0.000000 0.980453 1.000000
0.050242 0.982901 1.000000
0.226521 0.985347 1.000000
0.374664 0.987793 1.000000
0.511085 0.990237 1.000000
0.640158 0.992679 1.000000
0.763944 0.995121 1.000000
0.883634 0.997561 1.000000
1.000000 1.000000 1.000000
