presets/film_stocks/Kodak_Vision3_200T_5213.cube
# 独寻胶片模拟 -- Kodak Vision3 200T 5213
# Kodak, ISO 200, 2010, negative
TITLE "Kodak Vision3 200T 5213"
LUT_3D_SIZE 9
DOMAIN_MIN 0.0 0.0 0.0
DOMAIN_MAX 1.0 1.0 1.0
0.000000 0.000000 0.000000
0.166791 0.004550 0.000000
0.315026 0.008594 0.000000
0.456980 0.012467 0.000000
0.595004 0.016232 0.000000
0.730177 0.019920 0.000000
0.863121 0.023546 0.000000
0.994239 0.027123 0.000000
1.000000 0.030658 0.000000
0.000000 0.160877 0.000000
0.160323 0.163903 0.000000
0.308923 0.166924 0.000000
0.451080 0.169940 0.000000
0.589244 0.172952 0.000000
0.724522 0.175958 0.000000
0.857551 0.178960 0.000000
0.988740 0.181958 0.000000
1.000000 0.184951 0.000000
0.000000 0.303857 0.000000
0.153831 0.306716 0.000000
0.302809 0.309572 0.000000
0.445173 0.312427 0.000000
0.583478 0.315278 0.000000
0.718863 0.318128 0.000000
0.851977 0.320975 0.000000
0.983237 0.323820 0.000000
1.000000 0.326662 0.000000
0.000000 0.440779 0.000000
0.147315 0.443544 0.000000
0.296685 0.446308 0.000000
0.439259 0.449070 0.000000
0.577707 0.451830 0.000000
0.713200 0.454589 0.000000
0.846401 0.457347 0.000000
0.977732 0.460103 0.000000
1.000000 0.462857 0.000000
0.000000 0.573910 0.000000
0.140773 0.576610 0.000000
0.290549 0.579310 0.000000
0.433338 0.582008 0.000000
0.571931 0.584705 0.000000
0.707533 0.587401 0.000000
0.840821 0.590095 0.000000
0.972224 0.592789 0.000000
1.000000 0.595482 0.000000
0.000000 0.704291 0.000000
0.134203 0.706942 0.000000
0.284401 0.709592 0.000000
0.427409 0.712242 0.000000
0.566150 0.714890 0.000000
0.701862 0.717538 0.000000
0.835237 0.720185 0.000000
0.966714 0.722831 0.000000
1.000000 0.725476 0.000000
0.000000 0.832521 0.000000
0.127604 0.835133 0.000000
0.278241 0.837744 0.000000
0.421473 0.840354 0.000000
0.560363 0.842963 0.000000
0.696187 0.845572 0.000000
0.829650 0.848180 0.000000
0.961200 0.850788 0.000000
1.000000 0.853394 0.000000
0.000000 0.958991 0.000000
0.120974 0.961569 0.000000
0.272069 0.964147 0.000000
0.415530 0.966725 0.000000
0.554571 0.969302 0.000000
0.690507 0.971878 0.000000
0.824060 0.974454 0.000000
0.955684 0.977029 0.000000
1.000000 0.979603 0.000000
0.000000 1.000000 0.000000
0.114312 1.000000 0.000000
0.265884 1.000000 0.000000
0.409579 1.000000 0.000000
0.548773 1.000000 0.000000
0.684824 1.000000 0.000000
0.818467 1.000000 0.000000
0.950165 1.000000 0.000000
1.000000 1.000000 0.000000
0.000000 0.000000 0.154432
0.154927 0.000000 0.150570
0.303840 0.000000 0.146698
0.446169 0.000000 0.142818
0.584450 0.000000 0.138928
0.719817 0.000000 0.135028
0.852917 0.004129 0.131117
0.984165 0.008198 0.127197
1.000000 0.012083 0.123265
0.000000 0.145361 0.152282
0.148415 0.148415 0.148415
0.297717 0.151463 0.144538
0.440256 0.154505 0.140652
0.578680 0.157542 0.136757
0.714155 0.160573 0.132851
0.847341 0.163600 0.128935
0.978660 0.166621 0.125008
1.000000 0.169638 0.121070
0.000000 0.289237 0.150129
0.141877 0.292109 0.146257
0.291583 0.294978 0.142375
0.434336 0.297844 0.138484
0.572905 0.300708 0.134583
0.708489 0.303570 0.130671
0.841761 0.306429 0.126749
0.973153 0.309286 0.122816
1.000000 0.312140 0.118872
0.000000 0.426651 0.147974
0.135312 0.429425 0.144096
0.285438 0.432196 0.140209
0.428409 0.434966 0.136312
0.567124 0.437735 0.132405
0.702818 0.440501 0.128488
0.836178 0.443267 0.124560
0.967642 0.446030 0.120621
1.000000 0.448793 0.116670
0.000000 0.560119 0.145815
0.128718 0.562825 0.141932
0.279280 0.565530 0.138040
0.422474 0.568234 0.134137
0.561338 0.570937 0.130225
0.697143 0.573639 0.126302
0.830592 0.576339 0.122368
0.962129 0.579039 0.118422
1.000000 0.581737 0.114465
0.000000 0.690754 0.143654
0.122094 0.693410 0.139765
0.273110 0.696065 0.135868
0.416532 0.698719 0.131960
0.555547 0.701372 0.128041
0.691465 0.704025 0.124112
0.825003 0.706676 0.120171
0.956614 0.709326 0.116219
1.000000 0.711976 0.112255
0.000000 0.819189 0.141489
0.115437 0.821804 0.137596
0.266927 0.824419 0.133692
0.410582 0.827033 0.129779
0.549751 0.829646 0.125854
0.685782 0.832259 0.121919
0.819410 0.834871 0.117972
0.951095 0.837482 0.114013
1.000000 0.840092 0.110042
0.000000 0.945828 0.139322
0.108745 0.948410 0.135423
0.260732 0.950992 0.131514
0.404625 0.953572 0.127594
0.543949 0.956152 0.123664
0.680095 0.958732 0.119722
0.813813 0.961310 0.115768
0.945573 0.963889 0.111803
1.000000 0.966466 0.107824
0.000000 1.000000 0.137152
0.102016 1.000000 0.133247
0.254523 1.000000 0.129332
0.398659 1.000000 0.125406
0.538141 1.000000 0.121470
0.674403 1.000000 0.117521
0.808213 1.000000 0.113561
0.940049 1.000000 0.109588
1.000000 1.000000 0.105603
0.000000 0.000000 0.291684
0.142980 0.000000 0.288039
0.292618 0.000000 0.284389
0.435334 0.000000 0.280735
0.573878 0.000000 0.277077
0.709444 0.000000 0.273414
0.842702 0.000000 0.269747
0.974081 0.000000 0.266075
1.000000 0.000000 0.262399
0.000000 0.129694 0.289654
0.136420 0.132779 0.286006
0.286474 0.135857 0.282354
0.429408 0.138929 0.278698
0.568099 0.141995 0.275037
0.703774 0.145055 0.271372
0.837119 0.148109 0.267703
0.968571 0.151157 0.264029
1.000000 0.154200 0.260350
0.000000 0.274551 0.287623
0.129831 0.277436 0.283973
0.280318 0.280318 0.280318
0.423475 0.283198 0.276660
0.562314 0.286075 0.272996
0.698100 0.288949 0.269329
0.831534 0.291821 0.265657
0.963059 0.294690 0.261980
1.000000 0.297557 0.258299
0.000000 0.412481 0.285590
0.123212 0.415263 0.281938
0.274150 0.418043 0.278281
0.417534 0.420821 0.274620
0.556523 0.423598 0.270954
0.692422 0.426373 0.267284
0.825945 0.429146 0.263610
0.957543 0.431918 0.259930
1.000000 0.434688 0.256247
0.000000 0.546297 0.283557
0.116561 0.549009 0.279902
0.267970 0.551721 0.276242
0.411585 0.554431 0.272579
0.550728 0.557139 0.268911
0.686740 0.559847 0.265238
0.820352 0.562554 0.261561
0.952025 0.565259 0.257879
1.000000 0.567963 0.254193
0.000000 0.677194 0.281521
0.109875 0.679855 0.277864
0.261777 0.682514 0.274202
0.405629 0.685173 0.270536
0.544927 0.687831 0.266866
0.681053 0.690488 0.263191
0.814756 0.693144 0.259511
0.946504 0.695799 0.255827
1.000000 0.698453 0.252137
0.000000 0.805837 0.279485
0.103153 0.808457 0.275825
0.255570 0.811075 0.272161
0.399665 0.813693 0.268493
0.539120 0.816310 0.264820
0.675362 0.818926 0.261142
0.809157 0.821542 0.257460
0.940980 0.824157 0.253772
1.000000 0.826771 0.250081
0.000000 0.932650 0.277447
0.096390 0.935235 0.273785
0.249350 0.937820 0.270118
0.393693 0.940403 0.266447
0.533308 0.942987 0.262772
0.669667 0.945569 0.259091
0.803554 0.948151 0.255407
0.935453 0.950733 0.251717
1.000000 0.953313 0.248022
0.000000 1.000000 0.275408
0.089585 1.000000 0.271743
0.243116 1.000000 0.268074
0.387712 1.000000 0.264401
0.527489 1.000000 0.260723
0.663968 1.000000 0.257040
0.797948 1.000000 0.253352
0.929923 1.000000 0.249660
1.000000 1.000000 0.245962
0.000000 0.000000 0.423121
0.130944 0.000000 0.419596
0.281356 0.000000 0.416068
0.424475 0.000000 0.412538
0.563289 0.000000 0.409005
0.699056 0.000000 0.405469
0.832475 0.000000 0.401931
0.963988 0.000000 0.398390
1.000000 0.000000 0.394845
0.000000 0.113855 0.421158
0.124330 0.116975 0.417632
0.275191 0.120088 0.414102
0.418536 0.123194 0.410571
0.557500 0.126293 0.407036
0.693379 0.129384 0.403499
0.826887 0.132470 0.399959
0.958473 0.135548 0.396416
1.000000 0.138621 0.392870
0.000000 0.259794 0.419194
0.117684 0.262693 0.415666
0.269012 0.265589 0.412136
0.412588 0.268483 0.408602
0.551705 0.271373 0.405066
0.687698 0.274261 0.401528
0.821295 0.277147 0.397986
0.952955 0.280029 0.394441
1.000000 0.282909 0.390894
0.000000 0.398267 0.417230
0.111004 0.401058 0.413700
0.262821 0.403846 0.410168
0.406633 0.406633 0.406633
0.545905 0.409419 0.403096
0.682012 0.412202 0.399555
0.815700 0.414984 0.396012
0.947434 0.417764 0.392466
1.000000 0.420542 0.388917
0.000000 0.532444 0.415264
0.104288 0.535163 0.411733
0.256617 0.537880 0.408200
0.400671 0.540596 0.404663
0.540099 0.543311 0.401124
0.676322 0.546025 0.397582
0.810101 0.548737 0.394037
0.941911 0.551449 0.390490
1.000000 0.554159 0.386939
0.000000 0.663609 0.413298
0.097533 0.666275 0.409766
0.250399 0.668939 0.406230
0.394700 0.671603 0.402693
0.534287 0.674265 0.399152
0.670627 0.676927 0.395608
0.804499 0.679588 0.392062
0.936384 0.682247 0.388513
1.000000 0.684906 0.384960
0.000000 0.792466 0.411331
0.090735 0.795089 0.407797
0.244168 0.797712 0.404260
0.388721 0.800333 0.400721
0.528470 0.802954 0.397179
0.664929 0.805574 0.393633
0.798893 0.808194 0.390085
0.930855 0.810813 0.386535
1.000000 0.813430 0.382981
0.000000 0.919454 0.409363
0.083891 0.922043 0.405828
0.237921 0.924631 0.402289
0.382733 0.927218 0.398748
0.522647 0.929804 0.395204
0.659226 0.932390 0.391658
0.793284 0.934976 0.388108
0.925323 0.937560 0.384556
1.000000 0.940144 0.381000
0.000000 1.000000 0.407394
0.076997 1.000000 0.403857
0.231661 1.000000 0.400317
0.376738 1.000000 0.396775
0.516819 1.000000 0.393229
0.653518 1.000000 0.389681
0.787671 1.000000 0.386130
0.919787 1.000000 0.382576
1.000000 1.000000 0.379019
0.000000 0.000000 0.550918
0.118806 0.000000 0.547476
0.270054 0.000000 0.544033
0.413591 0.000000 0.540587
0.552682 0.000000 0.537139
0.688655 0.000000 0.533689
0.822237 0.000000 0.530238
0.953885 0.000000 0.526784
1.000000 0.000000 0.523328
0.000000 0.097814 0.549001
0.112132 0.100976 0.545559
0.263865 0.104130 0.542114
0.407637 0.107275 0.538667
0.546882 0.110412 0.535218
0.682970 0.113541 0.531767
0.816643 0.116662 0.528314
0.948365 0.119776 0.524859
1.000000 0.122883 0.521402
0.000000 0.244960 0.547084
0.105422 0.247875 0.543640
0.257663 0.250786 0.540194
0.401676 0.253695 0.536746
0.541077 0.256600 0.533296
0.677281 0.259502 0.529844
0.811045 0.262402 0.526390
0.942842 0.265299 0.522934
1.000000 0.268192 0.519476
0.000000 0.384008 0.545166
0.098674 0.386807 0.541721
0.251448 0.389605 0.538274
0.395706 0.392401 0.534825
0.535267 0.395195 0.531374
0.671587 0.397987 0.527921
0.805443 0.400778 0.524466
0.937316 0.403567 0.521009
1.000000 0.406354 0.517549
0.000000 0.518558 0.543248
0.091884 0.521283 0.539801
0.245219 0.524007 0.536353
0.389729 0.526730 0.532903
0.529451 0.529451 0.529451
0.665889 0.532171 0.525997
0.799838 0.534890 0.522540
0.931787 0.537607 0.519082
1.000000 0.540324 0.515622
0.000000 0.650000 0.541328
0.085048 0.652670 0.537881
0.238975 0.655339 0.534432
0.383743 0.658008 0.530981
0.523629 0.660675 0.527527
0.660187 0.663342 0.524072
0.794229 0.666007 0.520615
0.926255 0.668672 0.517155
1.000000 0.671336 0.513694
0.000000 0.779074 0.539409
0.078162 0.781701 0.535960
0.232717 0.784328 0.532510
0.377749 0.786953 0.529057
0.517801 0.789578 0.525603
0.654480 0.792202 0.522147
0.788617 0.794826 0.518688
0.920720 0.797448 0.515227
1.000000 0.800070 0.511765
0.000000 0.906242 0.537488
0.071221 0.908834 0.534039
0.226443 0.911425 0.530587
0.371746 0.914015 0.527134
0.511968 0.916605 0.523678
0.648769 0.919195 0.520221
0.783001 0.921783 0.516761
0.915183 0.924371 0.513299
1.000000 0.926958 0.509835
0.000000 1.000000 0.535567
0.064219 1.000000 0.532117
0.220154 1.000000 0.528664
0.365734 1.000000 0.525209
0.506128 1.000000 0.521753
0.643053 1.000000 0.518294
0.777382 1.000000 0.514833
0.909642 1.000000 0.511370
1.000000 1.000000 0.507905
0.000000 0.000000 0.676076
0.106556 0.000000 0.672697
0.258709 0.000000 0.669317
0.402681 0.000000 0.665935
0.542056 0.000000 0.662551
0.678240 0.000000 0.659166
0.811988 0.000000 0.655780
0.943773 0.000000 0.652392
1.000000 0.000000 0.649002
0.000000 0.081531 0.674194
0.099814 0.084745 0.670814
0.252496 0.087948 0.667433
0.396713 0.091140 0.664051
0.536247 0.094323 0.660666
0.672547 0.097496 0.657280
0.806387 0.100659 0.653893
0.938247 0.103814 0.650504
1.000000 0.106960 0.647113
0.000000 0.230045 0.672312
0.093031 0.232976 0.668931
0.246269 0.235904 0.665549
0.390737 0.238828 0.662166
0.530431 0.241750 0.658781
0.666850 0.244667 0.655394
0.800783 0.247582 0.652006
0.932719 0.250494 0.648616
1.000000 0.253403 0.645224
0.000000 0.369700 0.670429
0.086203 0.372509 0.667048
0.240028 0.375316 0.663665
0.384752 0.378122 0.660281
0.524610 0.380925 0.656895
0.661148 0.383727 0.653507
0.795175 0.386526 0.650118
0.927188 0.389324 0.646727
1.000000 0.392120 0.643335
0.000000 0.504639 0.668546
0.079326 0.507371 0.665164
0.233772 0.510101 0.661780
0.378759 0.512830 0.658395
0.518784 0.515558 0.655008
0.655442 0.518285 0.651619
0.789563 0.521010 0.648229
0.921653 0.523734 0.644838
1.000000 0.526456 0.641445
0.000000 0.636364 0.666663
0.072395 0.639040 0.663280
0.227501 0.641714 0.659895
0.372758 0.644388 0.656509
0.512951 0.647060 0.653121
0.649732 0.649732 0.649732
0.783948 0.652402 0.646341
0.916116 0.655072 0.642948
1.000000 0.657740 0.639554
0.000000 0.765661 0.664779
0.065404 0.768292 0.661395
0.221215 0.770923 0.658009
0.366748 0.773553 0.654622
0.507112 0.776182 0.651233
0.644017 0.778810 0.647843
0.778329 0.781437 0.644451
0.910576 0.784064 0.641058
1.000000 0.786690 0.637663
0.000000 0.893012 0.662894
0.058344 0.895607 0.659509
0.214912 0.898202 0.656123
0.360729 0.900796 0.652735
0.501268 0.903389 0.649345
0.638297 0.905982 0.645954
0.772706 0.908574 0.642561
0.905032 0.911165 0.639167
1.000000 0.913756 0.635771
0.000000 1.000000 0.661009
0.051207 1.000000 0.657623
0.208593 1.000000 0.654236
0.354701 1.000000 0.650847
0.495417 1.000000 0.647457
0.632573 1.000000 0.644065
0.767080 1.000000 0.640671
0.899486 1.000000 0.637276
1.000000 1.000000 0.633879
0.000000 0.000000 0.799169
0.094177 0.000000 0.795841
0.247320 0.000000 0.792512
0.391744 0.000000 0.789181
0.531412 0.000000 0.785849
0.667810 0.000000 0.782516
0.801727 0.000000 0.779181
0.933651 0.000000 0.775845
1.000000 0.000000 0.772508
0.000000 0.064947 0.797316
0.087357 0.068226 0.793987
0.241081 0.071491 0.790657
0.385761 0.074742 0.787325
0.525592 0.077981 0.783992
0.662109 0.081208 0.780659
0.796120 0.084423 0.777323
0.928120 0.087627 0.773987
1.000000 0.090820 0.770649
0.000000 0.215043 0.795462
0.080489 0.217992 0.792132
0.234828 0.220937 0.788801
0.379770 0.223878 0.785469
0.519766 0.226816 0.782136
0.656404 0.229751 0.778801
0.790509 0.232682 0.775465
0.922586 0.235610 0.772128
1.000000 0.238535 0.768789
0.000000 0.355342 0.793607
0.073567 0.358161 0.790277
0.228559 0.360979 0.786946
0.373770 0.363794 0.783613
0.513934 0.366607 0.780279
0.650694 0.369418 0.776943
0.784894 0.372227 0.773607
0.917049 0.375035 0.770269
1.000000 0.377840 0.766929
0.000000 0.490685 0.791753
0.066586 0.493424 0.788422
0.222275 0.496161 0.785089
0.367761 0.498897 0.781756
0.508097 0.501631 0.778421
0.644980 0.504365 0.775085
0.779276 0.507096 0.771748
0.911509 0.509827 0.768409
1.000000 0.512556 0.765069
0.000000 0.622702 0.789898
0.059539 0.625383 0.786566
0.215976 0.628063 0.783233
0.361744 0.630741 0.779899
0.502253 0.633419 0.776563
0.639261 0.636096 0.773226
0.773654 0.638771 0.769888
0.905967 0.641446 0.766549
1.000000 0.644119 0.763208
0.000000 0.752227 0.788042
0.052415 0.754863 0.784710
0.209659 0.757498 0.781376
0.355717 0.760132 0.778041
0.496403 0.762765 0.774705
0.633538 0.765397 0.771367
0.768028 0.768028 0.768028
0.900421 0.770659 0.764688
1.000000 0.773289 0.761347
0.000000 0.879765 0.786186
0.045203 0.882363 0.782853
0.203325 0.884961 0.779519
0.349682 0.887559 0.776183
0.490547 0.890156 0.772846
0.627810 0.892752 0.769508
0.762399 0.895347 0.766168
0.894872 0.897942 0.762827
1.000000 0.900536 0.759485
0.000000 1.000000 0.784330
0.037885 1.000000 0.780996
0.196974 1.000000 0.777661
0.343637 1.000000 0.774325
0.484685 1.000000 0.770987
0.622077 1.000000 0.767648
0.756766 1.000000 0.764308
0.889320 1.000000 0.760966
1.000000 1.000000 0.757623
0.000000 0.000000 0.920572
0.081650 0.000000 0.917286
0.235882 0.000000 0.913999
0.380780 0.000000 0.910711
0.520748 0.000000 0.907422
0.657366 0.000000 0.904131
0.791454 0.000000 0.900840
0.923519 0.000000 0.897548
1.000000 0.000000 0.894254
0.000000 0.047969 0.918742
0.074737 0.051336 0.915455
0.229617 0.054682 0.912168
0.374782 0.058011 0.908879
0.514917 0.061322 0.905589
0.651657 0.064618 0.902298
0.785840 0.067898 0.899006
0.917982 0.071164 0.895713
1.000000 0.074417 0.892419
0.000000 0.199946 0.916912
0.067767 0.202914 0.913624
0.223335 0.205878 0.910336
0.368774 0.208838 0.907047
0.509081 0.211794 0.903756
0.645943 0.214747 0.900465
0.780223 0.217696 0.897172
0.912443 0.220641 0.893879
1.000000 0.223583 0.890584
0.000000 0.340932 0.915081
0.060731 0.343762 0.911793
0.217038 0.346589 0.908504
0.362758 0.349415 0.905214
0.503238 0.352238 0.901923
0.640225 0.355059 0.898631
0.774602 0.357879 0.895338
0.906901 0.360696 0.892044
1.000000 0.363511 0.888748
0.000000 0.476695 0.913250
0.053621 0.479441 0.909961
0.210725 0.482185 0.906672
0.356734 0.484928 0.903381
0.497390 0.487670 0.900090
0.634502 0.490410 0.896797
0.768977 0.493149 0.893503
0.901355 0.495886 0.890209
1.000000 0.498622 0.886913
0.000000 0.609013 0.911418
0.046425 0.611700 0.908129
0.204394 0.614385 0.904839
0.350699 0.617068 0.901548
0.491535 0.619751 0.898256
0.628775 0.622433 0.894963
0.763348 0.625114 0.891668
0.895807 0.627794 0.888373
1.000000 0.630473 0.885076
0.000000 0.738772 0.909587
0.039127 0.741412 0.906297
0.198046 0.744051 0.903007
0.344656 0.746689 0.899715
0.485673 0.749326 0.896422
0.623043 0.751963 0.893128
0.757716 0.754598 0.889833
0.890255 0.757233 0.886537
1.000000 0.759867 0.883240
0.000000 0.866499 0.907755
0.031703 0.869101 0.904465
0.191679 0.871703 0.901173
0.338603 0.874304 0.897881
0.479806 0.876904 0.894588
0.617306 0.879504 0.891293
0.752079 0.882103 0.887997
0.884701 0.884701 0.884701
1.000000 0.887298 0.881403
0.000000 0.992547 0.905922
0.024118 0.995118 0.902632
0.185293 0.997688 0.899340
0.332540 1.000000 0.896047
0.473932 1.000000 0.892753
0.611565 1.000000 0.889458
0.746440 1.000000 0.886161
0.879143 1.000000 0.882864
1.000000 1.000000 0.879566
0.000000 0.000000 1.000000
0.068946 0.000000 1.000000
0.224395 0.000000 1.000000
0.369787 0.000000 1.000000
0.510065 0.000000 1.000000
0.646906 0.000000 1.000000
0.781170 0.000000 1.000000
0.913377 0.000000 1.000000
1.000000 0.000000 1.000000
0.000000 0.030417 1.000000
0.061922 0.033918 1.000000
0.218101 0.037386 1.000000
0.363773 0.040826 1.000000
0.504223 0.044240 1.000000
0.641189 0.047630 1.000000
0.775549 0.050999 1.000000
0.907835 0.054347 1.000000
1.000000 0.057678 1.000000
0.000000 0.184745 1.000000
0.054825 0.187734 1.000000
0.211790 0.190719 1.000000
0.357749 0.193699 1.000000
0.498376 0.196676 1.000000
0.635467 0.199648 1.000000
0.769925 0.202616 1.000000
0.902290 0.205580 1.000000
1.000000 0.208541 1.000000
0.000000 0.326467 1.000000
0.047645 0.329308 1.000000
0.205462 0.332146 1.000000
0.351717 0.334982 1.000000
0.492522 0.337816 1.000000
0.629741 0.340648 1.000000
0.764297 0.343478 1.000000
0.896742 0.346306 1.000000
1.000000 0.349131 1.000000
0.000000 0.462668 1.000000
0.040365 0.465421 1.000000
0.199117 0.468173 1.000000
0.345675 0.470923 1.000000
0.486662 0.473672 1.000000
0.624009 0.476419 1.000000
0.758665 0.479165 1.000000
0.891191 0.481910 1.000000
1.000000 0.484653 1.000000
0.000000 0.595297 1.000000
0.032964 0.597988 1.000000
0.192753 0.600679 1.000000
0.339624 0.603368 1.000000
0.480795 0.606057 1.000000
0.618273 0.608744 1.000000
0.753029 0.611430 1.000000
0.885637 0.614115 1.000000
1.000000 0.616799 1.000000
0.000000 0.725294 1.000000
0.025409 0.727938 1.000000
0.186370 0.730582 1.000000
0.333562 0.733224 1.000000
0.474922 0.735866 1.000000
0.612533 0.738507 1.000000
0.747390 0.741147 1.000000
0.880080 0.743786 1.000000
1.000000 0.746424 1.000000
0.000000 0.853215 1.000000
0.017643 0.855821 1.000000
0.179968 0.858426 1.000000
0.327491 0.861031 1.000000
0.469043 0.863635 1.000000
0.606787 0.866238 1.000000
0.741747 0.868840 1.000000
0.874519 0.871442 1.000000
1.000000 0.874043 1.000000
0.000000 0.979426 1.000000
0.009542 0.982000 1.000000
0.173545 0.984573 1.000000
0.321410 0.987146 1.000000
0.463157 0.989718 1.000000
0.601037 0.992289 1.000000
0.736100 0.994860 1.000000
0.868956 0.997430 1.000000
1.000000 1.000000 1.000000
