presets/film_stocks/Kodak_Aerocolor_IV_2460.cube
# 独寻胶片模拟 -- Kodak Aerocolor IV 2460
# Kodak, ISO 125, 2009, negative
TITLE "Kodak Aerocolor IV 2460"
LUT_3D_SIZE 5
DOMAIN_MIN 0.0 0.0 0.0
DOMAIN_MAX 1.0 1.0 1.0
0.000000 0.000000 0.000000
0.347499 0.013707 0.000000
0.616225 0.024307 0.000000
0.861527 0.033983 0.000000
1.000000 0.043103 0.000000
0.000000 0.335353 0.000000
0.335550 0.341131 0.000000
0.605650 0.346888 0.000000
0.851677 0.352626 0.000000
1.000000 0.358344 0.000000
0.000000 0.594685 0.000000
0.323511 0.599813 0.000000
0.595035 0.604932 0.000000
0.841802 0.610041 0.000000
1.000000 0.615141 0.000000
0.000000 0.831414 0.000000
0.311377 0.836194 0.000000
0.584381 0.840969 0.000000
0.831903 0.845739 0.000000
1.000000 0.850502 0.000000
0.000000 1.000000 0.000000
0.299143 1.000000 0.000000
0.573686 1.000000 0.000000
0.821979 1.000000 0.000000
1.000000 1.000000 0.000000
0.000000 0.000000 0.332925
0.330084 0.000000 0.323296
0.600825 0.000000 0.313607
0.847186 0.000000 0.303855
1.000000 0.000517 0.294036
0.000000 0.312137 0.327663
0.318002 0.318002 0.318002
0.590192 0.323844 0.308278
0.837301 0.329664 0.298490
1.000000 0.335463 0.288634
0.000000 0.574178 0.322384
0.305823 0.579344 0.312689
0.579520 0.584500 0.302930
0.827391 0.589646 0.293105
1.000000 0.594783 0.283211
0.000000 0.812324 0.317087
0.293542 0.817128 0.307357
0.568806 0.821926 0.297563
0.817455 0.826718 0.287700
1.000000 0.831504 0.277765
0.000000 1.000000 0.311770
0.281151 1.000000 0.302006
0.558049 1.000000 0.292174
0.807495 1.000000 0.282273
1.000000 1.000000 0.272298
0.000000 0.000000 0.590380
0.312472 0.000000 0.581855
0.585341 0.000000 0.573305
0.832794 0.000000 0.564728
1.000000 0.000000 0.556123
0.000000 0.288553 0.585718
0.300248 0.294514 0.577180
0.574650 0.300450 0.568615
0.822873 0.306361 0.560023
1.000000 0.312249 0.551403
0.000000 0.553517 0.581049
0.287917 0.558722 0.572496
0.563917 0.563917 0.563917
0.812926 0.569101 0.555309
1.000000 0.574276 0.546674
0.000000 0.793139 0.576372
0.275475 0.797967 0.567805
0.553140 0.802789 0.559210
0.802954 0.807605 0.550587
1.000000 0.812415 0.541936
0.000000 1.000000 0.571688
0.262914 1.000000 0.563105
0.542320 1.000000 0.554495
0.792955 1.000000 0.545857
1.000000 1.000000 0.537190
0.000000 0.000000 0.825394
0.294650 0.000000 0.817453
0.569771 0.000000 0.809496
0.818350 0.000000 0.801523
1.000000 0.000000 0.793532
0.000000 0.264556 0.821051
0.282270 0.270625 0.813101
0.559018 0.276666 0.805135
0.808391 0.282679 0.797152
1.000000 0.288666 0.789153
0.000000 0.532691 0.816703
0.269774 0.537938 0.808744
0.548222 0.543175 0.800769
0.798407 0.548400 0.792777
1.000000 0.553615 0.784768
0.000000 0.773857 0.812350
0.257156 0.778710 0.804382
0.537381 0.783556 0.796398
0.788397 0.788397 0.788397
1.000000 0.793231 0.780379
0.000000 0.999913 0.807992
0.244406 1.000000 0.800015
0.526494 1.000000 0.792022
0.778360 1.000000 0.784011
1.000000 1.000000 0.775984
0.000000 0.000000 1.000000
0.276599 0.000000 1.000000
0.554111 0.000000 1.000000
0.803851 0.000000 1.000000
1.000000 0.000000 1.000000
0.000000 0.240092 1.000000
0.264048 0.246284 1.000000
0.543295 0.252444 1.000000
0.793855 0.258573 1.000000
1.000000 0.264671 1.000000
0.000000 0.511694 1.000000
0.251371 0.516985 1.000000
0.532433 0.522265 1.000000
0.783833 0.527533 1.000000
1.000000 0.532791 1.000000
0.000000 0.754473 1.000000
0.238558 0.759352 1.000000
0.521524 0.764224 1.000000
0.773783 0.769090 1.000000
1.000000 0.773949 1.000000
0.000000 0.981558 1.000000
0.225599 0.986175 1.000000
0.510567 0.990788 1.000000
0.763706 0.995396 1.000000
1.000000 1.000000 1.000000
