presets/film_stocks/Kodak_5381.cube
# 独寻胶片模拟 -- Kodak 5381
# Kodak, ISO 0, 1950, negative
TITLE "Kodak 5381"
LUT_3D_SIZE 5
DOMAIN_MIN 0.0 0.0 0.0
DOMAIN_MAX 1.0 1.0 1.0
0.000000 0.000000 0.000000
0.286816 0.000000 0.000000
0.535552 0.000000 0.000000
0.771689 0.000000 0.000000
1.000000 0.000000 0.000000
0.000000 0.286816 0.000000
0.286816 0.286816 0.000000
0.535552 0.286816 0.000000
0.771689 0.286816 0.000000
1.000000 0.286816 0.000000
0.000000 0.535552 0.000000
0.286816 0.535552 0.000000
0.535552 0.535552 0.000000
0.771689 0.535552 0.000000
1.000000 0.535552 0.000000
0.000000 0.771689 0.000000
0.286816 0.771689 0.000000
0.535552 0.771689 0.000000
0.771689 0.771689 0.000000
1.000000 0.771689 0.000000
0.000000 1.000000 0.000000
0.286816 1.000000 0.000000
0.535552 1.000000 0.000000
0.771689 1.000000 0.000000
1.000000 1.000000 0.000000
0.000000 0.000000 0.286816
0.286816 0.000000 0.286816
0.535552 0.000000 0.286816
0.771689 0.000000 0.286816
1.000000 0.000000 0.286816
0.000000 0.286816 0.286816
0.286816 0.286816 0.286816
0.535552 0.286816 0.286816
0.771689 0.286816 0.286816
1.000000 0.286816 0.286816
0.000000 0.535552 0.286816
0.286816 0.535552 0.286816
0.535552 0.535552 0.286816
0.771689 0.535552 0.286816
1.000000 0.535552 0.286816
0.000000 0.771689 0.286816
0.286816 0.771689 0.286816
0.535552 0.771689 0.286816
0.771689 0.771689 0.286816
1.000000 0.771689 0.286816
0.000000 1.000000 0.286816
0.286816 1.000000 0.286816
0.535552 1.000000 0.286816
0.771689 1.000000 0.286816
1.000000 1.000000 0.286816
0.000000 0.000000 0.535552
0.286816 0.000000 0.535552
0.535552 0.000000 0.535552
0.771689 0.000000 0.535552
1.000000 0.000000 0.535552
0.000000 0.286816 0.535552
0.286816 0.286816 0.535552
0.535552 0.286816 0.535552
0.771689 0.286816 0.535552
1.000000 0.286816 0.535552
0.000000 0.535552 0.535552
0.286816 0.535552 0.535552
0.535552 0.535552 0.535552
0.771689 0.535552 0.535552
1.000000 0.535552 0.535552
0.000000 0.771689 0.535552
0.286816 0.771689 0.535552
0.535552 0.771689 0.535552
0.771689 0.771689 0.535552
1.000000 0.771689 0.535552
0.000000 1.000000 0.535552
0.286816 1.000000 0.535552
0.535552 1.000000 0.535552
0.771689 1.000000 0.535552
1.000000 1.000000 0.535552
0.000000 0.000000 0.771689
0.286816 0.000000 0.771689
0.535552 0.000000 0.771689
0.771689 0.000000 0.771689
1.000000 0.000000 0.771689
0.000000 0.286816 0.771689
0.286816 0.286816 0.771689
0.535552 0.286816 0.771689
0.771689 0.286816 0.771689
1.000000 0.286816 0.771689
0.000000 0.535552 0.771689
0.286816 0.535552 0.771689
0.535552 0.535552 0.771689
0.771689 0.535552 0.771689
1.000000 0.535552 0.771689
0.000000 0.771689 0.771689
0.286816 0.771689 0.771689
0.535552 0.771689 0.771689
0.771689 0.771689 0.771689
1.000000 0.771689 0.771689
0.000000 1.000000 0.771689
0.286816 1.000000 0.771689
0.535552 1.000000 0.771689
0.771689 1.000000 0.771689
1.000000 1.000000 0.771689
0.000000 0.000000 1.000000
0.286816 0.000000 1.000000
0.535552 0.000000 1.000000
0.771689 0.000000 1.000000
1.000000 0.000000 1.000000
0.000000 0.286816 1.000000
0.286816 0.286816 1.000000
0.535552 0.286816 1.000000
0.771689 0.286816 1.000000
1.000000 0.286816 1.000000
0.000000 0.535552 1.000000
0.286816 0.535552 1.000000
0.535552 0.535552 1.000000
0.771689 0.535552 1.000000
1.000000 0.535552 1.000000
0.000000 0.771689 1.000000
0.286816 0.771689 1.000000
0.535552 0.771689 1.000000
0.771689 0.771689 1.000000
1.000000 0.771689 1.000000
0.000000 1.000000 1.000000
0.286816 1.000000 1.000000
0.535552 1.000000 1.000000
0.771689 1.000000 1.000000
1.000000 1.000000 1.000000
