presets/film_stocks/Kodak_5250.cube
# 独寻胶片模拟 -- Kodak 5250
# Kodak, ISO 50, 1959, negative
TITLE "Kodak 5250"
LUT_3D_SIZE 5
DOMAIN_MIN 0.0 0.0 0.0
DOMAIN_MAX 1.0 1.0 1.0
0.000000 0.000000 0.000000
0.338634 0.011974 0.000000
0.618722 0.021877 0.000000
0.880275 0.031126 0.000000
1.000000 0.039972 0.000000
0.000000 0.331894 0.000000
0.326972 0.338211 0.000000
0.608082 0.344510 0.000000
0.870188 0.350792 0.000000
1.000000 0.357057 0.000000
0.000000 0.606408 0.000000
0.315247 0.612183 0.000000
0.597414 0.617950 0.000000
0.860083 0.623708 0.000000
1.000000 0.629459 0.000000
0.000000 0.862756 0.000000
0.303457 0.868234 0.000000
0.586718 0.873708 0.000000
0.849960 0.879176 0.000000
1.000000 0.884639 0.000000
0.000000 1.000000 0.000000
0.291597 1.000000 0.000000
0.575992 1.000000 0.000000
0.839819 1.000000 0.000000
1.000000 1.000000 0.000000
0.000000 0.000000 0.308916
0.311363 0.000000 0.302765
0.593887 0.000000 0.296595
0.856744 0.000000 0.290406
1.000000 0.000000 0.284197
0.000000 0.293116 0.305711
0.299550 0.299550 0.299550
0.583181 0.305964 0.293370
0.846615 0.312357 0.287171
1.000000 0.318731 0.280951
0.000000 0.571147 0.302501
0.287667 0.576973 0.296330
0.572445 0.582791 0.290140
0.836468 0.588601 0.283931
1.000000 0.594401 0.277700
0.000000 0.829361 0.299286
0.275710 0.834872 0.293105
0.561679 0.840378 0.286905
0.826303 0.845878 0.280685
1.000000 0.851373 0.274443
0.000000 1.000000 0.296066
0.263674 1.000000 0.289875
0.550882 1.000000 0.283664
0.816118 1.000000 0.277433
1.000000 1.000000 0.271181
0.000000 0.000000 0.564424
0.283729 0.000000 0.558809
0.568895 0.000000 0.553185
0.833115 0.000000 0.547553
1.000000 0.000000 0.541912
0.000000 0.253549 0.561497
0.271746 0.260123 0.555878
0.558119 0.266672 0.550250
0.822943 0.273197 0.544613
1.000000 0.279699 0.538968
0.000000 0.535556 0.558568
0.259683 0.541438 0.552944
0.547312 0.547312 0.547312
0.812753 0.553176 0.541671
1.000000 0.559030 0.536021
0.000000 0.795763 0.555637
0.247536 0.801309 0.550009
0.536472 0.806848 0.544371
0.802543 0.812382 0.538726
1.000000 0.817910 0.533071
0.000000 1.000000 0.552703
0.235299 1.000000 0.547070
0.525600 1.000000 0.541429
0.792314 1.000000 0.535778
1.000000 1.000000 0.530119
0.000000 0.000000 0.803023
0.255684 0.000000 0.797699
0.543738 0.000000 0.792369
0.809385 0.000000 0.787034
1.000000 0.000000 0.781693
0.000000 0.213030 0.800248
0.243507 0.219775 0.794921
0.532887 0.226489 0.789588
0.799169 0.233173 0.784250
1.000000 0.239829 0.778906
0.000000 0.499606 0.797471
0.231239 0.505550 0.792141
0.522004 0.511484 0.786805
0.788933 0.517407 0.781464
1.000000 0.523320 0.776118
0.000000 0.761952 0.794692
0.218872 0.767533 0.789359
0.511086 0.773108 0.784021
0.778677 0.778677 0.778677
1.000000 0.784241 0.773328
0.000000 1.000000 0.791912
0.206400 1.000000 0.786577
0.500133 1.000000 0.781236
0.768402 1.000000 0.775889
1.000000 1.000000 0.770537
0.000000 0.000000 1.000000
0.227168 0.000000 1.000000
0.518404 0.000000 1.000000
0.785550 0.000000 1.000000
1.000000 0.000000 1.000000
0.000000 0.171310 1.000000
0.214767 0.178275 1.000000
0.507475 0.185199 1.000000
0.775288 0.192084 1.000000
1.000000 0.198932 1.000000
0.000000 0.463263 1.000000
0.202258 0.469275 1.000000
0.496510 0.475274 1.000000
0.765005 0.481263 1.000000
1.000000 0.487240 1.000000
0.000000 0.727913 1.000000
0.189632 0.733533 1.000000
0.485509 0.739146 1.000000
0.754702 0.744753 1.000000
1.000000 0.750353 1.000000
0.000000 0.978520 1.000000
0.176877 0.983897 1.000000
0.474471 0.989269 1.000000
0.744377 0.994637 1.000000
1.000000 1.000000 1.000000
