presets/film_stocks/Kodak_5222.cube
# 独寻胶片模拟 -- Kodak 5222
# Kodak, ISO 250, 1959, negative
TITLE "Kodak 5222"
LUT_3D_SIZE 33
DOMAIN_MIN 0.0 0.0 0.0
DOMAIN_MAX 1.0 1.0 1.0
0.000000 0.000000 0.000000
0.049110 0.000000 0.000000
0.089730 0.000000 0.000000
0.127662 0.000000 0.000000
0.163947 0.000000 0.000000
0.199055 0.000000 0.000000
0.233253 0.000000 0.000000
0.266712 0.000000 0.000000
0.299550 0.000000 0.000000
0.331856 0.000000 0.000000
0.363697 0.000000 0.000000
0.395123 0.000000 0.000000
0.426179 0.000000 0.000000
0.456899 0.000000 0.000000
0.487312 0.000000 0.000000
0.517442 0.000000 0.000000
0.547312 0.000000 0.000000
0.576938 0.000000 0.000000
0.606339 0.000000 0.000000
0.635526 0.000000 0.000000
0.664514 0.000000 0.000000
0.693314 0.000000 0.000000
0.721935 0.000000 0.000000
0.750387 0.000000 0.000000
0.778677 0.000000 0.000000
0.806815 0.000000 0.000000
0.834806 0.000000 0.000000
0.862657 0.000000 0.000000
0.890373 0.000000 0.000000
0.917961 0.000000 0.000000
0.945425 0.000000 0.000000
0.972770 0.000000 0.000000
1.000000 0.000000 0.000000
0.000000 0.049110 0.000000
0.049110 0.049110 0.000000
0.089730 0.049110 0.000000
0.127662 0.049110 0.000000
0.163947 0.049110 0.000000
0.199055 0.049110 0.000000
0.233253 0.049110 0.000000
0.266712 0.049110 0.000000
0.299550 0.049110 0.000000
0.331856 0.049110 0.000000
0.363697 0.049110 0.000000
0.395123 0.049110 0.000000
0.426179 0.049110 0.000000
0.456899 0.049110 0.000000
0.487312 0.049110 0.000000
0.517442 0.049110 0.000000
0.547312 0.049110 0.000000
0.576938 0.049110 0.000000
0.606339 0.049110 0.000000
0.635526 0.049110 0.000000
0.664514 0.049110 0.000000
0.693314 0.049110 0.000000
0.721935 0.049110 0.000000
0.750387 0.049110 0.000000
0.778677 0.049110 0.000000
0.806815 0.049110 0.000000
0.834806 0.049110 0.000000
0.862657 0.049110 0.000000
0.890373 0.049110 0.000000
0.917961 0.049110 0.000000
0.945425 0.049110 0.000000
0.972770 0.049110 0.000000
1.000000 0.049110 0.000000
0.000000 0.089730 0.000000
0.049110 0.089730 0.000000
0.089730 0.089730 0.000000
0.127662 0.089730 0.000000
0.163947 0.089730 0.000000
0.199055 0.089730 0.000000
0.233253 0.089730 0.000000
0.266712 0.089730 0.000000
0.299550 0.089730 0.000000
0.331856 0.089730 0.000000
0.363697 0.089730 0.000000
0.395123 0.089730 0.000000
0.426179 0.089730 0.000000
0.456899 0.089730 0.000000
0.487312 0.089730 0.000000
0.517442 0.089730 0.000000
0.547312 0.089730 0.000000
0.576938 0.089730 0.000000
0.606339 0.089730 0.000000
0.635526 0.089730 0.000000
0.664514 0.089730 0.000000
0.693314 0.089730 0.000000
0.721935 0.089730 0.000000
0.750387 0.089730 0.000000
0.778677 0.089730 0.000000
0.806815 0.089730 0.000000
0.834806 0.089730 0.000000
0.862657 0.089730 0.000000
0.890373 0.089730 0.000000
0.917961 0.089730 0.000000
0.945425 0.089730 0.000000
0.972770 0.089730 0.000000
1.000000 0.089730 0.000000
0.000000 0.127662 0.000000
0.049110 0.127662 0.000000
0.089730 0.127662 0.000000
0.127662 0.127662 0.000000
0.163947 0.127662 0.000000
0.199055 0.127662 0.000000
0.233253 0.127662 0.000000
0.266712 0.127662 0.000000
0.299550 0.127662 0.000000
0.331856 0.127662 0.000000
0.363697 0.127662 0.000000
0.395123 0.127662 0.000000
0.426179 0.127662 0.000000
0.456899 0.127662 0.000000
0.487312 0.127662 0.000000
0.517442 0.127662 0.000000
0.547312 0.127662 0.000000
0.576938 0.127662 0.000000
0.606339 0.127662 0.000000
0.635526 0.127662 0.000000
0.664514 0.127662 0.000000
0.693314 0.127662 0.000000
0.721935 0.127662 0.000000
0.750387 0.127662 0.000000
0.778677 0.127662 0.000000
0.806815 0.127662 0.000000
0.834806 0.127662 0.000000
0.862657 0.127662 0.000000
0.890373 0.127662 0.000000
0.917961 0.127662 0.000000
0.945425 0.127662 0.000000
0.972770 0.127662 0.000000
1.000000 0.127662 0.000000
0.000000 0.163947 0.000000
0.049110 0.163947 0.000000
0.089730 0.163947 0.000000
0.127662 0.163947 0.000000
0.163947 0.163947 0.000000
0.199055 0.163947 0.000000
0.233253 0.163947 0.000000
0.266712 0.163947 0.000000
0.299550 0.163947 0.000000
0.331856 0.163947 0.000000
0.363697 0.163947 0.000000
0.395123 0.163947 0.000000
0.426179 0.163947 0.000000
0.456899 0.163947 0.000000
0.487312 0.163947 0.000000
0.517442 0.163947 0.000000
0.547312 0.163947 0.000000
0.576938 0.163947 0.000000
0.606339 0.163947 0.000000
0.635526 0.163947 0.000000
0.664514 0.163947 0.000000
0.693314 0.163947 0.000000
0.721935 0.163947 0.000000
0.750387 0.163947 0.000000
0.778677 0.163947 0.000000
0.806815 0.163947 0.000000
0.834806 0.163947 0.000000
0.862657 0.163947 0.000000
0.890373 0.163947 0.000000
0.917961 0.163947 0.000000
0.945425 0.163947 0.000000
0.972770 0.163947 0.000000
1.000000 0.163947 0.000000
0.000000 0.199055 0.000000
0.049110 0.199055 0.000000
0.089730 0.199055 0.000000
0.127662 0.199055 0.000000
0.163947 0.199055 0.000000
0.199055 0.199055 0.000000
0.233253 0.199055 0.000000
0.266712 0.199055 0.000000
0.299550 0.199055 0.000000
0.331856 0.199055 0.000000
0.363697 0.199055 0.000000
0.395123 0.199055 0.000000
0.426179 0.199055 0.000000
0.456899 0.199055 0.000000
0.487312 0.199055 0.000000
0.517442 0.199055 0.000000
0.547312 0.199055 0.000000
0.576938 0.199055 0.000000
0.606339 0.199055 0.000000
0.635526 0.199055 0.000000
0.664514 0.199055 0.000000
0.693314 0.199055 0.000000
0.721935 0.199055 0.000000
0.750387 0.199055 0.000000
0.778677 0.199055 0.000000
0.806815 0.199055 0.000000
0.834806 0.199055 0.000000
0.862657 0.199055 0.000000
0.890373 0.199055 0.000000
0.917961 0.199055 0.000000
0.945425 0.199055 0.000000
0.972770 0.199055 0.000000
1.000000 0.199055 0.000000
0.000000 0.233253 0.000000
0.049110 0.233253 0.000000
0.089730 0.233253 0.000000
0.127662 0.233253 0.000000
0.163947 0.233253 0.000000
0.199055 0.233253 0.000000
0.233253 0.233253 0.000000
0.266712 0.233253 0.000000
0.299550 0.233253 0.000000
0.331856 0.233253 0.000000
0.363697 0.233253 0.000000
0.395123 0.233253 0.000000
0.426179 0.233253 0.000000
0.456899 0.233253 0.000000
0.487312 0.233253 0.000000
0.517442 0.233253 0.000000
0.547312 0.233253 0.000000
0.576938 0.233253 0.000000
0.606339 0.233253 0.000000
0.635526 0.233253 0.000000
0.664514 0.233253 0.000000
0.693314 0.233253 0.000000
0.721935 0.233253 0.000000
0.750387 0.233253 0.000000
0.778677 0.233253 0.000000
0.806815 0.233253 0.000000
0.834806 0.233253 0.000000
0.862657 0.233253 0.000000
0.890373 0.233253 0.000000
0.917961 0.233253 0.000000
0.945425 0.233253 0.000000
0.972770 0.233253 0.000000
1.000000 0.233253 0.000000
0.000000 0.266712 0.000000
0.049110 0.266712 0.000000
0.089730 0.266712 0.000000
0.127662 0.266712 0.000000
0.163947 0.266712 0.000000
0.199055 0.266712 0.000000
0.233253 0.266712 0.000000
0.266712 0.266712 0.000000
0.299550 0.266712 0.000000
0.331856 0.266712 0.000000
0.363697 0.266712 0.000000
0.395123 0.266712 0.000000
0.426179 0.266712 0.000000
0.456899 0.266712 0.000000
0.487312 0.266712 0.000000
0.517442 0.266712 0.000000
0.547312 0.266712 0.000000
0.576938 0.266712 0.000000
0.606339 0.266712 0.000000
0.635526 0.266712 0.000000
0.664514 0.266712 0.000000
0.693314 0.266712 0.000000
0.721935 0.266712 0.000000
0.750387 0.266712 0.000000
0.778677 0.266712 0.000000
0.806815 0.266712 0.000000
0.834806 0.266712 0.000000
0.862657 0.266712 0.000000
0.890373 0.266712 0.000000
0.917961 0.266712 0.000000
0.945425 0.266712 0.000000
0.972770 0.266712 0.000000
1.000000 0.266712 0.000000
0.000000 0.299550 0.000000
0.049110 0.299550 0.000000
0.089730 0.299550 0.000000
0.127662 0.299550 0.000000
0.163947 0.299550 0.000000
0.199055 0.299550 0.000000
0.233253 0.299550 0.000000
0.266712 0.299550 0.000000
0.299550 0.299550 0.000000
0.331856 0.299550 0.000000
0.363697 0.299550 0.000000
0.395123 0.299550 0.000000
0.426179 0.299550 0.000000
0.456899 0.299550 0.000000
0.487312 0.299550 0.000000
0.517442 0.299550 0.000000
0.547312 0.299550 0.000000
0.576938 0.299550 0.000000
0.606339 0.299550 0.000000
0.635526 0.299550 0.000000
0.664514 0.299550 0.000000
0.693314 0.299550 0.000000
0.721935 0.299550 0.000000
0.750387 0.299550 0.000000
0.778677 0.299550 0.000000
0.806815 0.299550 0.000000
0.834806 0.299550 0.000000
0.862657 0.299550 0.000000
0.890373 0.299550 0.000000
0.917961 0.299550 0.000000
0.945425 0.299550 0.000000
0.972770 0.299550 0.000000
1.000000 0.299550 0.000000
0.000000 0.331856 0.000000
0.049110 0.331856 0.000000
0.089730 0.331856 0.000000
0.127662 0.331856 0.000000
0.163947 0.331856 0.000000
0.199055 0.331856 0.000000
0.233253 0.331856 0.000000
0.266712 0.331856 0.000000
0.299550 0.331856 0.000000
0.331856 0.331856 0.000000
0.363697 0.331856 0.000000
0.395123 0.331856 0.000000
0.426179 0.331856 0.000000
0.456899 0.331856 0.000000
0.487312 0.331856 0.000000
0.517442 0.331856 0.000000
0.547312 0.331856 0.000000
0.576938 0.331856 0.000000
0.606339 0.331856 0.000000
0.635526 0.331856 0.000000
0.664514 0.331856 0.000000
0.693314 0.331856 0.000000
0.721935 0.331856 0.000000
0.750387 0.331856 0.000000
0.778677 0.331856 0.000000
0.806815 0.331856 0.000000
0.834806 0.331856 0.000000
0.862657 0.331856 0.000000
0.890373 0.331856 0.000000
0.917961 0.331856 0.000000
0.945425 0.331856 0.000000
0.972770 0.331856 0.000000
1.000000 0.331856 0.000000
0.000000 0.363697 0.000000
0.049110 0.363697 0.000000
0.089730 0.363697 0.000000
0.127662 0.363697 0.000000
0.163947 0.363697 0.000000
0.199055 0.363697 0.000000
0.233253 0.363697 0.000000
0.266712 0.363697 0.000000
0.299550 0.363697 0.000000
0.331856 0.363697 0.000000
0.363697 0.363697 0.000000
0.395123 0.363697 0.000000
0.426179 0.363697 0.000000
0.456899 0.363697 0.000000
0.487312 0.363697 0.000000
0.517442 0.363697 0.000000
0.547312 0.363697 0.000000
0.576938 0.363697 0.000000
0.606339 0.363697 0.000000
0.635526 0.363697 0.000000
0.664514 0.363697 0.000000
0.693314 0.363697 0.000000
0.721935 0.363697 0.000000
0.750387 0.363697 0.000000
0.778677 0.363697 0.000000
0.806815 0.363697 0.000000
0.834806 0.363697 0.000000
0.862657 0.363697 0.000000
0.890373 0.363697 0.000000
0.917961 0.363697 0.000000
0.945425 0.363697 0.000000
0.972770 0.363697 0.000000
1.000000 0.363697 0.000000
0.000000 0.395123 0.000000
0.049110 0.395123 0.000000
0.089730 0.395123 0.000000
0.127662 0.395123 0.000000
0.163947 0.395123 0.000000
0.199055 0.395123 0.000000
0.233253 0.395123 0.000000
0.266712 0.395123 0.000000
0.299550 0.395123 0.000000
0.331856 0.395123 0.000000
0.363697 0.395123 0.000000
0.395123 0.395123 0.000000
0.426179 0.395123 0.000000
0.456899 0.395123 0.000000
0.487312 0.395123 0.000000
0.517442 0.395123 0.000000
0.547312 0.395123 0.000000
0.576938 0.395123 0.000000
0.606339 0.395123 0.000000
0.635526 0.395123 0.000000
0.664514 0.395123 0.000000
0.693314 0.395123 0.000000
0.721935 0.395123 0.000000
0.750387 0.395123 0.000000
0.778677 0.395123 0.000000
0.806815 0.395123 0.000000
0.834806 0.395123 0.000000
0.862657 0.395123 0.000000
0.890373 0.395123 0.000000
0.917961 0.395123 0.000000
0.945425 0.395123 0.000000
0.972770 0.395123 0.000000
1.000000 0.395123 0.000000
0.000000 0.426179 0.000000
0.049110 0.426179 0.000000
0.089730 0.426179 0.000000
0.127662 0.426179 0.000000
0.163947 0.426179 0.000000
0.199055 0.426179 0.000000
0.233253 0.426179 0.000000
0.266712 0.426179 0.000000
0.299550 0.426179 0.000000
0.331856 0.426179 0.000000
0.363697 0.426179 0.000000
0.395123 0.426179 0.000000
0.426179 0.426179 0.000000
0.456899 0.426179 0.000000
0.487312 0.426179 0.000000
0.517442 0.426179 0.000000
0.547312 0.426179 0.000000
0.576938 0.426179 0.000000
0.606339 0.426179 0.000000
0.635526 0.426179 0.000000
0.664514 0.426179 0.000000
0.693314 0.426179 0.000000
0.721935 0.426179 0.000000
0.750387 0.426179 0.000000
0.778677 0.426179 0.000000
0.806815 0.426179 0.000000
0.834806 0.426179 0.000000
0.862657 0.426179 0.000000
0.890373 0.426179 0.000000
0.917961 0.426179 0.000000
0.945425 0.426179 0.000000
0.972770 0.426179 0.000000
1.000000 0.426179 0.000000
0.000000 0.456899 0.000000
0.049110 0.456899 0.000000
0.089730 0.456899 0.000000
0.127662 0.456899 0.000000
0.163947 0.456899 0.000000
0.199055 0.456899 0.000000
0.233253 0.456899 0.000000
0.266712 0.456899 0.000000
0.299550 0.456899 0.000000
0.331856 0.456899 0.000000
0.363697 0.456899 0.000000
0.395123 0.456899 0.000000
0.426179 0.456899 0.000000
0.456899 0.456899 0.000000
0.487312 0.456899 0.000000
0.517442 0.456899 0.000000
0.547312 0.456899 0.000000
0.576938 0.456899 0.000000
0.606339 0.456899 0.000000
0.635526 0.456899 0.000000
0.664514 0.456899 0.000000
0.693314 0.456899 0.000000
0.721935 0.456899 0.000000
0.750387 0.456899 0.000000
0.778677 0.456899 0.000000
0.806815 0.456899 0.000000
0.834806 0.456899 0.000000
0.862657 0.456899 0.000000
0.890373 0.456899 0.000000
0.917961 0.456899 0.000000
0.945425 0.456899 0.000000
0.972770 0.456899 0.000000
1.000000 0.456899 0.000000
0.000000 0.487312 0.000000
0.049110 0.487312 0.000000
0.089730 0.487312 0.000000
0.127662 0.487312 0.000000
0.163947 0.487312 0.000000
0.199055 0.487312 0.000000
0.233253 0.487312 0.000000
0.266712 0.487312 0.000000
0.299550 0.487312 0.000000
0.331856 0.487312 0.000000
0.363697 0.487312 0.000000
0.395123 0.487312 0.000000
0.426179 0.487312 0.000000
0.456899 0.487312 0.000000
0.487312 0.487312 0.000000
0.517442 0.487312 0.000000
0.547312 0.487312 0.000000
0.576938 0.487312 0.000000
0.606339 0.487312 0.000000
0.635526 0.487312 0.000000
0.664514 0.487312 0.000000
0.693314 0.487312 0.000000
0.721935 0.487312 0.000000
0.750387 0.487312 0.000000
0.778677 0.487312 0.000000
0.806815 0.487312 0.000000
0.834806 0.487312 0.000000
0.862657 0.487312 0.000000
0.890373 0.487312 0.000000
0.917961 0.487312 0.000000
0.945425 0.487312 0.000000
0.972770 0.487312 0.000000
1.000000 0.487312 0.000000
0.000000 0.517442 0.000000
0.049110 0.517442 0.000000
0.089730 0.517442 0.000000
0.127662 0.517442 0.000000
0.163947 0.517442 0.000000
0.199055 0.517442 0.000000
0.233253 0.517442 0.000000
0.266712 0.517442 0.000000
0.299550 0.517442 0.000000
0.331856 0.517442 0.000000
0.363697 0.517442 0.000000
0.395123 0.517442 0.000000
0.426179 0.517442 0.000000
0.456899 0.517442 0.000000
0.487312 0.517442 0.000000
0.517442 0.517442 0.000000
0.547312 0.517442 0.000000
0.576938 0.517442 0.000000
0.606339 0.517442 0.000000
0.635526 0.517442 0.000000
0.664514 0.517442 0.000000
0.693314 0.517442 0.000000
0.721935 0.517442 0.000000
0.750387 0.517442 0.000000
0.778677 0.517442 0.000000
0.806815 0.517442 0.000000
0.834806 0.517442 0.000000
0.862657 0.517442 0.000000
0.890373 0.517442 0.000000
0.917961 0.517442 0.000000
0.945425 0.517442 0.000000
0.972770 0.517442 0.000000
1.000000 0.517442 0.000000
0.000000 0.547312 0.000000
0.049110 0.547312 0.000000
0.089730 0.547312 0.000000
0.127662 0.547312 0.000000
0.163947 0.547312 0.000000
0.199055 0.547312 0.000000
0.233253 0.547312 0.000000
0.266712 0.547312 0.000000
0.299550 0.547312 0.000000
0.331856 0.547312 0.000000
0.363697 0.547312 0.000000
0.395123 0.547312 0.000000
0.426179 0.547312 0.000000
0.456899 0.547312 0.000000
0.487312 0.547312 0.000000
0.517442 0.547312 0.000000
0.547312 0.547312 0.000000
0.576938 0.547312 0.000000
0.606339 0.547312 0.000000
0.635526 0.547312 0.000000
0.664514 0.547312 0.000000
0.693314 0.547312 0.000000
0.721935 0.547312 0.000000
0.750387 0.547312 0.000000
0.778677 0.547312 0.000000
0.806815 0.547312 0.000000
0.834806 0.547312 0.000000
0.862657 0.547312 0.000000
0.890373 0.547312 0.000000
0.917961 0.547312 0.000000
0.945425 0.547312 0.000000
0.972770 0.547312 0.000000
1.000000 0.547312 0.000000
0.000000 0.576938 0.000000
0.049110 0.576938 0.000000
0.089730 0.576938 0.000000
0.127662 0.576938 0.000000
0.163947 0.576938 0.000000
0.199055 0.576938 0.000000
0.233253 0.576938 0.000000
0.266712 0.576938 0.000000
0.299550 0.576938 0.000000
0.331856 0.576938 0.000000
0.363697 0.576938 0.000000
0.395123 0.576938 0.000000
0.426179 0.576938 0.000000
0.456899 0.576938 0.000000
0.487312 0.576938 0.000000
0.517442 0.576938 0.000000
0.547312 0.576938 0.000000
0.576938 0.576938 0.000000
0.606339 0.576938 0.000000
0.635526 0.576938 0.000000
0.664514 0.576938 0.000000
0.693314 0.576938 0.000000
0.721935 0.576938 0.000000
0.750387 0.576938 0.000000
0.778677 0.576938 0.000000
0.806815 0.576938 0.000000
0.834806 0.576938 0.000000
0.862657 0.576938 0.000000
0.890373 0.576938 0.000000
0.917961 0.576938 0.000000
0.945425 0.576938 0.000000
0.972770 0.576938 0.000000
1.000000 0.576938 0.000000
0.000000 0.606339 0.000000
0.049110 0.606339 0.000000
0.089730 0.606339 0.000000
0.127662 0.606339 0.000000
0.163947 0.606339 0.000000
0.199055 0.606339 0.000000
0.233253 0.606339 0.000000
0.266712 0.606339 0.000000
0.299550 0.606339 0.000000
0.331856 0.606339 0.000000
0.363697 0.606339 0.000000
0.395123 0.606339 0.000000
0.426179 0.606339 0.000000
0.456899 0.606339 0.000000
0.487312 0.606339 0.000000
0.517442 0.606339 0.000000
0.547312 0.606339 0.000000
0.576938 0.606339 0.000000
0.606339 0.606339 0.000000
0.635526 0.606339 0.000000
0.664514 0.606339 0.000000
0.693314 0.606339 0.000000
0.721935 0.606339 0.000000
0.750387 0.606339 0.000000
0.778677 0.606339 0.000000
0.806815 0.606339 0.000000
0.834806 0.606339 0.000000
0.862657 0.606339 0.000000
0.890373 0.606339 0.000000
0.917961 0.606339 0.000000
0.945425 0.606339 0.000000
0.972770 0.606339 0.000000
1.000000 0.606339 0.000000
0.000000 0.635526 0.000000
0.049110 0.635526 0.000000
0.089730 0.635526 0.000000
0.127662 0.635526 0.000000
0.163947 0.635526 0.000000
0.199055 0.635526 0.000000
0.233253 0.635526 0.000000
0.266712 0.635526 0.000000
0.299550 0.635526 0.000000
0.331856 0.635526 0.000000
0.363697 0.635526 0.000000
0.395123 0.635526 0.000000
0.426179 0.635526 0.000000
0.456899 0.635526 0.000000
0.487312 0.635526 0.000000
0.517442 0.635526 0.000000
0.547312 0.635526 0.000000
0.576938 0.635526 0.000000
0.606339 0.635526 0.000000
0.635526 0.635526 0.000000
0.664514 0.635526 0.000000
0.693314 0.635526 0.000000
0.721935 0.635526 0.000000
0.750387 0.635526 0.000000
0.778677 0.635526 0.000000
0.806815 0.635526 0.000000
0.834806 0.635526 0.000000
0.862657 0.635526 0.000000
0.890373 0.635526 0.000000
0.917961 0.635526 0.000000
0.945425 0.635526 0.000000
0.972770 0.635526 0.000000
1.000000 0.635526 0.000000
0.000000 0.664514 0.000000
0.049110 0.664514 0.000000
0.089730 0.664514 0.000000
0.127662 0.664514 0.000000
0.163947 0.664514 0.000000
0.199055 0.664514 0.000000
0.233253 0.664514 0.000000
0.266712 0.664514 0.000000
0.299550 0.664514 0.000000
0.331856 0.664514 0.000000
0.363697 0.664514 0.000000
0.395123 0.664514 0.000000
0.426179 0.664514 0.000000
0.456899 0.664514 0.000000
0.487312 0.664514 0.000000
0.517442 0.664514 0.000000
0.547312 0.664514 0.000000
0.576938 0.664514 0.000000
0.606339 0.664514 0.000000
0.635526 0.664514 0.000000
0.664514 0.664514 0.000000
0.693314 0.664514 0.000000
0.721935 0.664514 0.000000
0.750387 0.664514 0.000000
0.778677 0.664514 0.000000
0.806815 0.664514 0.000000
0.834806 0.664514 0.000000
0.862657 0.664514 0.000000
0.890373 0.664514 0.000000
0.917961 0.664514 0.000000
0.945425 0.664514 0.000000
0.972770 0.664514 0.000000
1.000000 0.664514 0.000000
0.000000 0.693314 0.000000
0.049110 0.693314 0.000000
0.089730 0.693314 0.000000
0.127662 0.693314 0.000000
0.163947 0.693314 0.000000
0.199055 0.693314 0.000000
0.233253 0.693314 0.000000
0.266712 0.693314 0.000000
0.299550 0.693314 0.000000
0.331856 0.693314 0.000000
0.363697 0.693314 0.000000
0.395123 0.693314 0.000000
0.426179 0.693314 0.000000
0.456899 0.693314 0.000000
0.487312 0.693314 0.000000
0.517442 0.693314 0.000000
0.547312 0.693314 0.000000
0.576938 0.693314 0.000000
0.606339 0.693314 0.000000
0.635526 0.693314 0.000000
0.664514 0.693314 0.000000
0.693314 0.693314 0.000000
0.721935 0.693314 0.000000
0.750387 0.693314 0.000000
0.778677 0.693314 0.000000
0.806815 0.693314 0.000000
0.834806 0.693314 0.000000
0.862657 0.693314 0.000000
0.890373 0.693314 0.000000
0.917961 0.693314 0.000000
0.945425 0.693314 0.000000
0.972770 0.693314 0.000000
1.000000 0.693314 0.000000
0.000000 0.721935 0.000000
0.049110 0.721935 0.000000
0.089730 0.721935 0.000000
0.127662 0.721935 0.000000
0.163947 0.721935 0.000000
0.199055 0.721935 0.000000
0.233253 0.721935 0.000000
0.266712 0.721935 0.000000
0.299550 0.721935 0.000000
0.331856 0.721935 0.000000
0.363697 0.721935 0.000000
0.395123 0.721935 0.000000
0.426179 0.721935 0.000000
0.456899 0.721935 0.000000
0.487312 0.721935 0.000000
0.517442 0.721935 0.000000
0.547312 0.721935 0.000000
0.576938 0.721935 0.000000
0.606339 0.721935 0.000000
0.635526 0.721935 0.000000
0.664514 0.721935 0.000000
0.693314 0.721935 0.000000
0.721935 0.721935 0.000000
0.750387 0.721935 0.000000
0.778677 0.721935 0.000000
0.806815 0.721935 0.000000
0.834806 0.721935 0.000000
0.862657 0.721935 0.000000
0.890373 0.721935 0.000000
0.917961 0.721935 0.000000
0.945425 0.721935 0.000000
0.972770 0.721935 0.000000
1.000000 0.721935 0.000000
0.000000 0.750387 0.000000
0.049110 0.750387 0.000000
0.089730 0.750387 0.000000
0.127662 0.750387 0.000000
0.163947 0.750387 0.000000
0.199055 0.750387 0.000000
0.233253 0.750387 0.000000
0.266712 0.750387 0.000000
0.299550 0.750387 0.000000
0.331856 0.750387 0.000000
0.363697 0.750387 0.000000
0.395123 0.750387 0.000000
0.426179 0.750387 0.000000
0.456899 0.750387 0.000000
0.487312 0.750387 0.000000
0.517442 0.750387 0.000000
0.547312 0.750387 0.000000
0.576938 0.750387 0.000000
0.606339 0.750387 0.000000
0.635526 0.750387 0.000000
0.664514 0.750387 0.000000
0.693314 0.750387 0.000000
0.721935 0.750387 0.000000
0.750387 0.750387 0.000000
0.778677 0.750387 0.000000
0.806815 0.750387 0.000000
0.834806 0.750387 0.000000
0.862657 0.750387 0.000000
0.890373 0.750387 0.000000
0.917961 0.750387 0.000000
0.945425 0.750387 0.000000
0.972770 0.750387 0.000000
1.000000 0.750387 0.000000
0.000000 0.778677 0.000000
0.049110 0.778677 0.000000
0.089730 0.778677 0.000000
0.127662 0.778677 0.000000
0.163947 0.778677 0.000000
0.199055 0.778677 0.000000
0.233253 0.778677 0.000000
0.266712 0.778677 0.000000
0.299550 0.778677 0.000000
0.331856 0.778677 0.000000
0.363697 0.778677 0.000000
0.395123 0.778677 0.000000
0.426179 0.778677 0.000000
0.456899 0.778677 0.000000
0.487312 0.778677 0.000000
0.517442 0.778677 0.000000
0.547312 0.778677 0.000000
0.576938 0.778677 0.000000
0.606339 0.778677 0.000000
0.635526 0.778677 0.000000
0.664514 0.778677 0.000000
0.693314 0.778677 0.000000
0.721935 0.778677 0.000000
0.750387 0.778677 0.000000
0.778677 0.778677 0.000000
0.806815 0.778677 0.000000
0.834806 0.778677 0.000000
0.862657 0.778677 0.000000
0.890373 0.778677 0.000000
0.917961 0.778677 0.000000
0.945425 0.778677 0.000000
0.972770 0.778677 0.000000
1.000000 0.778677 0.000000
0.000000 0.806815 0.000000
0.049110 0.806815 0.000000
0.089730 0.806815 0.000000
0.127662 0.806815 0.000000
0.163947 0.806815 0.000000
0.199055 0.806815 0.000000
0.233253 0.806815 0.000000
0.266712 0.806815 0.000000
0.299550 0.806815 0.000000
0.331856 0.806815 0.000000
0.363697 0.806815 0.000000
0.395123 0.806815 0.000000
0.426179 0.806815 0.000000
0.456899 0.806815 0.000000
0.487312 0.806815 0.000000
0.517442 0.806815 0.000000
0.547312 0.806815 0.000000
0.576938 0.806815 0.000000
0.606339 0.806815 0.000000
0.635526 0.806815 0.000000
0.664514 0.806815 0.000000
0.693314 0.806815 0.000000
0.721935 0.806815 0.000000
0.750387 0.806815 0.000000
0.778677 0.806815 0.000000
0.806815 0.806815 0.000000
0.834806 0.806815 0.000000
0.862657 0.806815 0.000000
0.890373 0.806815 0.000000
0.917961 0.806815 0.000000
0.945425 0.806815 0.000000
0.972770 0.806815 0.000000
1.000000 0.806815 0.000000
0.000000 0.834806 0.000000
0.049110 0.834806 0.000000
0.089730 0.834806 0.000000
0.127662 0.834806 0.000000
0.163947 0.834806 0.000000
0.199055 0.834806 0.000000
0.233253 0.834806 0.000000
0.266712 0.834806 0.000000
0.299550 0.834806 0.000000
0.331856 0.834806 0.000000
0.363697 0.834806 0.000000
0.395123 0.834806 0.000000
0.426179 0.834806 0.000000
0.456899 0.834806 0.000000
0.487312 0.834806 0.000000
0.517442 0.834806 0.000000
0.547312 0.834806 0.000000
0.576938 0.834806 0.000000
0.606339 0.834806 0.000000
0.635526 0.834806 0.000000
0.664514 0.834806 0.000000
0.693314 0.834806 0.000000
0.721935 0.834806 0.000000
0.750387 0.834806 0.000000
0.778677 0.834806 0.000000
