presets/film_stocks/Kodak_Vision3_250D_5207.cube
# 独寻胶片模拟 -- Kodak Vision3 250D 5207
# Kodak, ISO 250, 2009, negative
TITLE "Kodak Vision3 250D 5207"
LUT_3D_SIZE 9
DOMAIN_MIN 0.0 0.0 0.0
DOMAIN_MAX 1.0 1.0 1.0
0.000000 0.000000 0.000000
0.165853 0.005245 0.000000
0.311449 0.009850 0.000000
0.450267 0.014241 0.000000
0.584859 0.018497 0.000000
0.716392 0.022657 0.000000
0.845540 0.026742 0.000000
0.972735 0.030765 0.000000
1.000000 0.034735 0.000000
0.000000 0.161180 0.000000
0.160194 0.164562 0.000000
0.306140 0.167937 0.000000
0.445151 0.171306 0.000000
0.579876 0.174667 0.000000
0.711510 0.178023 0.000000
0.840738 0.181372 0.000000
0.968000 0.184714 0.000000
1.000000 0.188051 0.000000
0.000000 0.302674 0.000000
0.154514 0.305851 0.000000
0.300821 0.309025 0.000000
0.440030 0.312195 0.000000
0.574889 0.315363 0.000000
0.706624 0.318527 0.000000
0.835933 0.321688 0.000000
0.963263 0.324846 0.000000
1.000000 0.328001 0.000000
0.000000 0.437580 0.000000
0.148813 0.440643 0.000000
0.295493 0.443703 0.000000
0.434902 0.446762 0.000000
0.569897 0.449818 0.000000
0.701735 0.452873 0.000000
0.831126 0.455925 0.000000
0.958524 0.458975 0.000000
1.000000 0.462023 0.000000
0.000000 0.568379 0.000000
0.143091 0.571363 0.000000
0.290156 0.574346 0.000000
0.429769 0.577326 0.000000
0.564901 0.580306 0.000000
0.696842 0.583283 0.000000
0.826315 0.586260 0.000000
0.953782 0.589234 0.000000
1.000000 0.592208 0.000000
0.000000 0.696207 0.000000
0.137345 0.699131 0.000000
0.284809 0.702054 0.000000
0.424629 0.704976 0.000000
0.559901 0.707896 0.000000
0.691946 0.710815 0.000000
0.821502 0.713734 0.000000
0.949037 0.716650 0.000000
1.000000 0.719566 0.000000
0.000000 0.821715 0.000000
0.131576 0.824591 0.000000
0.279451 0.827466 0.000000
0.419483 0.830341 0.000000
0.554896 0.833214 0.000000
0.687047 0.836086 0.000000
0.816687 0.838957 0.000000
0.944291 0.841827 0.000000
1.000000 0.844697 0.000000
0.000000 0.945327 0.000000
0.125781 0.948163 0.000000
0.274083 0.950998 0.000000
0.414331 0.953833 0.000000
0.549887 0.956667 0.000000
0.682144 0.959499 0.000000
0.811868 0.962331 0.000000
0.939542 0.965163 0.000000
1.000000 0.967993 0.000000
0.000000 1.000000 0.000000
0.119959 1.000000 0.000000
0.268705 1.000000 0.000000
0.409172 1.000000 0.000000
0.544873 1.000000 0.000000
0.677237 1.000000 0.000000
0.807046 1.000000 0.000000
0.934790 1.000000 0.000000
1.000000 1.000000 0.000000
0.000000 0.000000 0.158519
0.156704 0.000000 0.153500
0.302871 0.000000 0.148464
0.442003 0.000000 0.143411
0.576810 0.000051 0.138340
0.708506 0.005275 0.133250
0.837783 0.009878 0.128141
0.965088 0.014267 0.123012
1.000000 0.018523 0.117860
0.000000 0.147600 0.156039
0.151011 0.151011 0.151011
0.297546 0.154415 0.145967
0.436878 0.157812 0.140905
0.571820 0.161201 0.135825
0.703618 0.164583 0.130726
0.832977 0.167958 0.125607
0.960349 0.171326 0.120466
1.000000 0.174688 0.115304
0.000000 0.289951 0.153554
0.145297 0.293141 0.148518
0.292213 0.296329 0.143465
0.431746 0.299513 0.138395
0.566825 0.302693 0.133305
0.698727 0.305870 0.128196
0.828168 0.309044 0.123067
0.955608 0.312215 0.117916
1.000000 0.315382 0.112743
0.000000 0.425326 0.151065
0.139561 0.428398 0.146021
0.286869 0.431467 0.140960
0.426609 0.434534 0.135880
0.561827 0.437599 0.130781
0.693832 0.440662 0.125662
0.823356 0.443722 0.120522
0.950865 0.446781 0.115360
1.000000 0.449837 0.110175
0.000000 0.556446 0.148573
0.133801 0.559436 0.143520
0.281515 0.562425 0.138449
0.421465 0.565412 0.133360
0.556824 0.568398 0.128251
0.688934 0.571381 0.123122
0.818541 0.574364 0.117972
0.946119 0.577345 0.112798
1.000000 0.580324 0.107601
0.000000 0.684516 0.146076
0.128015 0.687445 0.141014
0.276152 0.690373 0.135934
0.416316 0.693299 0.130836
0.551816 0.696225 0.125717
0.684032 0.699149 0.120577
0.813724 0.702072 0.115416
0.941371 0.704994 0.110231
1.000000 0.707914 0.105021
0.000000 0.810218 0.143574
0.122204 0.813098 0.138504
0.270777 0.815977 0.133415
0.411159 0.818855 0.128306
0.546804 0.821733 0.123177
0.679127 0.824609 0.118027
0.808903 0.827484 0.112854
0.936620 0.830358 0.107657
1.000000 0.833231 0.102435
0.000000 0.933991 0.141069
0.116365 0.936830 0.135989
0.265392 0.939669 0.130891
0.405997 0.942507 0.125772
0.541787 0.945344 0.120633
0.674219 0.948180 0.115471
0.804080 0.951016 0.110287
0.931867 0.953850 0.105078
1.000000 0.956684 0.099843
0.000000 1.000000 0.138558
0.110496 1.000000 0.133470
0.259997 1.000000 0.128361
0.400827 1.000000 0.123233
0.536766 1.000000 0.118083
0.669306 1.000000 0.112910
0.799254 1.000000 0.107713
0.927112 1.000000 0.102492
1.000000 1.000000 0.097243
0.000000 0.000000 0.297678
0.147500 0.000000 0.292968
0.294268 0.000000 0.288252
0.433723 0.000000 0.283527
0.568749 0.000000 0.278795
0.700611 0.000000 0.274055
0.830020 0.000000 0.269306
0.957434 0.000000 0.264549
1.000000 0.000096 0.259783
0.000000 0.133893 0.295349
0.141773 0.137337 0.290636
0.288928 0.140773 0.285916
0.428588 0.144201 0.281188
0.563752 0.147621 0.276451
0.695717 0.151032 0.271707
0.825209 0.154436 0.266954
0.952691 0.157832 0.262193
1.000000 0.161221 0.257423
0.000000 0.277172 0.293019
0.136022 0.280377 0.288303
0.283578 0.283578 0.283578
0.423447 0.286776 0.278846
0.558751 0.289970 0.274106
0.690821 0.293161 0.269357
0.820396 0.296348 0.264600
0.947947 0.299532 0.259835
1.000000 0.302713 0.255060
0.000000 0.413037 0.290687
0.130246 0.416118 0.285967
0.278218 0.419196 0.281238
0.418299 0.422272 0.276502
0.553745 0.425345 0.271758
0.685920 0.428417 0.267005
0.815579 0.431486 0.262244
0.943200 0.434553 0.257474
1.000000 0.437618 0.252696
0.000000 0.544487 0.288353
0.124445 0.547484 0.283629
0.272848 0.550479 0.278897
0.413146 0.553473 0.274157
0.548735 0.556464 0.269408
0.681017 0.559455 0.264651
0.810760 0.562443 0.259886
0.938450 0.565430 0.255112
1.000000 0.568416 0.250329
0.000000 0.672805 0.286018
0.118617 0.675739 0.281289
0.267467 0.678672 0.276553
0.407986 0.681603 0.271809
0.543720 0.684534 0.267056
0.676109 0.687463 0.262295
0.805938 0.690391 0.257526
0.933698 0.693317 0.252747
1.000000 0.696243 0.247960
0.000000 0.798704 0.283680
0.112760 0.801588 0.278948
0.262076 0.804472 0.274208
0.402819 0.807354 0.269459
0.538700 0.810235 0.264703
0.671198 0.813116 0.259937
0.801113 0.815995 0.255163
0.928944 0.818873 0.250380
1.000000 0.821750 0.245588
0.000000 0.922641 0.281340
0.106872 0.925484 0.276604
0.256673 0.928326 0.271860
0.397645 0.931167 0.267108
0.533676 0.934008 0.262347
0.666284 0.936848 0.257577
0.796285 0.939686 0.252799
0.924187 0.942524 0.248011
1.000000 0.945361 0.243214
0.000000 1.000000 0.278999
0.100952 1.000000 0.274259
0.251259 1.000000 0.269510
0.392465 1.000000 0.264754
0.528647 1.000000 0.259989
0.661366 1.000000 0.255215
0.791454 1.000000 0.250432
0.919428 1.000000 0.245640
1.000000 1.000000 0.240838
0.000000 0.000000 0.430357
0.138239 0.000000 0.425820
0.285639 0.000000 0.421277
0.425427 0.000000 0.416730
0.560677 0.000000 0.412178
0.692707 0.000000 0.407621
0.822250 0.000000 0.403058
0.949774 0.000000 0.398491
1.000000 0.000000 0.393918
0.000000 0.120044 0.428114
0.132473 0.123526 0.423574
0.280284 0.126998 0.419029
0.420282 0.130461 0.414479
0.555673 0.133914 0.409924
0.687808 0.137359 0.405365
0.817434 0.140794 0.400800
0.945028 0.144222 0.396230
1.000000 0.147641 0.391654
0.000000 0.264333 0.425869
0.126682 0.267554 0.421326
0.274917 0.270770 0.416779
0.415131 0.273982 0.412227
0.550665 0.277191 0.407670
0.682905 0.280396 0.403107
0.812616 0.283598 0.398540
0.940279 0.286796 0.393967
1.000000 0.289990 0.389389
0.000000 0.400711 0.423622
0.120865 0.403801 0.419078
0.269541 0.406888 0.414528
0.409973 0.409973 0.409973
0.545651 0.413056 0.405414
0.677999 0.416136 0.400849
0.807795 0.419215 0.396279
0.935528 0.422290 0.391703
1.000000 0.425364 0.387123
0.000000 0.532502 0.421375
0.115019 0.535506 0.416828
0.264153 0.538507 0.412276
0.404809 0.541507 0.407719
0.540634 0.544506 0.403156
0.673090 0.547502 0.398589
0.802971 0.550497 0.394016
0.930775 0.553491 0.389438
1.000000 0.556483 0.384855
0.000000 0.661073 0.419127
0.109143 0.664012 0.414577
0.258755 0.666951 0.410022
0.399638 0.669887 0.405463
0.535611 0.672823 0.400898
0.668177 0.675757 0.396328
0.798144 0.678690 0.391753
0.926019 0.681621 0.387172
1.000000 0.684552 0.382586
0.000000 0.787174 0.416877
0.103236 0.790062 0.412325
0.253345 0.792950 0.407768
0.394461 0.795836 0.403206
0.530584 0.798722 0.398638
0.663260 0.801606 0.394066
0.793315 0.804489 0.389488
0.921261 0.807372 0.384904
1.000000 0.810253 0.380316
0.000000 0.911277 0.414626
0.097294 0.914123 0.410071
0.247924 0.916969 0.405512
0.389277 0.919814 0.400947
0.525552 0.922658 0.396377
0.658340 0.925501 0.391802
0.788482 0.928343 0.387221
0.916500 0.931185 0.382635
1.000000 0.934025 0.378044
0.000000 1.000000 0.412374
0.091316 1.000000 0.407817
0.242491 1.000000 0.403255
0.384085 1.000000 0.398687
0.520515 1.000000 0.394115
0.653416 1.000000 0.389537
0.783646 1.000000 0.384954
0.911737 1.000000 0.380365
1.000000 1.000000 0.375771
0.000000 0.000000 0.558997
0.128915 0.000000 0.554578
0.276985 0.000000 0.550154
0.417116 0.000000 0.545727
0.552594 0.000000 0.541297
0.684794 0.000000 0.536863
0.814472 0.000000 0.532425
0.942108 0.000000 0.527984
1.000000 0.000000 0.523538
0.000000 0.106033 0.556812
0.123108 0.109558 0.552390
0.271612 0.113071 0.547965
0.411960 0.116574 0.543536
0.547583 0.120066 0.539104
0.679889 0.123547 0.534668
0.809652 0.127019 0.530229
0.937358 0.130482 0.525785
1.000000 0.133935 0.521338
0.000000 0.251432 0.554625
0.117273 0.254669 0.550202
0.266229 0.257901 0.545775
0.406799 0.261129 0.541345
0.542567 0.264353 0.536911
0.674981 0.267573 0.532473
0.804829 0.270790 0.528031
0.932606 0.274002 0.523586
1.000000 0.277211 0.519137
0.000000 0.388348 0.552438
0.111410 0.391447 0.548013
0.260835 0.394544 0.543584
0.401630 0.397638 0.539152
0.537546 0.400730 0.534716
0.670069 0.403820 0.530276
0.800003 0.406907 0.525833
0.927851 0.409992 0.521386
1.000000 0.413075 0.516935
0.000000 0.520490 0.550250
0.105515 0.523500 0.545823
0.255430 0.526509 0.541392
0.396456 0.529515 0.536958
0.532521 0.532521 0.532521
0.665154 0.535524 0.528079
0.795175 0.538526 0.523634
0.923093 0.541526 0.519185
1.000000 0.544524 0.514732
0.000000 0.649321 0.548060
0.099586 0.652265 0.543632
0.250013 0.655209 0.539200
0.391274 0.658151 0.534764
0.527490 0.661091 0.530324
0.660235 0.664031 0.525881
0.790343 0.666969 0.521434
0.918333 0.669905 0.516983
1.000000 0.672841 0.512529
0.000000 0.775627 0.545870
0.093623 0.778520 0.541440
0.244585 0.781411 0.537006
0.386085 0.784302 0.532568
0.522456 0.787192 0.528127
0.655312 0.790080 0.523682
0.785509 0.792968 0.519233
0.913571 0.795854 0.514780
1.000000 0.798739 0.510324
0.000000 0.899899 0.543679
0.087621 0.902749 0.539247
0.239144 0.905598 0.534811
0.380890 0.908447 0.530372
0.517416 0.911294 0.525929
0.650386 0.914141 0.521482
0.780671 0.916987 0.517031
0.908806 0.919832 0.512576
1.000000 0.922676 0.508118
0.000000 1.000000 0.541488
0.081578 1.000000 0.537054
0.233691 1.000000 0.532616
0.375687 1.000000 0.528175
0.512371 1.000000 0.523730
0.645456 1.000000 0.519281
0.775831 1.000000 0.514828
0.904039 1.000000 0.510372
1.000000 1.000000 0.505911
0.000000 0.000000 0.684715
0.119524 0.000000 0.680384
0.268304 0.000000 0.676051
0.408787 0.000000 0.671715
0.544499 0.000000 0.667376
0.676871 0.000000 0.663034
0.806687 0.000000 0.658689
0.934436 0.000000 0.654341
1.000000 0.000000 0.649991
0.000000 0.091834 0.682573
0.113671 0.095409 0.678241
0.262914 0.098970 0.673906
0.403621 0.102519 0.669569
0.539480 0.106055 0.665228
0.671961 0.109580 0.660885
0.801862 0.113093 0.656539
0.929682 0.116595 0.652190
1.000000 0.120087 0.647838
0.000000 0.238465 0.680431
0.107788 0.241718 0.676097
0.257513 0.244967 0.671761
0.398449 0.248212 0.667422
0.534456 0.251452 0.663080
0.667047 0.254688 0.658736
0.797035 0.257921 0.654388
0.924926 0.261149 0.650038
1.000000 0.264373 0.645684
0.000000 0.375944 0.678288
0.101873 0.379054 0.673953
0.252100 0.382160 0.669615
0.393270 0.385265 0.665275
0.529428 0.388367 0.660932
0.662130 0.391466 0.656586
0.792204 0.394563 0.652237
0.920167 0.397657 0.647885
1.000000 0.400749 0.643530
0.000000 0.508450 0.676144
0.095924 0.511467 0.671808
0.246676 0.514483 0.667469
0.388084 0.517496 0.663127
0.524395 0.520508 0.658782
0.657208 0.523519 0.654435
0.787371 0.526527 0.650085
0.915405 0.529534 0.645731
1.000000 0.532539 0.641375
0.000000 0.637547 0.674000
0.089937 0.640497 0.669662
0.241240 0.643446 0.665322
0.382891 0.646393 0.660978
0.519357 0.649339 0.656632
0.652283 0.652283 0.652283
0.782534 0.655227 0.647932
0.910641 0.658169 0.643577
1.000000 0.661109 0.639219
0.000000 0.764062 0.671855
0.083910 0.766960 0.667516
0.235792 0.769856 0.663174
0.377691 0.772751 0.658829
0.514314 0.775645 0.654482
0.647355 0.778537 0.650131
0.777695 0.781429 0.645778
0.905875 0.784320 0.641422
1.000000 0.787209 0.637063
0.000000 0.888506 0.669709
0.077839 0.891360 0.665368
0.230331 0.894213 0.661025
0.372484 0.897065 0.656679
0.509267 0.899916 0.652330
0.642423 0.902766 0.647978
0.772853 0.905616 0.643624
0.901106 0.908464 0.639266
1.000000 0.911312 0.634905
0.000000 1.000000 0.667562
0.071721 1.000000 0.663221
0.224858 1.000000 0.658876
0.367270 1.000000 0.654528
0.504214 1.000000 0.650178
0.637486 1.000000 0.645825
0.768007 1.000000 0.641469
0.896335 1.000000 0.637110
1.000000 1.000000 0.632747
0.000000 0.000000 0.808152
0.110058 0.000000 0.803892
0.259594 0.000000 0.799631
0.400442 0.000000 0.795367
0.536391 0.000000 0.791101
0.668940 0.000000 0.786832
0.798894 0.000000 0.782562
0.926757 0.000000 0.778289
1.000000 0.000000 0.774013
0.000000 0.077411 0.806045
0.104155 0.081046 0.801785
0.254186 0.084665 0.797522
0.395265 0.088268 0.793257
0.531365 0.091856 0.788990
0.664024 0.095431 0.784720
0.794065 0.098992 0.780448
0.922000 0.102540 0.776174
1.000000 0.106077 0.771898
0.000000 0.225426 0.803938
0.098219 0.228698 0.799677
0.248766 0.231965 0.795413
0.390082 0.235227 0.791147
0.526334 0.238485 0.786878
0.659104 0.241738 0.782608
0.789232 0.244987 0.778335
0.917239 0.248232 0.774059
1.000000 0.251472 0.769781
0.000000 0.363500 0.801830
0.092247 0.366620 0.797568
0.243335 0.369737 0.793303
0.384892 0.372851 0.789036
0.521298 0.375963 0.784766
0.654180 0.379073 0.780494
0.784397 0.382179 0.776220
0.912476 0.385284 0.771944
1.000000 0.388386 0.767665
0.000000 0.496381 0.799722
0.086236 0.499406 0.795459
0.237892 0.502429 0.791193
0.379695 0.505449 0.786924
0.516257 0.508468 0.782653
0.649253 0.511486 0.778380
0.779559 0.514501 0.774105
0.907711 0.517515 0.769827
1.000000 0.520527 0.765547
0.000000 0.625752 0.797614
0.080183 0.628707 0.793349
0.232436 0.631661 0.789082
0.374490 0.634614 0.784812
0.511211 0.637565 0.780540
0.644322 0.640515 0.776266
0.774718 0.643464 0.771990
0.902943 0.646411 0.767711
1.000000 0.649357 0.763429
0.000000 0.752481 0.795504
0.074083 0.755382 0.791238
0.226967 0.758283 0.786970
0.369279 0.761182 0.782699
0.506160 0.764080 0.778426
0.639388 0.766977 0.774151
0.769873 0.769873 0.769873
0.898173 0.772768 0.765593
1.000000 0.775662 0.761311
0.000000 0.877099 0.793395
0.067933 0.879957 0.789128
0.221485 0.882813 0.784858
0.364060 0.885669 0.780586
0.501104 0.888524 0.776312
0.634449 0.891378 0.772036
0.765026 0.894231 0.767757
0.893400 0.897083 0.763475
1.000000 0.899934 0.759192
0.000000 0.999965 0.791284
0.061727 1.000000 0.787016
0.215990 1.000000 0.782745
0.358834 1.000000 0.778472
0.496044 1.000000 0.774197
0.629507 1.000000 0.769919
0.760176 1.000000 0.765639
0.888624 1.000000 0.761357
1.000000 1.000000 0.757072
0.000000 0.000000 0.929723
0.100509 0.000000 0.925523
0.250855 0.000000 0.921321
0.392079 0.000000 0.917118
0.528272 0.000000 0.912912
0.660999 0.000000 0.908704
0.791093 0.000000 0.904495
0.919073 0.000000 0.900283
1.000000 0.000000 0.896070
0.000000 0.062712 0.927646
0.094551 0.066422 0.923445
0.245428 0.070112 0.919242
0.386891 0.073782 0.915038
0.523238 0.077433 0.910831
0.656077 0.081068 0.906623
0.786259 0.084687 0.902412
0.914311 0.088290 0.898200
1.000000 0.091878 0.893985
0.000000 0.212312 0.925568
0.088555 0.215603 0.921366
0.239989 0.218889 0.917163
0.381697 0.222170 0.912957
0.518199 0.225446 0.908750
0.651151 0.228718 0.904540
0.781422 0.231985 0.900329
0.909546 0.235247 0.896115
1.000000 0.238505 0.891900
0.000000 0.351013 0.923490
0.082519 0.354143 0.919287
0.234538 0.357271 0.915083
0.376495 0.360396 0.910876
0.513155 0.363519 0.906668
0.646222 0.366639 0.902457
0.776582 0.369756 0.898245
0.904779 0.372870 0.894031
1.000000 0.375982 0.889814
0.000000 0.484283 0.921412
0.076438 0.487315 0.917208
0.229075 0.490345 0.913002
0.371287 0.493374 0.908795
0.508106 0.496400 0.904585
0.641288 0.499424 0.900374
0.771739 0.502447 0.896161
0.900010 0.505468 0.891945
1.000000 0.508487 0.887728
0.000000 0.613934 0.919333
0.070308 0.616895 0.915128
0.223598 0.619855 0.910922
0.366071 0.622813 0.906713
0.503052 0.625770 0.902503
0.636351 0.628725 0.898290
0.766893 0.631679 0.894076
0.895238 0.634632 0.889860
1.000000 0.637583 0.885641
0.000000 0.740881 0.917253
0.064124 0.743787 0.913048
0.218107 0.746692 0.908840
0.360847 0.749596 0.904631
0.497993 0.752498 0.900419
0.631410 0.755400 0.896206
0.762044 0.758300 0.891991
0.890464 0.761200 0.887773
1.000000 0.764098 0.883554
0.000000 0.865677 0.915173
0.057879 0.868539 0.910967
0.212603 0.871399 0.906758
0.355616 0.874258 0.902548
0.492929 0.877117 0.898336
0.626466 0.879974 0.894121
0.757192 0.882831 0.889905
0.885687 0.885687 0.885687
1.000000 0.888541 0.881466
0.000000 0.988693 0.913093
0.051567 0.991517 0.908885
0.207085 0.994340 0.904676
0.350377 0.997162 0.900465
0.487860 0.999983 0.896251
0.621517 1.000000 0.892036
0.752336 1.000000 0.887819
0.880907 1.000000 0.883599
1.000000 1.000000 0.879378
0.000000 0.000000 1.000000
0.090869 0.000000 1.000000
0.242085 0.000000 1.000000
0.383698 0.000000 1.000000
0.520140 0.000000 1.000000
0.653048 0.000000 1.000000
0.783285 0.000000 1.000000
0.911381 0.000000 1.000000
1.000000 0.000000 1.000000
0.000000 0.047657 1.000000
0.084849 0.051466 1.000000
0.236639 0.055247 1.000000
0.378499 0.059003 1.000000
0.515098 0.062735 1.000000
0.648120 0.066445 1.000000
0.778446 0.070134 1.000000
0.906615 0.073804 1.000000
1.000000 0.077456 1.000000
0.000000 0.199116 1.000000
0.078785 0.202428 1.000000
0.231180 0.205735 1.000000
0.373293 0.209036 1.000000
0.510051 0.212332 1.000000
0.643189 0.215623 1.000000
0.773605 0.218909 1.000000
0.901847 0.222190 1.000000
1.000000 0.225466 1.000000
0.000000 0.338481 1.000000
0.072674 0.341623 1.000000
0.225708 0.344762 1.000000
0.368080 0.347898 1.000000
0.504999 0.351032 1.000000
0.638253 0.354162 1.000000
0.768760 0.357290 1.000000
0.897076 0.360416 1.000000
1.000000 0.363538 1.000000
0.000000 0.472155 1.000000
0.066512 0.475195 1.000000
0.220223 0.478232 1.000000
0.362860 0.481268 1.000000
0.499942 0.484302 1.000000
0.633314 0.487334 1.000000
0.763912 0.490364 1.000000
0.892302 0.493392 1.000000
1.000000 0.496419 1.000000
0.000000 0.602094 1.000000
0.060291 0.605060 1.000000
0.214725 0.608026 1.000000
0.357631 0.610990 1.000000
0.494880 0.613952 1.000000
0.628370 0.616913 1.000000
0.759061 0.619873 1.000000
0.887526 0.622831 1.000000
1.000000 0.625788 1.000000
0.000000 0.729263 1.000000
0.054006 0.732174 1.000000
0.209212 0.735083 1.000000
0.352396 0.737991 1.000000
0.489812 0.740899 1.000000
0.623423 0.743805 1.000000
0.754206 0.746710 1.000000
0.882748 0.749614 1.000000
1.000000 0.752516 1.000000
0.000000 0.854240 1.000000
0.047647 0.857105 1.000000
0.203684 0.859969 1.000000
0.347152 0.862833 1.000000
0.484740 0.865695 1.000000
0.618472 0.868556 1.000000
0.749349 0.871416 1.000000
0.877967 0.874276 1.000000
1.000000 0.877134 1.000000
0.000000 0.977408 1.000000
0.041201 0.980235 1.000000
0.198142 0.983061 1.000000
0.341901 0.985886 1.000000
0.479662 0.988711 1.000000
0.613517 0.991534 1.000000
0.744489 0.994357 1.000000
0.873183 0.997179 1.000000
1.000000 1.000000 1.000000
