presets/film_stocks/Kodak_Portra_800.cube
# 独寻胶片模拟 -- Kodak Portra 800
# Kodak, ISO 800, 1998, negative
TITLE "Kodak Portra 800"
LUT_3D_SIZE 33
DOMAIN_MIN 0.0 0.0 0.0
DOMAIN_MAX 1.0 1.0 1.0
0.000000 0.000000 0.000000
0.053575 0.001943 0.000000
0.097888 0.003549 0.000000
0.139269 0.005050 0.000000
0.178853 0.006485 0.000000
0.217153 0.007874 0.000000
0.254459 0.009227 0.000000
0.290960 0.010550 0.000000
0.326784 0.011849 0.000000
0.362027 0.013127 0.000000
0.396762 0.014387 0.000000
0.431046 0.015630 0.000000
0.464926 0.016858 0.000000
0.498439 0.018074 0.000000
0.531616 0.019277 0.000000
0.564486 0.020469 0.000000
0.597071 0.021650 0.000000
0.629391 0.022822 0.000000
0.661464 0.023985 0.000000
0.693306 0.025140 0.000000
0.724929 0.026286 0.000000
0.756347 0.027426 0.000000
0.787570 0.028558 0.000000
0.818609 0.029683 0.000000
0.849472 0.030802 0.000000
0.880167 0.031915 0.000000
0.910703 0.033023 0.000000
0.941086 0.034124 0.000000
0.971323 0.035221 0.000000
1.000000 0.036312 0.000000
1.000000 0.037398 0.000000
1.000000 0.038480 0.000000
1.000000 0.039557 0.000000
0.000000 0.051992 0.000000
0.051803 0.053022 0.000000
0.096272 0.054049 0.000000
0.137736 0.055074 0.000000
0.177377 0.056095 0.000000
0.215719 0.057114 0.000000
0.253060 0.058130 0.000000
0.289588 0.059143 0.000000
0.325436 0.060154 0.000000
0.360700 0.061162 0.000000
0.395453 0.062168 0.000000
0.429753 0.063171 0.000000
0.463647 0.064172 0.000000
0.497173 0.065170 0.000000
0.530363 0.066166 0.000000
0.563244 0.067160 0.000000
0.595840 0.068152 0.000000
0.628170 0.069142 0.000000
0.660252 0.070129 0.000000
0.692102 0.071115 0.000000
0.723733 0.072098 0.000000
0.755159 0.073079 0.000000
0.786389 0.074059 0.000000
0.817434 0.075036 0.000000
0.848304 0.076012 0.000000
0.879006 0.076985 0.000000
0.909547 0.077957 0.000000
0.939936 0.078927 0.000000
0.970178 0.079896 0.000000
1.000000 0.080862 0.000000
1.000000 0.081827 0.000000
1.000000 0.082790 0.000000
1.000000 0.083751 0.000000
0.000000 0.094995 0.000000
0.050022 0.095937 0.000000
0.094651 0.096877 0.000000
0.136201 0.097816 0.000000
0.175899 0.098754 0.000000
0.214284 0.099691 0.000000
0.251659 0.100626 0.000000
0.288215 0.101559 0.000000
0.324087 0.102492 0.000000
0.359372 0.103423 0.000000
0.394143 0.104353 0.000000
0.428460 0.105282 0.000000
0.462368 0.106209 0.000000
0.495908 0.107136 0.000000
0.529110 0.108061 0.000000
0.562002 0.108985 0.000000
0.594608 0.109908 0.000000
0.626948 0.110829 0.000000
0.659039 0.111750 0.000000
0.690898 0.112669 0.000000
0.722537 0.113587 0.000000
0.753970 0.114504 0.000000
0.785208 0.115420 0.000000
0.816260 0.116335 0.000000
0.847136 0.117249 0.000000
0.877844 0.118161 0.000000
0.908392 0.119073 0.000000
0.938786 0.119984 0.000000
0.969033 0.120893 0.000000
0.999140 0.121802 0.000000
1.000000 0.122709 0.000000
1.000000 0.123616 0.000000
1.000000 0.124522 0.000000
0.000000 0.135152 0.000000
0.048232 0.136046 0.000000
0.093026 0.136939 0.000000
0.134663 0.137830 0.000000
0.174419 0.138721 0.000000
0.212848 0.139611 0.000000
0.250257 0.140501 0.000000
0.286842 0.141389 0.000000
0.322738 0.142277 0.000000
0.358043 0.143163 0.000000
0.392833 0.144049 0.000000
0.427166 0.144934 0.000000
0.461089 0.145819 0.000000
0.494642 0.146702 0.000000
0.527856 0.147585 0.000000
0.560760 0.148467 0.000000
0.593376 0.149348 0.000000
0.625726 0.150228 0.000000
0.657826 0.151108 0.000000
0.689693 0.151986 0.000000
0.721341 0.152864 0.000000
0.752781 0.153742 0.000000
0.784026 0.154618 0.000000
0.815085 0.155494 0.000000
0.845968 0.156369 0.000000
0.876682 0.157243 0.000000
0.907235 0.158117 0.000000
0.937636 0.158990 0.000000
0.967888 0.159862 0.000000
0.998000 0.160733 0.000000
1.000000 0.161604 0.000000
1.000000 0.162474 0.000000
1.000000 0.163343 0.000000
0.000000 0.173566 0.000000
0.046431 0.174427 0.000000
0.091397 0.175287 0.000000
0.133122 0.176147 0.000000
0.172938 0.177006 0.000000
0.211410 0.177864 0.000000
0.248854 0.178722 0.000000
0.285467 0.179579 0.000000
0.321387 0.180435 0.000000
0.356713 0.181291 0.000000
0.391521 0.182146 0.000000
0.425871 0.183000 0.000000
0.459809 0.183854 0.000000
0.493375 0.184708 0.000000
0.526602 0.185561 0.000000
0.559517 0.186413 0.000000
0.592144 0.187264 0.000000
0.624503 0.188115 0.000000
0.656612 0.188966 0.000000
0.688488 0.189816 0.000000
0.720144 0.190665 0.000000
0.751592 0.191514 0.000000
0.782844 0.192362 0.000000
0.813910 0.193210 0.000000
0.844799 0.194057 0.000000
0.875520 0.194903 0.000000
0.906079 0.195749 0.000000
0.936485 0.196594 0.000000
0.966743 0.197439 0.000000
0.996860 0.198284 0.000000
1.000000 0.199127 0.000000
1.000000 0.199971 0.000000
1.000000 0.200813 0.000000
0.000000 0.210734 0.000000
0.044620 0.211570 0.000000
0.089763 0.212406 0.000000
0.131579 0.213241 0.000000
0.171454 0.214076 0.000000
0.209971 0.214910 0.000000
0.247449 0.215744 0.000000
0.284091 0.216577 0.000000
0.320036 0.217410 0.000000
0.355383 0.218242 0.000000
0.390210 0.219074 0.000000
0.424575 0.219905 0.000000
0.458528 0.220736 0.000000
0.492108 0.221566 0.000000
0.525347 0.222396 0.000000
0.558273 0.223225 0.000000
0.590911 0.224054 0.000000
0.623280 0.224883 0.000000
0.655399 0.225711 0.000000
0.687283 0.226538 0.000000
0.718947 0.227366 0.000000
0.750403 0.228192 0.000000
0.781662 0.229018 0.000000
0.812735 0.229844 0.000000
0.843630 0.230670 0.000000
0.874357 0.231494 0.000000
0.904923 0.232319 0.000000
0.935334 0.233143 0.000000
0.965598 0.233966 0.000000
0.995720 0.234790 0.000000
1.000000 0.235612 0.000000
1.000000 0.236435 0.000000
1.000000 0.237256 0.000000
0.000000 0.246938 0.000000
0.042798 0.247755 0.000000
0.088125 0.248571 0.000000
0.130033 0.249387 0.000000
0.169969 0.250202 0.000000
0.208530 0.251017 0.000000
0.246044 0.251831 0.000000
0.282715 0.252646 0.000000
0.318683 0.253459 0.000000
0.354052 0.254273 0.000000
0.388897 0.255086 0.000000
0.423279 0.255898 0.000000
0.457247 0.256710 0.000000
0.490840 0.257522 0.000000
0.524092 0.258334 0.000000
0.557030 0.259145 0.000000
0.589678 0.259955 0.000000
0.622057 0.260765 0.000000
0.654184 0.261575 0.000000
0.686077 0.262385 0.000000
0.717749 0.263194 0.000000
0.749213 0.264003 0.000000
0.780479 0.264811 0.000000
0.811559 0.265619 0.000000
0.842461 0.266427 0.000000
0.873194 0.267234 0.000000
0.903766 0.268041 0.000000
0.934183 0.268848 0.000000
0.964452 0.269654 0.000000
0.994580 0.270460 0.000000
1.000000 0.271265 0.000000
1.000000 0.272070 0.000000
1.000000 0.272875 0.000000
0.000000 0.282360 0.000000
0.040964 0.283160 0.000000
0.086482 0.283960 0.000000
0.128484 0.284760 0.000000
0.168481 0.285559 0.000000
0.207088 0.286358 0.000000
0.244637 0.287157 0.000000
0.281337 0.287955 0.000000
0.317330 0.288753 0.000000
0.352720 0.289551 0.000000
0.387584 0.290348 0.000000
0.421983 0.291145 0.000000
0.455966 0.291941 0.000000
0.489572 0.292738 0.000000
0.522836 0.293534 0.000000
0.555785 0.294329 0.000000
0.588444 0.295125 0.000000
0.620833 0.295920 0.000000
0.652970 0.296714 0.000000
0.684871 0.297509 0.000000
0.716552 0.298303 0.000000
0.748023 0.299097 0.000000
0.779297 0.299890 0.000000
0.810383 0.300683 0.000000
0.841292 0.301476 0.000000
0.872031 0.302268 0.000000
0.902609 0.303061 0.000000
0.933032 0.303852 0.000000
0.963307 0.304644 0.000000
0.993439 0.305435 0.000000
1.000000 0.306226 0.000000
1.000000 0.307017 0.000000
1.000000 0.307807 0.000000
0.000000 0.317125 0.000000
0.039117 0.317912 0.000000
0.084835 0.318698 0.000000
0.126932 0.319484 0.000000
0.166992 0.320270 0.000000
0.205644 0.321055 0.000000
0.243229 0.321840 0.000000
0.279958 0.322625 0.000000
0.315976 0.323409 0.000000
0.351387 0.324193 0.000000
0.386270 0.324977 0.000000
0.420686 0.325761 0.000000
0.454683 0.326544 0.000000
0.488304 0.327327 0.000000
0.521580 0.328110 0.000000
0.554541 0.328893 0.000000
0.587210 0.329675 0.000000
0.619609 0.330457 0.000000
0.651755 0.331238 0.000000
0.683665 0.332020 0.000000
0.715354 0.332801 0.000000
0.746832 0.333582 0.000000
0.778114 0.334362 0.000000
0.809207 0.335143 0.000000
0.840122 0.335923 0.000000
0.870868 0.336702 0.000000
0.901452 0.337482 0.000000
0.931880 0.338261 0.000000
0.962161 0.339040 0.000000
0.992299 0.339819 0.000000
1.000000 0.340597 0.000000
1.000000 0.341375 0.000000
1.000000 0.342153 0.000000
0.000000 0.351327 0.000000
0.037258 0.352101 0.000000
0.083183 0.352876 0.000000
0.125378 0.353650 0.000000
0.165500 0.354423 0.000000
0.204199 0.355197 0.000000
0.241820 0.355970 0.000000
0.278578 0.356743 0.000000
0.314621 0.357516 0.000000
0.350054 0.358288 0.000000
0.384955 0.359061 0.000000
0.419388 0.359833 0.000000
0.453401 0.360604 0.000000
0.487035 0.361376 0.000000
0.520324 0.362147 0.000000
0.553296 0.362918 0.000000
0.585976 0.363689 0.000000
0.618384 0.364460 0.000000
0.650540 0.365230 0.000000
0.682459 0.366000 0.000000
0.714155 0.366770 0.000000
0.745642 0.367539 0.000000
0.776930 0.368308 0.000000
0.808031 0.369078 0.000000
0.838953 0.369846 0.000000
0.869705 0.370615 0.000000
0.900294 0.371383 0.000000
0.930729 0.372151 0.000000
0.961014 0.372919 0.000000
0.991158 0.373687 0.000000
1.000000 0.374454 0.000000
1.000000 0.375221 0.000000
1.000000 0.375988 0.000000
0.000000 0.385035 0.000000
0.035384 0.385799 0.000000
0.081526 0.386563 0.000000
0.123821 0.387327 0.000000
0.164007 0.388090 0.000000
0.202752 0.388853 0.000000
0.240409 0.389616 0.000000
0.277198 0.390378 0.000000
0.313266 0.391141 0.000000
0.348720 0.391903 0.000000
0.383640 0.392665 0.000000
0.418089 0.393427 0.000000
0.452117 0.394188 0.000000
0.485765 0.394949 0.000000
0.519067 0.395710 0.000000
0.552050 0.396471 0.000000
0.584741 0.397232 0.000000
0.617159 0.397992 0.000000
0.649324 0.398752 0.000000
0.681252 0.399512 0.000000
0.712957 0.400272 0.000000
0.744451 0.401032 0.000000
0.775747 0.401791 0.000000
0.806854 0.402550 0.000000
0.837783 0.403309 0.000000
0.868541 0.404068 0.000000
0.899137 0.404826 0.000000
0.929577 0.405584 0.000000
0.959868 0.406342 0.000000
0.990017 0.407100 0.000000
1.000000 0.407858 0.000000
1.000000 0.408615 0.000000
1.000000 0.409372 0.000000
0.000000 0.418306 0.000000
0.033496 0.419061 0.000000
0.079864 0.419815 0.000000
0.122261 0.420569 0.000000
0.162512 0.421323 0.000000
0.201303 0.422077 0.000000
0.238997 0.422830 0.000000
0.275816 0.423584 0.000000
0.311909 0.424337 0.000000
0.347385 0.425090 0.000000
0.382324 0.425842 0.000000
0.416790 0.426595 0.000000
0.450834 0.427347 0.000000
0.484495 0.428099 0.000000
0.517809 0.428851 0.000000
0.550805 0.429603 0.000000
0.583506 0.430354 0.000000
0.615934 0.431106 0.000000
0.648109 0.431857 0.000000
0.680045 0.432608 0.000000
0.711758 0.433359 0.000000
0.743260 0.434109 0.000000
0.774563 0.434859 0.000000
0.805677 0.435610 0.000000
0.836613 0.436360 0.000000
0.867377 0.437109 0.000000
0.897979 0.437859 0.000000
0.928425 0.438608 0.000000
0.958722 0.439358 0.000000
0.988875 0.440107 0.000000
1.000000 0.440855 0.000000
1.000000 0.441604 0.000000
1.000000 0.442352 0.000000
0.000000 0.451184 0.000000
0.031591 0.451930 0.000000
0.078196 0.452676 0.000000
0.120697 0.453422 0.000000
0.161014 0.454167 0.000000
0.199853 0.454912 0.000000
0.237584 0.455658 0.000000
0.274433 0.456402 0.000000
0.310552 0.457147 0.000000
0.346049 0.457892 0.000000
0.381008 0.458636 0.000000
0.415491 0.459380 0.000000
0.449549 0.460124 0.000000
0.483225 0.460868 0.000000
0.516551 0.461612 0.000000
0.549558 0.462355 0.000000
0.582270 0.463099 0.000000
0.614709 0.463842 0.000000
0.646892 0.464585 0.000000
0.678837 0.465327 0.000000
0.710558 0.466070 0.000000
0.742068 0.466812 0.000000
0.773379 0.467555 0.000000
0.804500 0.468297 0.000000
0.835442 0.469039 0.000000
0.866213 0.469780 0.000000
0.896821 0.470522 0.000000
0.927272 0.471263 0.000000
0.957575 0.472004 0.000000
0.987734 0.472745 0.000000
1.000000 0.473486 0.000000
1.000000 0.474227 0.000000
1.000000 0.474967 0.000000
0.000000 0.483706 0.000000
0.029669 0.484445 0.000000
0.076524 0.485183 0.000000
0.119131 0.485921 0.000000
0.159515 0.486658 0.000000
0.198402 0.487396 0.000000
0.236170 0.488133 0.000000
0.273049 0.488871 0.000000
0.309193 0.489608 0.000000
0.344713 0.490345 0.000000
0.379690 0.491082 0.000000
0.414191 0.491818 0.000000
0.448264 0.492555 0.000000
0.481954 0.493291 0.000000
0.515293 0.494027 0.000000
0.548312 0.494763 0.000000
0.581034 0.495499 0.000000
0.613483 0.496234 0.000000
0.645676 0.496970 0.000000
0.677630 0.497705 0.000000
0.709359 0.498440 0.000000
0.740877 0.499175 0.000000
0.772194 0.499910 0.000000
0.803323 0.500645 0.000000
0.834271 0.501379 0.000000
0.865048 0.502114 0.000000
0.895662 0.502848 0.000000
0.926120 0.503582 0.000000
0.956428 0.504316 0.000000
0.986592 0.505049 0.000000
1.000000 0.505783 0.000000
1.000000 0.506516 0.000000
1.000000 0.507249 0.000000
0.000000 0.515903 0.000000
0.027728 0.516635 0.000000
0.074845 0.517366 0.000000
0.117562 0.518097 0.000000
0.158013 0.518827 0.000000
0.196949 0.519558 0.000000
0.234755 0.520288 0.000000
0.271664 0.521019 0.000000
0.307834 0.521749 0.000000
0.343376 0.522479 0.000000
0.378373 0.523208 0.000000
0.412890 0.523938 0.000000
0.446979 0.524668 0.000000
0.480682 0.525397 0.000000
0.514034 0.526126 0.000000
0.547064 0.526855 0.000000
0.579798 0.527584 0.000000
0.612257 0.528313 0.000000
0.644459 0.529041 0.000000
0.676421 0.529770 0.000000
0.708159 0.530498 0.000000
0.739685 0.531226 0.000000
0.771010 0.531954 0.000000
0.802145 0.532682 0.000000
0.833100 0.533410 0.000000
0.863884 0.534137 0.000000
0.894504 0.534865 0.000000
0.924967 0.535592 0.000000
0.955281 0.536319 0.000000
0.985450 0.537046 0.000000
1.000000 0.537773 0.000000
1.000000 0.538499 0.000000
1.000000 0.539226 0.000000
0.000000 0.547802 0.000000
0.025766 0.548526 0.000000
0.073161 0.549251 0.000000
0.115989 0.549975 0.000000
0.156509 0.550699 0.000000
0.195494 0.551424 0.000000
0.233338 0.552147 0.000000
0.270278 0.552871 0.000000
0.306474 0.553595 0.000000
0.342038 0.554318 0.000000
0.377054 0.555042 0.000000
0.411588 0.555765 0.000000
0.445693 0.556488 0.000000
0.479410 0.557211 0.000000
0.512775 0.557934 0.000000
0.545817 0.558656 0.000000
0.578561 0.559379 0.000000
0.611030 0.560101 0.000000
0.643242 0.560824 0.000000
0.675213 0.561546 0.000000
0.706959 0.562268 0.000000
0.738492 0.562989 0.000000
0.769825 0.563711 0.000000
0.800967 0.564433 0.000000
0.831929 0.565154 0.000000
0.862719 0.565875 0.000000
0.893345 0.566596 0.000000
0.923814 0.567317 0.000000
0.954133 0.568038 0.000000
0.984308 0.568759 0.000000
1.000000 0.569480 0.000000
1.000000 0.570200 0.000000
1.000000 0.570920 0.000000
0.000000 0.579424 0.000000
0.023782 0.580142 0.000000
0.071472 0.580861 0.000000
0.114413 0.581579 0.000000
0.155003 0.582297 0.000000
0.194038 0.583015 0.000000
0.231920 0.583733 0.000000
0.268891 0.584451 0.000000
0.305113 0.585168 0.000000
0.340699 0.585886 0.000000
0.375735 0.586603 0.000000
0.410286 0.587321 0.000000
0.444406 0.588038 0.000000
0.478137 0.588755 0.000000
0.511515 0.589472 0.000000
0.544569 0.590188 0.000000
0.577324 0.590905 0.000000
0.609803 0.591621 0.000000
0.642024 0.592338 0.000000
0.674004 0.593054 0.000000
0.705758 0.593770 0.000000
0.737300 0.594486 0.000000
0.768640 0.595202 0.000000
0.799789 0.595917 0.000000
0.830758 0.596633 0.000000
0.861554 0.597348 0.000000
0.892186 0.598064 0.000000
0.922661 0.598779 0.000000
0.952986 0.599494 0.000000
0.983166 0.600209 0.000000
1.000000 0.600924 0.000000
1.000000 0.601638 0.000000
1.000000 0.602353 0.000000
0.000000 0.610789 0.000000
0.021772 0.611502 0.000000
0.069776 0.612214 0.000000
0.112834 0.612927 0.000000
0.153495 0.613640 0.000000
0.192580 0.614352 0.000000
0.230501 0.615064 0.000000
0.267503 0.615776 0.000000
0.303751 0.616488 0.000000
0.339359 0.617200 0.000000
0.374415 0.617912 0.000000
0.408984 0.618624 0.000000
0.443119 0.619335 0.000000
0.476864 0.620047 0.000000
0.510255 0.620758 0.000000
0.543320 0.621469 0.000000
0.576087 0.622180 0.000000
0.608575 0.622891 0.000000
0.640806 0.623602 0.000000
0.672795 0.624313 0.000000
0.704558 0.625024 0.000000
0.736107 0.625734 0.000000
0.767454 0.626444 0.000000
0.798611 0.627155 0.000000
0.829586 0.627865 0.000000
0.860389 0.628575 0.000000
0.891027 0.629284 0.000000
0.921507 0.629994 0.000000
0.951838 0.630704 0.000000
0.982024 0.631413 0.000000
1.000000 0.632123 0.000000
1.000000 0.632832 0.000000
1.000000 0.633541 0.000000
0.000000 0.641914 0.000000
0.019734 0.642621 0.000000
0.068074 0.643329 0.000000
0.111252 0.644036 0.000000
0.151984 0.644744 0.000000
0.191120 0.645451 0.000000
0.229080 0.646158 0.000000
0.266114 0.646865 0.000000
0.302388 0.647571 0.000000
0.338019 0.648278 0.000000
0.373094 0.648985 0.000000
0.407680 0.649691 0.000000
0.441831 0.650398 0.000000
0.475591 0.651104 0.000000
0.508994 0.651810 0.000000
0.542072 0.652516 0.000000
0.574849 0.653222 0.000000
0.607348 0.653928 0.000000
0.639588 0.654633 0.000000
0.671586 0.655339 0.000000
0.703357 0.656044 0.000000
0.734914 0.656750 0.000000
0.766269 0.657455 0.000000
0.797432 0.658160 0.000000
0.828414 0.658865 0.000000
0.859223 0.659570 0.000000
0.889867 0.660274 0.000000
0.920354 0.660979 0.000000
0.950690 0.661684 0.000000
0.980881 0.662388 0.000000
1.000000 0.663092 0.000000
1.000000 0.663797 0.000000
1.000000 0.664501 0.000000
0.000000 0.672814 0.000000
0.017664 0.673517 0.000000
0.066366 0.674219 0.000000
0.109667 0.674922 0.000000
0.150472 0.675624 0.000000
0.189659 0.676326 0.000000
0.227658 0.677028 0.000000
0.264724 0.677730 0.000000
0.301024 0.678432 0.000000
0.336678 0.679134 0.000000
0.371772 0.679836 0.000000
0.406376 0.680537 0.000000
0.440543 0.681239 0.000000
0.474317 0.681940 0.000000
0.507733 0.682641 0.000000
0.540822 0.683342 0.000000
0.573610 0.684043 0.000000
0.606120 0.684744 0.000000
0.638369 0.685445 0.000000
0.670376 0.686146 0.000000
0.702155 0.686846 0.000000
0.733720 0.687547 0.000000
0.765083 0.688247 0.000000
0.796253 0.688948 0.000000
0.827242 0.689648 0.000000
0.858057 0.690348 0.000000
0.888707 0.691048 0.000000
0.919200 0.691748 0.000000
0.949541 0.692447 0.000000
0.979738 0.693147 0.000000
1.000000 0.693846 0.000000
1.000000 0.694546 0.000000
1.000000 0.695245 0.000000
0.000000 0.703503 0.000000
0.015557 0.704201 0.000000
0.064651 0.704899 0.000000
0.108077 0.705596 0.000000
0.148957 0.706294 0.000000
0.188196 0.706992 0.000000
0.226234 0.707689 0.000000
0.263332 0.708386 0.000000
0.299659 0.709084 0.000000
0.335336 0.709781 0.000000
0.370450 0.710478 0.000000
0.405072 0.711175 0.000000
0.439254 0.711872 0.000000
0.473042 0.712568 0.000000
0.506471 0.713265 0.000000
0.539573 0.713961 0.000000
0.572372 0.714658 0.000000
0.604891 0.715354 0.000000
0.637150 0.716050 0.000000
0.669166 0.716747 0.000000
0.700954 0.717443 0.000000
0.732526 0.718139 0.000000
0.763896 0.718834 0.000000
0.795074 0.719530 0.000000
0.826069 0.720226 0.000000
0.856891 0.720921 0.000000
0.887548 0.721617 0.000000
0.918046 0.722312 0.000000
0.948393 0.723007 0.000000
0.978595 0.723702 0.000000
1.000000 0.724397 0.000000
1.000000 0.725092 0.000000
1.000000 0.725787 0.000000
0.000000 0.733992 0.000000
0.013406 0.734685 0.000000
0.062929 0.735379 0.000000
0.106485 0.736072 0.000000
0.147439 0.736765 0.000000
0.186731 0.737459 0.000000
0.224810 0.738152 0.000000
0.261940 0.738845 0.000000
0.298294 0.739538 0.000000
0.333993 0.740230 0.000000
0.369127 0.740923 0.000000
0.403767 0.741616 0.000000
0.437965 0.742308 0.000000
0.471767 0.743000 0.000000
0.505209 0.743693 0.000000
0.538322 0.744385 0.000000
0.571132 0.745077 0.000000
0.603662 0.745769 0.000000
0.635931 0.746461 0.000000
0.667956 0.747153 0.000000
0.699752 0.747844 0.000000
0.731332 0.748536 0.000000
0.762710 0.749227 0.000000
0.793895 0.749919 0.000000
0.824897 0.750610 0.000000
0.855725 0.751301 0.000000
0.886387 0.751993 0.000000
0.916892 0.752684 0.000000
0.947244 0.753375 0.000000
0.977452 0.754065 0.000000
1.000000 0.754756 0.000000
1.000000 0.755447 0.000000
1.000000 0.756137 0.000000
0.000000 0.764292 0.000000
0.011202 0.764982 0.000000
0.061200 0.765671 0.000000
0.104889 0.766360 0.000000
0.145920 0.767049 0.000000
0.185264 0.767738 0.000000
0.223384 0.768427 0.000000
0.260546 0.769116 0.000000
0.296927 0.769804 0.000000
0.332649 0.770493 0.000000
0.367804 0.771182 0.000000
0.402461 0.771870 0.000000
0.436675 0.772558 0.000000
0.470491 0.773247 0.000000
0.503947 0.773935 0.000000
0.537072 0.774623 0.000000
0.569893 0.775311 0.000000
0.602433 0.775999 0.000000
0.634711 0.776686 0.000000
0.666745 0.777374 0.000000
0.698549 0.778062 0.000000
0.730138 0.778749 0.000000
0.761523 0.779437 0.000000
0.792715 0.780124 0.000000
0.823724 0.780811 0.000000
0.854558 0.781498 0.000000
0.885227 0.782185 0.000000
0.915737 0.782872 0.000000
0.946096 0.783559 0.000000
0.976308 0.784246 0.000000
1.000000 0.784933 0.000000
1.000000 0.785619 0.000000
1.000000 0.786306 0.000000
0.000000 0.794413 0.000000
0.008930 0.795099 0.000000
0.059464 0.795784 0.000000
0.103289 0.796469 0.000000
0.144398 0.797154 0.000000
0.183796 0.797839 0.000000
0.221956 0.798524 0.000000
0.259151 0.799209 0.000000
0.295559 0.799894 0.000000
0.331305 0.800578 0.000000
0.366480 0.801263 0.000000
0.401154 0.801948 0.000000
0.435385 0.802632 0.000000
0.469215 0.803316 0.000000
0.502684 0.804000 0.000000
0.535821 0.804685 0.000000
0.568653 0.805369 0.000000
0.601203 0.806053 0.000000
0.633491 0.806737 0.000000
0.665534 0.807420 0.000000
0.697347 0.808104 0.000000
0.728943 0.808788 0.000000
0.760336 0.809471 0.000000
0.791535 0.810155 0.000000
0.822550 0.810838 0.000000
0.853392 0.811521 0.000000
0.884066 0.812204 0.000000
0.914582 0.812888 0.000000
0.944946 0.813571 0.000000
0.975165 0.814253 0.000000
1.000000 0.814936 0.000000
1.000000 0.815619 0.000000
1.000000 0.816302 0.000000
0.000000 0.824364 0.000000
0.006567 0.825046 0.000000
0.057720 0.825727 0.000000
0.101685 0.826409 0.000000
0.142873 0.827090 0.000000
0.182326 0.827771 0.000000
0.220528 0.828452 0.000000
0.257756 0.829133 0.000000
0.294191 0.829814 0.000000
0.329960 0.830495 0.000000
0.365155 0.831176 0.000000
0.399847 0.831857 0.000000
0.434093 0.832537 0.000000
0.467939 0.833218 0.000000
0.501420 0.833898 0.000000
0.534569 0.834579 0.000000
0.567413 0.835259 0.000000
0.599973 0.835939 0.000000
0.632271 0.836620 0.000000
0.664322 0.837300 0.000000
0.696144 0.837980 0.000000
0.727748 0.838660 0.000000
0.759148 0.839339 0.000000
0.790355 0.840019 0.000000
0.821377 0.840699 0.000000
0.852225 0.841378 0.000000
0.882906 0.842058 0.000000
0.913428 0.842737 0.000000
0.943797 0.843417 0.000000
0.974021 0.844096 0.000000
1.000000 0.844775 0.000000
1.000000 0.845454 0.000000
1.000000 0.846133 0.000000
0.000000 0.854152 0.000000
0.004064 0.854830 0.000000
0.055968 0.855508 0.000000
0.100078 0.856186 0.000000
0.141346 0.856864 0.000000
0.180855 0.857541 0.000000
0.219097 0.858219 0.000000
0.256359 0.858896 0.000000
0.292821 0.859574 0.000000
0.328614 0.860251 0.000000
0.363829 0.860928 0.000000
0.398540 0.861606 0.000000
0.432802 0.862283 0.000000
0.466661 0.862960 0.000000
0.500156 0.863637 0.000000
0.533317 0.864313 0.000000
0.566172 0.864990 0.000000
0.598743 0.865667 0.000000
0.631050 0.866343 0.000000
0.663111 0.867020 0.000000
0.694941 0.867696 0.000000
0.726553 0.868373 0.000000
0.757961 0.869049 0.000000
0.789174 0.869725 0.000000
0.820203 0.870401 0.000000
0.851057 0.871077 0.000000
0.881745 0.871753 0.000000
0.912272 0.872429 0.000000
0.942648 0.873105 0.000000
0.972877 0.873781 0.000000
1.000000 0.874456 0.000000
1.000000 0.875132 0.000000
1.000000 0.875808 0.000000
0.000000 0.883786 0.000000
0.001275 0.884460 0.000000
0.054208 0.885135 0.000000
0.098466 0.885809 0.000000
0.139817 0.886483 0.000000
0.179381 0.887157 0.000000
0.217666 0.887832 0.000000
0.254960 0.888506 0.000000
0.291451 0.889180 0.000000
0.327267 0.889853 0.000000
0.362503 0.890527 0.000000
0.397231 0.891201 0.000000
0.431509 0.891875 0.000000
0.465384 0.892548 0.000000
0.498892 0.893222 0.000000
0.532065 0.893895 0.000000
0.564931 0.894569 0.000000
0.597512 0.895242 0.000000
0.629829 0.895915 0.000000
0.661899 0.896588 0.000000
0.693737 0.897261 0.000000
0.725358 0.897934 0.000000
0.756773 0.898607 0.000000
0.787993 0.899280 0.000000
0.819029 0.899953 0.000000
