presets/film_stocks/Kodak_EXR_100T_5248.cube
# 独寻胶片模拟 -- Kodak EXR 100T 5248
# Kodak, ISO 100, 1990, negative
TITLE "Kodak EXR 100T 5248"
LUT_3D_SIZE 5
DOMAIN_MIN 0.0 0.0 0.0
DOMAIN_MAX 1.0 1.0 1.0
0.000000 0.000000 0.000000
0.316018 0.005754 0.000000
0.611515 0.011135 0.000000
0.899732 0.016383 0.000000
1.000000 0.021546 0.000000
0.000000 0.294714 0.000000
0.299748 0.299214 0.000000
0.595783 0.303710 0.000000
0.884304 0.308202 0.000000
1.000000 0.312692 0.000000
0.000000 0.570291 0.000000
0.283433 0.574645 0.000000
0.580031 0.578997 0.000000
0.868863 0.583348 0.000000
1.000000 0.587697 0.000000
0.000000 0.839078 0.000000
0.267071 0.843349 0.000000
0.564257 0.847619 0.000000
0.853408 0.851888 0.000000
1.000000 0.856156 0.000000
0.000000 1.000000 0.000000
0.250659 1.000000 0.000000
0.548460 1.000000 0.000000
0.837939 1.000000 0.000000
1.000000 1.000000 0.000000
0.000000 0.000000 0.275833
0.283422 0.000000 0.270712
0.580020 0.000000 0.265587
0.868853 0.000000 0.260457
1.000000 0.000000 0.255322
0.000000 0.262535 0.272184
0.267060 0.267060 0.267060
0.564246 0.271582 0.261932
0.853398 0.276100 0.256798
1.000000 0.280614 0.251659
0.000000 0.539201 0.268533
0.250648 0.543568 0.263406
0.548450 0.547932 0.258273
0.837930 0.552295 0.253136
1.000000 0.556656 0.247993
0.000000 0.808597 0.264880
0.234182 0.812876 0.259749
0.532631 0.817154 0.254613
0.822446 0.821431 0.249472
1.000000 0.825707 0.244325
0.000000 1.000000 0.261224
0.217658 1.000000 0.256089
0.516789 1.000000 0.250949
0.806949 1.000000 0.245804
1.000000 1.000000 0.240654
0.000000 0.000000 0.533754
0.250638 0.000000 0.528801
0.548440 0.000000 0.523846
0.837920 0.000000 0.518888
1.000000 0.000000 0.513928
0.000000 0.230157 0.530225
0.234171 0.234712 0.525270
0.532621 0.239262 0.520313
0.822437 0.243809 0.515354
1.000000 0.248351 0.510392
0.000000 0.508022 0.526694
0.217647 0.512401 0.521738
0.516779 0.516779 0.516779
0.806939 0.521154 0.511818
1.000000 0.525528 0.506854
0.000000 0.778059 0.523162
0.201060 0.782347 0.518204
0.500912 0.786633 0.513244
0.791426 0.790918 0.508281
1.000000 0.795201 0.503316
0.000000 1.000000 0.519629
0.184404 1.000000 0.514669
0.485020 1.000000 0.509707
0.775898 1.000000 0.504743
1.000000 1.000000 0.499776
0.000000 0.000000 0.785321
0.217637 0.000000 0.780463
0.516769 0.000000 0.775604
0.806929 0.000000 0.770743
1.000000 0.000000 0.765880
0.000000 0.197549 0.781859
0.201049 0.202138 0.777000
0.500902 0.206723 0.772140
0.791416 0.211302 0.767278
1.000000 0.215876 0.762414
0.000000 0.476747 0.778397
0.184393 0.481140 0.773537
0.485010 0.485531 0.768675
0.775888 0.489920 0.763812
1.000000 0.494308 0.758947
0.000000 0.747461 0.774933
0.167661 0.751757 0.770072
0.469092 0.756052 0.765209
0.760345 0.760345 0.760345
1.000000 0.764637 0.755479
0.000000 1.000000 0.771469
0.150845 1.000000 0.766607
0.453147 1.000000 0.761743
0.744786 1.000000 0.756878
1.000000 1.000000 0.752011
0.000000 0.000000 1.000000
0.184382 0.000000 1.000000
0.485000 0.000000 1.000000
0.775879 0.000000 1.000000
1.000000 0.000000 1.000000
0.000000 0.164668 1.000000
0.167650 0.169299 1.000000
0.469082 0.173923 1.000000
0.760335 0.178542 1.000000
1.000000 0.183154 1.000000
0.000000 0.445369 1.000000
0.150834 0.449777 1.000000
0.453137 0.454183 1.000000
0.744776 0.458586 1.000000
1.000000 0.462988 1.000000
0.000000 0.716800 1.000000
0.133924 0.721105 1.000000
0.437163 0.725409 1.000000
0.729200 0.729711 1.000000
1.000000 0.734012 1.000000
0.000000 0.983055 1.000000
0.116905 0.987293 1.000000
0.421161 0.991529 1.000000
0.713608 0.995765 1.000000
1.000000 1.000000 1.000000
