presets/film_stocks/Kodak_Vision3_50D_5203.cube
# 独寻胶片模拟 -- Kodak Vision3 50D 5203
# Kodak, ISO 50, 2011, negative
TITLE "Kodak Vision3 50D 5203"
LUT_3D_SIZE 33
DOMAIN_MIN 0.0 0.0 0.0
DOMAIN_MAX 1.0 1.0 1.0
0.000000 0.000000 0.000000
0.056734 0.002120 0.000000
0.102596 0.003834 0.000000
0.145089 0.005422 0.000000
0.185533 0.006934 0.000000
0.224517 0.008390 0.000000
0.262377 0.009805 0.000000
0.299327 0.011186 0.000000
0.335515 0.012539 0.000000
0.371049 0.013866 0.000000
0.406014 0.015173 0.000000
0.440473 0.016461 0.000000
0.474479 0.017732 0.000000
0.508075 0.018987 0.000000
0.541298 0.020229 0.000000
0.574177 0.021458 0.000000
0.606739 0.022674 0.000000
0.639007 0.023880 0.000000
0.671000 0.025076 0.000000
0.702735 0.026262 0.000000
0.734229 0.027439 0.000000
0.765494 0.028607 0.000000
0.796544 0.029768 0.000000
0.827389 0.030920 0.000000
0.858040 0.032066 0.000000
0.888506 0.033204 0.000000
0.918795 0.034336 0.000000
0.948916 0.035462 0.000000
0.978875 0.036581 0.000000
1.000000 0.037695 0.000000
1.000000 0.038803 0.000000
1.000000 0.039906 0.000000
1.000000 0.041004 0.000000
0.000000 0.055065 0.000000
0.054831 0.056105 0.000000
0.100878 0.057142 0.000000
0.143471 0.058176 0.000000
0.183981 0.059206 0.000000
0.223015 0.060233 0.000000
0.260915 0.061258 0.000000
0.297897 0.062279 0.000000
0.334112 0.063298 0.000000
0.369671 0.064314 0.000000
0.404656 0.065327 0.000000
0.439134 0.066338 0.000000
0.473157 0.067345 0.000000
0.506768 0.068351 0.000000
0.540005 0.069354 0.000000
0.572897 0.070354 0.000000
0.605471 0.071352 0.000000
0.637750 0.072347 0.000000
0.669753 0.073341 0.000000
0.701498 0.074332 0.000000
0.733001 0.075320 0.000000
0.764275 0.076307 0.000000
0.795333 0.077291 0.000000
0.826186 0.078274 0.000000
0.856845 0.079254 0.000000
0.887318 0.080232 0.000000
0.917614 0.081208 0.000000
0.947741 0.082182 0.000000
0.977706 0.083154 0.000000
1.000000 0.084124 0.000000
1.000000 0.085093 0.000000
1.000000 0.086059 0.000000
1.000000 0.087024 0.000000
0.000000 0.099579 0.000000
0.052918 0.100520 0.000000
0.099156 0.101460 0.000000
0.141849 0.102398 0.000000
0.182427 0.103335 0.000000
0.221511 0.104270 0.000000
0.259450 0.105204 0.000000
0.296465 0.106136 0.000000
0.332708 0.107067 0.000000
0.368291 0.107997 0.000000
0.403297 0.108925 0.000000
0.437794 0.109852 0.000000
0.471834 0.110778 0.000000
0.505461 0.111702 0.000000
0.538712 0.112625 0.000000
0.571617 0.113547 0.000000
0.604203 0.114467 0.000000
0.636493 0.115386 0.000000
0.668506 0.116304 0.000000
0.700261 0.117221 0.000000
0.731773 0.118136 0.000000
0.763056 0.119051 0.000000
0.794122 0.119964 0.000000
0.824983 0.120876 0.000000
0.855649 0.121786 0.000000
0.886129 0.122696 0.000000
0.916432 0.123604 0.000000
0.946565 0.124512 0.000000
0.976536 0.125418 0.000000
1.000000 0.126323 0.000000
1.000000 0.127227 0.000000
1.000000 0.128130 0.000000
1.000000 0.129032 0.000000
0.000000 0.140823 0.000000
0.050992 0.141711 0.000000
0.097428 0.142597 0.000000
0.140224 0.143483 0.000000
0.180870 0.144368 0.000000
0.220006 0.145251 0.000000
0.257985 0.146134 0.000000
0.295033 0.147016 0.000000
0.331304 0.147897 0.000000
0.366910 0.148777 0.000000
0.401938 0.149657 0.000000
0.436453 0.150535 0.000000
0.470510 0.151412 0.000000
0.504153 0.152289 0.000000
0.537417 0.153165 0.000000
0.570336 0.154040 0.000000
0.602934 0.154914 0.000000
0.635235 0.155787 0.000000
0.667259 0.156660 0.000000
0.699024 0.157531 0.000000
0.730545 0.158402 0.000000
0.761836 0.159272 0.000000
0.792911 0.160141 0.000000
0.823779 0.161010 0.000000
0.854453 0.161877 0.000000
0.884940 0.162744 0.000000
0.915250 0.163610 0.000000
0.945389 0.164475 0.000000
0.975367 0.165340 0.000000
1.000000 0.166203 0.000000
1.000000 0.167066 0.000000
1.000000 0.167928 0.000000
1.000000 0.168790 0.000000
0.000000 0.180077 0.000000
0.049054 0.180929 0.000000
0.095695 0.181779 0.000000
0.138596 0.182629 0.000000
0.179312 0.183478 0.000000
0.218498 0.184327 0.000000
0.256518 0.185175 0.000000
0.293599 0.186022 0.000000
0.329898 0.186869 0.000000
0.365529 0.187715 0.000000
0.400577 0.188560 0.000000
0.435112 0.189405 0.000000
0.469186 0.190249 0.000000
0.502844 0.191092 0.000000
0.536123 0.191935 0.000000
0.569054 0.192777 0.000000
0.601664 0.193618 0.000000
0.633976 0.194459 0.000000
0.666011 0.195300 0.000000
0.697786 0.196139 0.000000
0.729316 0.196978 0.000000
0.760616 0.197817 0.000000
0.791699 0.198655 0.000000
0.822576 0.199492 0.000000
0.853256 0.200328 0.000000
0.883751 0.201164 0.000000
0.914067 0.202000 0.000000
0.944214 0.202835 0.000000
0.974197 0.203669 0.000000
1.000000 0.204503 0.000000
1.000000 0.205336 0.000000
1.000000 0.206168 0.000000
1.000000 0.207000 0.000000
0.000000 0.217916 0.000000
0.047103 0.218740 0.000000
0.093957 0.219563 0.000000
0.136965 0.220387 0.000000
0.177751 0.221209 0.000000
0.216989 0.222031 0.000000
0.255049 0.222853 0.000000
0.292164 0.223674 0.000000
0.328491 0.224494 0.000000
0.364146 0.225315 0.000000
0.399216 0.226134 0.000000
0.433770 0.226953 0.000000
0.467861 0.227772 0.000000
0.501535 0.228590 0.000000
0.534828 0.229407 0.000000
0.567772 0.230224 0.000000
0.600394 0.231041 0.000000
0.632718 0.231857 0.000000
0.664763 0.232672 0.000000
0.696547 0.233487 0.000000
0.728087 0.234302 0.000000
0.759396 0.235116 0.000000
0.790487 0.235930 0.000000
0.821372 0.236743 0.000000
0.852060 0.237556 0.000000
0.882561 0.238368 0.000000
0.912884 0.239179 0.000000
0.943037 0.239991 0.000000
0.973027 0.240802 0.000000
1.000000 0.241612 0.000000
1.000000 0.242422 0.000000
1.000000 0.243231 0.000000
1.000000 0.244040 0.000000
0.000000 0.254662 0.000000
0.045138 0.255465 0.000000
0.092213 0.256267 0.000000
0.135330 0.257069 0.000000
0.176187 0.257870 0.000000
0.215478 0.258671 0.000000
0.253579 0.259472 0.000000
0.290728 0.260272 0.000000
0.327083 0.261072 0.000000
0.362763 0.261871 0.000000
0.397855 0.262670 0.000000
0.432427 0.263468 0.000000
0.466536 0.264267 0.000000
0.500225 0.265064 0.000000
0.533532 0.265861 0.000000
0.566490 0.266658 0.000000
0.599124 0.267455 0.000000
0.631459 0.268251 0.000000
0.663514 0.269046 0.000000
0.695309 0.269842 0.000000
0.726858 0.270636 0.000000
0.758175 0.271431 0.000000
0.789275 0.272225 0.000000
0.820167 0.273019 0.000000
0.850863 0.273812 0.000000
0.881371 0.274605 0.000000
0.911701 0.275397 0.000000
0.941861 0.276189 0.000000
0.971857 0.276981 0.000000
1.000000 0.277772 0.000000
1.000000 0.278563 0.000000
1.000000 0.279354 0.000000
1.000000 0.280144 0.000000
0.000000 0.290525 0.000000
0.043159 0.291310 0.000000
0.090464 0.292095 0.000000
0.133692 0.292879 0.000000
0.174622 0.293663 0.000000
0.213965 0.294447 0.000000
0.252108 0.295230 0.000000
0.289290 0.296012 0.000000
0.325674 0.296795 0.000000
0.361379 0.297577 0.000000
0.396492 0.298359 0.000000
0.431084 0.299140 0.000000
0.465209 0.299921 0.000000
0.498914 0.300702 0.000000
0.532236 0.301482 0.000000
0.565206 0.302262 0.000000
0.597853 0.303042 0.000000
0.630199 0.303821 0.000000
0.662265 0.304600 0.000000
0.694070 0.305379 0.000000
0.725628 0.306157 0.000000
0.756954 0.306935 0.000000
0.788062 0.307713 0.000000
0.818962 0.308490 0.000000
0.849666 0.309267 0.000000
0.880181 0.310044 0.000000
0.910518 0.310820 0.000000
0.940684 0.311596 0.000000
0.970687 0.312372 0.000000
1.000000 0.313147 0.000000
1.000000 0.313922 0.000000
1.000000 0.314697 0.000000
1.000000 0.315471 0.000000
0.000000 0.325649 0.000000
0.041164 0.326419 0.000000
0.088709 0.327189 0.000000
0.132051 0.327958 0.000000
0.173054 0.328727 0.000000
0.212451 0.329495 0.000000
0.250635 0.330264 0.000000
0.287851 0.331032 0.000000
0.324264 0.331800 0.000000
0.359994 0.332567 0.000000
0.395129 0.333334 0.000000
0.429740 0.334101 0.000000
0.463883 0.334867 0.000000
0.497603 0.335634 0.000000
0.530939 0.336400 0.000000
0.563923 0.337165 0.000000
0.596582 0.337931 0.000000
0.628939 0.338696 0.000000
0.661016 0.339460 0.000000
0.692830 0.340225 0.000000
0.724398 0.340989 0.000000
0.755733 0.341753 0.000000
0.786849 0.342516 0.000000
0.817757 0.343280 0.000000
0.848468 0.344043 0.000000
0.878991 0.344805 0.000000
0.909335 0.345568 0.000000
0.939507 0.346330 0.000000
0.969516 0.347092 0.000000
0.999367 0.347853 0.000000
1.000000 0.348615 0.000000
1.000000 0.349376 0.000000
1.000000 0.350137 0.000000
0.000000 0.360139 0.000000
0.039152 0.360896 0.000000
0.086948 0.361652 0.000000
0.130406 0.362409 0.000000
0.171483 0.363165 0.000000
0.210934 0.363920 0.000000
0.249161 0.364676 0.000000
0.286412 0.365431 0.000000
0.322854 0.366186 0.000000
0.358608 0.366941 0.000000
0.393764 0.367695 0.000000
0.428395 0.368449 0.000000
0.462555 0.369203 0.000000
0.496291 0.369957 0.000000
0.529642 0.370710 0.000000
0.562639 0.371463 0.000000
0.595310 0.372216 0.000000
0.627679 0.372969 0.000000
0.659766 0.373721 0.000000
0.691590 0.374473 0.000000
0.723167 0.375225 0.000000
0.754512 0.375977 0.000000
0.785636 0.376728 0.000000
0.816552 0.377479 0.000000
0.847270 0.378230 0.000000
0.877800 0.378980 0.000000
0.908151 0.379731 0.000000
0.938330 0.380481 0.000000
0.968345 0.381230 0.000000
0.998203 0.381980 0.000000
1.000000 0.382729 0.000000
1.000000 0.383478 0.000000
1.000000 0.384227 0.000000
0.000000 0.394075 0.000000
0.037122 0.394820 0.000000
0.085180 0.395566 0.000000
0.128758 0.396310 0.000000
0.169910 0.397055 0.000000
0.209416 0.397799 0.000000
0.247685 0.398544 0.000000
0.284970 0.399287 0.000000
0.321442 0.400031 0.000000
0.357221 0.400775 0.000000
0.392399 0.401518 0.000000
0.427049 0.402261 0.000000
0.461227 0.403004 0.000000
0.494979 0.403746 0.000000
0.528344 0.404488 0.000000
0.561354 0.405230 0.000000
0.594038 0.405972 0.000000
0.626418 0.406714 0.000000
0.658516 0.407455 0.000000
0.690350 0.408196 0.000000
0.721937 0.408937 0.000000
0.753290 0.409678 0.000000
0.784422 0.410418 0.000000
0.815346 0.411158 0.000000
0.846072 0.411898 0.000000
0.876610 0.412638 0.000000
0.906967 0.413378 0.000000
0.937153 0.414117 0.000000
0.967174 0.414856 0.000000
0.997037 0.415595 0.000000
1.000000 0.416334 0.000000
1.000000 0.417072 0.000000
1.000000 0.417810 0.000000
0.000000 0.427521 0.000000
0.035074 0.428256 0.000000
0.083407 0.428991 0.000000
0.127106 0.429726 0.000000
0.168335 0.430460 0.000000
0.207896 0.431194 0.000000
0.246208 0.431928 0.000000
0.283528 0.432662 0.000000
0.320029 0.433396 0.000000
0.355833 0.434129 0.000000
0.391034 0.434862 0.000000
0.425703 0.435595 0.000000
0.459898 0.436328 0.000000
0.493666 0.437061 0.000000
0.527046 0.437793 0.000000
0.560069 0.438525 0.000000
0.592765 0.439257 0.000000
0.625157 0.439989 0.000000
0.657265 0.440720 0.000000
0.689110 0.441452 0.000000
0.720705 0.442183 0.000000
0.752067 0.442914 0.000000
0.783208 0.443644 0.000000
0.814140 0.444375 0.000000
0.844874 0.445105 0.000000
0.875418 0.445835 0.000000
0.905783 0.446565 0.000000
0.935975 0.447295 0.000000
0.966002 0.448024 0.000000
0.995872 0.448753 0.000000
1.000000 0.449483 0.000000
1.000000 0.450211 0.000000
1.000000 0.450940 0.000000
0.000000 0.460527 0.000000
0.033005 0.461253 0.000000
0.081627 0.461979 0.000000
0.125450 0.462704 0.000000
0.166757 0.463430 0.000000
0.206374 0.464155 0.000000
0.244729 0.464880 0.000000
0.282085 0.465604 0.000000
0.318614 0.466329 0.000000
0.354444 0.467053 0.000000
0.389667 0.467777 0.000000
0.424356 0.468501 0.000000
0.458569 0.469225 0.000000
0.492353 0.469949 0.000000
0.525747 0.470672 0.000000
0.558784 0.471395 0.000000
0.591492 0.472118 0.000000
0.623895 0.472841 0.000000
0.656014 0.473564 0.000000
0.687869 0.474286 0.000000
0.719474 0.475008 0.000000
0.750845 0.475730 0.000000
0.781994 0.476452 0.000000
0.812934 0.477174 0.000000
0.843675 0.477895 0.000000
0.874227 0.478617 0.000000
0.904598 0.479338 0.000000
0.934797 0.480059 0.000000
0.964831 0.480780 0.000000
0.994707 0.481500 0.000000
1.000000 0.482221 0.000000
1.000000 0.482941 0.000000
1.000000 0.483661 0.000000
0.000000 0.493136 0.000000
0.030914 0.493853 0.000000
0.079841 0.494571 0.000000
0.123791 0.495288 0.000000
0.165176 0.496005 0.000000
0.204850 0.496721 0.000000
0.243249 0.497438 0.000000
0.280640 0.498154 0.000000
0.317199 0.498871 0.000000
0.353054 0.499587 0.000000
0.388300 0.500303 0.000000
0.423008 0.501018 0.000000
0.457239 0.501734 0.000000
0.491039 0.502449 0.000000
0.524447 0.503165 0.000000
0.557498 0.503880 0.000000
0.590218 0.504594 0.000000
0.622633 0.505309 0.000000
0.654763 0.506024 0.000000
0.686627 0.506738 0.000000
0.718242 0.507452 0.000000
0.749622 0.508166 0.000000
0.780780 0.508880 0.000000
0.811728 0.509594 0.000000
0.842476 0.510307 0.000000
0.873035 0.511021 0.000000
0.903413 0.511734 0.000000
0.933619 0.512447 0.000000
0.963659 0.513159 0.000000
0.993541 0.513872 0.000000
1.000000 0.514585 0.000000
1.000000 0.515297 0.000000
1.000000 0.516009 0.000000
0.000000 0.525381 0.000000
0.028798 0.526091 0.000000
0.078047 0.526801 0.000000
0.122128 0.527510 0.000000
0.163593 0.528220 0.000000
0.203324 0.528929 0.000000
0.241767 0.529638 0.000000
0.279194 0.530347 0.000000
0.315783 0.531055 0.000000
0.351664 0.531764 0.000000
0.386931 0.532472 0.000000
0.421660 0.533180 0.000000
0.455908 0.533888 0.000000
0.489724 0.534596 0.000000
0.523147 0.535304 0.000000
0.556211 0.536012 0.000000
0.588944 0.536719 0.000000
0.621370 0.537426 0.000000
0.653511 0.538133 0.000000
0.685386 0.538840 0.000000
0.717010 0.539547 0.000000
0.748398 0.540254 0.000000
0.779565 0.540960 0.000000
0.810521 0.541666 0.000000
0.841277 0.542373 0.000000
0.871843 0.543079 0.000000
0.902228 0.543784 0.000000
0.932440 0.544490 0.000000
0.962487 0.545196 0.000000
0.992375 0.545901 0.000000
1.000000 0.546606 0.000000
1.000000 0.547311 0.000000
1.000000 0.548016 0.000000
0.000000 0.557294 0.000000
0.026655 0.557997 0.000000
0.076247 0.558699 0.000000
0.120461 0.559402 0.000000
0.162008 0.560104 0.000000
0.201796 0.560806 0.000000
0.240284 0.561508 0.000000
0.277746 0.562210 0.000000
0.314366 0.562912 0.000000
0.350272 0.563613 0.000000
0.385562 0.564315 0.000000
0.420311 0.565016 0.000000
0.454577 0.565717 0.000000
0.488409 0.566418 0.000000
0.521847 0.567119 0.000000
0.554924 0.567819 0.000000
0.587670 0.568520 0.000000
0.620107 0.569220 0.000000
0.652259 0.569920 0.000000
0.684144 0.570620 0.000000
0.715777 0.571320 0.000000
0.747175 0.572020 0.000000
0.778350 0.572720 0.000000
0.809314 0.573419 0.000000
0.840078 0.574119 0.000000
0.870651 0.574818 0.000000
0.901043 0.575517 0.000000
0.931262 0.576216 0.000000
0.961314 0.576914 0.000000
0.991208 0.577613 0.000000
1.000000 0.578312 0.000000
1.000000 0.579010 0.000000
1.000000 0.579708 0.000000
0.000000 0.588899 0.000000
0.024483 0.589595 0.000000
0.074439 0.590291 0.000000
0.118790 0.590987 0.000000
0.160419 0.591682 0.000000
0.200266 0.592378 0.000000
0.238799 0.593074 0.000000
0.276298 0.593769 0.000000
0.312947 0.594464 0.000000
0.348880 0.595159 0.000000
0.384192 0.595854 0.000000
0.418961 0.596549 0.000000
0.453245 0.597244 0.000000
0.487093 0.597938 0.000000
0.520546 0.598632 0.000000
0.553637 0.599327 0.000000
0.586395 0.600021 0.000000
0.618844 0.600715 0.000000
0.651007 0.601409 0.000000
0.682901 0.602102 0.000000
0.714544 0.602796 0.000000
0.745951 0.603489 0.000000
0.777134 0.604183 0.000000
0.808106 0.604876 0.000000
0.838878 0.605569 0.000000
0.869458 0.606262 0.000000
0.899857 0.606954 0.000000
0.930083 0.607647 0.000000
0.960142 0.608340 0.000000
0.990042 0.609032 0.000000
1.000000 0.609724 0.000000
1.000000 0.610416 0.000000
1.000000 0.611108 0.000000
0.000000 0.620217 0.000000
0.022278 0.620907 0.000000
0.072624 0.621597 0.000000
0.117115 0.622287 0.000000
0.158828 0.622977 0.000000
0.198734 0.623666 0.000000
0.237313 0.624356 0.000000
0.274848 0.625045 0.000000
0.311528 0.625734 0.000000
0.347486 0.626423 0.000000
0.382822 0.627112 0.000000
0.417610 0.627801 0.000000
0.451912 0.628490 0.000000
0.485777 0.629178 0.000000
0.519244 0.629867 0.000000
0.552349 0.630555 0.000000
0.585119 0.631243 0.000000
0.617580 0.631931 0.000000
0.649753 0.632619 0.000000
0.681658 0.633307 0.000000
0.713311 0.633994 0.000000
0.744727 0.634682 0.000000
0.775918 0.635369 0.000000
0.806899 0.636056 0.000000
0.837678 0.636744 0.000000
0.868266 0.637431 0.000000
0.898671 0.638117 0.000000
0.928903 0.638804 0.000000
0.958969 0.639491 0.000000
0.988875 0.640177 0.000000
1.000000 0.640864 0.000000
1.000000 0.641550 0.000000
1.000000 0.642236 0.000000
0.000000 0.651269 0.000000
0.020034 0.651954 0.000000
0.070802 0.652638 0.000000
0.115436 0.653322 0.000000
0.157235 0.654006 0.000000
0.197201 0.654690 0.000000
0.235824 0.655374 0.000000
0.273396 0.656057 0.000000
0.310107 0.656741 0.000000
0.346092 0.657424 0.000000
0.381450 0.658108 0.000000
0.416259 0.658791 0.000000
0.450579 0.659474 0.000000
0.484460 0.660157 0.000000
0.517942 0.660840 0.000000
0.551060 0.661522 0.000000
0.583843 0.662205 0.000000
0.616316 0.662887 0.000000
0.648500 0.663570 0.000000
0.680415 0.664252 0.000000
0.712077 0.664934 0.000000
0.743502 0.665616 0.000000
0.774702 0.666298 0.000000
0.805690 0.666979 0.000000
0.836477 0.667661 0.000000
0.867073 0.668342 0.000000
0.897485 0.669024 0.000000
0.927724 0.669705 0.000000
0.957796 0.670386 0.000000
0.987708 0.671067 0.000000
1.000000 0.671748 0.000000
1.000000 0.672429 0.000000
1.000000 0.673110 0.000000
0.000000 0.682072 0.000000
0.017747 0.682751 0.000000
0.068971 0.683429 0.000000
0.113752 0.684108 0.000000
0.155638 0.684787 0.000000
0.195665 0.685466 0.000000
0.234335 0.686144 0.000000
0.271944 0.686822 0.000000
0.308686 0.687501 0.000000
0.344697 0.688179 0.000000
0.380078 0.688857 0.000000
0.414907 0.689535 0.000000
0.449245 0.690212 0.000000
0.483142 0.690890 0.000000
0.516639 0.691567 0.000000
0.549771 0.692245 0.000000
0.582567 0.692922 0.000000
0.615051 0.693599 0.000000
0.647246 0.694277 0.000000
0.679171 0.694953 0.000000
0.710843 0.695630 0.000000
0.742277 0.696307 0.000000
0.773486 0.696984 0.000000
0.804482 0.697660 0.000000
0.835277 0.698337 0.000000
0.865879 0.699013 0.000000
0.896299 0.699689 0.000000
0.926544 0.700365 0.000000
0.956623 0.701041 0.000000
0.986541 0.701717 0.000000
1.000000 0.702393 0.000000
1.000000 0.703069 0.000000
1.000000 0.703744 0.000000
0.000000 0.712639 0.000000
0.015409 0.713313 0.000000
0.067132 0.713987 0.000000
0.112065 0.714661 0.000000
0.154039 0.715334 0.000000
0.194127 0.716008 0.000000
0.232844 0.716681 0.000000
0.270490 0.717355 0.000000
0.307263 0.718028 0.000000
0.343300 0.718701 0.000000
0.378704 0.719374 0.000000
0.413554 0.720047 0.000000
0.447910 0.720720 0.000000
0.481824 0.721392 0.000000
0.515336 0.722065 0.000000
0.548481 0.722737 0.000000
0.581290 0.723410 0.000000
0.613786 0.724082 0.000000
0.645992 0.724754 0.000000
0.677927 0.725426 0.000000
0.709609 0.726098 0.000000
0.741052 0.726770 0.000000
0.772269 0.727442 0.000000
0.803273 0.728113 0.000000
0.834076 0.728785 0.000000
0.864686 0.729456 0.000000
0.895112 0.730128 0.000000
0.925364 0.730799 0.000000
0.955449 0.731470 0.000000
0.985373 0.732141 0.000000
1.000000 0.732812 0.000000
1.000000 0.733483 0.000000
1.000000 0.734153 0.000000
0.000000 0.742985 0.000000
0.013008 0.743654 0.000000
0.065284 0.744323 0.000000
0.110373 0.744992 0.000000
0.152437 0.745661 0.000000
0.192587 0.746330 0.000000
0.231351 0.746999 0.000000
0.269035 0.747668 0.000000
0.305839 0.748336 0.000000
0.341903 0.749004 0.000000
0.377330 0.749673 0.000000
0.412200 0.750341 0.000000
0.446575 0.751009 0.000000
0.480505 0.751677 0.000000
0.514032 0.752345 0.000000
0.547191 0.753013 0.000000
0.580012 0.753680 0.000000
0.612520 0.754348 0.000000
0.644737 0.755016 0.000000
0.676683 0.755683 0.000000
0.708374 0.756350 0.000000
0.739826 0.757017 0.000000
0.771052 0.757685 0.000000
0.802064 0.758352 0.000000
0.832874 0.759018 0.000000
0.863492 0.759685 0.000000
0.893925 0.760352 0.000000
0.924184 0.761019 0.000000
0.954275 0.761685 0.000000
0.984206 0.762351 0.000000
1.000000 0.763018 0.000000
1.000000 0.763684 0.000000
1.000000 0.764350 0.000000
0.000000 0.773122 0.000000
0.010529 0.773787 0.000000
0.063427 0.774451 0.000000
0.108677 0.775116 0.000000
0.150832 0.775780 0.000000
0.191045 0.776444 0.000000
0.229856 0.777109 0.000000
0.267578 0.777773 0.000000
0.304414 0.778437 0.000000
0.340505 0.779101 0.000000
0.375955 0.779765 0.000000
0.410846 0.780428 0.000000
0.445239 0.781092 0.000000
0.479185 0.781756 0.000000
0.512728 0.782419 0.000000
0.545901 0.783083 0.000000
0.578734 0.783746 0.000000
0.611254 0.784409 0.000000
0.643482 0.785072 0.000000
0.675438 0.785735 0.000000
0.707139 0.786398 0.000000
0.738600 0.787061 0.000000
0.769834 0.787723 0.000000
0.800855 0.788386 0.000000
0.831673 0.789049 0.000000
0.862297 0.789711 0.000000
0.892738 0.790373 0.000000
0.923004 0.791036 0.000000
0.953101 0.791698 0.000000
0.983038 0.792360 0.000000
1.000000 0.793022 0.000000
1.000000 0.793684 0.000000
1.000000 0.794345 0.000000
0.000000 0.803060 0.000000
0.007945 0.803721 0.000000
0.061561 0.804381 0.000000
0.106976 0.805041 0.000000
0.149224 0.805701 0.000000
0.189501 0.806361 0.000000
0.228360 0.807021 0.000000
0.266120 0.807681 0.000000
0.302988 0.808341 0.000000
0.339105 0.809001 0.000000
0.374580 0.809660 0.000000
0.409491 0.810320 0.000000
0.443902 0.810979 0.000000
0.477865 0.811639 0.000000
0.511423 0.812298 0.000000
0.544610 0.812957 0.000000
0.577456 0.813616 0.000000
0.609988 0.814275 0.000000
0.642227 0.814934 0.000000
0.674193 0.815593 0.000000
0.705903 0.816252 0.000000
0.737373 0.816910 0.000000
0.768617 0.817569 0.000000
0.799645 0.818227 0.000000
0.830471 0.818886 0.000000
0.861103 0.819544 0.000000
0.891551 0.820202 0.000000
0.921823 0.820860 0.000000
0.951927 0.821518 0.000000
0.981870 0.822176 0.000000
1.000000 0.822834 0.000000
1.000000 0.823491 0.000000
1.000000 0.824149 0.000000
0.000000 0.832810 0.000000
0.005206 0.833466 0.000000
0.059686 0.834123 0.000000
0.105271 0.834779 0.000000
0.147613 0.835435 0.000000
0.187954 0.836091 0.000000
0.226862 0.836747 0.000000
0.264661 0.837403 0.000000
0.301560 0.838058 0.000000
0.337705 0.838714 0.000000
0.373203 0.839370 0.000000
0.408135 0.840025 0.000000
0.442565 0.840681 0.000000
0.476545 0.841336 0.000000
0.510117 0.841991 0.000000
0.543318 0.842646 0.000000
0.576177 0.843301 0.000000
0.608721 0.843956 0.000000
0.640971 0.844611 0.000000
0.672947 0.845266 0.000000
0.704668 0.845921 0.000000
0.736147 0.846575 0.000000
0.767399 0.847230 0.000000
0.798436 0.847884 0.000000
0.829269 0.848539 0.000000
0.859908 0.849193 0.000000
0.890363 0.849847 0.000000
0.920642 0.850501 0.000000
0.950752 0.851155 0.000000
0.980701 0.851809 0.000000
1.000000 0.852463 0.000000
1.000000 0.853117 0.000000
1.000000 0.853771 0.000000
0.000000 0.862380 0.000000
0.002175 0.863032 0.000000
0.057800 0.863685 0.000000
0.103561 0.864337 0.000000
0.145999 0.864989 0.000000
0.186406 0.865642 0.000000
0.225362 0.866294 0.000000
0.263200 0.866946 0.000000
0.300132 0.867598 0.000000
0.336304 0.868249 0.000000
0.371825 0.868901 0.000000
0.406778 0.869553 0.000000
0.441226 0.870204 0.000000
0.475223 0.870856 0.000000
0.508811 0.871507 0.000000
0.542026 0.872159 0.000000
0.574898 0.872810 0.000000
0.607453 0.873461 0.000000
0.639714 0.874112 0.000000
0.671701 0.874763 0.000000
0.703431 0.875414 0.000000
0.734920 0.876065 0.000000
0.766180 0.876716 0.000000
0.797225 0.877366 0.000000
0.828066 0.878017 0.000000
0.858713 0.878667 0.000000
0.889175 0.879318 0.000000
0.919461 0.879968 0.000000
0.949577 0.880618 0.000000
0.979533 0.881269 0.000000
1.000000 0.881919 0.000000
1.000000 0.882569 0.000000
1.000000 0.883219 0.000000
0.000000 0.891779 0.000000
0.000000 0.892427 0.000000
0.055904 0.893076 0.000000
0.101846 0.893725 0.000000
0.144383 0.894373 0.000000
0.184855 0.895022 0.000000
0.223861 0.895670 0.000000
0.261738 0.896318 0.000000
0.298702 0.896967 0.000000
0.334902 0.897615 0.000000
0.370447 0.898263 0.000000
0.405420 0.898911 0.000000
0.439888 0.899559 0.000000
0.473901 0.900207 0.000000
0.507504 0.900854 0.000000
0.540733 0.901502 0.000000
0.573618 0.902150 0.000000
0.606185 0.902797 0.000000
0.638458 0.903445 0.000000
0.670455 0.904092 0.000000
0.702195 0.904739 0.000000
0.733692 0.905386 0.000000
0.764961 0.906034 0.000000
0.796015 0.906681 0.000000
0.826863 0.907328 0.000000
