presets/film_stocks/Kodak_5247_II.cube
# 独寻胶片模拟 -- Kodak 5247 II
# Kodak, ISO 100, 1974, negative
TITLE "Kodak 5247 II"
LUT_3D_SIZE 5
DOMAIN_MIN 0.0 0.0 0.0
DOMAIN_MAX 1.0 1.0 1.0
0.000000 0.000000 0.000000
0.340118 0.010902 0.000000
0.621434 0.019920 0.000000
0.884134 0.028340 0.000000
1.000000 0.036395 0.000000
0.000000 0.328739 0.000000
0.327211 0.334419 0.000000
0.609660 0.340085 0.000000
0.872972 0.345736 0.000000
1.000000 0.351374 0.000000
0.000000 0.600643 0.000000
0.314227 0.605836 0.000000
0.597851 0.611021 0.000000
0.861787 0.616201 0.000000
1.000000 0.621373 0.000000
0.000000 0.854554 0.000000
0.301161 0.859480 0.000000
0.586007 0.864402 0.000000
0.850581 0.869319 0.000000
1.000000 0.874233 0.000000
0.000000 1.000000 0.000000
0.288010 1.000000 0.000000
0.574127 1.000000 0.000000
0.839353 1.000000 0.000000
1.000000 1.000000 0.000000
0.000000 0.000000 0.309216
0.312626 0.000000 0.303082
0.596398 0.000000 0.296929
0.860412 0.000000 0.290757
1.000000 0.000000 0.284565
0.000000 0.293774 0.305695
0.299550 0.299550 0.299550
0.584550 0.305309 0.293386
0.849203 0.311052 0.287203
1.000000 0.316779 0.281000
0.000000 0.568836 0.302168
0.286388 0.574070 0.296012
0.572665 0.579298 0.289837
0.837972 0.584519 0.283642
1.000000 0.589732 0.277427
0.000000 0.824426 0.298634
0.273135 0.829378 0.292467
0.560744 0.834327 0.286281
0.826719 0.839270 0.280075
1.000000 0.844209 0.273847
0.000000 1.000000 0.295094
0.259785 1.000000 0.288916
0.548784 1.000000 0.282718
0.815442 1.000000 0.276500
1.000000 1.000000 0.270261
0.000000 0.000000 0.564973
0.284765 0.000000 0.559373
0.571202 0.000000 0.553765
0.836591 0.000000 0.548149
1.000000 0.000000 0.542523
0.000000 0.258172 0.561757
0.271500 0.264060 0.556153
0.559276 0.269927 0.550540
0.825334 0.275776 0.544918
1.000000 0.281606 0.539288
0.000000 0.536759 0.558539
0.258137 0.542039 0.552930
0.547312 0.547312 0.547312
0.814055 0.552577 0.541685
1.000000 0.557834 0.536050
0.000000 0.794132 0.555318
0.244670 0.799112 0.549704
0.535308 0.804088 0.544081
0.802752 0.809059 0.538449
1.000000 0.814025 0.532809
0.000000 1.000000 0.552094
0.231090 1.000000 0.546475
0.523264 1.000000 0.540847
0.791425 1.000000 0.535210
1.000000 1.000000 0.529565
0.000000 0.000000 0.803805
0.256488 0.000000 0.798495
0.545839 0.000000 0.793180
0.812667 0.000000 0.787859
1.000000 0.000000 0.782533
0.000000 0.221815 0.800755
0.243008 0.227836 0.795442
0.533830 0.233833 0.790124
0.801361 0.239808 0.784800
1.000000 0.245760 0.779471
0.000000 0.504392 0.797704
0.229414 0.509721 0.792388
0.521781 0.515042 0.787067
0.790032 0.520355 0.781740
1.000000 0.525660 0.776408
0.000000 0.763664 0.794651
0.215698 0.768673 0.789332
0.509690 0.773678 0.784007
0.778677 0.778677 0.778677
1.000000 0.783672 0.773342
0.000000 1.000000 0.791596
0.201850 1.000000 0.786274
0.497555 1.000000 0.780946
0.767298 1.000000 0.775613
1.000000 1.000000 0.770275
0.000000 0.000000 1.000000
0.227735 0.000000 1.000000
0.520298 0.000000 1.000000
0.788638 0.000000 1.000000
1.000000 0.000000 1.000000
0.000000 0.184536 1.000000
0.214003 0.190723 1.000000
0.508201 0.196879 1.000000
0.777281 0.203007 1.000000
1.000000 0.209107 1.000000
0.000000 0.471710 1.000000
0.200138 0.477093 1.000000
0.496061 0.482467 1.000000
0.765898 0.487832 1.000000
1.000000 0.493188 1.000000
0.000000 0.733012 1.000000
0.186127 0.738052 1.000000
0.483877 0.743087 1.000000
0.754491 0.748117 1.000000
1.000000 0.753142 1.000000
0.000000 0.980719 1.000000
0.171956 0.985544 1.000000
0.471646 0.990366 1.000000
0.743057 0.995185 1.000000
1.000000 1.000000 1.000000
