presets/film_stocks/Kodak_Aerocolor_IV_2460.cube
# 独寻胶片模拟 -- Kodak Aerocolor IV 2460
# Kodak, ISO 125, 2009, negative
TITLE "Kodak Aerocolor IV 2460"
LUT_3D_SIZE 33
DOMAIN_MIN 0.0 0.0 0.0
DOMAIN_MAX 1.0 1.0 1.0
0.000000 0.000000 0.000000
0.062316 0.002458 0.000000
0.110505 0.004359 0.000000
0.154495 0.006094 0.000000
0.195961 0.007730 0.000000
0.235646 0.009295 0.000000
0.273967 0.010807 0.000000
0.311191 0.012275 0.000000
0.347499 0.013707 0.000000
0.383027 0.015108 0.000000
0.417874 0.016483 0.000000
0.452120 0.017834 0.000000
0.485830 0.019163 0.000000
0.519055 0.020474 0.000000
0.551838 0.021767 0.000000
0.584218 0.023044 0.000000
0.616225 0.024307 0.000000
0.647886 0.025556 0.000000
0.679225 0.026792 0.000000
0.710264 0.028016 0.000000
0.741020 0.029229 0.000000
0.771511 0.030432 0.000000
0.801750 0.031625 0.000000
0.831752 0.032808 0.000000
0.861527 0.033983 0.000000
0.891089 0.035149 0.000000
0.920446 0.036307 0.000000
0.949607 0.037457 0.000000
0.978582 0.038600 0.000000
1.000000 0.039735 0.000000
1.000000 0.040865 0.000000
1.000000 0.041987 0.000000
1.000000 0.043103 0.000000
0.000000 0.060138 0.000000
0.060173 0.061174 0.000000
0.108609 0.062206 0.000000
0.152728 0.063235 0.000000
0.194281 0.064261 0.000000
0.234030 0.065283 0.000000
0.272402 0.066301 0.000000
0.309667 0.067316 0.000000
0.346011 0.068329 0.000000
0.381568 0.069338 0.000000
0.416441 0.070343 0.000000
0.450711 0.071346 0.000000
0.484442 0.072346 0.000000
0.517686 0.073343 0.000000
0.550488 0.074338 0.000000
0.582883 0.075329 0.000000
0.614905 0.076318 0.000000
0.646580 0.077304 0.000000
0.677932 0.078287 0.000000
0.708983 0.079268 0.000000
0.739751 0.080246 0.000000
0.770252 0.081222 0.000000
0.800501 0.082195 0.000000
0.830512 0.083166 0.000000
0.860297 0.084135 0.000000
0.889868 0.085101 0.000000
0.919233 0.086065 0.000000
0.948402 0.087026 0.000000
0.977384 0.087986 0.000000
1.000000 0.088943 0.000000
1.000000 0.089898 0.000000
1.000000 0.090851 0.000000
1.000000 0.091802 0.000000
0.000000 0.106643 0.000000
0.058014 0.107562 0.000000
0.106706 0.108480 0.000000
0.150958 0.109397 0.000000
0.192598 0.110311 0.000000
0.232412 0.111224 0.000000
0.270835 0.112136 0.000000
0.308142 0.113046 0.000000
0.344520 0.113954 0.000000
0.380108 0.114861 0.000000
0.415008 0.115766 0.000000
0.449302 0.116670 0.000000
0.483054 0.117573 0.000000
0.516317 0.118474 0.000000
0.549136 0.119373 0.000000
0.581548 0.120271 0.000000
0.613585 0.121168 0.000000
0.645274 0.122063 0.000000
0.676639 0.122957 0.000000
0.707702 0.123850 0.000000
0.738481 0.124741 0.000000
0.768992 0.125631 0.000000
0.799252 0.126519 0.000000
0.829273 0.127407 0.000000
0.859067 0.128293 0.000000
0.888646 0.129177 0.000000
0.918019 0.130061 0.000000
0.947197 0.130943 0.000000
0.976186 0.131824 0.000000
1.000000 0.132703 0.000000
1.000000 0.133582 0.000000
1.000000 0.134459 0.000000
1.000000 0.135335 0.000000
0.000000 0.149095 0.000000
0.055838 0.149952 0.000000
0.104795 0.150808 0.000000
0.149182 0.151663 0.000000
0.190912 0.152518 0.000000
0.230791 0.153371 0.000000
0.269266 0.154223 0.000000
0.306615 0.155074 0.000000
0.343029 0.155925 0.000000
0.378647 0.156774 0.000000
0.413574 0.157622 0.000000
0.447891 0.158470 0.000000
0.481665 0.159316 0.000000
0.514947 0.160162 0.000000
0.547784 0.161006 0.000000
0.580212 0.161850 0.000000
0.612264 0.162692 0.000000
0.643966 0.163534 0.000000
0.675345 0.164375 0.000000
0.706420 0.165215 0.000000
0.737210 0.166054 0.000000
0.767733 0.166892 0.000000
0.798002 0.167730 0.000000
0.828033 0.168566 0.000000
0.857836 0.169402 0.000000
0.887424 0.170236 0.000000
0.916806 0.171070 0.000000
0.945991 0.171903 0.000000
0.974988 0.172735 0.000000
1.000000 0.173567 0.000000
1.000000 0.174397 0.000000
1.000000 0.175227 0.000000
1.000000 0.176055 0.000000
0.000000 0.189111 0.000000
0.053644 0.189927 0.000000
0.102877 0.190742 0.000000
0.147403 0.191556 0.000000
0.189222 0.192369 0.000000
0.229168 0.193182 0.000000
0.267695 0.193994 0.000000
0.305086 0.194806 0.000000
0.341536 0.195616 0.000000
0.377185 0.196426 0.000000
0.412139 0.197235 0.000000
0.446480 0.198044 0.000000
0.480275 0.198852 0.000000
0.513577 0.199659 0.000000
0.546431 0.200465 0.000000
0.578875 0.201271 0.000000
0.610942 0.202076 0.000000
0.642659 0.202880 0.000000
0.674050 0.203684 0.000000
0.705137 0.204487 0.000000
0.735939 0.205290 0.000000
0.766472 0.206092 0.000000
0.796752 0.206893 0.000000
0.826793 0.207693 0.000000
0.856605 0.208493 0.000000
0.886201 0.209292 0.000000
0.915591 0.210091 0.000000
0.944785 0.210888 0.000000
0.973790 0.211686 0.000000
1.000000 0.212482 0.000000
1.000000 0.213278 0.000000
1.000000 0.214074 0.000000
1.000000 0.214869 0.000000
0.000000 0.227409 0.000000
0.051431 0.228194 0.000000
0.100952 0.228978 0.000000
0.145619 0.229762 0.000000
0.187530 0.230545 0.000000
0.227543 0.231327 0.000000
0.266122 0.232109 0.000000
0.303556 0.232891 0.000000
0.340042 0.233672 0.000000
0.375721 0.234452 0.000000
0.410702 0.235232 0.000000
0.445068 0.236011 0.000000
0.478884 0.236789 0.000000
0.512205 0.237568 0.000000
0.545077 0.238345 0.000000
0.577538 0.239122 0.000000
0.609620 0.239899 0.000000
0.641351 0.240675 0.000000
0.672755 0.241450 0.000000
0.703854 0.242225 0.000000
0.734668 0.243000 0.000000
0.765212 0.243774 0.000000
0.795502 0.244547 0.000000
0.825552 0.245320 0.000000
0.855374 0.246092 0.000000
0.884979 0.246864 0.000000
0.914377 0.247636 0.000000
0.943578 0.248406 0.000000
0.972591 0.249177 0.000000
1.000000 0.249947 0.000000
1.000000 0.250716 0.000000
1.000000 0.251485 0.000000
1.000000 0.252253 0.000000
0.000000 0.264391 0.000000
0.049198 0.265152 0.000000
0.099019 0.265911 0.000000
0.143830 0.266671 0.000000
0.185834 0.267430 0.000000
0.225915 0.268188 0.000000
0.264547 0.268947 0.000000
0.302024 0.269704 0.000000
0.338546 0.270461 0.000000
0.374257 0.271218 0.000000
0.409265 0.271974 0.000000
0.443654 0.272730 0.000000
0.477492 0.273486 0.000000
0.510833 0.274241 0.000000
0.543723 0.274995 0.000000
0.576200 0.275749 0.000000
0.608297 0.276503 0.000000
0.640042 0.277256 0.000000
0.671459 0.278009 0.000000
0.702571 0.278762 0.000000
0.733396 0.279514 0.000000
0.763951 0.280265 0.000000
0.794251 0.281016 0.000000
0.824311 0.281767 0.000000
0.854142 0.282517 0.000000
0.883756 0.283267 0.000000
0.913162 0.284016 0.000000
0.942372 0.284765 0.000000
0.971392 0.285514 0.000000
1.000000 0.286262 0.000000
1.000000 0.287010 0.000000
1.000000 0.287758 0.000000
1.000000 0.288504 0.000000
0.000000 0.300314 0.000000
0.046944 0.301054 0.000000
0.097077 0.301794 0.000000
0.142037 0.302533 0.000000
0.184136 0.303273 0.000000
0.224285 0.304011 0.000000
0.262970 0.304750 0.000000
0.300490 0.305488 0.000000
0.337049 0.306225 0.000000
0.372791 0.306963 0.000000
0.407827 0.307700 0.000000
0.442240 0.308436 0.000000
0.476100 0.309172 0.000000
0.509460 0.309908 0.000000
0.542368 0.310644 0.000000
0.574862 0.311379 0.000000
0.606974 0.312114 0.000000
0.638733 0.312848 0.000000
0.670163 0.313582 0.000000
0.701287 0.314316 0.000000
0.732123 0.315049 0.000000
0.762689 0.315782 0.000000
0.793000 0.316514 0.000000
0.823069 0.317247 0.000000
0.852909 0.317978 0.000000
0.882532 0.318710 0.000000
0.911947 0.319441 0.000000
0.941164 0.320172 0.000000
0.970192 0.320902 0.000000
0.999039 0.321632 0.000000
1.000000 0.322362 0.000000
1.000000 0.323091 0.000000
1.000000 0.323821 0.000000
0.000000 0.335353 0.000000
0.044666 0.336076 0.000000
0.095128 0.336799 0.000000
0.140238 0.337522 0.000000
0.182433 0.338245 0.000000
0.222652 0.338967 0.000000
0.261391 0.339688 0.000000
0.298955 0.340410 0.000000
0.335550 0.341131 0.000000
0.371324 0.341852 0.000000
0.406387 0.342572 0.000000
0.440825 0.343292 0.000000
0.474706 0.344012 0.000000
0.508087 0.344732 0.000000
0.541012 0.345451 0.000000
0.573522 0.346170 0.000000
0.605650 0.346888 0.000000
0.637423 0.347607 0.000000
0.668866 0.348325 0.000000
0.700003 0.349042 0.000000
0.730851 0.349760 0.000000
0.761427 0.350477 0.000000
0.791748 0.351193 0.000000
0.821827 0.351910 0.000000
0.851677 0.352626 0.000000
0.881308 0.353342 0.000000
0.910732 0.354057 0.000000
0.939957 0.354772 0.000000
0.968993 0.355487 0.000000
0.997847 0.356202 0.000000
1.000000 0.356916 0.000000
1.000000 0.357630 0.000000
1.000000 0.358344 0.000000
0.000000 0.369638 0.000000
0.042364 0.370347 0.000000
0.093170 0.371056 0.000000
0.138435 0.371764 0.000000
0.180728 0.372472 0.000000
0.221017 0.373179 0.000000
0.259810 0.373887 0.000000
0.297418 0.374594 0.000000
0.334051 0.375300 0.000000
0.369856 0.376007 0.000000
0.404946 0.376713 0.000000
0.439409 0.377419 0.000000
0.473312 0.378125 0.000000
0.506712 0.378830 0.000000
0.539656 0.379535 0.000000
0.572182 0.380240 0.000000
0.604325 0.380945 0.000000
0.636112 0.381649 0.000000
0.667569 0.382353 0.000000
0.698718 0.383057 0.000000
0.729577 0.383760 0.000000
0.760165 0.384464 0.000000
0.790496 0.385166 0.000000
0.820585 0.385869 0.000000
0.850444 0.386572 0.000000
0.880084 0.387274 0.000000
0.909516 0.387976 0.000000
0.938749 0.388677 0.000000
0.967793 0.389379 0.000000
0.996654 0.390080 0.000000
1.000000 0.390780 0.000000
1.000000 0.391481 0.000000
1.000000 0.392181 0.000000
0.000000 0.403267 0.000000
0.040035 0.403963 0.000000
0.091204 0.404659 0.000000
0.136627 0.405354 0.000000
0.179019 0.406050 0.000000
0.219379 0.406745 0.000000
0.258227 0.407439 0.000000
0.295880 0.408134 0.000000
0.332549 0.408828 0.000000
0.368386 0.409522 0.000000
0.403505 0.410215 0.000000
0.437992 0.410909 0.000000
0.471917 0.411602 0.000000
0.505337 0.412295 0.000000
0.538299 0.412988 0.000000
0.570842 0.413680 0.000000
0.603000 0.414372 0.000000
0.634801 0.415064 0.000000
0.666271 0.415756 0.000000
0.697432 0.416448 0.000000
0.728303 0.417139 0.000000
0.758902 0.417830 0.000000
0.789244 0.418521 0.000000
0.819342 0.419211 0.000000
0.849210 0.419902 0.000000
0.878860 0.420592 0.000000
0.908300 0.421281 0.000000
0.937541 0.421971 0.000000
0.966592 0.422660 0.000000
0.995461 0.423349 0.000000
1.000000 0.424038 0.000000
1.000000 0.424727 0.000000
1.000000 0.425415 0.000000
0.000000 0.436317 0.000000
0.037677 0.437001 0.000000
0.089229 0.437686 0.000000
0.134814 0.438370 0.000000
0.177307 0.439054 0.000000
0.217739 0.439737 0.000000
0.256642 0.440421 0.000000
0.294340 0.441104 0.000000
0.331047 0.441787 0.000000
0.366916 0.442469 0.000000
0.402062 0.443152 0.000000
0.436574 0.443834 0.000000
0.470521 0.444516 0.000000
0.503961 0.445198 0.000000
0.536941 0.445880 0.000000
0.569501 0.446561 0.000000
0.601674 0.447243 0.000000
0.633490 0.447923 0.000000
0.664973 0.448604 0.000000
0.696146 0.449285 0.000000
0.727029 0.449965 0.000000
0.757639 0.450645 0.000000
0.787991 0.451325 0.000000
0.818099 0.452005 0.000000
0.847977 0.452684 0.000000
0.877635 0.453364 0.000000
0.907084 0.454043 0.000000
0.936333 0.454721 0.000000
0.965392 0.455400 0.000000
0.994268 0.456079 0.000000
1.000000 0.456757 0.000000
1.000000 0.457435 0.000000
1.000000 0.458112 0.000000
0.000000 0.468848 0.000000
0.035288 0.469522 0.000000
0.087244 0.470196 0.000000
0.132996 0.470870 0.000000
0.175591 0.471544 0.000000
0.216096 0.472217 0.000000
0.255055 0.472891 0.000000
0.292798 0.473564 0.000000
0.329542 0.474237 0.000000
0.365444 0.474909 0.000000
0.400618 0.475582 0.000000
0.435155 0.476254 0.000000
0.469124 0.476926 0.000000
0.502584 0.477598 0.000000
0.535582 0.478270 0.000000
0.568159 0.478941 0.000000
0.600347 0.479612 0.000000
0.632177 0.480283 0.000000
0.663674 0.480954 0.000000
0.694860 0.481625 0.000000
0.725754 0.482295 0.000000
0.756375 0.482966 0.000000
0.786738 0.483636 0.000000
0.816856 0.484306 0.000000
0.846743 0.484975 0.000000
0.876409 0.485645 0.000000
0.905867 0.486314 0.000000
0.935124 0.486983 0.000000
0.964191 0.487652 0.000000
0.993074 0.488321 0.000000
1.000000 0.488990 0.000000
1.000000 0.489658 0.000000
1.000000 0.490326 0.000000
0.000000 0.500912 0.000000
0.032865 0.501577 0.000000
0.085250 0.502241 0.000000
0.131173 0.502906 0.000000
0.173872 0.503570 0.000000
0.214450 0.504235 0.000000
0.253466 0.504899 0.000000
0.291254 0.505563 0.000000
0.328037 0.506226 0.000000
0.363971 0.506890 0.000000
0.399173 0.507553 0.000000
0.433735 0.508216 0.000000
0.467726 0.508879 0.000000
0.501207 0.509542 0.000000
0.534223 0.510205 0.000000
0.566816 0.510867 0.000000
0.599020 0.511529 0.000000
0.630865 0.512191 0.000000
0.662375 0.512853 0.000000
0.693573 0.513515 0.000000
0.724479 0.514177 0.000000
0.755111 0.514838 0.000000
0.785484 0.515499 0.000000
0.815612 0.516160 0.000000
0.845508 0.516821 0.000000
0.875184 0.517482 0.000000
0.904650 0.518142 0.000000
0.933915 0.518802 0.000000
0.962990 0.519462 0.000000
0.991881 0.520122 0.000000
1.000000 0.520782 0.000000
1.000000 0.521442 0.000000
1.000000 0.522101 0.000000
0.000000 0.532550 0.000000
0.030403 0.533206 0.000000
0.083246 0.533862 0.000000
0.129344 0.534519 0.000000
0.172149 0.535175 0.000000
0.212802 0.535830 0.000000
0.251875 0.536486 0.000000
0.289709 0.537141 0.000000
0.326530 0.537797 0.000000
0.362496 0.538452 0.000000
0.397727 0.539107 0.000000
0.432314 0.539762 0.000000
0.466328 0.540416 0.000000
0.499828 0.541071 0.000000
0.532863 0.541725 0.000000
0.565473 0.542379 0.000000
0.597693 0.543033 0.000000
0.629551 0.543687 0.000000
0.661075 0.544341 0.000000
0.692286 0.544994 0.000000
0.723204 0.545648 0.000000
0.753846 0.546301 0.000000
0.784230 0.546954 0.000000
0.814368 0.547607 0.000000
0.844273 0.548259 0.000000
0.873958 0.548912 0.000000
0.903432 0.549564 0.000000
0.932706 0.550216 0.000000
0.961788 0.550868 0.000000
0.990686 0.551520 0.000000
1.000000 0.552172 0.000000
1.000000 0.552823 0.000000
1.000000 0.553475 0.000000
0.000000 0.563797 0.000000
0.027899 0.564446 0.000000
0.081232 0.565095 0.000000
0.127510 0.565743 0.000000
0.170422 0.566391 0.000000
0.211151 0.567039 0.000000
0.250282 0.567687 0.000000
0.288162 0.568335 0.000000
0.325021 0.568982 0.000000
0.361021 0.569630 0.000000
0.396280 0.570277 0.000000
0.430892 0.570924 0.000000
0.464928 0.571571 0.000000
0.498449 0.572218 0.000000
0.531502 0.572865 0.000000
0.564129 0.573511 0.000000
0.596364 0.574158 0.000000
0.628238 0.574804 0.000000
0.659774 0.575450 0.000000
0.690998 0.576096 0.000000
0.721928 0.576742 0.000000
0.752581 0.577387 0.000000
0.782975 0.578033 0.000000
0.813123 0.578678 0.000000
0.843038 0.579323 0.000000
0.872731 0.579968 0.000000
0.902214 0.580613 0.000000
0.931496 0.581258 0.000000
0.960586 0.581902 0.000000
0.989492 0.582547 0.000000
1.000000 0.583191 0.000000
1.000000 0.583835 0.000000
1.000000 0.584479 0.000000
0.000000 0.594685 0.000000
0.025346 0.595327 0.000000
0.079207 0.595968 0.000000
0.125670 0.596609 0.000000
0.168692 0.597250 0.000000
0.209497 0.597891 0.000000
0.248686 0.598532 0.000000
0.286613 0.599173 0.000000
0.323511 0.599813 0.000000
0.359544 0.600453 0.000000
0.394832 0.601094 0.000000
0.429469 0.601734 0.000000
0.463528 0.602373 0.000000
0.497069 0.603013 0.000000
0.530141 0.603653 0.000000
0.562785 0.604292 0.000000
0.595035 0.604932 0.000000
0.626923 0.605571 0.000000
0.658473 0.606210 0.000000
0.689709 0.606849 0.000000
0.720651 0.607487 0.000000
0.751316 0.608126 0.000000
0.781720 0.608764 0.000000
0.811878 0.609403 0.000000
0.841802 0.610041 0.000000
0.871505 0.610679 0.000000
0.900996 0.611317 0.000000
0.930286 0.611955 0.000000
0.959384 0.612592 0.000000
0.988297 0.613230 0.000000
1.000000 0.613867 0.000000
1.000000 0.614504 0.000000
1.000000 0.615141 0.000000
0.000000 0.625240 0.000000
0.022738 0.625875 0.000000
0.077171 0.626509 0.000000
0.123825 0.627144 0.000000
0.166958 0.627778 0.000000
0.207841 0.628412 0.000000
0.247089 0.629046 0.000000
0.285063 0.629680 0.000000
0.322000 0.630314 0.000000
0.358066 0.630948 0.000000
0.393382 0.631581 0.000000
0.428045 0.632215 0.000000
0.462127 0.632848 0.000000
0.495688 0.633481 0.000000
0.528779 0.634114 0.000000
0.561439 0.634747 0.000000
0.593706 0.635380 0.000000
0.625608 0.636013 0.000000
0.657172 0.636645 0.000000
0.688420 0.637277 0.000000
0.719374 0.637910 0.000000
0.750050 0.638542 0.000000
0.780465 0.639174 0.000000
0.810632 0.639805 0.000000
0.840566 0.640437 0.000000
0.870278 0.641069 0.000000
0.899778 0.641700 0.000000
0.929076 0.642331 0.000000
0.958181 0.642963 0.000000
0.987102 0.643594 0.000000
1.000000 0.644225 0.000000
1.000000 0.644855 0.000000
1.000000 0.645486 0.000000
0.000000 0.655484 0.000000
0.020066 0.656112 0.000000
0.075124 0.656741 0.000000
0.121974 0.657369 0.000000
0.165220 0.657997 0.000000
0.206182 0.658625 0.000000
0.245489 0.659253 0.000000
0.283511 0.659881 0.000000
0.320487 0.660508 0.000000
0.356586 0.661136 0.000000
0.391932 0.661763 0.000000
0.426620 0.662390 0.000000
0.460724 0.663018 0.000000
0.494306 0.663645 0.000000
0.527416 0.664271 0.000000
0.560094 0.664898 0.000000
0.592376 0.665525 0.000000
0.624292 0.666151 0.000000
0.655870 0.666778 0.000000
0.687131 0.667404 0.000000
0.718096 0.668030 0.000000
0.748784 0.668656 0.000000
0.779209 0.669282 0.000000
0.809387 0.669908 0.000000
0.839330 0.670533 0.000000
0.869050 0.671159 0.000000
0.898559 0.671784 0.000000
0.927865 0.672409 0.000000
0.956978 0.673035 0.000000
0.985907 0.673660 0.000000
1.000000 0.674284 0.000000
1.000000 0.674909 0.000000
1.000000 0.675534 0.000000
0.000000 0.685438 0.000000
0.017316 0.686060 0.000000
0.073066 0.686683 0.000000
0.120116 0.687305 0.000000
0.163479 0.687927 0.000000
0.204520 0.688550 0.000000
0.243887 0.689172 0.000000
0.281957 0.689794 0.000000
0.318972 0.690415 0.000000
0.355105 0.691037 0.000000
0.390480 0.691659 0.000000
0.425194 0.692280 0.000000
0.459321 0.692901 0.000000
0.492924 0.693523 0.000000
0.526052 0.694144 0.000000
0.558747 0.694765 0.000000
0.591045 0.695385 0.000000
0.622976 0.696006 0.000000
0.654567 0.696627 0.000000
0.685841 0.697247 0.000000
0.716818 0.697868 0.000000
0.747517 0.698488 0.000000
0.777953 0.699108 0.000000
0.808140 0.699728 0.000000
0.838093 0.700348 0.000000
0.867823 0.700968 0.000000
0.897340 0.701588 0.000000
0.926654 0.702207 0.000000
0.955775 0.702827 0.000000
0.984711 0.703446 0.000000
1.000000 0.704065 0.000000
1.000000 0.704685 0.000000
1.000000 0.705304 0.000000
0.000000 0.715119 0.000000
0.014471 0.715736 0.000000
0.070995 0.716353 0.000000
0.118253 0.716970 0.000000
0.161733 0.717587 0.000000
0.202855 0.718203 0.000000
0.242283 0.718820 0.000000
0.280401 0.719436 0.000000
0.317457 0.720053 0.000000
0.353623 0.720669 0.000000
0.389028 0.721285 0.000000
0.423767 0.721901 0.000000
0.457917 0.722517 0.000000
0.491541 0.723133 0.000000
0.524687 0.723748 0.000000
0.557400 0.724364 0.000000
0.589714 0.724979 0.000000
0.621659 0.725595 0.000000
0.653264 0.726210 0.000000
0.684551 0.726825 0.000000
0.715540 0.727440 0.000000
0.746249 0.728055 0.000000
0.776696 0.728670 0.000000
0.806894 0.729284 0.000000
0.836856 0.729899 0.000000
0.866594 0.730513 0.000000
0.896120 0.731128 0.000000
0.925443 0.731742 0.000000
0.954572 0.732356 0.000000
0.983515 0.732970 0.000000
1.000000 0.733584 0.000000
1.000000 0.734198 0.000000
1.000000 0.734812 0.000000
0.000000 0.744543 0.000000
0.011502 0.745155 0.000000
0.068911 0.745767 0.000000
0.116384 0.746379 0.000000
0.159984 0.746990 0.000000
0.201187 0.747602 0.000000
0.240676 0.748213 0.000000
0.278843 0.748825 0.000000
0.315939 0.749436 0.000000
0.352140 0.750047 0.000000
0.387574 0.750658 0.000000
0.422339 0.751269 0.000000
0.456513 0.751879 0.000000
0.490157 0.752490 0.000000
0.523322 0.753101 0.000000
0.556052 0.753711 0.000000
0.588381 0.754321 0.000000
0.620342 0.754932 0.000000
0.651960 0.755542 0.000000
0.683260 0.756152 0.000000
0.714261 0.756762 0.000000
0.744982 0.757371 0.000000
0.775439 0.757981 0.000000
0.805647 0.758591 0.000000
0.835618 0.759200 0.000000
0.865366 0.759810 0.000000
0.894900 0.760419 0.000000
0.924231 0.761028 0.000000
0.953368 0.761637 0.000000
0.982319 0.762246 0.000000
1.000000 0.762855 0.000000
1.000000 0.763464 0.000000
1.000000 0.764073 0.000000
0.000000 0.773726 0.000000
0.008360 0.774333 0.000000
0.066814 0.774940 0.000000
0.114508 0.775546 0.000000
0.158230 0.776153 0.000000
0.199516 0.776760 0.000000
0.239068 0.777366 0.000000
0.277284 0.777973 0.000000
0.314420 0.778579 0.000000
0.350655 0.779185 0.000000
0.386119 0.779791 0.000000
0.420910 0.780397 0.000000
0.455107 0.781003 0.000000
0.488772 0.781609 0.000000
0.521956 0.782215 0.000000
0.554703 0.782820 0.000000
0.587049 0.783426 0.000000
0.619024 0.784031 0.000000
0.650656 0.784636 0.000000
0.681968 0.785242 0.000000
0.712981 0.785847 0.000000
0.743714 0.786452 0.000000
0.774181 0.787057 0.000000
0.804399 0.787661 0.000000
0.834380 0.788266 0.000000
0.864137 0.788871 0.000000
0.893680 0.789475 0.000000
0.923019 0.790080 0.000000
0.952164 0.790684 0.000000
0.981122 0.791288 0.000000
1.000000 0.791892 0.000000
1.000000 0.792496 0.000000
1.000000 0.793100 0.000000
0.000000 0.802679 0.000000
0.004938 0.803281 0.000000
0.064703 0.803883 0.000000
0.112626 0.804485 0.000000
0.156473 0.805087 0.000000
0.197843 0.805689 0.000000
0.237457 0.806291 0.000000
0.275722 0.806893 0.000000
0.312900 0.807495 0.000000
0.349169 0.808096 0.000000
0.384662 0.808698 0.000000
0.419480 0.809299 0.000000
0.453700 0.809900 0.000000
0.487386 0.810502 0.000000
0.520590 0.811103 0.000000
0.553354 0.811704 0.000000
0.585715 0.812305 0.000000
0.617706 0.812905 0.000000
0.649351 0.813506 0.000000
0.680676 0.814107 0.000000
0.711701 0.814707 0.000000
0.742445 0.815308 0.000000
0.772923 0.815908 0.000000
0.803151 0.816508 0.000000
0.833142 0.817109 0.000000
0.862908 0.817709 0.000000
0.892459 0.818309 0.000000
0.921807 0.818909 0.000000
0.950959 0.819508 0.000000
0.979925 0.820108 0.000000
1.000000 0.820708 0.000000
1.000000 0.821307 0.000000
1.000000 0.821907 0.000000
0.000000 0.831414 0.000000
0.000792 0.832012 0.000000
0.062577 0.832610 0.000000
0.110737 0.833207 0.000000
0.154711 0.833805 0.000000
0.196166 0.834402 0.000000
0.235844 0.835000 0.000000
0.274159 0.835597 0.000000
0.311377 0.836194 0.000000
0.347682 0.836792 0.000000
0.383205 0.837389 0.000000
0.418049 0.837986 0.000000
0.452293 0.838583 0.000000
0.486000 0.839179 0.000000
0.519222 0.839776 0.000000
0.552004 0.840373 0.000000
0.584381 0.840969 0.000000
0.616386 0.841566 0.000000
0.648046 0.842162 0.000000
0.679384 0.842759 0.000000
0.710421 0.843355 0.000000
0.741176 0.843951 0.000000
0.771665 0.844547 0.000000
0.801903 0.845143 0.000000
0.831903 0.845739 0.000000
0.861678 0.846334 0.000000
0.891238 0.846930 0.000000
0.920594 0.847526 0.000000
0.949755 0.848121 0.000000
0.978728 0.848717 0.000000
1.000000 0.849312 0.000000
1.000000 0.849907 0.000000
1.000000 0.850502 0.000000
0.000000 0.859942 0.000000
0.000000 0.860536 0.000000
0.060436 0.861129 0.000000
0.108842 0.861723 0.000000
0.152945 0.862316 0.000000
0.194487 0.862909 0.000000
0.234228 0.863503 0.000000
0.272594 0.864096 0.000000
0.309854 0.864689 0.000000
0.346193 0.865282 0.000000
0.381747 0.865875 0.000000
0.416617 0.866468 0.000000
0.450884 0.867060 0.000000
0.484612 0.867653 0.000000
0.517854 0.868246 0.000000
0.550653 0.868838 0.000000
0.583047 0.869430 0.000000
0.615067 0.870023 0.000000
0.646740 0.870615 0.000000
0.678091 0.871207 0.000000
0.709140 0.871799 0.000000
0.739906 0.872391 0.000000
0.770406 0.872983 0.000000
0.800654 0.873575 0.000000
0.830664 0.874167 0.000000
0.860448 0.874758 0.000000
0.890017 0.875350 0.000000
0.919381 0.875941 0.000000
0.948550 0.876533 0.000000
0.977531 0.877124 0.000000
1.000000 0.877715 0.000000
1.000000 0.878306 0.000000
1.000000 0.878897 0.000000
0.000000 0.888273 0.000000
0.000000 0.888862 0.000000
0.058280 0.889452 0.000000
0.106939 0.890041 0.000000
0.151175 0.890631 0.000000
0.192804 0.891220 0.000000
0.232610 0.891809 0.000000
0.271027 0.892398 0.000000
0.308328 0.892987 0.000000
0.344703 0.893576 0.000000
0.380287 0.894165 0.000000
0.415184 0.894754 0.000000
0.449475 0.895343 0.000000
0.483224 0.895932 0.000000
0.516485 0.896520 0.000000
0.549302 0.897109 0.000000
0.581712 0.897697 0.000000
0.613746 0.898286 0.000000
0.645434 0.898874 0.000000
0.676797 0.899462 0.000000
0.707859 0.900050 0.000000
0.738636 0.900638 0.000000
0.769147 0.901226 0.000000
0.799405 0.901814 0.000000
