presets/film_stocks/Kodak_EXR_100T_5248.cube
# 独寻胶片模拟 -- Kodak EXR 100T 5248
# Kodak, ISO 100, 1990, negative
TITLE "Kodak EXR 100T 5248"
LUT_3D_SIZE 33
DOMAIN_MIN 0.0 0.0 0.0
DOMAIN_MAX 1.0 1.0 1.0
0.000000 0.000000 0.000000
0.043614 0.000794 0.000000
0.084396 0.001537 0.000000
0.124173 0.002261 0.000000
0.163311 0.002974 0.000000
0.201982 0.003678 0.000000
0.240283 0.004375 0.000000
0.278280 0.005067 0.000000
0.316018 0.005754 0.000000
0.353532 0.006437 0.000000
0.390847 0.007117 0.000000
0.427985 0.007793 0.000000
0.464962 0.008466 0.000000
0.501793 0.009137 0.000000
0.538489 0.009805 0.000000
0.575060 0.010471 0.000000
0.611515 0.011135 0.000000
0.647862 0.011796 0.000000
0.684107 0.012456 0.000000
0.720256 0.013115 0.000000
0.756314 0.013771 0.000000
0.792287 0.014426 0.000000
0.828178 0.015080 0.000000
0.863992 0.015732 0.000000
0.899732 0.016383 0.000000
0.935400 0.017032 0.000000
0.971001 0.017680 0.000000
1.000000 0.018327 0.000000
1.000000 0.018973 0.000000
1.000000 0.019618 0.000000
1.000000 0.020262 0.000000
1.000000 0.020905 0.000000
1.000000 0.021546 0.000000
0.000000 0.040674 0.000000
0.041369 0.041295 0.000000
0.082225 0.041915 0.000000
0.122044 0.042535 0.000000
0.161211 0.043155 0.000000
0.199904 0.043774 0.000000
0.238223 0.044393 0.000000
0.276235 0.045011 0.000000
0.313987 0.045629 0.000000
0.351512 0.046246 0.000000
0.388837 0.046863 0.000000
0.425984 0.047480 0.000000
0.462970 0.048096 0.000000
0.499808 0.048712 0.000000
0.536511 0.049328 0.000000
0.573088 0.049943 0.000000
0.609550 0.050557 0.000000
0.645902 0.051172 0.000000
0.682152 0.051785 0.000000
0.718306 0.052399 0.000000
0.754370 0.053012 0.000000
0.790347 0.053625 0.000000
0.826243 0.054238 0.000000
0.862061 0.054850 0.000000
0.897804 0.055462 0.000000
0.933476 0.056073 0.000000
0.969081 0.056684 0.000000
1.000000 0.057295 0.000000
1.000000 0.057906 0.000000
1.000000 0.058516 0.000000
1.000000 0.059126 0.000000
1.000000 0.059735 0.000000
1.000000 0.060344 0.000000
0.000000 0.078706 0.000000
0.039117 0.079307 0.000000
0.080051 0.079908 0.000000
0.119913 0.080509 0.000000
0.159110 0.081109 0.000000
0.197825 0.081709 0.000000
0.236163 0.082309 0.000000
0.274190 0.082908 0.000000
0.311954 0.083508 0.000000
0.349491 0.084107 0.000000
0.386827 0.084706 0.000000
0.423983 0.085304 0.000000
0.460977 0.085903 0.000000
0.497823 0.086501 0.000000
0.534533 0.087099 0.000000
0.571117 0.087697 0.000000
0.607584 0.088295 0.000000
0.643942 0.088892 0.000000
0.680198 0.089490 0.000000
0.716357 0.090087 0.000000
0.752425 0.090684 0.000000
0.788407 0.091280 0.000000
0.824307 0.091877 0.000000
0.860129 0.092473 0.000000
0.895876 0.093069 0.000000
0.931552 0.093665 0.000000
0.967160 0.094261 0.000000
1.000000 0.094857 0.000000
1.000000 0.095452 0.000000
1.000000 0.096047 0.000000
1.000000 0.096642 0.000000
1.000000 0.097237 0.000000
1.000000 0.097831 0.000000
0.000000 0.115802 0.000000
0.036859 0.116392 0.000000
0.077874 0.116981 0.000000
0.117780 0.117570 0.000000
0.157007 0.118159 0.000000
0.195745 0.118748 0.000000
0.234101 0.119337 0.000000
0.272144 0.119925 0.000000
0.309922 0.120514 0.000000
0.347470 0.121102 0.000000
0.384816 0.121690 0.000000
0.421981 0.122278 0.000000
0.458984 0.122866 0.000000
0.495837 0.123454 0.000000
0.532554 0.124041 0.000000
0.569145 0.124629 0.000000
0.605618 0.125216 0.000000
0.641982 0.125803 0.000000
0.678243 0.126390 0.000000
0.714407 0.126977 0.000000
0.750480 0.127564 0.000000
0.786466 0.128151 0.000000
0.822371 0.128737 0.000000
0.858197 0.129324 0.000000
0.893948 0.129910 0.000000
0.929628 0.130496 0.000000
0.965240 0.131082 0.000000
1.000000 0.131668 0.000000
1.000000 0.132253 0.000000
1.000000 0.132839 0.000000
1.000000 0.133424 0.000000
1.000000 0.134010 0.000000
1.000000 0.134595 0.000000
0.000000 0.152302 0.000000
0.034594 0.152884 0.000000
0.075694 0.153465 0.000000
0.115645 0.154046 0.000000
0.154903 0.154627 0.000000
0.193664 0.155208 0.000000
0.232039 0.155789 0.000000
0.270097 0.156370 0.000000
0.307888 0.156951 0.000000
0.345448 0.157531 0.000000
0.382804 0.158112 0.000000
0.419979 0.158692 0.000000
0.456990 0.159272 0.000000
0.493851 0.159853 0.000000
0.530575 0.160433 0.000000
0.567172 0.161013 0.000000
0.603652 0.161592 0.000000
0.640021 0.162172 0.000000
0.676287 0.162752 0.000000
0.712457 0.163331 0.000000
0.748535 0.163911 0.000000
0.784526 0.164490 0.000000
0.820434 0.165069 0.000000
0.856264 0.165649 0.000000
0.892020 0.166228 0.000000
0.927703 0.166807 0.000000
0.963319 0.167385 0.000000
0.998868 0.167964 0.000000
1.000000 0.168543 0.000000
1.000000 0.169121 0.000000
1.000000 0.169700 0.000000
1.000000 0.170278 0.000000
1.000000 0.170856 0.000000
0.000000 0.188365 0.000000
0.032321 0.188941 0.000000
0.073510 0.189516 0.000000
0.113508 0.190091 0.000000
0.152798 0.190666 0.000000
0.191582 0.191241 0.000000
0.229976 0.191816 0.000000
0.268050 0.192391 0.000000
0.305854 0.192966 0.000000
0.343426 0.193540 0.000000
0.380792 0.194115 0.000000
0.417976 0.194689 0.000000
0.454995 0.195264 0.000000
0.491864 0.195838 0.000000
0.528596 0.196412 0.000000
0.565199 0.196986 0.000000
0.601685 0.197560 0.000000
0.638060 0.198134 0.000000
0.674332 0.198708 0.000000
0.710506 0.199282 0.000000
0.746589 0.199856 0.000000
0.782585 0.200429 0.000000
0.818498 0.201003 0.000000
0.854332 0.201576 0.000000
0.890091 0.202150 0.000000
0.925779 0.202723 0.000000
0.961397 0.203296 0.000000
0.996950 0.203869 0.000000
1.000000 0.204442 0.000000
1.000000 0.205015 0.000000
1.000000 0.205588 0.000000
1.000000 0.206161 0.000000
1.000000 0.206734 0.000000
0.000000 0.224084 0.000000
0.030041 0.224655 0.000000
0.071324 0.225225 0.000000
0.111369 0.225795 0.000000
0.150691 0.226365 0.000000
0.189499 0.226936 0.000000
0.227912 0.227506 0.000000
0.266001 0.228075 0.000000
0.303819 0.228645 0.000000
0.341403 0.229215 0.000000
0.378780 0.229785 0.000000
0.415973 0.230355 0.000000
0.453001 0.230924 0.000000
0.489877 0.231494 0.000000
0.526616 0.232063 0.000000
0.563226 0.232632 0.000000
0.599718 0.233202 0.000000
0.636099 0.233771 0.000000
0.672376 0.234340 0.000000
0.708556 0.234909 0.000000
0.744643 0.235478 0.000000
0.780643 0.236047 0.000000
0.816561 0.236616 0.000000
0.852399 0.237185 0.000000
0.888162 0.237754 0.000000
0.923854 0.238322 0.000000
0.959476 0.238891 0.000000
0.995033 0.239459 0.000000
1.000000 0.240028 0.000000
1.000000 0.240596 0.000000
1.000000 0.241165 0.000000
1.000000 0.241733 0.000000
1.000000 0.242301 0.000000
0.000000 0.259520 0.000000
0.027751 0.260086 0.000000
0.069134 0.260652 0.000000
0.109228 0.261218 0.000000
0.148582 0.261784 0.000000
0.187415 0.262350 0.000000
0.225846 0.262916 0.000000
0.263952 0.263482 0.000000
0.301784 0.264048 0.000000
0.339379 0.264613 0.000000
0.376767 0.265179 0.000000
0.413970 0.265745 0.000000
0.451006 0.266310 0.000000
0.487890 0.266876 0.000000
0.524636 0.267441 0.000000
0.561253 0.268006 0.000000
0.597751 0.268572 0.000000
0.634138 0.269137 0.000000
0.670420 0.269702 0.000000
0.706605 0.270267 0.000000
0.742697 0.270832 0.000000
0.778702 0.271397 0.000000
0.814624 0.271962 0.000000
0.850466 0.272527 0.000000
0.886233 0.273092 0.000000
0.921928 0.273657 0.000000
0.957555 0.274221 0.000000
0.993115 0.274786 0.000000
1.000000 0.275351 0.000000
1.000000 0.275915 0.000000
1.000000 0.276480 0.000000
1.000000 0.277044 0.000000
1.000000 0.277608 0.000000
0.000000 0.294714 0.000000
0.025453 0.295277 0.000000
0.066941 0.295839 0.000000
0.107085 0.296402 0.000000
0.146472 0.296964 0.000000
0.185329 0.297527 0.000000
0.223780 0.298089 0.000000
0.261902 0.298651 0.000000
0.299748 0.299214 0.000000
0.337355 0.299776 0.000000
0.374753 0.300338 0.000000
0.411965 0.300900 0.000000
0.449010 0.301462 0.000000
0.485902 0.302024 0.000000
0.522655 0.302586 0.000000
0.559279 0.303148 0.000000
0.595783 0.303710 0.000000
0.632176 0.304271 0.000000
0.668464 0.304833 0.000000
0.704654 0.305395 0.000000
0.740751 0.305956 0.000000
0.776760 0.306518 0.000000
0.812686 0.307079 0.000000
0.848533 0.307641 0.000000
0.884304 0.308202 0.000000
0.920003 0.308764 0.000000
0.955633 0.309325 0.000000
0.991196 0.309886 0.000000
1.000000 0.310447 0.000000
1.000000 0.311009 0.000000
1.000000 0.311570 0.000000
1.000000 0.312131 0.000000
1.000000 0.312692 0.000000
0.000000 0.329699 0.000000
0.023144 0.330259 0.000000
0.064744 0.330818 0.000000
0.104940 0.331377 0.000000
0.144361 0.331937 0.000000
0.183243 0.332496 0.000000
0.221713 0.333055 0.000000
0.259852 0.333614 0.000000
0.297711 0.334173 0.000000
0.335330 0.334733 0.000000
0.372739 0.335292 0.000000
0.409961 0.335851 0.000000
0.447014 0.336410 0.000000
0.483914 0.336968 0.000000
0.520674 0.337527 0.000000
0.557305 0.338086 0.000000
0.593815 0.338645 0.000000
0.630214 0.339204 0.000000
0.666507 0.339762 0.000000
0.702702 0.340321 0.000000
0.738804 0.340880 0.000000
0.774818 0.341438 0.000000
0.810749 0.341997 0.000000
0.846600 0.342555 0.000000
0.882375 0.343113 0.000000
0.918077 0.343672 0.000000
0.953711 0.344230 0.000000
0.989278 0.344788 0.000000
1.000000 0.345347 0.000000
1.000000 0.345905 0.000000
1.000000 0.346463 0.000000
1.000000 0.347021 0.000000
1.000000 0.347579 0.000000
0.000000 0.364499 0.000000
0.020823 0.365056 0.000000
0.062544 0.365612 0.000000
0.102793 0.366169 0.000000
0.142247 0.366725 0.000000
0.181155 0.367282 0.000000
0.219646 0.367838 0.000000
0.257800 0.368395 0.000000
0.295673 0.368951 0.000000
0.333304 0.369507 0.000000
0.370724 0.370064 0.000000
0.407956 0.370620 0.000000
0.445018 0.371176 0.000000
0.481926 0.371732 0.000000
0.518693 0.372289 0.000000
0.555330 0.372845 0.000000
0.591847 0.373401 0.000000
0.628251 0.373957 0.000000
0.664550 0.374513 0.000000
0.700751 0.375069 0.000000
0.736857 0.375624 0.000000
0.772876 0.376180 0.000000
0.808811 0.376736 0.000000
0.844666 0.377292 0.000000
0.880445 0.377847 0.000000
0.916152 0.378403 0.000000
0.951789 0.378959 0.000000
0.987359 0.379514 0.000000
1.000000 0.380070 0.000000
1.000000 0.380625 0.000000
1.000000 0.381181 0.000000
1.000000 0.381736 0.000000
1.000000 0.382292 0.000000
0.000000 0.399133 0.000000
0.018489 0.399687 0.000000
0.060339 0.400241 0.000000
0.100643 0.400796 0.000000
0.140133 0.401350 0.000000
0.179066 0.401904 0.000000
0.217577 0.402458 0.000000
0.255748 0.403011 0.000000
0.293635 0.403565 0.000000
0.331278 0.404119 0.000000
0.368709 0.404673 0.000000
0.405950 0.405227 0.000000
0.443021 0.405781 0.000000
0.479937 0.406334 0.000000
0.516711 0.406888 0.000000
0.553355 0.407441 0.000000
0.589878 0.407995 0.000000
0.626289 0.408549 0.000000
0.662593 0.409102 0.000000
0.698799 0.409656 0.000000
0.734910 0.410209 0.000000
0.770934 0.410762 0.000000
0.806873 0.411316 0.000000
0.842732 0.411869 0.000000
0.878515 0.412422 0.000000
0.914226 0.412976 0.000000
0.949867 0.413529 0.000000
0.985441 0.414082 0.000000
1.000000 0.414635 0.000000
1.000000 0.415188 0.000000
1.000000 0.415741 0.000000
1.000000 0.416294 0.000000
1.000000 0.416847 0.000000
0.000000 0.433618 0.000000
0.016140 0.434170 0.000000
0.058131 0.434721 0.000000
0.098491 0.435273 0.000000
0.138017 0.435825 0.000000
0.176976 0.436377 0.000000
0.215507 0.436928 0.000000
0.253694 0.437480 0.000000
0.291596 0.438032 0.000000
0.329252 0.438583 0.000000
0.366693 0.439135 0.000000
0.403944 0.439686 0.000000
0.441023 0.440238 0.000000
0.477947 0.440789 0.000000
0.514729 0.441341 0.000000
0.551380 0.441892 0.000000
0.587909 0.442443 0.000000
0.624326 0.442995 0.000000
0.660636 0.443546 0.000000
0.696846 0.444097 0.000000
0.732963 0.444648 0.000000
0.768991 0.445199 0.000000
0.804935 0.445751 0.000000
0.840798 0.446302 0.000000
0.876585 0.446853 0.000000
0.912300 0.447404 0.000000
0.947944 0.447955 0.000000
0.983522 0.448506 0.000000
1.000000 0.449057 0.000000
1.000000 0.449608 0.000000
1.000000 0.450159 0.000000
1.000000 0.450709 0.000000
1.000000 0.451260 0.000000
0.000000 0.467965 0.000000
0.013774 0.468515 0.000000
0.055918 0.469065 0.000000
0.096337 0.469615 0.000000
0.135899 0.470164 0.000000
0.174884 0.470714 0.000000
0.213436 0.471263 0.000000
0.251641 0.471813 0.000000
0.289556 0.472363 0.000000
0.327224 0.472912 0.000000
0.364677 0.473462 0.000000
0.401937 0.474011 0.000000
0.439026 0.474560 0.000000
0.475958 0.475110 0.000000
0.512747 0.475659 0.000000
0.549405 0.476209 0.000000
0.585940 0.476758 0.000000
0.622362 0.477307 0.000000
0.658678 0.477856 0.000000
0.694894 0.478405 0.000000
0.731015 0.478955 0.000000
0.767048 0.479504 0.000000
0.802996 0.480053 0.000000
0.838864 0.480602 0.000000
0.874655 0.481151 0.000000
0.910373 0.481700 0.000000
0.946021 0.482249 0.000000
0.981602 0.482798 0.000000
1.000000 0.483347 0.000000
1.000000 0.483896 0.000000
1.000000 0.484444 0.000000
1.000000 0.484993 0.000000
1.000000 0.485542 0.000000
0.000000 0.502187 0.000000
0.011388 0.502735 0.000000
0.053701 0.503283 0.000000
0.094180 0.503831 0.000000
0.133779 0.504379 0.000000
0.172791 0.504926 0.000000
0.211364 0.505474 0.000000
0.249586 0.506022 0.000000
0.287516 0.506569 0.000000
0.325197 0.507117 0.000000
0.362660 0.507664 0.000000
0.399930 0.508212 0.000000
0.437027 0.508759 0.000000
0.473968 0.509307 0.000000
0.510764 0.509854 0.000000
0.547429 0.510402 0.000000
0.583971 0.510949 0.000000
0.620399 0.511496 0.000000
0.656720 0.512044 0.000000
0.692941 0.512591 0.000000
0.729068 0.513138 0.000000
0.765105 0.513686 0.000000
0.801057 0.514233 0.000000
0.836929 0.514780 0.000000
0.872725 0.515327 0.000000
0.908447 0.515874 0.000000
0.944098 0.516421 0.000000
0.979683 0.516968 0.000000
1.000000 0.517515 0.000000
1.000000 0.518062 0.000000
1.000000 0.518609 0.000000
1.000000 0.519156 0.000000
1.000000 0.519703 0.000000
0.000000 0.536293 0.000000
0.008976 0.536839 0.000000
0.051479 0.537385 0.000000
0.092021 0.537931 0.000000
0.131658 0.538477 0.000000
0.170697 0.539023 0.000000
0.209291 0.539569 0.000000
0.247530 0.540115 0.000000
0.285475 0.540661 0.000000
0.323168 0.541206 0.000000
0.360642 0.541752 0.000000
0.397922 0.542298 0.000000
0.435029 0.542844 0.000000
0.471977 0.543389 0.000000
0.508781 0.543935 0.000000
0.545452 0.544481 0.000000
0.582001 0.545026 0.000000
0.618435 0.545572 0.000000
0.654762 0.546117 0.000000
0.690988 0.546663 0.000000
0.727119 0.547209 0.000000
0.763161 0.547754 0.000000
0.799118 0.548299 0.000000
0.834995 0.548845 0.000000
0.870794 0.549390 0.000000
0.906520 0.549936 0.000000
0.942175 0.550481 0.000000
0.977764 0.551026 0.000000
1.000000 0.551572 0.000000
1.000000 0.552117 0.000000
1.000000 0.552662 0.000000
1.000000 0.553207 0.000000
1.000000 0.553753 0.000000
0.000000 0.570291 0.000000
0.006530 0.570835 0.000000
0.049253 0.571379 0.000000
0.089860 0.571924 0.000000
0.129535 0.572468 0.000000
0.168602 0.573012 0.000000
0.207217 0.573556 0.000000
0.245473 0.574101 0.000000
0.283433 0.574645 0.000000
0.321139 0.575189 0.000000
0.358624 0.575733 0.000000
0.395914 0.576277 0.000000
0.433029 0.576821 0.000000
0.469986 0.577365 0.000000
0.506797 0.577909 0.000000
0.543476 0.578453 0.000000
0.580031 0.578997 0.000000
0.616470 0.579541 0.000000
0.652803 0.580085 0.000000
0.689034 0.580629 0.000000
0.725171 0.581173 0.000000
0.761218 0.581717 0.000000
0.797179 0.582261 0.000000
0.833060 0.582804 0.000000
0.868863 0.583348 0.000000
0.904593 0.583892 0.000000
0.940252 0.584436 0.000000
0.975844 0.584979 0.000000
1.000000 0.585523 0.000000
1.000000 0.586067 0.000000
1.000000 0.586610 0.000000
1.000000 0.587154 0.000000
1.000000 0.587697 0.000000
0.000000 0.604187 0.000000
0.004037 0.604730 0.000000
0.047021 0.605273 0.000000
0.087695 0.605815 0.000000
0.127410 0.606358 0.000000
0.166505 0.606901 0.000000
0.205142 0.607443 0.000000
0.243416 0.607986 0.000000
0.281390 0.608529 0.000000
0.319109 0.609071 0.000000
0.356606 0.609614 0.000000
0.393906 0.610156 0.000000
0.431030 0.610699 0.000000
0.467994 0.611241 0.000000
0.504814 0.611784 0.000000
0.541499 0.612326 0.000000
0.578060 0.612869 0.000000
0.614506 0.613411 0.000000
0.650844 0.613954 0.000000
0.687081 0.614496 0.000000
0.723222 0.615038 0.000000
0.759274 0.615581 0.000000
0.795240 0.616123 0.000000
0.831124 0.616665 0.000000
0.866932 0.617207 0.000000
0.902666 0.617750 0.000000
0.938329 0.618292 0.000000
0.973924 0.618834 0.000000
1.000000 0.619376 0.000000
1.000000 0.619918 0.000000
1.000000 0.620460 0.000000
1.000000 0.621002 0.000000
1.000000 0.621544 0.000000
0.000000 0.637989 0.000000
0.001457 0.638530 0.000000
0.044784 0.639071 0.000000
0.085528 0.639612 0.000000
0.125284 0.640154 0.000000
0.164407 0.640695 0.000000
0.203066 0.641236 0.000000
0.241358 0.641777 0.000000
0.279347 0.642318 0.000000
0.317078 0.642860 0.000000
0.354586 0.643401 0.000000
0.391897 0.643942 0.000000
0.429030 0.644483 0.000000
0.466003 0.645024 0.000000
0.502829 0.645565 0.000000
0.539521 0.646106 0.000000
0.576089 0.646647 0.000000
0.612541 0.647188 0.000000
0.648885 0.647729 0.000000
0.685127 0.648270 0.000000
0.721273 0.648811 0.000000
0.757330 0.649351 0.000000
0.793300 0.649892 0.000000
0.829189 0.650433 0.000000
0.865001 0.650974 0.000000
0.900738 0.651515 0.000000
0.936405 0.652055 0.000000
0.972004 0.652596 0.000000
1.000000 0.653137 0.000000
1.000000 0.653678 0.000000
1.000000 0.654218 0.000000
1.000000 0.654759 0.000000
1.000000 0.655299 0.000000
0.000000 0.671701 0.000000
0.000000 0.672241 0.000000
0.042542 0.672781 0.000000
0.083359 0.673321 0.000000
0.123156 0.673860 0.000000
0.162308 0.674400 0.000000
0.200989 0.674940 0.000000
0.239299 0.675480 0.000000
0.277303 0.676020 0.000000
0.315047 0.676559 0.000000
0.352567 0.677099 0.000000
0.389887 0.677639 0.000000
0.427029 0.678178 0.000000
0.464010 0.678718 0.000000
0.500844 0.679258 0.000000
0.537544 0.679797 0.000000
0.574118 0.680337 0.000000
0.610576 0.680877 0.000000
0.646925 0.681416 0.000000
0.683173 0.681956 0.000000
0.719324 0.682495 0.000000
0.755385 0.683035 0.000000
0.791360 0.683574 0.000000
0.827253 0.684114 0.000000
0.863069 0.684653 0.000000
0.898811 0.685192 0.000000
0.934481 0.685732 0.000000
0.970084 0.686271 0.000000
1.000000 0.686811 0.000000
1.000000 0.687350 0.000000
1.000000 0.687889 0.000000
1.000000 0.688428 0.000000
1.000000 0.688968 0.000000
0.000000 0.705329 0.000000
0.000000 0.705867 0.000000
0.040293 0.706406 0.000000
0.081186 0.706944 0.000000
0.121026 0.707483 0.000000
0.160207 0.708021 0.000000
0.198911 0.708560 0.000000
0.237239 0.709098 0.000000
0.275258 0.709637 0.000000
0.313016 0.710175 0.000000
0.350546 0.710714 0.000000
0.387877 0.711252 0.000000
0.425028 0.711791 0.000000
0.462018 0.712329 0.000000
0.498859 0.712867 0.000000
0.535566 0.713406 0.000000
0.572146 0.713944 0.000000
0.608610 0.714482 0.000000
0.644965 0.715020 0.000000
0.681218 0.715559 0.000000
0.717375 0.716097 0.000000
0.753440 0.716635 0.000000
0.789420 0.717173 0.000000
0.825318 0.717711 0.000000
0.861137 0.718250 0.000000
0.896883 0.718788 0.000000
0.932557 0.719326 0.000000
0.968163 0.719864 0.000000
1.000000 0.720402 0.000000
1.000000 0.720940 0.000000
1.000000 0.721478 0.000000
1.000000 0.722016 0.000000
1.000000 0.722554 0.000000
0.000000 0.738876 0.000000
0.000000 0.739414 0.000000
0.038039 0.739951 0.000000
0.079011 0.740488 0.000000
0.118894 0.741026 0.000000
0.158105 0.741563 0.000000
0.196832 0.742100 0.000000
0.235178 0.742637 0.000000
0.273212 0.743175 0.000000
0.310983 0.743712 0.000000
0.348525 0.744249 0.000000
0.385866 0.744786 0.000000
0.423027 0.745323 0.000000
0.460024 0.745861 0.000000
0.496874 0.746398 0.000000
0.533587 0.746935 0.000000
0.570174 0.747472 0.000000
0.606644 0.748009 0.000000
0.643005 0.748546 0.000000
0.679263 0.749083 0.000000
0.715425 0.749620 0.000000
0.751496 0.750157 0.000000
0.787480 0.750694 0.000000
0.823382 0.751231 0.000000
0.859205 0.751768 0.000000
0.894955 0.752305 0.000000
0.930633 0.752841 0.000000
0.966242 0.753378 0.000000
1.000000 0.753915 0.000000
1.000000 0.754452 0.000000
1.000000 0.754989 0.000000
1.000000 0.755525 0.000000
1.000000 0.756062 0.000000
0.000000 0.772348 0.000000
0.000000 0.772884 0.000000
0.035777 0.773420 0.000000
0.076832 0.773957 0.000000
0.116760 0.774493 0.000000
0.156002 0.775029 0.000000
0.194751 0.775565 0.000000
0.233116 0.776101 0.000000
0.271166 0.776637 0.000000
0.308950 0.777173 0.000000
0.346504 0.777709 0.000000
0.383855 0.778245 0.000000
0.421025 0.778781 0.000000
0.458031 0.779317 0.000000
0.494888 0.779853 0.000000
0.531608 0.780389 0.000000
0.568202 0.780925 0.000000
0.604678 0.781460 0.000000
0.641045 0.781996 0.000000
0.677308 0.782532 0.000000
0.713475 0.783068 0.000000
0.749550 0.783604 0.000000
0.785539 0.784140 0.000000
0.821445 0.784675 0.000000
0.857273 0.785211 0.000000
0.893026 0.785747 0.000000
0.928708 0.786283 0.000000
0.964322 0.786818 0.000000
0.999869 0.787354 0.000000
1.000000 0.787890 0.000000
1.000000 0.788425 0.000000
1.000000 0.788961 0.000000
1.000000 0.789496 0.000000
0.000000 0.805747 0.000000
0.000000 0.806283 0.000000
0.033509 0.806818 0.000000
0.074651 0.807353 0.000000
0.114624 0.807888 0.000000
0.153897 0.808422 0.000000
0.192670 0.808957 0.000000
0.231053 0.809492 0.000000
0.269119 0.810027 0.000000
0.306916 0.810562 0.000000
0.344482 0.811097 0.000000
0.381843 0.811632 0.000000
0.419022 0.812167 0.000000
0.456037 0.812702 0.000000
0.492902 0.813236 0.000000
0.529629 0.813771 0.000000
0.566229 0.814306 0.000000
0.602712 0.814841 0.000000
0.639084 0.815375 0.000000
0.675353 0.815910 0.000000
0.711525 0.816445 0.000000
0.747605 0.816980 0.000000
0.783598 0.817514 0.000000
0.819509 0.818049 0.000000
0.855341 0.818583 0.000000
0.891098 0.819118 0.000000
0.926784 0.819653 0.000000
0.962401 0.820187 0.000000
0.997952 0.820722 0.000000
1.000000 0.821256 0.000000
1.000000 0.821791 0.000000
1.000000 0.822325 0.000000
1.000000 0.822860 0.000000
0.000000 0.839078 0.000000
0.000000 0.839612 0.000000
0.031232 0.840146 0.000000
0.072466 0.840680 0.000000
0.112486 0.841213 0.000000
0.151791 0.841747 0.000000
0.190587 0.842281 0.000000
0.228989 0.842815 0.000000
0.267071 0.843349 0.000000
0.304882 0.843883 0.000000
0.342459 0.844417 0.000000
0.379831 0.844950 0.000000
0.417019 0.845484 0.000000
0.454042 0.846018 0.000000
0.490915 0.846552 0.000000
0.527650 0.847085 0.000000
0.564257 0.847619 0.000000
0.600745 0.848153 0.000000
0.637123 0.848686 0.000000
0.673397 0.849220 0.000000
0.709574 0.849754 0.000000
0.745659 0.850287 0.000000
0.781657 0.850821 0.000000
0.817572 0.851354 0.000000
0.853408 0.851888 0.000000
0.889169 0.852422 0.000000
0.924859 0.852955 0.000000
0.960479 0.853489 0.000000
0.996034 0.854022 0.000000
1.000000 0.854556 0.000000
1.000000 0.855089 0.000000
1.000000 0.855622 0.000000
1.000000 0.856156 0.000000
0.000000 0.872342 0.000000
0.000000 0.872875 0.000000
0.028948 0.873408 0.000000
0.070278 0.873941 0.000000
0.110347 0.874473 0.000000
0.149683 0.875006 0.000000
0.188503 0.875539 0.000000
0.226925 0.876072 0.000000
0.265022 0.876605 0.000000
0.302847 0.877138 0.000000
0.340436 0.877670 0.000000
0.377818 0.878203 0.000000
0.415016 0.878736 0.000000
0.452047 0.879269 0.000000
0.488928 0.879801 0.000000
0.525670 0.880334 0.000000
0.562283 0.880867 0.000000
0.598778 0.881399 0.000000
0.635162 0.881932 0.000000
0.671442 0.882465 0.000000
0.707624 0.882997 0.000000
0.743713 0.883530 0.000000
0.779716 0.884062 0.000000
0.815635 0.884595 0.000000
0.851475 0.885127 0.000000
0.887241 0.885660 0.000000
0.922934 0.886193 0.000000
0.958558 0.886725 0.000000
0.994116 0.887257 0.000000
1.000000 0.887790 0.000000
1.000000 0.888322 0.000000
1.000000 0.888855 0.000000
1.000000 0.889387 0.000000
0.000000 0.905543 0.000000
0.000000 0.906075 0.000000
0.026654 0.906607 0.000000
0.068087 0.907138 0.000000
0.108205 0.907670 0.000000
0.147574 0.908202 0.000000
0.186418 0.908734 0.000000
0.224859 0.909266 0.000000
0.262973 0.909798 0.000000
0.300811 0.910330 0.000000
0.338412 0.910861 0.000000
0.375805 0.911393 0.000000
0.413012 0.911925 0.000000
0.450052 0.912457 0.000000
0.486940 0.912988 0.000000
0.523689 0.913520 0.000000
0.560310 0.914052 0.000000
0.596811 0.914583 0.000000
0.633200 0.915115 0.000000
0.669485 0.915647 0.000000
0.705673 0.916178 0.000000
0.741767 0.916710 0.000000
0.777774 0.917241 0.000000
0.813698 0.917773 0.000000
0.849542 0.918305 0.000000
