presets/film_stocks/Kodak_Vericolor_III.cube
# 独寻胶片模拟 -- Kodak Vericolor III
# Kodak, ISO 160, 1983, negative
TITLE "Kodak Vericolor III"
LUT_3D_SIZE 5
DOMAIN_MIN 0.0 0.0 0.0
DOMAIN_MAX 1.0 1.0 1.0
0.000000 0.000000 0.000000
0.345971 0.006925 0.000000
0.635478 0.012720 0.000000
0.906915 0.018153 0.000000
1.000000 0.023364 0.000000
0.000000 0.315097 0.000000
0.325481 0.318653 0.000000
0.616701 0.322204 0.000000
0.889063 0.325750 0.000000
1.000000 0.329291 0.000000
0.000000 0.578769 0.000000
0.304809 0.582036 0.000000
0.597843 0.585302 0.000000
0.871159 0.588564 0.000000
1.000000 0.591825 0.000000
0.000000 0.825983 0.000000
0.283939 0.829092 0.000000
0.578902 0.832200 0.000000
0.853205 0.835306 0.000000
1.000000 0.838411 0.000000
0.000000 1.000000 0.000000
0.262852 1.000000 0.000000
0.559873 1.000000 0.000000
0.835197 1.000000 0.000000
1.000000 1.000000 0.000000
0.000000 0.000000 0.307789
0.317149 0.000000 0.301762
0.609089 0.000000 0.295718
0.881833 0.000000 0.289657
1.000000 0.000000 0.283578
0.000000 0.292806 0.302441
0.296399 0.296399 0.296399
0.590198 0.299986 0.290340
0.863909 0.303568 0.284263
1.000000 0.307143 0.278168
0.000000 0.558350 0.297080
0.275444 0.561634 0.291023
0.571222 0.564915 0.284948
0.845933 0.568194 0.278855
1.000000 0.571471 0.272743
0.000000 0.806572 0.291706
0.254262 0.809692 0.285633
0.552157 0.812810 0.279542
0.827904 0.815926 0.273432
1.000000 0.819041 0.267303
0.000000 1.000000 0.286317
0.232831 1.000000 0.280229
0.532999 1.000000 0.274121
0.809819 1.000000 0.267994
1.000000 1.000000 0.261848
0.000000 0.000000 0.565346
0.287956 0.000000 0.559815
0.582539 0.000000 0.554276
0.856650 0.000000 0.548729
1.000000 0.000000 0.543174
0.000000 0.270275 0.560438
0.266912 0.273909 0.554900
0.563528 0.277535 0.549354
0.838653 0.281155 0.543800
1.000000 0.284769 0.538239
0.000000 0.537826 0.555523
0.245632 0.541127 0.549978
0.544426 0.544426 0.544426
0.820601 0.547721 0.538865
1.000000 0.551015 0.533296
0.000000 0.787096 0.550603
0.224091 0.790226 0.545051
0.525230 0.793355 0.539491
0.802494 0.796482 0.533923
1.000000 0.799607 0.528348
0.000000 1.000000 0.545676
0.202256 1.000000 0.540118
0.505935 1.000000 0.534551
0.784329 1.000000 0.528976
1.000000 1.000000 0.523392
0.000000 0.000000 0.806827
0.258341 0.000000 0.801565
0.555818 0.000000 0.796299
0.831364 0.000000 0.791028
1.000000 0.000000 0.785752
0.000000 0.247478 0.802158
0.236959 0.251156 0.796892
0.536679 0.254827 0.791622
0.813290 0.258490 0.786346
1.000000 0.262146 0.781066
0.000000 0.517191 0.797485
0.215304 0.520511 0.792215
0.517443 0.523827 0.786940
0.795159 0.527141 0.781660
1.000000 0.530452 0.776376
0.000000 0.767551 0.792809
0.193338 0.770693 0.787534
0.498107 0.773833 0.782255
0.776971 0.776971 0.776971
1.000000 0.780107 0.771681
0.000000 1.000000 0.788128
0.171017 1.000000 0.782849
0.478665 1.000000 0.777566
0.758722 1.000000 0.772277
1.000000 1.000000 0.766983
0.000000 0.000000 1.000000
0.228242 0.000000 1.000000
0.528917 0.000000 1.000000
0.805969 0.000000 1.000000
1.000000 0.000000 1.000000
0.000000 0.224382 1.000000
0.206466 0.228111 1.000000
0.509641 0.231831 1.000000
0.787815 0.235543 1.000000
1.000000 0.239246 1.000000
0.000000 0.496441 1.000000
0.184363 0.499780 1.000000
0.490263 0.503115 1.000000
0.769603 0.506447 1.000000
1.000000 0.509776 1.000000
0.000000 0.747937 1.000000
0.161881 0.751090 1.000000
0.470777 0.754241 1.000000
0.751330 0.757391 1.000000
1.000000 0.760538 1.000000
0.000000 0.987877 1.000000
0.138952 0.990910 1.000000
0.451177 0.993941 1.000000
0.732994 0.996971 1.000000
1.000000 1.000000 1.000000
