presets/film_stocks/Kodak_Portra_400.cube
# 独寻胶片模拟 -- Kodak Portra 400
# Kodak, ISO 400, 2010, negative
TITLE "Kodak Portra 400"
LUT_3D_SIZE 9
DOMAIN_MIN 0.0 0.0 0.0
DOMAIN_MAX 1.0 1.0 1.0
0.000000 0.000000 0.000000
0.195768 0.008390 0.000000
0.347158 0.014878 0.000000
0.485352 0.020801 0.000000
0.615619 0.026383 0.000000
0.740292 0.031727 0.000000
0.860681 0.036886 0.000000
0.977620 0.041898 0.000000
1.000000 0.046786 0.000000
0.000000 0.190710 0.000000
0.189612 0.194301 0.000000
0.341708 0.197879 0.000000
0.480276 0.201442 0.000000
0.610791 0.204993 0.000000
0.735648 0.208530 0.000000
0.856182 0.212056 0.000000
0.973241 0.215568 0.000000
1.000000 0.219069 0.000000
0.000000 0.338188 0.000000
0.183413 0.341376 0.000000
0.336241 0.344557 0.000000
0.475188 0.347732 0.000000
0.605956 0.350900 0.000000
0.730999 0.354063 0.000000
0.851679 0.357220 0.000000
0.968857 0.360371 0.000000
1.000000 0.363516 0.000000
0.000000 0.472812 0.000000
0.177170 0.475784 0.000000
0.330754 0.478752 0.000000
0.470089 0.481716 0.000000
0.601112 0.484676 0.000000
0.726343 0.487632 0.000000
0.847170 0.490584 0.000000
0.964469 0.493533 0.000000
1.000000 0.496478 0.000000
0.000000 0.599714 0.000000
0.170881 0.602541 0.000000
0.325249 0.605366 0.000000
0.464979 0.608187 0.000000
0.596260 0.611006 0.000000
0.721680 0.613823 0.000000
0.842657 0.616636 0.000000
0.960078 0.619447 0.000000
1.000000 0.622256 0.000000
0.000000 0.721165 0.000000
0.164542 0.723886 0.000000
0.319723 0.726604 0.000000
0.459856 0.729320 0.000000
0.591399 0.732033 0.000000
0.717012 0.734745 0.000000
0.838138 0.737455 0.000000
0.955681 0.740162 0.000000
1.000000 0.742868 0.000000
0.000000 0.838444 0.000000
0.158152 0.841079 0.000000
0.314178 0.843713 0.000000
0.454721 0.846345 0.000000
0.586530 0.848976 0.000000
0.712337 0.851605 0.000000
0.833615 0.854232 0.000000
0.951281 0.856857 0.000000
1.000000 0.859481 0.000000
0.000000 0.952361 0.000000
0.151707 0.954928 0.000000
0.308612 0.957492 0.000000
0.449575 0.960056 0.000000
0.581653 0.962618 0.000000
0.707656 0.965178 0.000000
0.829086 0.967737 0.000000
0.946877 0.970295 0.000000
1.000000 0.972851 0.000000
0.000000 1.000000 0.000000
0.145204 1.000000 0.000000
0.303025 1.000000 0.000000
0.444416 1.000000 0.000000
0.576767 1.000000 0.000000
0.702968 1.000000 0.000000
0.824552 1.000000 0.000000
0.942468 1.000000 0.000000
1.000000 1.000000 0.000000
0.000000 0.000000 0.187141
0.185554 0.000000 0.181941
0.338127 0.000000 0.176710
0.476943 0.000000 0.171447
0.607623 0.000000 0.166149
0.732602 0.007382 0.160815
0.853231 0.013990 0.155444
0.970368 0.019975 0.150034
1.000000 0.025599 0.144583
0.000000 0.175674 0.184542
0.179327 0.179327 0.179327
0.332647 0.182964 0.174079
0.471848 0.186586 0.168799
0.602782 0.190194 0.163483
0.727948 0.193787 0.158131
0.848725 0.197366 0.152741
0.965982 0.200932 0.147311
1.000000 0.204484 0.141838
0.000000 0.324914 0.181935
0.173053 0.328128 0.176704
0.327148 0.331335 0.171440
0.466741 0.334536 0.166142
0.597933 0.337731 0.160809
0.723288 0.340919 0.155438
0.844213 0.344101 0.150028
0.961591 0.347276 0.144576
1.000000 0.350446 0.139081
0.000000 0.460457 0.179320
0.166732 0.463445 0.174073
0.321630 0.466429 0.168793
0.461623 0.469409 0.163477
0.593075 0.472386 0.158125
0.718621 0.475358 0.152735
0.839696 0.478326 0.147304
0.957197 0.481290 0.141831
1.000000 0.484251 0.136313
0.000000 0.587968 0.176698
0.160360 0.590807 0.171434
0.316091 0.593644 0.166136
0.456492 0.596477 0.160802
0.588209 0.599308 0.155431
0.713949 0.602135 0.150021
0.835174 0.604960 0.144570
0.952798 0.607783 0.139075
1.000000 0.610602 0.133533
0.000000 0.709871 0.174067
0.153934 0.712600 0.168786
0.310532 0.715327 0.163471
0.451350 0.718052 0.158119
0.583335 0.720775 0.152728
0.709269 0.723495 0.147297
0.830647 0.726214 0.141824
0.948395 0.728930 0.136307
1.000000 0.731644 0.130741
0.000000 0.827504 0.171428
0.147452 0.830147 0.166130
0.304952 0.832788 0.160796
0.446195 0.835428 0.155425
0.578452 0.838065 0.150015
0.704584 0.840701 0.144563
0.826115 0.843335 0.139068
0.943987 0.845968 0.133527
1.000000 0.848599 0.127937
0.000000 0.941713 0.168780
0.140909 0.944285 0.163464
0.299351 0.946856 0.158112
0.441027 0.949425 0.152722
0.573560 0.951993 0.147291
0.699892 0.954559 0.141818
0.821577 0.957124 0.136300
0.939576 0.959688 0.130735
1.000000 0.962250 0.125119
0.000000 1.000000 0.166123
0.134301 1.000000 0.160790
0.293728 1.000000 0.155418
0.435847 1.000000 0.150008
0.568660 1.000000 0.144556
0.695193 1.000000 0.139061
0.817035 1.000000 0.133520
0.935159 1.000000 0.127930
1.000000 1.000000 0.122288
0.000000 0.000000 0.331859
0.175220 0.000000 0.327255
0.329045 0.000000 0.322638
0.468502 0.000000 0.318008
0.599605 0.000000 0.313362
0.724894 0.000000 0.308703
0.845768 0.000000 0.304028
0.963105 0.000000 0.299339
1.000000 0.000000 0.294634
0.000000 0.160362 0.329556
0.168916 0.164084 0.324946
0.323533 0.167789 0.320322
0.463388 0.171477 0.315684
0.594750 0.175148 0.311032
0.720230 0.178803 0.306365
0.841253 0.182443 0.301683
0.958712 0.186067 0.296985
1.000000 0.189677 0.292272
0.000000 0.311524 0.327250
0.162562 0.314767 0.322633
0.318002 0.318002 0.318002
0.458261 0.321230 0.313357
0.589887 0.324452 0.308697
0.715560 0.327667 0.304023
0.836733 0.330875 0.299333
0.954314 0.334077 0.294628
1.000000 0.337273 0.289907
0.000000 0.448032 0.324940
0.156155 0.451037 0.320316
0.312450 0.454038 0.315678
0.453123 0.457035 0.311026
0.585015 0.460028 0.306359
0.710883 0.463017 0.301677
0.832208 0.466001 0.296980
0.949913 0.468982 0.292267
1.000000 0.471959 0.287538
0.000000 0.576173 0.322627
0.149692 0.579025 0.317996
0.306878 0.581873 0.313351
0.447973 0.584718 0.308692
0.580135 0.587561 0.304017
0.706199 0.590400 0.299328
0.827677 0.593237 0.294622
0.945507 0.596071 0.289901
1.000000 0.598902 0.285164
0.000000 0.698539 0.320311
0.143170 0.701277 0.315673
0.301284 0.704013 0.311020
0.442809 0.706747 0.306353
0.575247 0.709479 0.301671
0.701509 0.712209 0.296974
0.823142 0.714936 0.292261
0.941096 0.717661 0.287532
1.000000 0.720384 0.282787
0.000000 0.816534 0.317991
0.136586 0.819184 0.313346
0.295668 0.821833 0.308686
0.437634 0.824480 0.304011
0.570350 0.827125 0.299322
0.696813 0.829768 0.294617
0.818601 0.832409 0.289896
0.936682 0.835049 0.285159
1.000000 0.837687 0.280405
0.000000 0.931039 0.315667
0.129934 0.933617 0.311015
0.290030 0.936194 0.306348
0.432445 0.938769 0.301666
0.565443 0.941343 0.296968
0.692109 0.943916 0.292255
0.814054 0.946487 0.287526
0.932263 0.949057 0.282781
1.000000 0.951625 0.278019
0.000000 1.000000 0.313340
0.123209 1.000000 0.308680
0.284368 1.000000 0.304006
0.427243 1.000000 0.299316
0.560528 1.000000 0.294611
0.687399 1.000000 0.289890
0.809503 1.000000 0.285153
0.927839 1.000000 0.280399
1.000000 1.000000 0.275628
0.000000 0.000000 0.463963
0.164757 0.000000 0.459674
0.319910 0.000000 0.455378
0.460029 0.000000 0.451072
0.591564 0.000000 0.446758
0.717170 0.000000 0.442435
0.838291 0.000000 0.438104
0.955830 0.000000 0.433763
1.000000 0.000000 0.429413
0.000000 0.144736 0.461817
0.158369 0.148538 0.457524
0.314366 0.152320 0.453223
0.454895 0.156082 0.448914
0.586695 0.159826 0.444595
0.712495 0.163551 0.440268
0.833768 0.167259 0.435932
0.951430 0.170949 0.431587
1.000000 0.174622 0.427232
0.000000 0.298013 0.459669
0.151926 0.301285 0.455372
0.308800 0.304550 0.451067
0.449749 0.307808 0.446753
0.581818 0.311058 0.442430
0.707814 0.314302 0.438098
0.829239 0.317538 0.433758
0.947025 0.320768 0.429408
1.000000 0.323990 0.425049
0.000000 0.435534 0.457519
0.145425 0.438557 0.453218
0.303214 0.441576 0.448908
0.444590 0.444590 0.444590
0.576932 0.447600 0.440263
0.703126 0.450606 0.435927
0.824705 0.453608 0.431581
0.942617 0.456605 0.427227
1.000000 0.459599 0.422863
0.000000 0.564328 0.455367
0.138862 0.567191 0.451062
0.297606 0.570052 0.446748
0.439419 0.572910 0.442425
0.572038 0.575764 0.438093
0.698432 0.578616 0.433752
0.820166 0.581464 0.429403
0.938203 0.584310 0.425043
1.000000 0.587153 0.420675
0.000000 0.687168 0.453213
0.132234 0.689915 0.448903
0.291975 0.692661 0.444585
0.434235 0.695404 0.440258
0.567135 0.698145 0.435921
0.693731 0.700884 0.431576
0.815622 0.703621 0.427222
0.933786 0.706355 0.422858
1.000000 0.709087 0.418484
0.000000 0.805533 0.451057
0.125535 0.808191 0.446743
0.286322 0.810847 0.442420
0.429037 0.813501 0.438088
0.562223 0.816153 0.433747
0.689023 0.818804 0.429397
0.811072 0.821453 0.425038
0.929364 0.824100 0.420670
1.000000 0.826745 0.416292
0.000000 0.920339 0.448898
0.118760 0.922923 0.444580
0.280645 0.925507 0.440252
0.423827 0.928088 0.435916
0.557302 0.930668 0.431571
0.684309 0.933247 0.427216
0.806517 0.935824 0.422852
0.924938 0.938400 0.418479
1.000000 0.940974 0.414096
0.000000 1.000000 0.446737
0.111903 1.000000 0.442415
0.274944 1.000000 0.438083
0.418603 1.000000 0.433742
0.552372 1.000000 0.429392
0.679588 1.000000 0.425033
0.801956 1.000000 0.420664
0.920507 1.000000 0.416286
1.000000 1.000000 0.411898
0.000000 0.000000 0.588489
0.154152 0.000000 0.584410
0.310720 0.000000 0.580326
0.451524 0.000000 0.576235
0.583500 0.000000 0.572139
0.709428 0.000000 0.568036
0.830800 0.000000 0.563927
0.948544 0.000000 0.559811
1.000000 0.000000 0.555689
0.000000 0.128746 0.586448
0.147672 0.132641 0.582366
0.305141 0.136513 0.578279
0.446369 0.140362 0.574185
0.578617 0.144188 0.570085
0.704742 0.147994 0.565979
0.826268 0.151778 0.561867
0.944136 0.155544 0.557748
1.000000 0.159290 0.553623
0.000000 0.284371 0.584406
0.141131 0.287676 0.580321
0.299541 0.290972 0.576230
0.441202 0.294261 0.572134
0.573726 0.297542 0.568031
0.700050 0.300816 0.563922
0.821731 0.304082 0.559806
0.939725 0.307341 0.555684
1.000000 0.310592 0.551556
0.000000 0.422960 0.582362
0.134525 0.426002 0.578274
0.293918 0.429039 0.574180
0.436022 0.432071 0.570080
0.568826 0.435100 0.565974
0.695352 0.438123 0.561862
0.817188 0.441143 0.557744
0.935309 0.444158 0.553619
1.000000 0.447168 0.549487
0.000000 0.552430 0.580316
0.127851 0.555306 0.576225
0.288272 0.558179 0.572129
0.430830 0.561049 0.568026
0.563917 0.563917 0.563917
0.690646 0.566781 0.559801
0.812640 0.569642 0.555679
0.930888 0.572500 0.551551
1.000000 0.575355 0.547416
0.000000 0.675757 0.578269
0.121103 0.678514 0.574175
0.282604 0.681270 0.570076
0.425624 0.684022 0.565969
0.558999 0.686773 0.561857
0.685934 0.689521 0.557739
0.808087 0.692267 0.553614
0.926464 0.695011 0.549482
1.000000 0.697752 0.545344
0.000000 0.794500 0.576220
0.114275 0.797166 0.572124
0.276911 0.799829 0.568021
0.420405 0.802491 0.563912
0.554072 0.805151 0.559796
0.681215 0.807809 0.555674
0.803529 0.810466 0.551546
0.922034 0.813120 0.547411
1.000000 0.815773 0.543270
0.000000 0.909613 0.574170
0.107360 0.912204 0.570071
0.271194 0.914793 0.565965
0.415172 0.917381 0.561852
0.549135 0.919968 0.557734
0.676490 0.922553 0.553609
0.798965 0.925136 0.549477
0.917601 0.927718 0.545339
1.000000 0.930298 0.541194
0.000000 1.000000 0.572119
0.100351 1.000000 0.568016
0.265451 1.000000 0.563907
0.409925 1.000000 0.559791
0.544190 1.000000 0.555669
0.671757 1.000000 0.551541
0.794395 1.000000 0.547406
0.913163 1.000000 0.543265
1.000000 1.000000 0.539117
0.000000 0.000000 0.707668
0.143392 0.000000 0.703744
0.301473 0.000000 0.699817
0.442984 0.000000 0.695884
0.575412 0.000000 0.691948
0.701668 0.000000 0.688006
0.823295 0.000000 0.684059
0.941245 0.000000 0.680108
1.000000 0.000000 0.676152
0.000000 0.112327 0.705704
0.136809 0.116333 0.701779
0.295858 0.120311 0.697849
0.437809 0.124261 0.693914
0.570515 0.128185 0.689975
0.696971 0.132084 0.686031
0.818754 0.135959 0.682082
0.936831 0.139811 0.678128
1.000000 0.143640 0.674170
0.000000 0.270591 0.703740
0.130159 0.273930 0.699812
0.290220 0.277260 0.695880
0.432621 0.280582 0.691943
0.565609 0.283896 0.688001
0.692268 0.287202 0.684055
0.814208 0.290500 0.680103
0.932412 0.293790 0.676147
1.000000 0.297072 0.672186
0.000000 0.410307 0.701774
0.123437 0.413368 0.697844
0.284560 0.416424 0.693909
0.427419 0.419476 0.689970
0.560694 0.422523 0.686026
0.687559 0.425565 0.682077
0.809657 0.428603 0.678124
0.927989 0.431636 0.674165
1.000000 0.434665 0.670202
0.000000 0.540477 0.699807
0.116638 0.543367 0.695875
0.278875 0.546253 0.691938
0.422205 0.549137 0.687996
0.555770 0.552017 0.684050
0.682842 0.554893 0.680099
0.805100 0.557767 0.676143
0.923561 0.560638 0.672182
1.000000 0.563505 0.668216
0.000000 0.664306 0.697839
0.109754 0.667073 0.693905
0.273167 0.669838 0.689965
0.416977 0.672601 0.686021
0.550837 0.675361 0.682072
0.678119 0.678119 0.678119
0.800538 0.680874 0.674160
0.919129 0.683628 0.670197
1.000000 0.686378 0.666229
0.000000 0.783435 0.695870
0.102777 0.786109 0.691933
0.267433 0.788780 0.687992
0.411735 0.791450 0.684045
0.545895 0.794117 0.680094
0.673389 0.796783 0.676138
0.795970 0.799447 0.672177
0.914692 0.802109 0.668211
1.000000 0.804770 0.664240
0.000000 0.898860 0.693900
0.095700 0.901458 0.689961
0.261673 0.904054 0.686017
0.406479 0.906648 0.682068
0.540943 0.909241 0.678114
0.668651 0.911832 0.674156
0.791397 0.914422 0.670192
0.910251 0.917010 0.666224
1.000000 0.919597 0.662251
0.000000 1.000000 0.691929
0.088512 1.000000 0.687987
0.255886 1.000000 0.684040
0.401208 1.000000 0.680089
0.535982 1.000000 0.676133
0.663907 1.000000 0.672172
0.786818 1.000000 0.668206
0.905806 1.000000 0.664235
1.000000 1.000000 0.660260
0.000000 0.000000 0.822751
0.132459 0.000000 0.818950
0.292166 0.000000 0.815146
0.434410 0.000000 0.811338
0.567301 0.000000 0.807526
0.693890 0.000000 0.803711
0.815775 0.000000 0.799892
0.933935 0.000000 0.796069
1.000000 0.000000 0.792242
0.000000 0.095385 0.820849
0.125762 0.099528 0.817046
0.286513 0.103635 0.813240
0.429213 0.107708 0.809430
0.562389 0.111749 0.805617
0.689182 0.115760 0.801799
0.811226 0.119742 0.797978
0.929514 0.123696 0.794153
1.000000 0.127623 0.790324
0.000000 0.256661 0.818946
0.118990 0.260037 0.815142
0.280837 0.263404 0.811334
0.424003 0.266762 0.807522
0.557468 0.270111 0.803706
0.684468 0.273451 0.799887
0.806671 0.276783 0.796064
0.925087 0.280106 0.792237
1.000000 0.283421 0.788406
0.000000 0.397572 0.817042
0.112136 0.400653 0.813236
0.275137 0.403729 0.809426
0.418780 0.406801 0.805612
0.552538 0.409867 0.801795
0.679747 0.412929 0.797974
0.802111 0.415986 0.794149
0.920657 0.419038 0.790320
1.000000 0.422086 0.786487
0.000000 0.528469 0.815137
0.105192 0.531373 0.811329
0.269411 0.534273 0.807517
0.413543 0.537169 0.803702
0.547599 0.540062 0.799882
0.675019 0.542953 0.796059
0.797545 0.545839 0.792232
0.916222 0.548723 0.788401
1.000000 0.551603 0.784567
0.000000 0.652813 0.813231
0.098151 0.655590 0.809421
0.263661 0.658365 0.805608
0.408291 0.661138 0.801790
0.542651 0.663908 0.797969
0.670285 0.666676 0.794144
0.792974 0.669441 0.790315
0.911782 0.672204 0.786482
1.000000 0.674965 0.782645
0.000000 0.772337 0.811324
0.091002 0.775019 0.807513
0.257883 0.777698 0.803697
0.403026 0.780376 0.799878
0.537693 0.783051 0.796055
0.665543 0.785725 0.792228
0.788397 0.788397 0.788397
0.907338 0.791067 0.784562
1.000000 0.793735 0.780723
0.000000 0.888080 0.809417
0.083733 0.890685 0.805603
0.252079 0.893287 0.801786
0.397746 0.895888 0.797964
0.532725 0.898487 0.794139
0.660794 0.901085 0.790310
0.783814 0.903681 0.786478
0.902889 0.906276 0.782641
1.000000 0.908869 0.778800
0.000000 1.000000 0.807508
0.076329 1.000000 0.803693
0.246246 1.000000 0.799873
0.392452 1.000000 0.796050
0.527748 1.000000 0.792223
0.656038 1.000000 0.788392
0.779226 1.000000 0.784557
0.898436 1.000000 0.780719
1.000000 1.000000 0.776876
0.000000 0.000000 0.934536
0.121333 0.000000 0.930837
0.282796 0.000000 0.927134
0.425800 0.000000 0.923427
0.559165 0.000000 0.919718
0.686093 0.000000 0.916006
0.808241 0.000000 0.912290
0.926613 0.000000 0.908571
1.000000 0.000000 0.904850
0.000000 0.077781 0.932685
0.114507 0.082100 0.928983
0.277104 0.086372 0.925279
0.420581 0.090600 0.921571
0.554238 0.094787 0.917860
0.681375 0.098936 0.914146
0.803683 0.103048 0.910429
0.922184 0.107126 0.906709
1.000000 0.111171 0.902985
0.000000 0.242571 0.930832
0.107595 0.245987 0.927129
0.271387 0.249393 0.923423
0.415349 0.252789 0.919714
0.549302 0.256176 0.916001
0.676649 0.259553 0.912286
0.799119 0.262922 0.908567
0.917751 0.266281 0.904845
1.000000 0.269631 0.901120
0.000000 0.384750 0.928979
0.100589 0.387853 0.925274
0.265645 0.390950 0.921566
0.410103 0.394042 0.917856
0.544357 0.397129 0.914142
0.671917 0.400211 0.910425
0.794549 0.403288 0.906704
0.913313 0.406360 0.902981
1.000000 0.409428 0.899254
0.000000 0.516404 0.927125
0.093478 0.519321 0.923418
0.259877 0.522235 0.919709
0.404842 0.525145 0.915997
0.539402 0.528052 0.912281
0.667177 0.530956 0.908562
0.789975 0.533857 0.904841
0.908870 0.536754 0.901115
1.000000 0.539647 0.897387
0.000000 0.641277 0.925270
0.086252 0.644065 0.921562
0.254082 0.646850 0.917851
0.399567 0.649633 0.914137
0.534438 0.652414 0.910420
0.662431 0.655192 0.906700
0.785394 0.657967 0.902976
0.904423 0.660740 0.899249
1.000000 0.663511 0.895519
0.000000 0.761206 0.923414
0.078897 0.763895 0.919705
0.248259 0.766583 0.915992
0.394278 0.769269 0.912277
0.529464 0.771952 0.908558
0.657677 0.774634 0.904836
0.780808 0.777314 0.901111
0.899971 0.779992 0.897382
1.000000 0.782667 0.893651
0.000000 0.877273 0.921558
0.071394 0.879884 0.917847
0.242407 0.882493 0.914133
0.388973 0.885101 0.910416
0.524480 0.887707 0.906695
0.652916 0.890311 0.902972
0.776216 0.892914 0.899245
0.895515 0.895515 0.895515
1.000000 0.898114 0.891782
0.000000 0.990191 0.919700
0.063721 0.992737 0.915988
0.236525 0.995281 0.912272
0.383654 0.997823 0.908554
0.519486 1.000000 0.904832
0.648148 1.000000 0.901106
0.771619 1.000000 0.897378
0.891054 1.000000 0.893646
1.000000 1.000000 0.889911
0.000000 0.000000 1.000000
0.109987 0.000000 1.000000
0.273360 0.000000 1.000000
0.417153 0.000000 1.000000
0.551004 0.000000 1.000000
0.678278 0.000000 1.000000
0.800692 0.000000 1.000000
0.919279 0.000000 1.000000
1.000000 0.000000 1.000000
0.000000 0.059288 1.000000
0.103015 0.063851 1.000000
0.267627 0.068346 1.000000
0.411912 0.072780 1.000000
0.546062 0.077157 1.000000
0.673548 0.081484 1.000000
0.796125 0.085762 1.000000
0.914842 0.089996 1.000000
1.000000 0.094189 1.000000
0.000000 0.228307 1.000000
0.095941 0.231766 1.000000
0.261868 0.235215 1.000000
0.406656 0.238653 1.000000
0.541111 0.242080 1.000000
0.668811 0.245497 1.000000
0.791552 0.248905 1.000000
0.910401 0.252303 1.000000
1.000000 0.255691 1.000000
0.000000 0.371838 1.000000
0.088756 0.374963 1.000000
0.256082 0.378082 1.000000
0.401387 0.381196 1.000000
0.536150 0.384304 1.000000
0.664067 0.387408 1.000000
0.786973 0.390506 1.000000
0.905956 0.393599 1.000000
1.000000 0.396686 1.000000
0.000000 0.504279 1.000000
0.081447 0.507211 1.000000
0.250269 0.510139 1.000000
0.396102 0.513064 1.000000
0.531179 0.515985 1.000000
0.659316 0.518903 1.000000
0.782389 0.521817 1.000000
0.901506 0.524728 1.000000
1.000000 0.527636 1.000000
0.000000 0.629698 1.000000
0.073997 0.632496 1.000000
0.244427 0.635292 1.000000
0.390803 0.638086 1.000000
0.526198 0.640877 1.000000
0.654558 0.643665 1.000000
0.777799 0.646451 1.000000
0.897051 0.649234 1.000000
1.000000 0.652015 1.000000
0.000000 0.750040 1.000000
0.066386 0.752738 1.000000
0.238556 0.755434 1.000000
0.385489 0.758128 1.000000
0.521208 0.760819 1.000000
0.649792 0.763509 1.000000
0.773204 0.766197 1.000000
0.892592 0.768883 1.000000
1.000000 0.771567 1.000000
0.000000 0.866438 1.000000
0.058586 0.869055 1.000000
0.232654 0.871671 1.000000
0.380159 0.874286 1.000000
0.516208 0.876898 1.000000
0.645019 0.879509 1.000000
0.768603 0.882119 1.000000
0.888127 0.884727 1.000000
1.000000 0.887333 1.000000
0.000000 0.979630 1.000000
0.050561 0.982181 1.000000
0.226720 0.984731 1.000000
0.374813 0.987279 1.000000
0.511197 0.989826 1.000000
0.640239 0.992372 1.000000
0.763996 0.994916 1.000000
0.883659 0.997459 1.000000
1.000000 1.000000 1.000000
