presets/film_stocks/Kodak_Duraflex_Plus.cube
# 独寻胶片模拟 -- Kodak Duraflex Plus
# , ISO 0, 2004, negative
TITLE "Kodak Duraflex Plus"
LUT_3D_SIZE 9
DOMAIN_MIN 0.0 0.0 0.0
DOMAIN_MAX 1.0 1.0 1.0
0.000000 0.000000 0.000000
0.187075 0.000000 0.017057
0.322884 0.000000 0.029440
0.444326 0.000000 0.040513
0.557286 0.000000 0.050812
0.664332 0.000000 0.060572
0.766889 0.000000 0.069923
0.865858 0.000000 0.078947
0.961855 0.000000 0.087700
0.003448 0.359976 0.000000
0.187998 0.320223 0.015935
0.323681 0.279086 0.028476
0.445056 0.236234 0.039630
0.557974 0.191155 0.049983
0.664988 0.142963 0.059782
0.767520 0.089772 0.069163
0.866469 0.024711 0.078211
0.962449 0.000000 0.086985
0.005951 0.621306 0.000000
0.188919 0.587270 0.014792
0.324477 0.552694 0.027504
0.445787 0.517522 0.038742
0.558661 0.481692 0.049149
0.665644 0.445127 0.058988
0.768151 0.407731 0.068400
0.867079 0.369383 0.077473
0.963042 0.329927 0.086268
0.008189 0.854988 0.000000
0.189840 0.823843 0.013624
0.325273 0.792377 0.026522
0.446517 0.760570 0.037849
0.559348 0.728399 0.048312
0.666299 0.695839 0.058191
0.768782 0.662863 0.067635
0.867689 0.629438 0.076734
0.963635 0.595526 0.085550
0.010271 1.000000 0.000000
0.190759 1.000000 0.012429
0.326068 1.000000 0.025531
0.447247 0.983890 0.036950
0.560035 0.953929 0.047471
0.666954 0.923711 0.057392
0.769412 0.893224 0.066867
0.868300 0.862453 0.075992
0.964229 0.831383 0.084830
0.012244 1.000000 0.000000
0.191677 1.000000 0.011201
0.326862 1.000000 0.024528
0.447977 1.000000 0.036044
0.560722 1.000000 0.046626
0.667610 1.000000 0.056589
0.770042 1.000000 0.066098
0.868910 1.000000 0.075249
0.964822 1.000000 0.084108
0.014134 1.000000 0.000000
0.192594 1.000000 0.009936
0.327656 1.000000 0.023515
0.448707 1.000000 0.035133
0.561409 1.000000 0.045777
0.668264 1.000000 0.055784
0.770673 1.000000 0.065325
0.869520 1.000000 0.074503
0.965415 1.000000 0.083385
0.015958 1.000000 0.000000
0.193510 1.000000 0.008626
0.328450 1.000000 0.022490
0.449436 1.000000 0.034215
0.562095 1.000000 0.044923
0.668919 1.000000 0.054975
0.771303 1.000000 0.064551
0.870130 1.000000 0.073756
0.966007 1.000000 0.082660
0.017727 1.000000 0.000000
0.194424 1.000000 0.007260
0.329243 1.000000 0.021452
0.450164 1.000000 0.033291
0.562781 1.000000 0.044065
0.669574 1.000000 0.054163
0.771933 1.000000 0.063774
0.870739 1.000000 0.073006
0.966600 1.000000 0.081933
0.016094 0.000000 0.188079
0.193579 0.000000 0.195070
0.328510 0.000000 0.201993
0.449491 0.000000 0.208852
0.562147 0.000000 0.215652
0.668969 0.000000 0.222394
0.771351 0.000000 0.229081
0.870176 0.000000 0.235716
0.966053 0.000000 0.242301
0.017860 0.239389 0.187498
0.194494 0.194494 0.194494
0.329303 0.146570 0.201422
0.450220 0.093851 0.208287
0.562833 0.030359 0.215091
0.669624 0.000000 0.221838
0.771981 0.000000 0.228530
0.870786 0.000000 0.235169
0.966645 0.000000 0.241758
0.019579 0.520078 0.186916
0.195407 0.484298 0.193917
0.330096 0.447788 0.200851
0.450948 0.410456 0.207721
0.563519 0.372182 0.214530
0.670278 0.332811 0.221282
0.772610 0.292137 0.227978
0.871395 0.249866 0.234621
0.967238 0.205557 0.241214
0.021259 0.762873 0.186333
0.196319 0.730730 0.193341
0.330888 0.698199 0.200280
0.451676 0.665254 0.207155
0.564205 0.631862 0.213969
0.670932 0.597987 0.220725
0.773240 0.563585 0.227426
0.872005 0.528606 0.234073
0.967831 0.492990 0.240670
0.022903 0.986039 0.185750
0.197230 0.956096 0.192763
0.331679 0.925897 0.199708
0.452404 0.895430 0.206589
0.564890 0.864680 0.213408
0.671586 0.833632 0.220168
0.773869 0.802268 0.226873
0.872614 0.770570 0.233525
0.968423 0.738516 0.240126
0.024516 1.000000 0.185167
0.198140 1.000000 0.192186
0.332470 1.000000 0.199136
0.453131 1.000000 0.206022
0.565575 1.000000 0.212845
0.672240 1.000000 0.219611
0.774499 1.000000 0.226320
0.873224 0.993224 0.232977
0.969016 0.963340 0.239582
0.026101 1.000000 0.184582
0.199049 1.000000 0.191607
0.333261 1.000000 0.198563
0.453859 1.000000 0.205454
0.566260 1.000000 0.212283
0.672894 1.000000 0.219053
0.775128 1.000000 0.225767
0.873833 1.000000 0.232428
0.969608 1.000000 0.239037
0.027661 1.000000 0.183998
0.199956 1.000000 0.191029
0.334051 1.000000 0.197990
0.454585 1.000000 0.204886
0.566945 1.000000 0.211720
0.673547 1.000000 0.218495
0.775757 1.000000 0.225214
0.874442 1.000000 0.231879
0.970200 1.000000 0.238492
0.029197 1.000000 0.183413
0.200863 1.000000 0.190449
0.334840 1.000000 0.197417
0.455312 1.000000 0.204318
0.567629 1.000000 0.211157
0.674201 1.000000 0.217937
0.776386 1.000000 0.224660
0.875051 1.000000 0.231329
0.970792 1.000000 0.237947
0.027778 0.000000 0.324618
0.200025 0.000000 0.330665
0.334111 0.000000 0.336683
0.454641 0.000000 0.342672
0.566997 0.000000 0.348632
0.673597 0.000000 0.354565
0.775805 0.000000 0.360472
0.874488 0.000000 0.366352
0.970245 0.000000 0.372207
0.029313 0.097883 0.324116
0.200932 0.035735 0.330166
0.334900 0.000000 0.336186
0.455367 0.000000 0.342177
0.567681 0.000000 0.348140
0.674251 0.000000 0.354075
0.776434 0.000000 0.359984
0.875097 0.000000 0.365866
0.970837 0.000000 0.371723
0.030825 0.413176 0.323614
0.201837 0.374974 0.329667
0.335689 0.335689 0.335689
0.456093 0.295117 0.341682
0.568365 0.252974 0.347647
0.674904 0.208831 0.353585
0.777063 0.161983 0.359496
0.875706 0.111068 0.365380
0.971429 0.052399 0.371240
0.032319 0.667643 0.323112
0.202741 0.634284 0.329167
0.336477 0.600445 0.335192
0.456819 0.566083 0.341187
0.569049 0.531147 0.347155
0.675557 0.495579 0.353095
0.777691 0.459307 0.359008
0.876315 0.422244 0.364894
0.972021 0.384280 0.370756
0.033793 0.897635 0.322610
0.203644 0.866906 0.328667
0.337265 0.835880 0.334694
0.457545 0.804539 0.340692
0.569733 0.772866 0.346662
0.676210 0.740838 0.352604
0.778320 0.708432 0.358519
0.876923 0.675620 0.364408
0.972613 0.642372 0.370272
0.035251 1.000000 0.322107
0.204546 1.000000 0.328167
0.338053 1.000000 0.334196
0.458270 1.000000 0.340197
0.570417 0.995368 0.346169
0.676862 0.965502 0.352113
0.778948 0.935384 0.358031
0.877532 0.905002 0.363922
0.973205 0.874343 0.369787
0.036692 1.000000 0.321604
0.205447 1.000000 0.327666
0.338840 1.000000 0.333699
0.458995 1.000000 0.339702
0.571100 1.000000 0.345676
0.677515 1.000000 0.351623
0.779576 1.000000 0.357542
0.878140 1.000000 0.363435
0.973796 1.000000 0.369303
0.038118 1.000000 0.321101
0.206347 1.000000 0.327166
0.339626 1.000000 0.333201
0.459719 1.000000 0.339206
0.571783 1.000000 0.345183
0.678167 1.000000 0.351131
0.780205 1.000000 0.357053
0.878748 1.000000 0.362949
0.974388 1.000000 0.368818
0.039530 1.000000 0.320598
0.207246 1.000000 0.326665
0.340412 1.000000 0.332702
0.460444 1.000000 0.338710
0.572466 1.000000 0.344689
0.678819 1.000000 0.350640
0.780833 1.000000 0.356564
0.879356 1.000000 0.362462
0.974979 1.000000 0.368334
0.038226 0.000000 0.446712
0.206416 0.000000 0.452264
0.339686 0.000000 0.457798
0.459774 0.000000 0.463314
0.571835 0.000000 0.468813
0.678217 0.000000 0.474294
0.780252 0.000000 0.479758
0.878795 0.000000 0.485205
0.974433 0.000000 0.490636
0.039637 0.000000 0.446251
0.207314 0.000000 0.451805
0.340472 0.000000 0.457341
0.460499 0.000000 0.462858
0.572518 0.000000 0.468358
0.678869 0.000000 0.473841
0.780880 0.000000 0.479306
0.879403 0.000000 0.484755
0.975024 0.000000 0.490187
0.041035 0.298089 0.445791
0.208212 0.256072 0.451346
0.341257 0.212092 0.456883
0.461223 0.165473 0.462402
0.573201 0.114925 0.467904
0.679521 0.057089 0.473388
0.781508 0.000000 0.478854
0.880011 0.000000 0.484304
0.975615 0.000000 0.489738
0.042419 0.568577 0.445330
0.209109 0.533685 0.450887
0.342042 0.498165 0.456426
0.461946 0.461946 0.461946
0.573883 0.424944 0.467449
0.680173 0.387048 0.472934
0.782136 0.348121 0.478403
0.880619 0.307979 0.483854
0.976207 0.266365 0.489289
0.043792 0.806809 0.444870
0.210004 0.775160 0.450428
0.342826 0.743158 0.455968
0.462670 0.710780 0.461490
0.574565 0.677998 0.466994
0.680824 0.644783 0.472481
0.782763 0.611098 0.477951
0.881226 0.576905 0.483403
0.976798 0.542154 0.488840
0.045153 1.000000 0.444409
0.210899 0.997510 0.449969
0.343610 0.967662 0.455510
0.463393 0.937563 0.461034
0.575247 0.907201 0.466540
0.681476 0.876562 0.472028
0.783391 0.845630 0.477499
0.881834 0.814391 0.482953
0.977389 0.782824 0.488390
0.046503 1.000000 0.443948
0.211793 1.000000 0.449509
0.344394 1.000000 0.455053
0.464116 1.000000 0.460577
0.575929 1.000000 0.466085
0.682127 1.000000 0.471574
0.784018 1.000000 0.477047
0.882442 1.000000 0.482502
0.977980 1.000000 0.487941
0.047843 1.000000 0.443487
0.212685 1.000000 0.449050
0.345177 1.000000 0.454594
0.464838 1.000000 0.460121
0.576611 1.000000 0.465630
0.682778 1.000000 0.471121
0.784645 1.000000 0.476594
0.883049 1.000000 0.482051
0.978570 1.000000 0.487492
0.049173 1.000000 0.443025
0.213577 1.000000 0.448590
0.345959 1.000000 0.454136
0.465560 1.000000 0.459664
0.577292 1.000000 0.465174
0.683429 1.000000 0.470667
0.785272 1.000000 0.476142
0.883656 1.000000 0.481600
0.979161 1.000000 0.487042
0.047944 0.000000 0.560279
0.212753 0.000000 0.565504
0.345236 0.000000 0.570716
0.464893 0.000000 0.575916
0.576663 0.000000 0.581102
0.682828 0.000000 0.586276
0.784693 0.000000 0.591438
0.883095 0.000000 0.596588
0.978615 0.000000 0.601726
0.049273 0.000000 0.559846
0.213644 0.000000 0.565072
0.346019 0.000000 0.570285
0.465615 0.000000 0.575486
0.577344 0.000000 0.580673
0.683479 0.000000 0.585849
0.785320 0.000000 0.591012
0.883703 0.000000 0.596162
0.979206 0.000000 0.601301
0.050593 0.168942 0.559413
0.214535 0.118747 0.564640
0.346801 0.061678 0.569854
0.466337 0.000000 0.575056
0.578025 0.000000 0.580245
0.684130 0.000000 0.585421
0.785947 0.000000 0.590585
0.884310 0.000000 0.595737
0.979797 0.000000 0.600876
0.051903 0.464581 0.558980
0.215424 0.427638 0.564208
0.347582 0.389812 0.569423
0.467058 0.350964 0.574626
0.578706 0.310917 0.579816
0.684780 0.269420 0.584993
0.786573 0.226112 0.590158
0.884917 0.180418 0.595311
0.980387 0.131307 0.600452
0.053204 0.713126 0.558546
0.216313 0.680375 0.563776
0.348363 0.647191 0.568992
0.467780 0.613542 0.574196
0.579387 0.579387 0.579387
0.685431 0.544678 0.584565
0.787200 0.509362 0.589731
0.885524 0.473371 0.594885
0.980978 0.436624 0.600027
0.054496 0.939741 0.558113
0.217200 0.909398 0.563344
0.349144 0.878779 0.568561
0.468500 0.847869 0.573766
0.580067 0.816652 0.578958
0.686081 0.785110 0.584137
0.787827 0.753221 0.589304
0.886131 0.720964 0.594459
0.981568 0.688311 0.599602
0.055781 1.000000 0.557679
0.218087 1.000000 0.562911
0.349924 1.000000 0.568130
0.469221 1.000000 0.573335
0.580747 1.000000 0.578528
0.686731 1.000000 0.583709
0.788453 0.977038 0.588877
0.886737 0.947018 0.594033
0.982158 0.916740 0.599176
0.057057 1.000000 0.557246
0.218973 1.000000 0.562479
0.350703 1.000000 0.567698
0.469941 1.000000 0.572905
0.581427 1.000000 0.578099
0.687381 1.000000 0.583281
0.789079 1.000000 0.588450
0.887344 1.000000 0.593606
0.982748 1.000000 0.598751
0.058326 1.000000 0.556812
0.219857 1.000000 0.562046
0.351483 1.000000 0.567267
0.470661 1.000000 0.572475
0.582107 1.000000 0.577670
0.688031 1.000000 0.582852
0.789705 1.000000 0.588022
0.887951 1.000000 0.593180
0.983338 1.000000 0.598326
0.057154 0.000000 0.667900
0.219040 0.000000 0.672884
0.350763 0.000000 0.677858
0.469996 0.000000 0.682823
0.581479 0.000000 0.687778
0.687431 0.000000 0.692723
0.789127 0.000000 0.697659
0.887390 0.000000 0.702585
0.982793 0.000000 0.707502
0.058422 0.000000 0.667487
0.219924 0.000000 0.672472
0.351542 0.000000 0.677447
0.470716 0.000000 0.682413
0.582159 0.000000 0.687368
0.688080 0.000000 0.692314
0.789753 0.000000 0.697251
0.887997 0.000000 0.702178
0.983383 0.000000 0.707095
0.059683 0.000000 0.667074
0.220808 0.000000 0.672060
0.352320 0.000000 0.677036
0.471436 0.000000 0.682002
0.582839 0.000000 0.686958
0.688730 0.000000 0.691905
0.790379 0.000000 0.696842
0.888603 0.000000 0.701770
0.983973 0.000000 0.706689
0.060937 0.353801 0.666661
0.221690 0.313848 0.671648
0.353099 0.272466 0.676624
0.472155 0.229304 0.681591
0.583518 0.183808 0.686549
0.689380 0.134997 0.691496
0.791004 0.080681 0.696434
0.889210 0.010748 0.701363
0.984563 0.000000 0.706282
0.062183 0.615983 0.666248
0.222572 0.581866 0.671235
0.353876 0.547199 0.676213
0.472874 0.511928 0.681181
0.584197 0.475988 0.686139
0.690029 0.439299 0.691087
0.791630 0.401762 0.696026
0.889816 0.363252 0.700955
0.985153 0.323603 0.705875
0.063423 0.850107 0.665834
0.223453 0.818913 0.670823
0.354654 0.787394 0.675801
0.473593 0.755531 0.680770
0.584876 0.723301 0.685729
0.690678 0.690678 0.690678
0.792256 0.657633 0.695618
0.890422 0.624134 0.700548
0.985743 0.590142 0.705469
0.064657 1.000000 0.665421
0.224333 1.000000 0.670410
0.355430 1.000000 0.675390
0.474312 0.979191 0.680359
0.585555 0.949190 0.685319
0.691327 0.918931 0.690269
0.792881 0.888400 0.695209
0.891028 0.857583 0.700140
0.986332 0.826464 0.705062
0.065884 1.000000 0.665008
0.225211 1.000000 0.669998
0.356207 1.000000 0.674978
0.475030 1.000000 0.679948
0.586233 1.000000 0.684909
0.691976 1.000000 0.689859
0.793506 1.000000 0.694801
0.891634 1.000000 0.699732
0.986922 1.000000 0.704655
0.067105 1.000000 0.664594
0.226089 1.000000 0.669585
0.356983 1.000000 0.674566
0.475748 1.000000 0.679537
0.586912 1.000000 0.684499
0.692624 1.000000 0.689450
0.794131 1.000000 0.694392
0.892239 1.000000 0.699325
0.987511 1.000000 0.704248
0.065977 0.000000 0.771008
0.225278 0.000000 0.775803
0.356266 0.000000 0.780591
0.475084 0.000000 0.785371
0.586285 0.000000 0.790143
0.692025 0.000000 0.794907
0.793554 0.000000 0.799663
0.891680 0.000000 0.804412
0.986966 0.000000 0.809153
0.067198 0.000000 0.770611
0.226156 0.000000 0.775407
0.357042 0.000000 0.780195
0.475802 0.000000 0.784975
0.586963 0.000000 0.789748
0.692674 0.000000 0.794513
0.794179 0.000000 0.799270
0.892285 0.000000 0.804019
0.987556 0.000000 0.808761
0.068412 0.000000 0.770213
0.227033 0.000000 0.775010
0.357817 0.000000 0.779799
0.476520 0.000000 0.784580
0.587641 0.000000 0.789353
0.693322 0.000000 0.794119
0.794804 0.000000 0.798876
0.892891 0.000000 0.803626
0.988145 0.000000 0.808369
0.069621 0.232484 0.769816
0.227909 0.187182 0.774614
0.358592 0.138659 0.779403
0.477237 0.084876 0.784185
0.588319 0.017521 0.788959
0.693970 0.000000 0.793725
0.795429 0.000000 0.798483
0.893497 0.000000 0.803234
0.988734 0.000000 0.807977
0.070824 0.514491 0.769419
0.228784 0.478602 0.774217
0.359366 0.441970 0.779007
0.477954 0.404498 0.783789
0.588997 0.366063 0.788564
0.694619 0.326502 0.793331
0.796053 0.285599 0.798089
0.894102 0.243042 0.802841
0.989323 0.198356 0.807585
0.072022 0.757839 0.769021
0.229658 0.725636 0.773820
0.360140 0.693042 0.778611
0.478671 0.660029 0.783394
0.589674 0.626564 0.788169
0.695267 0.592609 0.792936
0.796678 0.558119 0.797696
0.894707 0.523044 0.802448
0.989912 0.487322 0.807192
0.073214 0.981343 0.768624
0.230532 0.951360 0.773423
0.360914 0.921120 0.778215
0.479388 0.890609 0.782998
0.590352 0.859814 0.787774
0.695914 0.828717 0.792542
0.797302 0.797302 0.797302
0.895312 0.765550 0.802055
0.990501 0.733437 0.806800
0.074401 1.000000 0.768226
0.231404 1.000000 0.773026
0.361687 1.000000 0.777819
0.480104 1.000000 0.782603
0.591029 1.000000 0.787379
0.696562 1.000000 0.792148
0.797927 1.000000 0.796909
0.895918 0.988537 0.801662
0.991090 0.958614 0.806407
0.075583 1.000000 0.767828
0.232276 1.000000 0.772629
0.362460 1.000000 0.777422
0.480820 1.000000 0.782207
0.591706 1.000000 0.786984
0.697210 1.000000 0.791754
0.798551 1.000000 0.796515
0.896522 1.000000 0.801269
0.991679 1.000000 0.806015
0.074492 0.000000 0.870508
0.231470 0.000000 0.875150
0.361746 0.000000 0.879784
0.480158 0.000000 0.884413
0.591080 0.000000 0.889035
0.696611 0.000000 0.893650
0.797974 0.000000 0.898259
0.895964 0.000000 0.902861
0.991135 0.000000 0.907458
0.075673 0.000000 0.870124
0.232342 0.000000 0.874766
0.362519 0.000000 0.879401
0.480874 0.000000 0.884030
0.591757 0.000000 0.888652
0.697259 0.000000 0.893268
0.798598 0.000000 0.897878
0.896569 0.000000 0.902481
0.991723 0.000000 0.907077
0.076850 0.000000 0.869739
0.233212 0.000000 0.874382
0.363291 0.000000 0.879018
0.481590 0.000000 0.883647
0.592434 0.000000 0.888270
0.697906 0.000000 0.892886
0.799222 0.000000 0.897496
0.897173 0.000000 0.902100
0.992312 0.000000 0.906697
0.078022 0.089015 0.869355
0.234082 0.023634 0.873998
0.364063 0.000000 0.878634
0.482305 0.000000 0.883264
0.593110 0.000000 0.887888
0.698553 0.000000 0.892505
0.799846 0.000000 0.897115
0.897778 0.000000 0.901719
0.992901 0.000000 0.906317
0.079189 0.407229 0.868970
0.234951 0.368868 0.873614
0.364834 0.329395 0.878251
0.483020 0.288598 0.882881
0.593786 0.246173 0.887505
0.699200 0.201661 0.892123
0.800470 0.154290 0.896734
0.898383 0.102515 0.901339
0.993489 0.041723 0.905937
0.080351 0.662423 0.868585
0.235819 0.628991 0.873230
0.365605 0.595073 0.877867
0.483735 0.560624 0.882498
0.594462 0.525593 0.887123
0.699847 0.489919 0.891741
0.801094 0.453529 0.896353
0.898987 0.416332 0.900958
0.994077 0.378214 0.905557
0.081509 0.892817 0.868201
0.236686 0.862043 0.872846
0.366375 0.830968 0.877484
0.484449 0.799577 0.882115
0.595138 0.767849 0.886741
0.700494 0.735763 0.891359
0.801717 0.703295 0.895971
0.899592 0.670417 0.900577
0.994666 0.637097 0.905176
0.082663 1.000000 0.867816
0.237552 1.000000 0.872462
0.367145 1.000000 0.877100
0.485163 1.000000 0.881732
0.595814 0.990684 0.886358
0.701140 0.960779 0.890977
0.802341 0.930620 0.895590
0.900196 0.900196 0.900196
0.995254 0.869491 0.904796
0.083812 1.000000 0.867431
0.238418 1.000000 0.872077
0.367915 1.000000 0.876717
0.485877 1.000000 0.881349
0.596489 1.000000 0.885975
0.701787 1.000000 0.890595
0.802964 1.000000 0.895208
0.900800 1.000000 0.899815
0.995842 1.000000 0.904415
0.082750 0.000000 0.967021
0.237618 0.000000 0.971533
0.367204 0.000000 0.976039
0.485217 0.000000 0.980540
0.595865 0.000000 0.985035
0.701189 0.000000 0.989525
0.802388 0.000000 0.994009
0.900242 0.000000 0.998488
0.995298 0.000000 1.000000
0.083899 0.000000 0.966647
0.238484 0.000000 0.971159
0.367973 0.000000 0.975666
0.485931 0.000000 0.980168
0.596540 0.000000 0.984663
0.701836 0.000000 0.989153
0.803011 0.000000 0.993638
0.900846 0.000000 0.998117
0.995886 0.000000 1.000000
0.085044 0.000000 0.966273
0.239348 0.000000 0.970786
0.368742 0.000000 0.975294
0.486645 0.000000 0.979795
0.597215 0.000000 0.984291
0.702482 0.000000 0.988782
0.803634 0.000000 0.993267
0.901450 0.000000 0.997747
0.996474 0.000000 1.000000
0.086184 0.000000 0.965899
0.240212 0.000000 0.970413
0.369511 0.000000 0.974921
0.487358 0.000000 0.979423
0.597890 0.000000 0.983920
0.703128 0.000000 0.988411
0.804257 0.000000 0.992896
0.902054 0.000000 0.997376
0.997062 0.000000 1.000000
0.087321 0.291588 0.965526
0.241074 0.249293 0.970040
0.370279 0.204953 0.974548
0.488071 0.157825 0.979051
0.598565 0.106454 0.983548
0.703774 0.046693 0.988039
0.804880 0.000000 0.992525
0.902658 0.000000 0.997006
0.997650 0.000000 1.000000
0.088453 0.563125 0.965152
0.241936 0.528138 0.969666
0.371047 0.492513 0.974175
0.488784 0.456177 0.978678
0.599240 0.419042 0.983176
0.704419 0.380994 0.987668
0.805503 0.341890 0.992154
0.903262 0.301535 0.996635
0.998238 0.259660 1.000000
0.089582 0.801850 0.964778
0.242798 0.770147 0.969293
0.371815 0.738088 0.973802
0.489496 0.705648 0.978306
0.599914 0.672800 0.982804
0.705065 0.639513 0.987296
0.806125 0.605752 0.991783
0.903865 0.571474 0.996264
0.998825 0.536631 1.000000
0.090707 1.000000 0.964404
0.243658 0.992829 0.968919
0.372582 0.962942 0.973429
0.490208 0.932802 0.977933
0.600588 0.902398 0.982432
0.705710 0.871713 0.986925
0.806748 0.840735 0.991412
0.904469 0.809445 0.995894
0.999413 0.777825 1.000000
0.091828 1.000000 0.964030
0.244517 1.000000 0.968546
0.373348 1.000000 0.973056
0.490920 1.000000 0.977561
0.601262 1.000000 0.982060
0.706355 1.000000 0.986553
0.807370 1.000000 0.991041
0.905072 1.000000 0.995523
1.000000 1.000000 1.000000
