presets/film_stocks/Kodak_5381.cube
# 独寻胶片模拟 -- Kodak 5381
# Kodak, ISO 0, 1950, negative
TITLE "Kodak 5381"
LUT_3D_SIZE 9
DOMAIN_MIN 0.0 0.0 0.0
DOMAIN_MAX 1.0 1.0 1.0
0.000000 0.000000 0.000000
0.153605 0.000000 0.000000
0.286816 0.000000 0.000000
0.413280 0.000000 0.000000
0.535552 0.000000 0.000000
0.654799 0.000000 0.000000
0.771689 0.000000 0.000000
0.886656 0.000000 0.000000
1.000000 0.000000 0.000000
0.000000 0.153605 0.000000
0.153605 0.153605 0.000000
0.286816 0.153605 0.000000
0.413280 0.153605 0.000000
0.535552 0.153605 0.000000
0.654799 0.153605 0.000000
0.771689 0.153605 0.000000
0.886656 0.153605 0.000000
1.000000 0.153605 0.000000
0.000000 0.286816 0.000000
0.153605 0.286816 0.000000
0.286816 0.286816 0.000000
0.413280 0.286816 0.000000
0.535552 0.286816 0.000000
0.654799 0.286816 0.000000
0.771689 0.286816 0.000000
0.886656 0.286816 0.000000
1.000000 0.286816 0.000000
0.000000 0.413280 0.000000
0.153605 0.413280 0.000000
0.286816 0.413280 0.000000
0.413280 0.413280 0.000000
0.535552 0.413280 0.000000
0.654799 0.413280 0.000000
0.771689 0.413280 0.000000
0.886656 0.413280 0.000000
1.000000 0.413280 0.000000
0.000000 0.535552 0.000000
0.153605 0.535552 0.000000
0.286816 0.535552 0.000000
0.413280 0.535552 0.000000
0.535552 0.535552 0.000000
0.654799 0.535552 0.000000
0.771689 0.535552 0.000000
0.886656 0.535552 0.000000
1.000000 0.535552 0.000000
0.000000 0.654799 0.000000
0.153605 0.654799 0.000000
0.286816 0.654799 0.000000
0.413280 0.654799 0.000000
0.535552 0.654799 0.000000
0.654799 0.654799 0.000000
0.771689 0.654799 0.000000
0.886656 0.654799 0.000000
1.000000 0.654799 0.000000
0.000000 0.771689 0.000000
0.153605 0.771689 0.000000
0.286816 0.771689 0.000000
0.413280 0.771689 0.000000
0.535552 0.771689 0.000000
0.654799 0.771689 0.000000
0.771689 0.771689 0.000000
0.886656 0.771689 0.000000
1.000000 0.771689 0.000000
0.000000 0.886656 0.000000
0.153605 0.886656 0.000000
0.286816 0.886656 0.000000
0.413280 0.886656 0.000000
0.535552 0.886656 0.000000
0.654799 0.886656 0.000000
0.771689 0.886656 0.000000
0.886656 0.886656 0.000000
1.000000 0.886656 0.000000
0.000000 1.000000 0.000000
0.153605 1.000000 0.000000
0.286816 1.000000 0.000000
0.413280 1.000000 0.000000
0.535552 1.000000 0.000000
0.654799 1.000000 0.000000
0.771689 1.000000 0.000000
0.886656 1.000000 0.000000
1.000000 1.000000 0.000000
0.000000 0.000000 0.153605
0.153605 0.000000 0.153605
0.286816 0.000000 0.153605
0.413280 0.000000 0.153605
0.535552 0.000000 0.153605
0.654799 0.000000 0.153605
0.771689 0.000000 0.153605
0.886656 0.000000 0.153605
1.000000 0.000000 0.153605
0.000000 0.153605 0.153605
0.153605 0.153605 0.153605
0.286816 0.153605 0.153605
0.413280 0.153605 0.153605
0.535552 0.153605 0.153605
0.654799 0.153605 0.153605
0.771689 0.153605 0.153605
0.886656 0.153605 0.153605
1.000000 0.153605 0.153605
0.000000 0.286816 0.153605
0.153605 0.286816 0.153605
0.286816 0.286816 0.153605
0.413280 0.286816 0.153605
0.535552 0.286816 0.153605
0.654799 0.286816 0.153605
0.771689 0.286816 0.153605
0.886656 0.286816 0.153605
1.000000 0.286816 0.153605
0.000000 0.413280 0.153605
0.153605 0.413280 0.153605
0.286816 0.413280 0.153605
0.413280 0.413280 0.153605
0.535552 0.413280 0.153605
0.654799 0.413280 0.153605
0.771689 0.413280 0.153605
0.886656 0.413280 0.153605
1.000000 0.413280 0.153605
0.000000 0.535552 0.153605
0.153605 0.535552 0.153605
0.286816 0.535552 0.153605
0.413280 0.535552 0.153605
0.535552 0.535552 0.153605
0.654799 0.535552 0.153605
0.771689 0.535552 0.153605
0.886656 0.535552 0.153605
1.000000 0.535552 0.153605
0.000000 0.654799 0.153605
0.153605 0.654799 0.153605
0.286816 0.654799 0.153605
0.413280 0.654799 0.153605
0.535552 0.654799 0.153605
0.654799 0.654799 0.153605
0.771689 0.654799 0.153605
0.886656 0.654799 0.153605
1.000000 0.654799 0.153605
0.000000 0.771689 0.153605
0.153605 0.771689 0.153605
0.286816 0.771689 0.153605
0.413280 0.771689 0.153605
0.535552 0.771689 0.153605
0.654799 0.771689 0.153605
0.771689 0.771689 0.153605
0.886656 0.771689 0.153605
1.000000 0.771689 0.153605
0.000000 0.886656 0.153605
0.153605 0.886656 0.153605
0.286816 0.886656 0.153605
0.413280 0.886656 0.153605
0.535552 0.886656 0.153605
0.654799 0.886656 0.153605
0.771689 0.886656 0.153605
0.886656 0.886656 0.153605
1.000000 0.886656 0.153605
0.000000 1.000000 0.153605
0.153605 1.000000 0.153605
0.286816 1.000000 0.153605
0.413280 1.000000 0.153605
0.535552 1.000000 0.153605
0.654799 1.000000 0.153605
0.771689 1.000000 0.153605
0.886656 1.000000 0.153605
1.000000 1.000000 0.153605
0.000000 0.000000 0.286816
0.153605 0.000000 0.286816
0.286816 0.000000 0.286816
0.413280 0.000000 0.286816
0.535552 0.000000 0.286816
0.654799 0.000000 0.286816
0.771689 0.000000 0.286816
0.886656 0.000000 0.286816
1.000000 0.000000 0.286816
0.000000 0.153605 0.286816
0.153605 0.153605 0.286816
0.286816 0.153605 0.286816
0.413280 0.153605 0.286816
0.535552 0.153605 0.286816
0.654799 0.153605 0.286816
0.771689 0.153605 0.286816
0.886656 0.153605 0.286816
1.000000 0.153605 0.286816
0.000000 0.286816 0.286816
0.153605 0.286816 0.286816
0.286816 0.286816 0.286816
0.413280 0.286816 0.286816
0.535552 0.286816 0.286816
0.654799 0.286816 0.286816
0.771689 0.286816 0.286816
0.886656 0.286816 0.286816
1.000000 0.286816 0.286816
0.000000 0.413280 0.286816
0.153605 0.413280 0.286816
0.286816 0.413280 0.286816
0.413280 0.413280 0.286816
0.535552 0.413280 0.286816
0.654799 0.413280 0.286816
0.771689 0.413280 0.286816
0.886656 0.413280 0.286816
1.000000 0.413280 0.286816
0.000000 0.535552 0.286816
0.153605 0.535552 0.286816
0.286816 0.535552 0.286816
0.413280 0.535552 0.286816
0.535552 0.535552 0.286816
0.654799 0.535552 0.286816
0.771689 0.535552 0.286816
0.886656 0.535552 0.286816
1.000000 0.535552 0.286816
0.000000 0.654799 0.286816
0.153605 0.654799 0.286816
0.286816 0.654799 0.286816
0.413280 0.654799 0.286816
0.535552 0.654799 0.286816
0.654799 0.654799 0.286816
0.771689 0.654799 0.286816
0.886656 0.654799 0.286816
1.000000 0.654799 0.286816
0.000000 0.771689 0.286816
0.153605 0.771689 0.286816
0.286816 0.771689 0.286816
0.413280 0.771689 0.286816
0.535552 0.771689 0.286816
0.654799 0.771689 0.286816
0.771689 0.771689 0.286816
0.886656 0.771689 0.286816
1.000000 0.771689 0.286816
0.000000 0.886656 0.286816
0.153605 0.886656 0.286816
0.286816 0.886656 0.286816
0.413280 0.886656 0.286816
0.535552 0.886656 0.286816
0.654799 0.886656 0.286816
0.771689 0.886656 0.286816
0.886656 0.886656 0.286816
1.000000 0.886656 0.286816
0.000000 1.000000 0.286816
0.153605 1.000000 0.286816
0.286816 1.000000 0.286816
0.413280 1.000000 0.286816
0.535552 1.000000 0.286816
0.654799 1.000000 0.286816
0.771689 1.000000 0.286816
0.886656 1.000000 0.286816
1.000000 1.000000 0.286816
0.000000 0.000000 0.413280
0.153605 0.000000 0.413280
0.286816 0.000000 0.413280
0.413280 0.000000 0.413280
0.535552 0.000000 0.413280
0.654799 0.000000 0.413280
0.771689 0.000000 0.413280
0.886656 0.000000 0.413280
1.000000 0.000000 0.413280
0.000000 0.153605 0.413280
0.153605 0.153605 0.413280
0.286816 0.153605 0.413280
0.413280 0.153605 0.413280
0.535552 0.153605 0.413280
0.654799 0.153605 0.413280
0.771689 0.153605 0.413280
0.886656 0.153605 0.413280
1.000000 0.153605 0.413280
0.000000 0.286816 0.413280
0.153605 0.286816 0.413280
0.286816 0.286816 0.413280
0.413280 0.286816 0.413280
0.535552 0.286816 0.413280
0.654799 0.286816 0.413280
0.771689 0.286816 0.413280
0.886656 0.286816 0.413280
1.000000 0.286816 0.413280
0.000000 0.413280 0.413280
0.153605 0.413280 0.413280
0.286816 0.413280 0.413280
0.413280 0.413280 0.413280
0.535552 0.413280 0.413280
0.654799 0.413280 0.413280
0.771689 0.413280 0.413280
0.886656 0.413280 0.413280
1.000000 0.413280 0.413280
0.000000 0.535552 0.413280
0.153605 0.535552 0.413280
0.286816 0.535552 0.413280
0.413280 0.535552 0.413280
0.535552 0.535552 0.413280
0.654799 0.535552 0.413280
0.771689 0.535552 0.413280
0.886656 0.535552 0.413280
1.000000 0.535552 0.413280
0.000000 0.654799 0.413280
0.153605 0.654799 0.413280
0.286816 0.654799 0.413280
0.413280 0.654799 0.413280
0.535552 0.654799 0.413280
0.654799 0.654799 0.413280
0.771689 0.654799 0.413280
0.886656 0.654799 0.413280
1.000000 0.654799 0.413280
0.000000 0.771689 0.413280
0.153605 0.771689 0.413280
0.286816 0.771689 0.413280
0.413280 0.771689 0.413280
0.535552 0.771689 0.413280
0.654799 0.771689 0.413280
0.771689 0.771689 0.413280
0.886656 0.771689 0.413280
1.000000 0.771689 0.413280
0.000000 0.886656 0.413280
0.153605 0.886656 0.413280
0.286816 0.886656 0.413280
0.413280 0.886656 0.413280
0.535552 0.886656 0.413280
0.654799 0.886656 0.413280
0.771689 0.886656 0.413280
0.886656 0.886656 0.413280
1.000000 0.886656 0.413280
0.000000 1.000000 0.413280
0.153605 1.000000 0.413280
0.286816 1.000000 0.413280
0.413280 1.000000 0.413280
0.535552 1.000000 0.413280
0.654799 1.000000 0.413280
0.771689 1.000000 0.413280
0.886656 1.000000 0.413280
1.000000 1.000000 0.413280
0.000000 0.000000 0.535552
0.153605 0.000000 0.535552
0.286816 0.000000 0.535552
0.413280 0.000000 0.535552
0.535552 0.000000 0.535552
0.654799 0.000000 0.535552
0.771689 0.000000 0.535552
0.886656 0.000000 0.535552
1.000000 0.000000 0.535552
0.000000 0.153605 0.535552
0.153605 0.153605 0.535552
0.286816 0.153605 0.535552
0.413280 0.153605 0.535552
0.535552 0.153605 0.535552
0.654799 0.153605 0.535552
0.771689 0.153605 0.535552
0.886656 0.153605 0.535552
1.000000 0.153605 0.535552
0.000000 0.286816 0.535552
0.153605 0.286816 0.535552
0.286816 0.286816 0.535552
0.413280 0.286816 0.535552
0.535552 0.286816 0.535552
0.654799 0.286816 0.535552
0.771689 0.286816 0.535552
0.886656 0.286816 0.535552
1.000000 0.286816 0.535552
0.000000 0.413280 0.535552
0.153605 0.413280 0.535552
0.286816 0.413280 0.535552
0.413280 0.413280 0.535552
0.535552 0.413280 0.535552
0.654799 0.413280 0.535552
0.771689 0.413280 0.535552
0.886656 0.413280 0.535552
1.000000 0.413280 0.535552
0.000000 0.535552 0.535552
0.153605 0.535552 0.535552
0.286816 0.535552 0.535552
0.413280 0.535552 0.535552
0.535552 0.535552 0.535552
0.654799 0.535552 0.535552
0.771689 0.535552 0.535552
0.886656 0.535552 0.535552
1.000000 0.535552 0.535552
0.000000 0.654799 0.535552
0.153605 0.654799 0.535552
0.286816 0.654799 0.535552
0.413280 0.654799 0.535552
0.535552 0.654799 0.535552
0.654799 0.654799 0.535552
0.771689 0.654799 0.535552
0.886656 0.654799 0.535552
1.000000 0.654799 0.535552
0.000000 0.771689 0.535552
0.153605 0.771689 0.535552
0.286816 0.771689 0.535552
0.413280 0.771689 0.535552
0.535552 0.771689 0.535552
0.654799 0.771689 0.535552
0.771689 0.771689 0.535552
0.886656 0.771689 0.535552
1.000000 0.771689 0.535552
0.000000 0.886656 0.535552
0.153605 0.886656 0.535552
0.286816 0.886656 0.535552
0.413280 0.886656 0.535552
0.535552 0.886656 0.535552
0.654799 0.886656 0.535552
0.771689 0.886656 0.535552
0.886656 0.886656 0.535552
1.000000 0.886656 0.535552
0.000000 1.000000 0.535552
0.153605 1.000000 0.535552
0.286816 1.000000 0.535552
0.413280 1.000000 0.535552
0.535552 1.000000 0.535552
0.654799 1.000000 0.535552
0.771689 1.000000 0.535552
0.886656 1.000000 0.535552
1.000000 1.000000 0.535552
0.000000 0.000000 0.654799
0.153605 0.000000 0.654799
0.286816 0.000000 0.654799
0.413280 0.000000 0.654799
0.535552 0.000000 0.654799
0.654799 0.000000 0.654799
0.771689 0.000000 0.654799
0.886656 0.000000 0.654799
1.000000 0.000000 0.654799
0.000000 0.153605 0.654799
0.153605 0.153605 0.654799
0.286816 0.153605 0.654799
0.413280 0.153605 0.654799
0.535552 0.153605 0.654799
0.654799 0.153605 0.654799
0.771689 0.153605 0.654799
0.886656 0.153605 0.654799
1.000000 0.153605 0.654799
0.000000 0.286816 0.654799
0.153605 0.286816 0.654799
0.286816 0.286816 0.654799
0.413280 0.286816 0.654799
0.535552 0.286816 0.654799
0.654799 0.286816 0.654799
0.771689 0.286816 0.654799
0.886656 0.286816 0.654799
1.000000 0.286816 0.654799
0.000000 0.413280 0.654799
0.153605 0.413280 0.654799
0.286816 0.413280 0.654799
0.413280 0.413280 0.654799
0.535552 0.413280 0.654799
0.654799 0.413280 0.654799
0.771689 0.413280 0.654799
0.886656 0.413280 0.654799
1.000000 0.413280 0.654799
0.000000 0.535552 0.654799
0.153605 0.535552 0.654799
0.286816 0.535552 0.654799
0.413280 0.535552 0.654799
0.535552 0.535552 0.654799
0.654799 0.535552 0.654799
0.771689 0.535552 0.654799
0.886656 0.535552 0.654799
1.000000 0.535552 0.654799
0.000000 0.654799 0.654799
0.153605 0.654799 0.654799
0.286816 0.654799 0.654799
0.413280 0.654799 0.654799
0.535552 0.654799 0.654799
0.654799 0.654799 0.654799
0.771689 0.654799 0.654799
0.886656 0.654799 0.654799
1.000000 0.654799 0.654799
0.000000 0.771689 0.654799
0.153605 0.771689 0.654799
0.286816 0.771689 0.654799
0.413280 0.771689 0.654799
0.535552 0.771689 0.654799
0.654799 0.771689 0.654799
0.771689 0.771689 0.654799
0.886656 0.771689 0.654799
1.000000 0.771689 0.654799
0.000000 0.886656 0.654799
0.153605 0.886656 0.654799
0.286816 0.886656 0.654799
0.413280 0.886656 0.654799
0.535552 0.886656 0.654799
0.654799 0.886656 0.654799
0.771689 0.886656 0.654799
0.886656 0.886656 0.654799
1.000000 0.886656 0.654799
0.000000 1.000000 0.654799
0.153605 1.000000 0.654799
0.286816 1.000000 0.654799
0.413280 1.000000 0.654799
0.535552 1.000000 0.654799
0.654799 1.000000 0.654799
0.771689 1.000000 0.654799
0.886656 1.000000 0.654799
1.000000 1.000000 0.654799
0.000000 0.000000 0.771689
0.153605 0.000000 0.771689
0.286816 0.000000 0.771689
0.413280 0.000000 0.771689
0.535552 0.000000 0.771689
0.654799 0.000000 0.771689
0.771689 0.000000 0.771689
0.886656 0.000000 0.771689
1.000000 0.000000 0.771689
0.000000 0.153605 0.771689
0.153605 0.153605 0.771689
0.286816 0.153605 0.771689
0.413280 0.153605 0.771689
0.535552 0.153605 0.771689
0.654799 0.153605 0.771689
0.771689 0.153605 0.771689
0.886656 0.153605 0.771689
1.000000 0.153605 0.771689
0.000000 0.286816 0.771689
0.153605 0.286816 0.771689
0.286816 0.286816 0.771689
0.413280 0.286816 0.771689
0.535552 0.286816 0.771689
0.654799 0.286816 0.771689
0.771689 0.286816 0.771689
0.886656 0.286816 0.771689
1.000000 0.286816 0.771689
0.000000 0.413280 0.771689
0.153605 0.413280 0.771689
0.286816 0.413280 0.771689
0.413280 0.413280 0.771689
0.535552 0.413280 0.771689
0.654799 0.413280 0.771689
0.771689 0.413280 0.771689
0.886656 0.413280 0.771689
1.000000 0.413280 0.771689
0.000000 0.535552 0.771689
0.153605 0.535552 0.771689
0.286816 0.535552 0.771689
0.413280 0.535552 0.771689
0.535552 0.535552 0.771689
0.654799 0.535552 0.771689
0.771689 0.535552 0.771689
0.886656 0.535552 0.771689
1.000000 0.535552 0.771689
0.000000 0.654799 0.771689
0.153605 0.654799 0.771689
0.286816 0.654799 0.771689
0.413280 0.654799 0.771689
0.535552 0.654799 0.771689
0.654799 0.654799 0.771689
0.771689 0.654799 0.771689
0.886656 0.654799 0.771689
1.000000 0.654799 0.771689
0.000000 0.771689 0.771689
0.153605 0.771689 0.771689
0.286816 0.771689 0.771689
0.413280 0.771689 0.771689
0.535552 0.771689 0.771689
0.654799 0.771689 0.771689
0.771689 0.771689 0.771689
0.886656 0.771689 0.771689
1.000000 0.771689 0.771689
0.000000 0.886656 0.771689
0.153605 0.886656 0.771689
0.286816 0.886656 0.771689
0.413280 0.886656 0.771689
0.535552 0.886656 0.771689
0.654799 0.886656 0.771689
0.771689 0.886656 0.771689
0.886656 0.886656 0.771689
1.000000 0.886656 0.771689
0.000000 1.000000 0.771689
0.153605 1.000000 0.771689
0.286816 1.000000 0.771689
0.413280 1.000000 0.771689
0.535552 1.000000 0.771689
0.654799 1.000000 0.771689
0.771689 1.000000 0.771689
0.886656 1.000000 0.771689
1.000000 1.000000 0.771689
0.000000 0.000000 0.886656
0.153605 0.000000 0.886656
0.286816 0.000000 0.886656
0.413280 0.000000 0.886656
0.535552 0.000000 0.886656
0.654799 0.000000 0.886656
0.771689 0.000000 0.886656
0.886656 0.000000 0.886656
1.000000 0.000000 0.886656
0.000000 0.153605 0.886656
0.153605 0.153605 0.886656
0.286816 0.153605 0.886656
0.413280 0.153605 0.886656
0.535552 0.153605 0.886656
0.654799 0.153605 0.886656
0.771689 0.153605 0.886656
0.886656 0.153605 0.886656
1.000000 0.153605 0.886656
0.000000 0.286816 0.886656
0.153605 0.286816 0.886656
0.286816 0.286816 0.886656
0.413280 0.286816 0.886656
0.535552 0.286816 0.886656
0.654799 0.286816 0.886656
0.771689 0.286816 0.886656
0.886656 0.286816 0.886656
1.000000 0.286816 0.886656
0.000000 0.413280 0.886656
0.153605 0.413280 0.886656
0.286816 0.413280 0.886656
0.413280 0.413280 0.886656
0.535552 0.413280 0.886656
0.654799 0.413280 0.886656
0.771689 0.413280 0.886656
0.886656 0.413280 0.886656
1.000000 0.413280 0.886656
0.000000 0.535552 0.886656
0.153605 0.535552 0.886656
0.286816 0.535552 0.886656
0.413280 0.535552 0.886656
0.535552 0.535552 0.886656
0.654799 0.535552 0.886656
0.771689 0.535552 0.886656
0.886656 0.535552 0.886656
1.000000 0.535552 0.886656
0.000000 0.654799 0.886656
0.153605 0.654799 0.886656
0.286816 0.654799 0.886656
0.413280 0.654799 0.886656
0.535552 0.654799 0.886656
0.654799 0.654799 0.886656
0.771689 0.654799 0.886656
0.886656 0.654799 0.886656
1.000000 0.654799 0.886656
0.000000 0.771689 0.886656
0.153605 0.771689 0.886656
0.286816 0.771689 0.886656
0.413280 0.771689 0.886656
0.535552 0.771689 0.886656
0.654799 0.771689 0.886656
0.771689 0.771689 0.886656
0.886656 0.771689 0.886656
1.000000 0.771689 0.886656
0.000000 0.886656 0.886656
0.153605 0.886656 0.886656
0.286816 0.886656 0.886656
0.413280 0.886656 0.886656
0.535552 0.886656 0.886656
0.654799 0.886656 0.886656
0.771689 0.886656 0.886656
0.886656 0.886656 0.886656
1.000000 0.886656 0.886656
0.000000 1.000000 0.886656
0.153605 1.000000 0.886656
0.286816 1.000000 0.886656
0.413280 1.000000 0.886656
0.535552 1.000000 0.886656
0.654799 1.000000 0.886656
0.771689 1.000000 0.886656
0.886656 1.000000 0.886656
1.000000 1.000000 0.886656
0.000000 0.000000 1.000000
0.153605 0.000000 1.000000
0.286816 0.000000 1.000000
0.413280 0.000000 1.000000
0.535552 0.000000 1.000000
0.654799 0.000000 1.000000
0.771689 0.000000 1.000000
0.886656 0.000000 1.000000
1.000000 0.000000 1.000000
0.000000 0.153605 1.000000
0.153605 0.153605 1.000000
0.286816 0.153605 1.000000
0.413280 0.153605 1.000000
0.535552 0.153605 1.000000
0.654799 0.153605 1.000000
0.771689 0.153605 1.000000
0.886656 0.153605 1.000000
1.000000 0.153605 1.000000
0.000000 0.286816 1.000000
0.153605 0.286816 1.000000
0.286816 0.286816 1.000000
0.413280 0.286816 1.000000
0.535552 0.286816 1.000000
0.654799 0.286816 1.000000
0.771689 0.286816 1.000000
0.886656 0.286816 1.000000
1.000000 0.286816 1.000000
0.000000 0.413280 1.000000
0.153605 0.413280 1.000000
0.286816 0.413280 1.000000
0.413280 0.413280 1.000000
0.535552 0.413280 1.000000
0.654799 0.413280 1.000000
0.771689 0.413280 1.000000
0.886656 0.413280 1.000000
1.000000 0.413280 1.000000
0.000000 0.535552 1.000000
0.153605 0.535552 1.000000
0.286816 0.535552 1.000000
0.413280 0.535552 1.000000
0.535552 0.535552 1.000000
0.654799 0.535552 1.000000
0.771689 0.535552 1.000000
0.886656 0.535552 1.000000
1.000000 0.535552 1.000000
0.000000 0.654799 1.000000
0.153605 0.654799 1.000000
0.286816 0.654799 1.000000
0.413280 0.654799 1.000000
0.535552 0.654799 1.000000
0.654799 0.654799 1.000000
0.771689 0.654799 1.000000
0.886656 0.654799 1.000000
1.000000 0.654799 1.000000
0.000000 0.771689 1.000000
0.153605 0.771689 1.000000
0.286816 0.771689 1.000000
0.413280 0.771689 1.000000
0.535552 0.771689 1.000000
0.654799 0.771689 1.000000
0.771689 0.771689 1.000000
0.886656 0.771689 1.000000
1.000000 0.771689 1.000000
0.000000 0.886656 1.000000
0.153605 0.886656 1.000000
0.286816 0.886656 1.000000
0.413280 0.886656 1.000000
0.535552 0.886656 1.000000
0.654799 0.886656 1.000000
0.771689 0.886656 1.000000
0.886656 0.886656 1.000000
1.000000 0.886656 1.000000
0.000000 1.000000 1.000000
0.153605 1.000000 1.000000
0.286816 1.000000 1.000000
0.413280 1.000000 1.000000
0.535552 1.000000 1.000000
0.654799 1.000000 1.000000
0.771689 1.000000 1.000000
0.886656 1.000000 1.000000
1.000000 1.000000 1.000000
