presets/film_stocks/Kodak_5222.cube
# 独寻胶片模拟 -- Kodak 5222
# Kodak, ISO 250, 1959, negative
TITLE "Kodak 5222"
LUT_3D_SIZE 9
DOMAIN_MIN 0.0 0.0 0.0
DOMAIN_MAX 1.0 1.0 1.0
0.000000 0.000000 0.000000
0.163947 0.000000 0.000000
0.299550 0.000000 0.000000
0.426179 0.000000 0.000000
0.547312 0.000000 0.000000
0.664514 0.000000 0.000000
0.778677 0.000000 0.000000
0.890373 0.000000 0.000000
1.000000 0.000000 0.000000
0.000000 0.163947 0.000000
0.163947 0.163947 0.000000
0.299550 0.163947 0.000000
0.426179 0.163947 0.000000
0.547312 0.163947 0.000000
0.664514 0.163947 0.000000
0.778677 0.163947 0.000000
0.890373 0.163947 0.000000
1.000000 0.163947 0.000000
0.000000 0.299550 0.000000
0.163947 0.299550 0.000000
0.299550 0.299550 0.000000
0.426179 0.299550 0.000000
0.547312 0.299550 0.000000
0.664514 0.299550 0.000000
0.778677 0.299550 0.000000
0.890373 0.299550 0.000000
1.000000 0.299550 0.000000
0.000000 0.426179 0.000000
0.163947 0.426179 0.000000
0.299550 0.426179 0.000000
0.426179 0.426179 0.000000
0.547312 0.426179 0.000000
0.664514 0.426179 0.000000
0.778677 0.426179 0.000000
0.890373 0.426179 0.000000
1.000000 0.426179 0.000000
0.000000 0.547312 0.000000
0.163947 0.547312 0.000000
0.299550 0.547312 0.000000
0.426179 0.547312 0.000000
0.547312 0.547312 0.000000
0.664514 0.547312 0.000000
0.778677 0.547312 0.000000
0.890373 0.547312 0.000000
1.000000 0.547312 0.000000
0.000000 0.664514 0.000000
0.163947 0.664514 0.000000
0.299550 0.664514 0.000000
0.426179 0.664514 0.000000
0.547312 0.664514 0.000000
0.664514 0.664514 0.000000
0.778677 0.664514 0.000000
0.890373 0.664514 0.000000
1.000000 0.664514 0.000000
0.000000 0.778677 0.000000
0.163947 0.778677 0.000000
0.299550 0.778677 0.000000
0.426179 0.778677 0.000000
0.547312 0.778677 0.000000
0.664514 0.778677 0.000000
0.778677 0.778677 0.000000
0.890373 0.778677 0.000000
1.000000 0.778677 0.000000
0.000000 0.890373 0.000000
0.163947 0.890373 0.000000
0.299550 0.890373 0.000000
0.426179 0.890373 0.000000
0.547312 0.890373 0.000000
0.664514 0.890373 0.000000
0.778677 0.890373 0.000000
0.890373 0.890373 0.000000
1.000000 0.890373 0.000000
0.000000 1.000000 0.000000
0.163947 1.000000 0.000000
0.299550 1.000000 0.000000
0.426179 1.000000 0.000000
0.547312 1.000000 0.000000
0.664514 1.000000 0.000000
0.778677 1.000000 0.000000
0.890373 1.000000 0.000000
1.000000 1.000000 0.000000
0.000000 0.000000 0.163947
0.163947 0.000000 0.163947
0.299550 0.000000 0.163947
0.426179 0.000000 0.163947
0.547312 0.000000 0.163947
0.664514 0.000000 0.163947
0.778677 0.000000 0.163947
0.890373 0.000000 0.163947
1.000000 0.000000 0.163947
0.000000 0.163947 0.163947
0.163947 0.163947 0.163947
0.299550 0.163947 0.163947
0.426179 0.163947 0.163947
0.547312 0.163947 0.163947
0.664514 0.163947 0.163947
0.778677 0.163947 0.163947
0.890373 0.163947 0.163947
1.000000 0.163947 0.163947
0.000000 0.299550 0.163947
0.163947 0.299550 0.163947
0.299550 0.299550 0.163947
0.426179 0.299550 0.163947
0.547312 0.299550 0.163947
0.664514 0.299550 0.163947
0.778677 0.299550 0.163947
0.890373 0.299550 0.163947
1.000000 0.299550 0.163947
0.000000 0.426179 0.163947
0.163947 0.426179 0.163947
0.299550 0.426179 0.163947
0.426179 0.426179 0.163947
0.547312 0.426179 0.163947
0.664514 0.426179 0.163947
0.778677 0.426179 0.163947
0.890373 0.426179 0.163947
1.000000 0.426179 0.163947
0.000000 0.547312 0.163947
0.163947 0.547312 0.163947
0.299550 0.547312 0.163947
0.426179 0.547312 0.163947
0.547312 0.547312 0.163947
0.664514 0.547312 0.163947
0.778677 0.547312 0.163947
0.890373 0.547312 0.163947
1.000000 0.547312 0.163947
0.000000 0.664514 0.163947
0.163947 0.664514 0.163947
0.299550 0.664514 0.163947
0.426179 0.664514 0.163947
0.547312 0.664514 0.163947
0.664514 0.664514 0.163947
0.778677 0.664514 0.163947
0.890373 0.664514 0.163947
1.000000 0.664514 0.163947
0.000000 0.778677 0.163947
0.163947 0.778677 0.163947
0.299550 0.778677 0.163947
0.426179 0.778677 0.163947
0.547312 0.778677 0.163947
0.664514 0.778677 0.163947
0.778677 0.778677 0.163947
0.890373 0.778677 0.163947
1.000000 0.778677 0.163947
0.000000 0.890373 0.163947
0.163947 0.890373 0.163947
0.299550 0.890373 0.163947
0.426179 0.890373 0.163947
0.547312 0.890373 0.163947
0.664514 0.890373 0.163947
0.778677 0.890373 0.163947
0.890373 0.890373 0.163947
1.000000 0.890373 0.163947
0.000000 1.000000 0.163947
0.163947 1.000000 0.163947
0.299550 1.000000 0.163947
0.426179 1.000000 0.163947
0.547312 1.000000 0.163947
0.664514 1.000000 0.163947
0.778677 1.000000 0.163947
0.890373 1.000000 0.163947
1.000000 1.000000 0.163947
0.000000 0.000000 0.299550
0.163947 0.000000 0.299550
0.299550 0.000000 0.299550
0.426179 0.000000 0.299550
0.547312 0.000000 0.299550
0.664514 0.000000 0.299550
0.778677 0.000000 0.299550
0.890373 0.000000 0.299550
1.000000 0.000000 0.299550
0.000000 0.163947 0.299550
0.163947 0.163947 0.299550
0.299550 0.163947 0.299550
0.426179 0.163947 0.299550
0.547312 0.163947 0.299550
0.664514 0.163947 0.299550
0.778677 0.163947 0.299550
0.890373 0.163947 0.299550
1.000000 0.163947 0.299550
0.000000 0.299550 0.299550
0.163947 0.299550 0.299550
0.299550 0.299550 0.299550
0.426179 0.299550 0.299550
0.547312 0.299550 0.299550
0.664514 0.299550 0.299550
0.778677 0.299550 0.299550
0.890373 0.299550 0.299550
1.000000 0.299550 0.299550
0.000000 0.426179 0.299550
0.163947 0.426179 0.299550
0.299550 0.426179 0.299550
0.426179 0.426179 0.299550
0.547312 0.426179 0.299550
0.664514 0.426179 0.299550
0.778677 0.426179 0.299550
0.890373 0.426179 0.299550
1.000000 0.426179 0.299550
0.000000 0.547312 0.299550
0.163947 0.547312 0.299550
0.299550 0.547312 0.299550
0.426179 0.547312 0.299550
0.547312 0.547312 0.299550
0.664514 0.547312 0.299550
0.778677 0.547312 0.299550
0.890373 0.547312 0.299550
1.000000 0.547312 0.299550
0.000000 0.664514 0.299550
0.163947 0.664514 0.299550
0.299550 0.664514 0.299550
0.426179 0.664514 0.299550
0.547312 0.664514 0.299550
0.664514 0.664514 0.299550
0.778677 0.664514 0.299550
0.890373 0.664514 0.299550
1.000000 0.664514 0.299550
0.000000 0.778677 0.299550
0.163947 0.778677 0.299550
0.299550 0.778677 0.299550
0.426179 0.778677 0.299550
0.547312 0.778677 0.299550
0.664514 0.778677 0.299550
0.778677 0.778677 0.299550
0.890373 0.778677 0.299550
1.000000 0.778677 0.299550
0.000000 0.890373 0.299550
0.163947 0.890373 0.299550
0.299550 0.890373 0.299550
0.426179 0.890373 0.299550
0.547312 0.890373 0.299550
0.664514 0.890373 0.299550
0.778677 0.890373 0.299550
0.890373 0.890373 0.299550
1.000000 0.890373 0.299550
0.000000 1.000000 0.299550
0.163947 1.000000 0.299550
0.299550 1.000000 0.299550
0.426179 1.000000 0.299550
0.547312 1.000000 0.299550
0.664514 1.000000 0.299550
0.778677 1.000000 0.299550
0.890373 1.000000 0.299550
1.000000 1.000000 0.299550
0.000000 0.000000 0.426179
0.163947 0.000000 0.426179
0.299550 0.000000 0.426179
0.426179 0.000000 0.426179
0.547312 0.000000 0.426179
0.664514 0.000000 0.426179
0.778677 0.000000 0.426179
0.890373 0.000000 0.426179
1.000000 0.000000 0.426179
0.000000 0.163947 0.426179
0.163947 0.163947 0.426179
0.299550 0.163947 0.426179
0.426179 0.163947 0.426179
0.547312 0.163947 0.426179
0.664514 0.163947 0.426179
0.778677 0.163947 0.426179
0.890373 0.163947 0.426179
1.000000 0.163947 0.426179
0.000000 0.299550 0.426179
0.163947 0.299550 0.426179
0.299550 0.299550 0.426179
0.426179 0.299550 0.426179
0.547312 0.299550 0.426179
0.664514 0.299550 0.426179
0.778677 0.299550 0.426179
0.890373 0.299550 0.426179
1.000000 0.299550 0.426179
0.000000 0.426179 0.426179
0.163947 0.426179 0.426179
0.299550 0.426179 0.426179
0.426179 0.426179 0.426179
0.547312 0.426179 0.426179
0.664514 0.426179 0.426179
0.778677 0.426179 0.426179
0.890373 0.426179 0.426179
1.000000 0.426179 0.426179
0.000000 0.547312 0.426179
0.163947 0.547312 0.426179
0.299550 0.547312 0.426179
0.426179 0.547312 0.426179
0.547312 0.547312 0.426179
0.664514 0.547312 0.426179
0.778677 0.547312 0.426179
0.890373 0.547312 0.426179
1.000000 0.547312 0.426179
0.000000 0.664514 0.426179
0.163947 0.664514 0.426179
0.299550 0.664514 0.426179
0.426179 0.664514 0.426179
0.547312 0.664514 0.426179
0.664514 0.664514 0.426179
0.778677 0.664514 0.426179
0.890373 0.664514 0.426179
1.000000 0.664514 0.426179
0.000000 0.778677 0.426179
0.163947 0.778677 0.426179
0.299550 0.778677 0.426179
0.426179 0.778677 0.426179
0.547312 0.778677 0.426179
0.664514 0.778677 0.426179
0.778677 0.778677 0.426179
0.890373 0.778677 0.426179
1.000000 0.778677 0.426179
0.000000 0.890373 0.426179
0.163947 0.890373 0.426179
0.299550 0.890373 0.426179
0.426179 0.890373 0.426179
0.547312 0.890373 0.426179
0.664514 0.890373 0.426179
0.778677 0.890373 0.426179
0.890373 0.890373 0.426179
1.000000 0.890373 0.426179
0.000000 1.000000 0.426179
0.163947 1.000000 0.426179
0.299550 1.000000 0.426179
0.426179 1.000000 0.426179
0.547312 1.000000 0.426179
0.664514 1.000000 0.426179
0.778677 1.000000 0.426179
0.890373 1.000000 0.426179
1.000000 1.000000 0.426179
0.000000 0.000000 0.547312
0.163947 0.000000 0.547312
0.299550 0.000000 0.547312
0.426179 0.000000 0.547312
0.547312 0.000000 0.547312
0.664514 0.000000 0.547312
0.778677 0.000000 0.547312
0.890373 0.000000 0.547312
1.000000 0.000000 0.547312
0.000000 0.163947 0.547312
0.163947 0.163947 0.547312
0.299550 0.163947 0.547312
0.426179 0.163947 0.547312
0.547312 0.163947 0.547312
0.664514 0.163947 0.547312
0.778677 0.163947 0.547312
0.890373 0.163947 0.547312
1.000000 0.163947 0.547312
0.000000 0.299550 0.547312
0.163947 0.299550 0.547312
0.299550 0.299550 0.547312
0.426179 0.299550 0.547312
0.547312 0.299550 0.547312
0.664514 0.299550 0.547312
0.778677 0.299550 0.547312
0.890373 0.299550 0.547312
1.000000 0.299550 0.547312
0.000000 0.426179 0.547312
0.163947 0.426179 0.547312
0.299550 0.426179 0.547312
0.426179 0.426179 0.547312
0.547312 0.426179 0.547312
0.664514 0.426179 0.547312
0.778677 0.426179 0.547312
0.890373 0.426179 0.547312
1.000000 0.426179 0.547312
0.000000 0.547312 0.547312
0.163947 0.547312 0.547312
0.299550 0.547312 0.547312
0.426179 0.547312 0.547312
0.547312 0.547312 0.547312
0.664514 0.547312 0.547312
0.778677 0.547312 0.547312
0.890373 0.547312 0.547312
1.000000 0.547312 0.547312
0.000000 0.664514 0.547312
0.163947 0.664514 0.547312
0.299550 0.664514 0.547312
0.426179 0.664514 0.547312
0.547312 0.664514 0.547312
0.664514 0.664514 0.547312
0.778677 0.664514 0.547312
0.890373 0.664514 0.547312
1.000000 0.664514 0.547312
0.000000 0.778677 0.547312
0.163947 0.778677 0.547312
0.299550 0.778677 0.547312
0.426179 0.778677 0.547312
0.547312 0.778677 0.547312
0.664514 0.778677 0.547312
0.778677 0.778677 0.547312
0.890373 0.778677 0.547312
1.000000 0.778677 0.547312
0.000000 0.890373 0.547312
0.163947 0.890373 0.547312
0.299550 0.890373 0.547312
0.426179 0.890373 0.547312
0.547312 0.890373 0.547312
0.664514 0.890373 0.547312
0.778677 0.890373 0.547312
0.890373 0.890373 0.547312
1.000000 0.890373 0.547312
0.000000 1.000000 0.547312
0.163947 1.000000 0.547312
0.299550 1.000000 0.547312
0.426179 1.000000 0.547312
0.547312 1.000000 0.547312
0.664514 1.000000 0.547312
0.778677 1.000000 0.547312
0.890373 1.000000 0.547312
1.000000 1.000000 0.547312
0.000000 0.000000 0.664514
0.163947 0.000000 0.664514
0.299550 0.000000 0.664514
0.426179 0.000000 0.664514
0.547312 0.000000 0.664514
0.664514 0.000000 0.664514
0.778677 0.000000 0.664514
0.890373 0.000000 0.664514
1.000000 0.000000 0.664514
0.000000 0.163947 0.664514
0.163947 0.163947 0.664514
0.299550 0.163947 0.664514
0.426179 0.163947 0.664514
0.547312 0.163947 0.664514
0.664514 0.163947 0.664514
0.778677 0.163947 0.664514
0.890373 0.163947 0.664514
1.000000 0.163947 0.664514
0.000000 0.299550 0.664514
0.163947 0.299550 0.664514
0.299550 0.299550 0.664514
0.426179 0.299550 0.664514
0.547312 0.299550 0.664514
0.664514 0.299550 0.664514
0.778677 0.299550 0.664514
0.890373 0.299550 0.664514
1.000000 0.299550 0.664514
0.000000 0.426179 0.664514
0.163947 0.426179 0.664514
0.299550 0.426179 0.664514
0.426179 0.426179 0.664514
0.547312 0.426179 0.664514
0.664514 0.426179 0.664514
0.778677 0.426179 0.664514
0.890373 0.426179 0.664514
1.000000 0.426179 0.664514
0.000000 0.547312 0.664514
0.163947 0.547312 0.664514
0.299550 0.547312 0.664514
0.426179 0.547312 0.664514
0.547312 0.547312 0.664514
0.664514 0.547312 0.664514
0.778677 0.547312 0.664514
0.890373 0.547312 0.664514
1.000000 0.547312 0.664514
0.000000 0.664514 0.664514
0.163947 0.664514 0.664514
0.299550 0.664514 0.664514
0.426179 0.664514 0.664514
0.547312 0.664514 0.664514
0.664514 0.664514 0.664514
0.778677 0.664514 0.664514
0.890373 0.664514 0.664514
1.000000 0.664514 0.664514
0.000000 0.778677 0.664514
0.163947 0.778677 0.664514
0.299550 0.778677 0.664514
0.426179 0.778677 0.664514
0.547312 0.778677 0.664514
0.664514 0.778677 0.664514
0.778677 0.778677 0.664514
0.890373 0.778677 0.664514
1.000000 0.778677 0.664514
0.000000 0.890373 0.664514
0.163947 0.890373 0.664514
0.299550 0.890373 0.664514
0.426179 0.890373 0.664514
0.547312 0.890373 0.664514
0.664514 0.890373 0.664514
0.778677 0.890373 0.664514
0.890373 0.890373 0.664514
1.000000 0.890373 0.664514
0.000000 1.000000 0.664514
0.163947 1.000000 0.664514
0.299550 1.000000 0.664514
0.426179 1.000000 0.664514
0.547312 1.000000 0.664514
0.664514 1.000000 0.664514
0.778677 1.000000 0.664514
0.890373 1.000000 0.664514
1.000000 1.000000 0.664514
0.000000 0.000000 0.778677
0.163947 0.000000 0.778677
0.299550 0.000000 0.778677
0.426179 0.000000 0.778677
0.547312 0.000000 0.778677
0.664514 0.000000 0.778677
0.778677 0.000000 0.778677
0.890373 0.000000 0.778677
1.000000 0.000000 0.778677
0.000000 0.163947 0.778677
0.163947 0.163947 0.778677
0.299550 0.163947 0.778677
0.426179 0.163947 0.778677
0.547312 0.163947 0.778677
0.664514 0.163947 0.778677
0.778677 0.163947 0.778677
0.890373 0.163947 0.778677
1.000000 0.163947 0.778677
0.000000 0.299550 0.778677
0.163947 0.299550 0.778677
0.299550 0.299550 0.778677
0.426179 0.299550 0.778677
0.547312 0.299550 0.778677
0.664514 0.299550 0.778677
0.778677 0.299550 0.778677
0.890373 0.299550 0.778677
1.000000 0.299550 0.778677
0.000000 0.426179 0.778677
0.163947 0.426179 0.778677
0.299550 0.426179 0.778677
0.426179 0.426179 0.778677
0.547312 0.426179 0.778677
0.664514 0.426179 0.778677
0.778677 0.426179 0.778677
0.890373 0.426179 0.778677
1.000000 0.426179 0.778677
0.000000 0.547312 0.778677
0.163947 0.547312 0.778677
0.299550 0.547312 0.778677
0.426179 0.547312 0.778677
0.547312 0.547312 0.778677
0.664514 0.547312 0.778677
0.778677 0.547312 0.778677
0.890373 0.547312 0.778677
1.000000 0.547312 0.778677
0.000000 0.664514 0.778677
0.163947 0.664514 0.778677
0.299550 0.664514 0.778677
0.426179 0.664514 0.778677
0.547312 0.664514 0.778677
0.664514 0.664514 0.778677
0.778677 0.664514 0.778677
0.890373 0.664514 0.778677
1.000000 0.664514 0.778677
0.000000 0.778677 0.778677
0.163947 0.778677 0.778677
0.299550 0.778677 0.778677
0.426179 0.778677 0.778677
0.547312 0.778677 0.778677
0.664514 0.778677 0.778677
0.778677 0.778677 0.778677
0.890373 0.778677 0.778677
1.000000 0.778677 0.778677
0.000000 0.890373 0.778677
0.163947 0.890373 0.778677
0.299550 0.890373 0.778677
0.426179 0.890373 0.778677
0.547312 0.890373 0.778677
0.664514 0.890373 0.778677
0.778677 0.890373 0.778677
0.890373 0.890373 0.778677
1.000000 0.890373 0.778677
0.000000 1.000000 0.778677
0.163947 1.000000 0.778677
0.299550 1.000000 0.778677
0.426179 1.000000 0.778677
0.547312 1.000000 0.778677
0.664514 1.000000 0.778677
0.778677 1.000000 0.778677
0.890373 1.000000 0.778677
1.000000 1.000000 0.778677
0.000000 0.000000 0.890373
0.163947 0.000000 0.890373
0.299550 0.000000 0.890373
0.426179 0.000000 0.890373
0.547312 0.000000 0.890373
0.664514 0.000000 0.890373
0.778677 0.000000 0.890373
0.890373 0.000000 0.890373
1.000000 0.000000 0.890373
0.000000 0.163947 0.890373
0.163947 0.163947 0.890373
0.299550 0.163947 0.890373
0.426179 0.163947 0.890373
0.547312 0.163947 0.890373
0.664514 0.163947 0.890373
0.778677 0.163947 0.890373
0.890373 0.163947 0.890373
1.000000 0.163947 0.890373
0.000000 0.299550 0.890373
0.163947 0.299550 0.890373
0.299550 0.299550 0.890373
0.426179 0.299550 0.890373
0.547312 0.299550 0.890373
0.664514 0.299550 0.890373
0.778677 0.299550 0.890373
0.890373 0.299550 0.890373
1.000000 0.299550 0.890373
0.000000 0.426179 0.890373
0.163947 0.426179 0.890373
0.299550 0.426179 0.890373
0.426179 0.426179 0.890373
0.547312 0.426179 0.890373
0.664514 0.426179 0.890373
0.778677 0.426179 0.890373
0.890373 0.426179 0.890373
1.000000 0.426179 0.890373
0.000000 0.547312 0.890373
0.163947 0.547312 0.890373
0.299550 0.547312 0.890373
0.426179 0.547312 0.890373
0.547312 0.547312 0.890373
0.664514 0.547312 0.890373
0.778677 0.547312 0.890373
0.890373 0.547312 0.890373
1.000000 0.547312 0.890373
0.000000 0.664514 0.890373
0.163947 0.664514 0.890373
0.299550 0.664514 0.890373
0.426179 0.664514 0.890373
0.547312 0.664514 0.890373
0.664514 0.664514 0.890373
0.778677 0.664514 0.890373
0.890373 0.664514 0.890373
1.000000 0.664514 0.890373
0.000000 0.778677 0.890373
0.163947 0.778677 0.890373
0.299550 0.778677 0.890373
0.426179 0.778677 0.890373
0.547312 0.778677 0.890373
0.664514 0.778677 0.890373
0.778677 0.778677 0.890373
0.890373 0.778677 0.890373
1.000000 0.778677 0.890373
0.000000 0.890373 0.890373
0.163947 0.890373 0.890373
0.299550 0.890373 0.890373
0.426179 0.890373 0.890373
0.547312 0.890373 0.890373
0.664514 0.890373 0.890373
0.778677 0.890373 0.890373
0.890373 0.890373 0.890373
1.000000 0.890373 0.890373
0.000000 1.000000 0.890373
0.163947 1.000000 0.890373
0.299550 1.000000 0.890373
0.426179 1.000000 0.890373
0.547312 1.000000 0.890373
0.664514 1.000000 0.890373
0.778677 1.000000 0.890373
0.890373 1.000000 0.890373
1.000000 1.000000 0.890373
0.000000 0.000000 1.000000
0.163947 0.000000 1.000000
0.299550 0.000000 1.000000
0.426179 0.000000 1.000000
0.547312 0.000000 1.000000
0.664514 0.000000 1.000000
0.778677 0.000000 1.000000
0.890373 0.000000 1.000000
1.000000 0.000000 1.000000
0.000000 0.163947 1.000000
0.163947 0.163947 1.000000
0.299550 0.163947 1.000000
0.426179 0.163947 1.000000
0.547312 0.163947 1.000000
0.664514 0.163947 1.000000
0.778677 0.163947 1.000000
0.890373 0.163947 1.000000
1.000000 0.163947 1.000000
0.000000 0.299550 1.000000
0.163947 0.299550 1.000000
0.299550 0.299550 1.000000
0.426179 0.299550 1.000000
0.547312 0.299550 1.000000
0.664514 0.299550 1.000000
0.778677 0.299550 1.000000
0.890373 0.299550 1.000000
1.000000 0.299550 1.000000
0.000000 0.426179 1.000000
0.163947 0.426179 1.000000
0.299550 0.426179 1.000000
0.426179 0.426179 1.000000
0.547312 0.426179 1.000000
0.664514 0.426179 1.000000
0.778677 0.426179 1.000000
0.890373 0.426179 1.000000
1.000000 0.426179 1.000000
0.000000 0.547312 1.000000
0.163947 0.547312 1.000000
0.299550 0.547312 1.000000
0.426179 0.547312 1.000000
0.547312 0.547312 1.000000
0.664514 0.547312 1.000000
0.778677 0.547312 1.000000
0.890373 0.547312 1.000000
1.000000 0.547312 1.000000
0.000000 0.664514 1.000000
0.163947 0.664514 1.000000
0.299550 0.664514 1.000000
0.426179 0.664514 1.000000
0.547312 0.664514 1.000000
0.664514 0.664514 1.000000
0.778677 0.664514 1.000000
0.890373 0.664514 1.000000
1.000000 0.664514 1.000000
0.000000 0.778677 1.000000
0.163947 0.778677 1.000000
0.299550 0.778677 1.000000
0.426179 0.778677 1.000000
0.547312 0.778677 1.000000
0.664514 0.778677 1.000000
0.778677 0.778677 1.000000
0.890373 0.778677 1.000000
1.000000 0.778677 1.000000
0.000000 0.890373 1.000000
0.163947 0.890373 1.000000
0.299550 0.890373 1.000000
0.426179 0.890373 1.000000
0.547312 0.890373 1.000000
0.664514 0.890373 1.000000
0.778677 0.890373 1.000000
0.890373 0.890373 1.000000
1.000000 0.890373 1.000000
0.000000 1.000000 1.000000
0.163947 1.000000 1.000000
0.299550 1.000000 1.000000
0.426179 1.000000 1.000000
0.547312 1.000000 1.000000
0.664514 1.000000 1.000000
0.778677 1.000000 1.000000
0.890373 1.000000 1.000000
1.000000 1.000000 1.000000
