presets/film_stocks/Kodak_Gold_200.cube
# 独寻胶片模拟 -- Kodak Gold 200
# Kodak, ISO 200, 2007, negative
TITLE "Kodak Gold 200"
LUT_3D_SIZE 33
DOMAIN_MIN 0.0 0.0 0.0
DOMAIN_MAX 1.0 1.0 1.0
0.000000 0.000000 0.000000
0.061227 0.002352 0.000000
0.109093 0.004191 0.000000
0.152947 0.005876 0.000000
0.194382 0.007468 0.000000
0.234107 0.008995 0.000000
0.272520 0.010471 0.000000
0.309876 0.011906 0.000000
0.346349 0.013307 0.000000
0.382069 0.014679 0.000000
0.417131 0.016027 0.000000
0.451613 0.017351 0.000000
0.485576 0.018656 0.000000
0.519070 0.019943 0.000000
0.552136 0.021214 0.000000
0.584811 0.022469 0.000000
0.617125 0.023711 0.000000
0.649103 0.024939 0.000000
0.680769 0.026156 0.000000
0.712143 0.027361 0.000000
0.743244 0.028556 0.000000
0.774085 0.029741 0.000000
0.804683 0.030917 0.000000
0.835050 0.032084 0.000000
0.865198 0.033242 0.000000
0.895137 0.034392 0.000000
0.924877 0.035535 0.000000
0.954427 0.036670 0.000000
0.983795 0.037798 0.000000
1.000000 0.038920 0.000000
1.000000 0.040035 0.000000
1.000000 0.041144 0.000000
1.000000 0.042247 0.000000
0.000000 0.059165 0.000000
0.059101 0.060192 0.000000
0.107203 0.061215 0.000000
0.151181 0.062235 0.000000
0.192700 0.063252 0.000000
0.232487 0.064265 0.000000
0.270948 0.065275 0.000000
0.308344 0.066282 0.000000
0.344851 0.067286 0.000000
0.380600 0.068287 0.000000
0.415688 0.069285 0.000000
0.450193 0.070280 0.000000
0.484176 0.071272 0.000000
0.517688 0.072262 0.000000
0.550772 0.073249 0.000000
0.583462 0.074233 0.000000
0.615790 0.075215 0.000000
0.647782 0.076194 0.000000
0.679461 0.077170 0.000000
0.710847 0.078144 0.000000
0.741958 0.079116 0.000000
0.772810 0.080085 0.000000
0.803418 0.081052 0.000000
0.833794 0.082017 0.000000
0.863951 0.082979 0.000000
0.893898 0.083939 0.000000
0.923646 0.084897 0.000000
0.953204 0.085853 0.000000
0.982579 0.086807 0.000000
1.000000 0.087758 0.000000
1.000000 0.088708 0.000000
1.000000 0.089655 0.000000
1.000000 0.090601 0.000000
0.000000 0.105421 0.000000
0.056961 0.106336 0.000000
0.105307 0.107250 0.000000
0.149412 0.108163 0.000000
0.191015 0.109074 0.000000
0.230864 0.109983 0.000000
0.269375 0.110891 0.000000
0.306811 0.111797 0.000000
0.343352 0.112702 0.000000
0.379130 0.113605 0.000000
0.414244 0.114507 0.000000
0.448772 0.115408 0.000000
0.482775 0.116307 0.000000
0.516306 0.117205 0.000000
0.549407 0.118101 0.000000
0.582113 0.118996 0.000000
0.614455 0.119890 0.000000
0.646461 0.120782 0.000000
0.678152 0.121674 0.000000
0.709550 0.122563 0.000000
0.740672 0.123452 0.000000
0.771535 0.124339 0.000000
0.802152 0.125225 0.000000
0.832538 0.126110 0.000000
0.862704 0.126993 0.000000
0.892659 0.127875 0.000000
0.922416 0.128756 0.000000
0.951981 0.129636 0.000000
0.981364 0.130515 0.000000
1.000000 0.131392 0.000000
1.000000 0.132268 0.000000
1.000000 0.133143 0.000000
1.000000 0.134017 0.000000
0.000000 0.147798 0.000000
0.054804 0.148654 0.000000
0.103403 0.149509 0.000000
0.147638 0.150363 0.000000
0.189327 0.151216 0.000000
0.229239 0.152068 0.000000
0.267799 0.152919 0.000000
0.305276 0.153769 0.000000
0.341851 0.154619 0.000000
0.377659 0.155467 0.000000
0.412799 0.156314 0.000000
0.447349 0.157161 0.000000
0.481374 0.158006 0.000000
0.514923 0.158851 0.000000
0.548041 0.159695 0.000000
0.580763 0.160537 0.000000
0.613120 0.161379 0.000000
0.645139 0.162220 0.000000
0.676843 0.163061 0.000000
0.708252 0.163900 0.000000
0.739386 0.164738 0.000000
0.770259 0.165576 0.000000
0.800886 0.166413 0.000000
0.831282 0.167249 0.000000
0.861456 0.168084 0.000000
0.891420 0.168918 0.000000
0.921184 0.169752 0.000000
0.950758 0.170584 0.000000
0.980148 0.171416 0.000000
1.000000 0.172247 0.000000
1.000000 0.173077 0.000000
1.000000 0.173907 0.000000
1.000000 0.174735 0.000000
0.000000 0.187839 0.000000
0.052631 0.188655 0.000000
0.101493 0.189470 0.000000
0.145860 0.190284 0.000000
0.187635 0.191098 0.000000
0.227611 0.191911 0.000000
0.266222 0.192724 0.000000
0.303739 0.193536 0.000000
0.340349 0.194347 0.000000
0.376187 0.195157 0.000000
0.411352 0.195967 0.000000
0.445926 0.196776 0.000000
0.479971 0.197585 0.000000
0.513540 0.198393 0.000000
0.546675 0.199200 0.000000
0.579412 0.200006 0.000000
0.611784 0.200812 0.000000
0.643816 0.201617 0.000000
0.675533 0.202422 0.000000
0.706954 0.203226 0.000000
0.738099 0.204029 0.000000
0.768982 0.204832 0.000000
0.799620 0.205634 0.000000
0.830024 0.206435 0.000000
0.860208 0.207236 0.000000
0.890181 0.208036 0.000000
0.919953 0.208835 0.000000
0.949534 0.209634 0.000000
0.978931 0.210433 0.000000
1.000000 0.211230 0.000000
1.000000 0.212027 0.000000
1.000000 0.212824 0.000000
1.000000 0.213620 0.000000
0.000000 0.226226 0.000000
0.050439 0.227013 0.000000
0.099575 0.227798 0.000000
0.144078 0.228583 0.000000
0.185941 0.229368 0.000000
0.225982 0.230152 0.000000
0.264643 0.230936 0.000000
0.302201 0.231719 0.000000
0.338846 0.232501 0.000000
0.374713 0.233283 0.000000
0.409905 0.234065 0.000000
0.444502 0.234846 0.000000
0.478568 0.235626 0.000000
0.512155 0.236406 0.000000
0.545307 0.237185 0.000000
0.578061 0.237964 0.000000
0.610447 0.238743 0.000000
0.642493 0.239520 0.000000
0.674222 0.240298 0.000000
0.705656 0.241075 0.000000
0.736811 0.241851 0.000000
0.767706 0.242627 0.000000
0.798353 0.243402 0.000000
0.828767 0.244177 0.000000
0.858959 0.244951 0.000000
0.888941 0.245725 0.000000
0.918721 0.246499 0.000000
0.948310 0.247272 0.000000
0.977715 0.248044 0.000000
1.000000 0.248816 0.000000
1.000000 0.249588 0.000000
1.000000 0.250359 0.000000
1.000000 0.251129 0.000000
0.000000 0.263346 0.000000
0.048227 0.264109 0.000000
0.097650 0.264872 0.000000
0.142291 0.265633 0.000000
0.184244 0.266395 0.000000
0.224350 0.267156 0.000000
0.263062 0.267916 0.000000
0.300662 0.268677 0.000000
0.337342 0.269436 0.000000
0.373239 0.270196 0.000000
0.408457 0.270955 0.000000
0.443077 0.271713 0.000000
0.477164 0.272471 0.000000
0.510770 0.273229 0.000000
0.543940 0.273986 0.000000
0.576709 0.274743 0.000000
0.609110 0.275499 0.000000
0.641170 0.276255 0.000000
0.672912 0.277010 0.000000
0.704357 0.277766 0.000000
0.735524 0.278520 0.000000
0.766428 0.279275 0.000000
0.797086 0.280028 0.000000
0.827509 0.280782 0.000000
0.857710 0.281535 0.000000
0.887700 0.282288 0.000000
0.917489 0.283040 0.000000
0.947085 0.283792 0.000000
0.976498 0.284543 0.000000
1.000000 0.285294 0.000000
1.000000 0.286045 0.000000
1.000000 0.286795 0.000000
1.000000 0.287545 0.000000
0.000000 0.299445 0.000000
0.045996 0.300188 0.000000
0.095717 0.300931 0.000000
0.140500 0.301674 0.000000
0.182543 0.302416 0.000000
0.222715 0.303158 0.000000
0.261479 0.303900 0.000000
0.299121 0.304641 0.000000
0.335836 0.305382 0.000000
0.371763 0.306123 0.000000
0.407008 0.306863 0.000000
0.441651 0.307603 0.000000
0.475759 0.308342 0.000000
0.509385 0.309081 0.000000
0.542571 0.309820 0.000000
0.575357 0.310558 0.000000
0.607772 0.311296 0.000000
0.639845 0.312034 0.000000
0.671600 0.312772 0.000000
0.703057 0.313509 0.000000
0.734235 0.314245 0.000000
0.765151 0.314982 0.000000
0.795818 0.315718 0.000000
0.826251 0.316453 0.000000
0.856461 0.317188 0.000000
0.886460 0.317923 0.000000
0.916257 0.318658 0.000000
0.945861 0.319392 0.000000
0.975281 0.320126 0.000000
1.000000 0.320860 0.000000
1.000000 0.321593 0.000000
1.000000 0.322326 0.000000
1.000000 0.323059 0.000000
0.000000 0.334690 0.000000
0.043742 0.335417 0.000000
0.093777 0.336144 0.000000
0.138704 0.336871 0.000000
0.180840 0.337597 0.000000
0.221078 0.338323 0.000000
0.259894 0.339048 0.000000
0.297578 0.339773 0.000000
0.334328 0.340498 0.000000
0.370286 0.341223 0.000000
0.405557 0.341947 0.000000
0.440225 0.342671 0.000000
0.474354 0.343395 0.000000
0.507998 0.344118 0.000000
0.541202 0.344842 0.000000
0.574003 0.345564 0.000000
0.606434 0.346287 0.000000
0.638521 0.347009 0.000000
0.670288 0.347731 0.000000
0.701757 0.348452 0.000000
0.732947 0.349174 0.000000
0.763873 0.349895 0.000000
0.794550 0.350615 0.000000
0.824992 0.351336 0.000000
0.855212 0.352056 0.000000
0.885219 0.352776 0.000000
0.915024 0.353495 0.000000
0.944636 0.354215 0.000000
0.974063 0.354933 0.000000
1.000000 0.355652 0.000000
1.000000 0.356370 0.000000
1.000000 0.357089 0.000000
1.000000 0.357806 0.000000
0.000000 0.369207 0.000000
0.041465 0.369920 0.000000
0.091828 0.370633 0.000000
0.136904 0.371345 0.000000
0.179133 0.372057 0.000000
0.219439 0.372769 0.000000
0.258307 0.373481 0.000000
0.296034 0.374192 0.000000
0.332820 0.374903 0.000000
0.368808 0.375614 0.000000
0.404106 0.376325 0.000000
0.438797 0.377035 0.000000
0.472947 0.377745 0.000000
0.506611 0.378455 0.000000
0.539832 0.379164 0.000000
0.572650 0.379874 0.000000
0.605095 0.380583 0.000000
0.637196 0.381291 0.000000
0.668976 0.382000 0.000000
0.700457 0.382708 0.000000
0.731658 0.383416 0.000000
0.762594 0.384123 0.000000
0.793282 0.384831 0.000000
0.823734 0.385538 0.000000
0.853962 0.386245 0.000000
0.883977 0.386951 0.000000
0.913791 0.387658 0.000000
0.943411 0.388364 0.000000
0.972846 0.389070 0.000000
1.000000 0.389775 0.000000
1.000000 0.390481 0.000000
1.000000 0.391186 0.000000
1.000000 0.391890 0.000000
0.000000 0.403089 0.000000
0.039163 0.403790 0.000000
0.089871 0.404490 0.000000
0.135099 0.405190 0.000000
0.177423 0.405890 0.000000
0.217797 0.406590 0.000000
0.256718 0.407289 0.000000
0.294488 0.407988 0.000000
0.331310 0.408687 0.000000
0.367329 0.409386 0.000000
0.402653 0.410085 0.000000
0.437368 0.410783 0.000000
0.471540 0.411481 0.000000
0.505223 0.412178 0.000000
0.538462 0.412876 0.000000
0.571295 0.413573 0.000000
0.603755 0.414270 0.000000
0.635870 0.414967 0.000000
0.667663 0.415664 0.000000
0.699156 0.416360 0.000000
0.730368 0.417056 0.000000
0.761315 0.417752 0.000000
0.792013 0.418447 0.000000
0.822474 0.419143 0.000000
0.852711 0.419838 0.000000
0.882736 0.420533 0.000000
0.912557 0.421228 0.000000
0.942185 0.421922 0.000000
0.971627 0.422616 0.000000
1.000000 0.423310 0.000000
1.000000 0.424004 0.000000
1.000000 0.424698 0.000000
1.000000 0.425391 0.000000
0.000000 0.436411 0.000000
0.036834 0.437100 0.000000
0.087906 0.437789 0.000000
0.133289 0.438479 0.000000
0.175710 0.439168 0.000000
0.216153 0.439856 0.000000
0.255127 0.440545 0.000000
0.292940 0.441233 0.000000
0.329798 0.441921 0.000000
0.365848 0.442609 0.000000
0.401200 0.443297 0.000000
0.435939 0.443984 0.000000
0.470132 0.444671 0.000000
0.503834 0.445358 0.000000
0.537090 0.446045 0.000000
0.569940 0.446732 0.000000
0.602415 0.447418 0.000000
0.634543 0.448104 0.000000
0.666350 0.448790 0.000000
0.697855 0.449476 0.000000
0.729078 0.450161 0.000000
0.760036 0.450847 0.000000
0.790744 0.451532 0.000000
0.821214 0.452217 0.000000
0.851461 0.452901 0.000000
0.881494 0.453586 0.000000
0.911323 0.454270 0.000000
0.940959 0.454954 0.000000
0.970409 0.455638 0.000000
0.999681 0.456322 0.000000
1.000000 0.457005 0.000000
1.000000 0.457688 0.000000
1.000000 0.458371 0.000000
0.000000 0.469230 0.000000
0.034474 0.469910 0.000000
0.085932 0.470589 0.000000
0.131474 0.471268 0.000000
0.173993 0.471947 0.000000
0.214506 0.472626 0.000000
0.253534 0.473305 0.000000
0.291391 0.473983 0.000000
0.328285 0.474662 0.000000
0.364366 0.475340 0.000000
0.399745 0.476018 0.000000
0.434508 0.476695 0.000000
0.468722 0.477373 0.000000
0.502444 0.478050 0.000000
0.535718 0.478727 0.000000
0.568584 0.479404 0.000000
0.601074 0.480081 0.000000
0.633217 0.480758 0.000000
0.665036 0.481434 0.000000
0.696553 0.482110 0.000000
0.727787 0.482786 0.000000
0.758756 0.483462 0.000000
0.789474 0.484138 0.000000
0.819954 0.484813 0.000000
0.850210 0.485488 0.000000
0.880251 0.486163 0.000000
0.910089 0.486838 0.000000
0.939733 0.487513 0.000000
0.969190 0.488187 0.000000
0.998470 0.488862 0.000000
1.000000 0.489536 0.000000
1.000000 0.490210 0.000000
1.000000 0.490883 0.000000
0.000000 0.501596 0.000000
0.032082 0.502267 0.000000
0.083948 0.502937 0.000000
0.129654 0.503607 0.000000
0.172273 0.504278 0.000000
0.212857 0.504948 0.000000
0.251940 0.505617 0.000000
0.289840 0.506287 0.000000
0.326771 0.506956 0.000000
0.362884 0.507626 0.000000
0.398290 0.508295 0.000000
0.433077 0.508963 0.000000
0.467313 0.509632 0.000000
0.501054 0.510301 0.000000
0.534346 0.510969 0.000000
0.567228 0.511637 0.000000
0.599733 0.512305 0.000000
0.631889 0.512973 0.000000
0.663721 0.513641 0.000000
0.695251 0.514308 0.000000
0.726496 0.514976 0.000000
0.757476 0.515643 0.000000
0.788204 0.516310 0.000000
0.818694 0.516976 0.000000
0.848958 0.517643 0.000000
0.879009 0.518310 0.000000
0.908855 0.518976 0.000000
0.938506 0.519642 0.000000
0.967971 0.520308 0.000000
0.997258 0.520974 0.000000
1.000000 0.521639 0.000000
1.000000 0.522305 0.000000
1.000000 0.522970 0.000000
0.000000 0.533549 0.000000
0.029653 0.534212 0.000000
0.081955 0.534874 0.000000
0.127829 0.535536 0.000000
0.170549 0.536198 0.000000
0.211205 0.536860 0.000000
0.250343 0.537522 0.000000
0.288288 0.538183 0.000000
0.325255 0.538844 0.000000
0.361399 0.539505 0.000000
0.396833 0.540166 0.000000
0.431644 0.540827 0.000000
0.465902 0.541488 0.000000
0.499662 0.542148 0.000000
0.532972 0.542809 0.000000
0.565871 0.543469 0.000000
0.598391 0.544129 0.000000
0.630561 0.544789 0.000000
0.662406 0.545448 0.000000
0.693948 0.546108 0.000000
0.725205 0.546767 0.000000
0.756195 0.547426 0.000000
0.786933 0.548085 0.000000
0.817433 0.548744 0.000000
0.847707 0.549403 0.000000
0.877766 0.550062 0.000000
0.907620 0.550720 0.000000
0.937279 0.551378 0.000000
0.966752 0.552036 0.000000
0.996046 0.552694 0.000000
1.000000 0.553352 0.000000
1.000000 0.554010 0.000000
1.000000 0.554667 0.000000
0.000000 0.565124 0.000000
0.027184 0.565779 0.000000
0.079953 0.566434 0.000000
0.125998 0.567089 0.000000
0.168822 0.567743 0.000000
0.209551 0.568397 0.000000
0.248744 0.569051 0.000000
0.286733 0.569705 0.000000
0.323738 0.570359 0.000000
0.359914 0.571013 0.000000
0.395376 0.571666 0.000000
0.430211 0.572320 0.000000
0.464490 0.572973 0.000000
0.498271 0.573626 0.000000
0.531598 0.574279 0.000000
0.564513 0.574931 0.000000
0.597048 0.575584 0.000000
0.629233 0.576237 0.000000
0.661091 0.576889 0.000000
0.692644 0.577541 0.000000
0.723913 0.578193 0.000000
0.754914 0.578845 0.000000
0.785662 0.579497 0.000000
0.816172 0.580148 0.000000
0.846455 0.580800 0.000000
0.876522 0.581451 0.000000
0.906385 0.582102 0.000000
0.936052 0.582753 0.000000
0.965532 0.583404 0.000000
0.994834 0.584055 0.000000
1.000000 0.584705 0.000000
1.000000 0.585356 0.000000
1.000000 0.586006 0.000000
0.000000 0.596350 0.000000
0.024669 0.596998 0.000000
0.077940 0.597646 0.000000
0.124162 0.598293 0.000000
0.167091 0.598941 0.000000
0.207894 0.599588 0.000000
0.247143 0.600235 0.000000
0.285177 0.600882 0.000000
0.322220 0.601529 0.000000
0.358428 0.602176 0.000000
0.393917 0.602822 0.000000
0.428777 0.603469 0.000000
0.463078 0.604115 0.000000
0.496878 0.604761 0.000000
0.530224 0.605407 0.000000
0.563155 0.606053 0.000000
0.595705 0.606699 0.000000
0.627903 0.607345 0.000000
0.659775 0.607990 0.000000
0.691341 0.608636 0.000000
0.722621 0.609281 0.000000
0.753633 0.609926 0.000000
0.784391 0.610571 0.000000
0.814910 0.611216 0.000000
0.845202 0.611860 0.000000
0.875278 0.612505 0.000000
0.905149 0.613149 0.000000
0.934825 0.613794 0.000000
0.964312 0.614438 0.000000
0.993621 0.615082 0.000000
1.000000 0.615726 0.000000
1.000000 0.616369 0.000000
1.000000 0.617013 0.000000
0.000000 0.627252 0.000000
0.022102 0.627893 0.000000
0.075917 0.628535 0.000000
0.122321 0.629176 0.000000
0.165357 0.629817 0.000000
0.206234 0.630457 0.000000
0.245540 0.631098 0.000000
0.283620 0.631739 0.000000
0.320700 0.632379 0.000000
0.356940 0.633020 0.000000
0.392457 0.633660 0.000000
0.427341 0.634300 0.000000
0.461665 0.634940 0.000000
0.495484 0.635579 0.000000
0.528848 0.636219 0.000000
0.561796 0.636859 0.000000
0.594361 0.637498 0.000000
0.626574 0.638137 0.000000
0.658458 0.638776 0.000000
0.690036 0.639416 0.000000
0.721328 0.640054 0.000000
0.752351 0.640693 0.000000
0.783119 0.641332 0.000000
0.813648 0.641970 0.000000
0.843949 0.642609 0.000000
0.874034 0.643247 0.000000
0.903914 0.643885 0.000000
0.933597 0.644523 0.000000
0.963092 0.645161 0.000000
0.992408 0.645799 0.000000
1.000000 0.646436 0.000000
1.000000 0.647074 0.000000
1.000000 0.647711 0.000000
0.000000 0.657852 0.000000
0.019473 0.658488 0.000000
0.073883 0.659123 0.000000
0.120475 0.659758 0.000000
0.163619 0.660393 0.000000
0.204572 0.661027 0.000000
0.243935 0.661662 0.000000
0.282061 0.662297 0.000000
0.319179 0.662931 0.000000
0.355451 0.663565 0.000000
0.390996 0.664200 0.000000
0.425905 0.664834 0.000000
0.460250 0.665468 0.000000
0.494090 0.666101 0.000000
0.527472 0.666735 0.000000
0.560436 0.667369 0.000000
0.593017 0.668002 0.000000
0.625243 0.668635 0.000000
0.657141 0.669269 0.000000
0.688732 0.669902 0.000000
0.720035 0.670535 0.000000
0.751068 0.671168 0.000000
0.781847 0.671800 0.000000
0.812385 0.672433 0.000000
0.842696 0.673065 0.000000
0.872790 0.673698 0.000000
0.902677 0.674330 0.000000
0.932369 0.674962 0.000000
0.961872 0.675594 0.000000
0.991195 0.676226 0.000000
1.000000 0.676858 0.000000
1.000000 0.677490 0.000000
1.000000 0.678121 0.000000
0.000000 0.688170 0.000000
0.016771 0.688800 0.000000
0.071838 0.689429 0.000000
0.118622 0.690059 0.000000
0.161878 0.690688 0.000000
0.202907 0.691317 0.000000
0.242328 0.691946 0.000000
0.280500 0.692575 0.000000
0.317656 0.693204 0.000000
0.353961 0.693832 0.000000
0.389534 0.694461 0.000000
0.424468 0.695089 0.000000
0.458835 0.695718 0.000000
0.492695 0.696346 0.000000
0.526095 0.696974 0.000000
0.559076 0.697602 0.000000
0.591672 0.698230 0.000000
0.623913 0.698858 0.000000
0.655823 0.699485 0.000000
0.687426 0.700113 0.000000
0.718741 0.700740 0.000000
0.749785 0.701368 0.000000
0.780574 0.701995 0.000000
0.811123 0.702622 0.000000
0.841442 0.703249 0.000000
0.871545 0.703876 0.000000
0.901441 0.704502 0.000000
0.931140 0.705129 0.000000
0.960651 0.705756 0.000000
0.989981 0.706382 0.000000
1.000000 0.707008 0.000000
1.000000 0.707634 0.000000
1.000000 0.708261 0.000000
0.000000 0.718224 0.000000
0.013979 0.718848 0.000000
0.069781 0.719472 0.000000
0.116764 0.720096 0.000000
0.160133 0.720720 0.000000
0.201239 0.721344 0.000000
0.240718 0.721967 0.000000
0.278937 0.722591 0.000000
0.316132 0.723214 0.000000
0.352469 0.723838 0.000000
0.388071 0.724461 0.000000
0.423030 0.725084 0.000000
0.457419 0.725707 0.000000
0.491299 0.726330 0.000000
0.524717 0.726953 0.000000
0.557715 0.727576 0.000000
0.590326 0.728198 0.000000
0.622581 0.728821 0.000000
0.654505 0.729443 0.000000
0.686120 0.730065 0.000000
0.717447 0.730688 0.000000
0.748502 0.731310 0.000000
0.779302 0.731932 0.000000
0.809859 0.732553 0.000000
0.840188 0.733175 0.000000
0.870300 0.733797 0.000000
0.900204 0.734418 0.000000
0.929911 0.735040 0.000000
0.959430 0.735661 0.000000
0.988767 0.736282 0.000000
1.000000 0.736904 0.000000
1.000000 0.737525 0.000000
1.000000 0.738146 0.000000
0.000000 0.748027 0.000000
0.011069 0.748646 0.000000
0.067712 0.749265 0.000000
0.114900 0.749884 0.000000
0.158384 0.750503 0.000000
0.199569 0.751122 0.000000
0.239107 0.751741 0.000000
0.277372 0.752359 0.000000
0.314606 0.752978 0.000000
0.350976 0.753596 0.000000
0.386606 0.754214 0.000000
0.421590 0.754832 0.000000
0.456003 0.755451 0.000000
0.489902 0.756068 0.000000
0.523339 0.756686 0.000000
0.556353 0.757304 0.000000
0.588980 0.757922 0.000000
0.621249 0.758539 0.000000
0.653186 0.759157 0.000000
0.684814 0.759774 0.000000
0.716152 0.760391 0.000000
0.747218 0.761008 0.000000
0.778028 0.761625 0.000000
0.808596 0.762242 0.000000
0.838934 0.762859 0.000000
0.869054 0.763476 0.000000
0.898967 0.764093 0.000000
0.928682 0.764709 0.000000
0.958208 0.765326 0.000000
0.987553 0.765942 0.000000
1.000000 0.766558 0.000000
1.000000 0.767174 0.000000
1.000000 0.767790 0.000000
0.000000 0.777595 0.000000
0.007995 0.778210 0.000000
0.065630 0.778824 0.000000
0.113030 0.779438 0.000000
0.156631 0.780052 0.000000
0.197895 0.780666 0.000000
0.237493 0.781280 0.000000
0.275806 0.781894 0.000000
0.313079 0.782508 0.000000
0.349482 0.783121 0.000000
0.385141 0.783735 0.000000
0.420150 0.784348 0.000000
0.454585 0.784961 0.000000
0.488505 0.785575 0.000000
0.521960 0.786188 0.000000
0.554991 0.786801 0.000000
0.587633 0.787414 0.000000
0.619917 0.788027 0.000000
0.651867 0.788639 0.000000
0.683507 0.789252 0.000000
0.714857 0.789865 0.000000
0.745934 0.790477 0.000000
0.776754 0.791090 0.000000
0.807332 0.791702 0.000000
0.837679 0.792314 0.000000
0.867808 0.792926 0.000000
0.897730 0.793538 0.000000
0.927453 0.794150 0.000000
0.956986 0.794762 0.000000
0.986339 0.795373 0.000000
1.000000 0.795985 0.000000
1.000000 0.796597 0.000000
1.000000 0.797208 0.000000
0.000000 0.806940 0.000000
0.004655 0.807550 0.000000
0.063535 0.808160 0.000000
0.111153 0.808769 0.000000
0.154874 0.809379 0.000000
0.196219 0.809988 0.000000
0.235877 0.810598 0.000000
0.274238 0.811207 0.000000
0.311550 0.811816 0.000000
0.347987 0.812425 0.000000
0.383675 0.813034 0.000000
0.418709 0.813643 0.000000
0.453166 0.814252 0.000000
0.487107 0.814861 0.000000
0.520580 0.815470 0.000000
0.553628 0.816078 0.000000
0.586286 0.816687 0.000000
0.618584 0.817295 0.000000
0.650547 0.817903 0.000000
0.682200 0.818512 0.000000
0.713561 0.819120 0.000000
0.744650 0.819728 0.000000
0.775480 0.820336 0.000000
0.806067 0.820943 0.000000
0.836424 0.821551 0.000000
0.866562 0.822159 0.000000
0.896492 0.822766 0.000000
0.926223 0.823374 0.000000
0.955764 0.823981 0.000000
0.985124 0.824589 0.000000
1.000000 0.825196 0.000000
1.000000 0.825803 0.000000
1.000000 0.826410 0.000000
0.000000 0.836073 0.000000
0.000603 0.836678 0.000000
0.061426 0.837284 0.000000
0.109271 0.837889 0.000000
0.153113 0.838494 0.000000
0.194540 0.839100 0.000000
0.234259 0.839705 0.000000
0.272668 0.840310 0.000000
0.310020 0.840915 0.000000
0.346490 0.841519 0.000000
0.382207 0.842124 0.000000
0.417267 0.842729 0.000000
0.451747 0.843333 0.000000
0.485708 0.843938 0.000000
0.519200 0.844542 0.000000
0.552264 0.845147 0.000000
0.584938 0.845751 0.000000
0.617250 0.846355 0.000000
0.649227 0.846959 0.000000
0.680892 0.847563 0.000000
0.712265 0.848167 0.000000
0.743364 0.848771 0.000000
0.774205 0.849375 0.000000
0.804802 0.849978 0.000000
0.835169 0.850582 0.000000
0.865315 0.851185 0.000000
0.895253 0.851789 0.000000
0.924993 0.852392 0.000000
0.954542 0.852995 0.000000
0.983909 0.853598 0.000000
1.000000 0.854201 0.000000
1.000000 0.854804 0.000000
1.000000 0.855407 0.000000
0.000000 0.865004 0.000000
0.000000 0.865605 0.000000
0.059302 0.866207 0.000000
0.107381 0.866808 0.000000
0.151348 0.867409 0.000000
0.192858 0.868010 0.000000
0.232639 0.868611 0.000000
0.271096 0.869212 0.000000
0.308488 0.869813 0.000000
0.344992 0.870414 0.000000
0.380738 0.871014 0.000000
0.415824 0.871615 0.000000
0.450327 0.872216 0.000000
0.484308 0.872816 0.000000
0.517818 0.873416 0.000000
0.550900 0.874017 0.000000
0.583589 0.874617 0.000000
0.615916 0.875217 0.000000
0.647906 0.875817 0.000000
0.679584 0.876417 0.000000
0.710969 0.877017 0.000000
0.742079 0.877617 0.000000
0.772930 0.878216 0.000000
0.803537 0.878816 0.000000
0.833913 0.879416 0.000000
0.864068 0.880015 0.000000
0.894015 0.880614 0.000000
0.923762 0.881214 0.000000
0.953319 0.881813 0.000000
0.982694 0.882412 0.000000
1.000000 0.883011 0.000000
1.000000 0.883610 0.000000
1.000000 0.884209 0.000000
0.000000 0.893743 0.000000
0.000000 0.894340 0.000000
0.057163 0.894938 0.000000
0.105486 0.895535 0.000000
0.149579 0.896132 0.000000
0.191173 0.896729 0.000000
0.231017 0.897327 0.000000
0.269523 0.897924 0.000000
0.306955 0.898521 0.000000
0.343493 0.899117 0.000000
0.379268 0.899714 0.000000
0.414380 0.900311 0.000000
0.448905 0.900908 0.000000
0.482907 0.901504 0.000000
0.516436 0.902101 0.000000
0.549535 0.902697 0.000000
0.582240 0.903293 0.000000
0.614581 0.903890 0.000000
0.646585 0.904486 0.000000
0.678275 0.905082 0.000000
0.709672 0.905678 0.000000
0.740793 0.906274 0.000000
0.771655 0.906870 0.000000
0.802272 0.907466 0.000000
0.832656 0.908061 0.000000
