presets/film_stocks/Kodachrome_64.cube
# 独寻胶片模拟 -- Kodachrome 64
# Kodak, ISO 64, 1974, positive
TITLE "Kodachrome 64"
LUT_3D_SIZE 33
DOMAIN_MIN 0.0 0.0 0.0
DOMAIN_MAX 1.0 1.0 1.0
0.000000 0.000000 0.000000
0.078869 0.007920 0.000000
0.132299 0.013285 0.000000
0.179048 0.017979 0.000000
0.221925 0.022285 0.000000
0.262137 0.026323 0.000000
0.300344 0.030159 0.000000
0.336960 0.033836 0.000000
0.372269 0.037382 0.000000
0.406471 0.040816 0.000000
0.439721 0.044155 0.000000
0.472136 0.047410 0.000000
0.503811 0.050591 0.000000
0.534822 0.053705 0.000000
0.565234 0.056759 0.000000
0.595098 0.059758 0.000000
0.624461 0.062706 0.000000
0.653362 0.065608 0.000000
0.681835 0.068467 0.000000
0.709908 0.071286 0.000000
0.737610 0.074068 0.000000
0.764961 0.076815 0.000000
0.791984 0.079528 0.000000
0.818697 0.082211 0.000000
0.845117 0.084864 0.000000
0.871259 0.087489 0.000000
0.897137 0.090087 0.000000
0.922764 0.092661 0.000000
0.948150 0.095210 0.000000
0.973308 0.097736 0.000000
0.998247 0.100240 0.000000
1.000000 0.102724 0.000000
1.000000 0.105186 0.000000
0.000000 0.079953 0.000000
0.077738 0.082631 0.000000
0.131351 0.085279 0.000000
0.178193 0.087900 0.000000
0.221131 0.090494 0.000000
0.261386 0.093064 0.000000
0.299627 0.095609 0.000000
0.336271 0.098132 0.000000
0.371602 0.100633 0.000000
0.405825 0.103113 0.000000
0.439091 0.105573 0.000000
0.471522 0.108013 0.000000
0.503210 0.110435 0.000000
0.534233 0.112839 0.000000
0.564656 0.115226 0.000000
0.594530 0.117595 0.000000
0.623903 0.119949 0.000000
0.652812 0.122287 0.000000
0.681292 0.124611 0.000000
0.709373 0.126919 0.000000
0.737081 0.129213 0.000000
0.764440 0.131494 0.000000
0.791469 0.133761 0.000000
0.818188 0.136015 0.000000
0.844613 0.138257 0.000000
0.870760 0.140486 0.000000
0.896643 0.142703 0.000000
0.922274 0.144909 0.000000
0.947666 0.147103 0.000000
0.972828 0.149286 0.000000
0.997770 0.151458 0.000000
1.000000 0.153620 0.000000
1.000000 0.155772 0.000000
0.000000 0.134117 0.000000
0.076600 0.136369 0.000000
0.130401 0.138609 0.000000
0.177336 0.140836 0.000000
0.220335 0.143051 0.000000
0.260634 0.145255 0.000000
0.298909 0.147448 0.000000
0.335581 0.149629 0.000000
0.370935 0.151800 0.000000
0.405177 0.153960 0.000000
0.438461 0.156110 0.000000
0.470907 0.158250 0.000000
0.502608 0.160380 0.000000
0.533644 0.162501 0.000000
0.564077 0.164612 0.000000
0.593962 0.166714 0.000000
0.623344 0.168807 0.000000
0.652262 0.170891 0.000000
0.680750 0.172967 0.000000
0.708838 0.175034 0.000000
0.736553 0.177093 0.000000
0.763918 0.179144 0.000000
0.790953 0.181187 0.000000
0.817678 0.183222 0.000000
0.844109 0.185249 0.000000
0.870261 0.187269 0.000000
0.896149 0.189281 0.000000
0.921785 0.191287 0.000000
0.947181 0.193285 0.000000
0.972347 0.195276 0.000000
0.997294 0.197260 0.000000
1.000000 0.199238 0.000000
1.000000 0.201209 0.000000
0.000000 0.181508 0.000000
0.075457 0.183542 0.000000
0.129448 0.185568 0.000000
0.176478 0.187587 0.000000
0.219538 0.189598 0.000000
0.259882 0.191602 0.000000
0.298191 0.193599 0.000000
0.334891 0.195589 0.000000
0.370268 0.197572 0.000000
0.404530 0.199549 0.000000
0.437831 0.201519 0.000000
0.470292 0.203482 0.000000
0.502007 0.205439 0.000000
0.533054 0.207389 0.000000
0.563499 0.209334 0.000000
0.593393 0.211272 0.000000
0.622784 0.213204 0.000000
0.651711 0.215130 0.000000
0.680207 0.217051 0.000000
0.708303 0.218966 0.000000
0.736025 0.220874 0.000000
0.763396 0.222778 0.000000
0.790438 0.224676 0.000000
0.817168 0.226568 0.000000
0.843604 0.228455 0.000000
0.869762 0.230337 0.000000
0.895655 0.232214 0.000000
0.921295 0.234085 0.000000
0.946696 0.235951 0.000000
0.971866 0.237813 0.000000
0.996817 0.239669 0.000000
1.000000 0.241521 0.000000
1.000000 0.243367 0.000000
0.000000 0.224974 0.000000
0.074307 0.226866 0.000000
0.128493 0.228752 0.000000
0.175619 0.230633 0.000000
0.218740 0.232509 0.000000
0.259129 0.234379 0.000000
0.297472 0.236245 0.000000
0.334200 0.238106 0.000000
0.369601 0.239961 0.000000
0.403882 0.241812 0.000000
0.437200 0.243658 0.000000
0.469676 0.245499 0.000000
0.501405 0.247336 0.000000
0.532465 0.249168 0.000000
0.562920 0.250995 0.000000
0.592825 0.252818 0.000000
0.622225 0.254636 0.000000
0.651160 0.256450 0.000000
0.679664 0.258260 0.000000
0.707768 0.260065 0.000000
0.735496 0.261866 0.000000
0.762874 0.263663 0.000000
0.789922 0.265456 0.000000
0.816658 0.267245 0.000000
0.843100 0.269029 0.000000
0.869263 0.270810 0.000000
0.895160 0.272586 0.000000
0.920806 0.274359 0.000000
0.946211 0.276128 0.000000
0.971386 0.277893 0.000000
0.996341 0.279654 0.000000
1.000000 0.281411 0.000000
1.000000 0.283165 0.000000
0.000000 0.265738 0.000000
0.073152 0.267526 0.000000
0.127535 0.269310 0.000000
0.174758 0.271090 0.000000
0.217942 0.272866 0.000000
0.258375 0.274638 0.000000
0.296753 0.276406 0.000000
0.333509 0.278170 0.000000
0.368932 0.279931 0.000000
0.403234 0.281688 0.000000
0.436570 0.283441 0.000000
0.469060 0.285190 0.000000
0.500803 0.286936 0.000000
0.531875 0.288678 0.000000
0.562341 0.290416 0.000000
0.592256 0.292151 0.000000
0.621665 0.293883 0.000000
0.650609 0.295611 0.000000
0.679121 0.297336 0.000000
0.707232 0.299057 0.000000
0.734968 0.300775 0.000000
0.762352 0.302489 0.000000
0.789406 0.304201 0.000000
0.816148 0.305908 0.000000
0.842595 0.307613 0.000000
0.868763 0.309315 0.000000
0.894666 0.311013 0.000000
0.920316 0.312708 0.000000
0.945725 0.314400 0.000000
0.970905 0.316089 0.000000
0.995864 0.317775 0.000000
1.000000 0.319458 0.000000
1.000000 0.321138 0.000000
0.000000 0.304470 0.000000
0.071991 0.306177 0.000000
0.126575 0.307882 0.000000
0.173896 0.309583 0.000000
0.217142 0.311280 0.000000
0.257620 0.312975 0.000000
0.296033 0.314667 0.000000
0.332817 0.316355 0.000000
0.368264 0.318041 0.000000
0.402585 0.319723 0.000000
0.435938 0.321403 0.000000
0.468444 0.323079 0.000000
0.500200 0.324753 0.000000
0.531285 0.326423 0.000000
0.561762 0.328091 0.000000
0.591687 0.329756 0.000000
0.621106 0.331418 0.000000
0.650058 0.333077 0.000000
0.678578 0.334733 0.000000
0.706696 0.336386 0.000000
0.734439 0.338037 0.000000
0.761830 0.339685 0.000000
0.788890 0.341331 0.000000
0.815638 0.342973 0.000000
0.842091 0.344613 0.000000
0.868264 0.346250 0.000000
0.894172 0.347885 0.000000
0.919826 0.349517 0.000000
0.945240 0.351147 0.000000
0.970424 0.352774 0.000000
0.995387 0.354398 0.000000
1.000000 0.356020 0.000000
1.000000 0.357639 0.000000
0.000000 0.341590 0.000000
0.070823 0.343232 0.000000
0.125612 0.344871 0.000000
0.173032 0.346508 0.000000
0.216341 0.348142 0.000000
0.256865 0.349774 0.000000
0.295313 0.351403 0.000000
0.332124 0.353030 0.000000
0.367595 0.354654 0.000000
0.401937 0.356275 0.000000
0.435307 0.357894 0.000000
0.467828 0.359510 0.000000
0.499598 0.361124 0.000000
0.530694 0.362736 0.000000
0.561183 0.364345 0.000000
0.591118 0.365952 0.000000
0.620546 0.367556 0.000000
0.649507 0.369158 0.000000
0.678035 0.370758 0.000000
0.706161 0.372355 0.000000
0.733910 0.373950 0.000000
0.761308 0.375542 0.000000
0.788374 0.377132 0.000000
0.815128 0.378720 0.000000
0.841586 0.380306 0.000000
0.867764 0.381890 0.000000
0.893677 0.383471 0.000000
0.919337 0.385050 0.000000
0.944755 0.386627 0.000000
0.969943 0.388202 0.000000
0.994910 0.389774 0.000000
1.000000 0.391344 0.000000
1.000000 0.392913 0.000000
0.000000 0.377383 0.000000
0.069648 0.378970 0.000000
0.124647 0.380556 0.000000
0.172167 0.382139 0.000000
0.215540 0.383720 0.000000
0.256109 0.385299 0.000000
0.294592 0.386875 0.000000
0.331432 0.388450 0.000000
0.366926 0.390022 0.000000
0.401287 0.391592 0.000000
0.434675 0.393160 0.000000
0.467212 0.394725 0.000000
0.498995 0.396289 0.000000
0.530103 0.397851 0.000000
0.560603 0.399410 0.000000
0.590548 0.400967 0.000000
0.619986 0.402523 0.000000
0.648955 0.404076 0.000000
0.677492 0.405627 0.000000
0.705625 0.407177 0.000000
0.733381 0.408724 0.000000
0.760785 0.410269 0.000000
0.787858 0.411812 0.000000
0.814617 0.413354 0.000000
0.841081 0.414893 0.000000
0.867265 0.416431 0.000000
0.893182 0.417966 0.000000
0.918847 0.419500 0.000000
0.944269 0.421031 0.000000
0.969462 0.422561 0.000000
0.994433 0.424089 0.000000
1.000000 0.425615 0.000000
1.000000 0.427139 0.000000
0.000000 0.412055 0.000000
0.068467 0.413596 0.000000
0.123679 0.415136 0.000000
0.171300 0.416673 0.000000
0.214737 0.418208 0.000000
0.255352 0.419741 0.000000
0.293870 0.421273 0.000000
0.330738 0.422802 0.000000
0.366256 0.424330 0.000000
0.400638 0.425856 0.000000
0.434043 0.427379 0.000000
0.466595 0.428901 0.000000
0.498392 0.430422 0.000000
0.529513 0.431940 0.000000
0.560023 0.433457 0.000000
0.589979 0.434971 0.000000
0.619426 0.436484 0.000000
0.648404 0.437996 0.000000
0.676948 0.439505 0.000000
0.705089 0.441013 0.000000
0.732852 0.442519 0.000000
0.760263 0.444023 0.000000
0.787341 0.445525 0.000000
0.814107 0.447026 0.000000
0.840576 0.448525 0.000000
0.866765 0.450023 0.000000
0.892687 0.451518 0.000000
0.918357 0.453012 0.000000
0.943784 0.454504 0.000000
0.968980 0.455995 0.000000
0.993956 0.457484 0.000000
1.000000 0.458971 0.000000
1.000000 0.460457 0.000000
0.000000 0.445762 0.000000
0.067279 0.447262 0.000000
0.122709 0.448761 0.000000
0.170432 0.450258 0.000000
0.213933 0.451754 0.000000
0.254594 0.453247 0.000000
0.293148 0.454739 0.000000
0.330045 0.456230 0.000000
0.365586 0.457718 0.000000
0.399988 0.459206 0.000000
0.433410 0.460691 0.000000
0.465978 0.462175 0.000000
0.497788 0.463657 0.000000
0.528922 0.465137 0.000000
0.559443 0.466616 0.000000
0.589409 0.468094 0.000000
0.618865 0.469570 0.000000
0.647852 0.471044 0.000000
0.676404 0.472516 0.000000
0.704552 0.473988 0.000000
0.732323 0.475457 0.000000
0.759740 0.476925 0.000000
0.786825 0.478392 0.000000
0.813596 0.479857 0.000000
0.840071 0.481320 0.000000
0.866265 0.482782 0.000000
0.892193 0.484242 0.000000
0.917866 0.485701 0.000000
0.943298 0.487159 0.000000
0.968499 0.488615 0.000000
0.993479 0.490069 0.000000
1.000000 0.491522 0.000000
1.000000 0.492974 0.000000
0.000000 0.478623 0.000000
0.066083 0.480087 0.000000
0.121736 0.481550 0.000000
0.169563 0.483012 0.000000
0.213128 0.484472 0.000000
0.253835 0.485931 0.000000
0.292425 0.487388 0.000000
0.329350 0.488844 0.000000
0.364916 0.490298 0.000000
0.399338 0.491751 0.000000
0.432778 0.493202 0.000000
0.465360 0.494652 0.000000
0.497185 0.496100 0.000000
0.528330 0.497547 0.000000
0.558863 0.498993 0.000000
0.588839 0.500437 0.000000
0.618305 0.501880 0.000000
0.647300 0.503321 0.000000
0.675860 0.504761 0.000000
0.704016 0.506199 0.000000
0.731794 0.507637 0.000000
0.759217 0.509072 0.000000
0.786308 0.510507 0.000000
0.813085 0.511940 0.000000
0.839566 0.513371 0.000000
0.865765 0.514802 0.000000
0.891698 0.516230 0.000000
0.917376 0.517658 0.000000
0.942813 0.519084 0.000000
0.968018 0.520509 0.000000
0.993002 0.521933 0.000000
1.000000 0.523355 0.000000
1.000000 0.524776 0.000000
0.000000 0.510733 0.000000
0.064880 0.512165 0.000000
0.120761 0.513597 0.000000
0.168691 0.515027 0.000000
0.212323 0.516456 0.000000
0.253076 0.517883 0.000000
0.291701 0.519309 0.000000
0.328655 0.520734 0.000000
0.364245 0.522157 0.000000
0.398687 0.523579 0.000000
0.432144 0.525000 0.000000
0.464743 0.526419 0.000000
0.496581 0.527837 0.000000
0.527739 0.529254 0.000000
0.558283 0.530670 0.000000
0.588269 0.532084 0.000000
0.617744 0.533497 0.000000
0.646748 0.534909 0.000000
0.675316 0.536319 0.000000
0.703480 0.537728 0.000000
0.731264 0.539136 0.000000
0.758694 0.540543 0.000000
0.785791 0.541949 0.000000
0.812574 0.543353 0.000000
0.839060 0.544756 0.000000
0.865265 0.546158 0.000000
0.891203 0.547558 0.000000
0.916886 0.548957 0.000000
0.942327 0.550355 0.000000
0.967536 0.551752 0.000000
0.992525 0.553148 0.000000
1.000000 0.554543 0.000000
1.000000 0.555936 0.000000
0.000000 0.542170 0.000000
0.063670 0.543574 0.000000
0.119782 0.544977 0.000000
0.167819 0.546378 0.000000
0.211516 0.547779 0.000000
0.252316 0.549178 0.000000
0.290977 0.550576 0.000000
0.327960 0.551972 0.000000
0.363573 0.553368 0.000000
0.398036 0.554762 0.000000
0.431511 0.556155 0.000000
0.464125 0.557547 0.000000
0.495976 0.558938 0.000000
0.527147 0.560328 0.000000
0.557702 0.561716 0.000000
0.587699 0.563103 0.000000
0.617183 0.564489 0.000000
0.646196 0.565874 0.000000
0.674772 0.567258 0.000000
0.702943 0.568641 0.000000
0.730735 0.570022 0.000000
0.758171 0.571403 0.000000
0.785275 0.572782 0.000000
0.812063 0.574160 0.000000
0.838555 0.575537 0.000000
0.864765 0.576913 0.000000
0.890707 0.578287 0.000000
0.916396 0.579661 0.000000
0.941841 0.581034 0.000000
0.967055 0.582405 0.000000
0.992047 0.583775 0.000000
1.000000 0.585144 0.000000
1.000000 0.586513 0.000000
0.000000 0.572999 0.000000
0.062451 0.574377 0.000000
0.118801 0.575754 0.000000
0.166944 0.577129 0.000000
0.210708 0.578504 0.000000
0.251556 0.579877 0.000000
0.290253 0.581250 0.000000
0.327264 0.582621 0.000000
0.362902 0.583991 0.000000
0.397384 0.585360 0.000000
0.430877 0.586728 0.000000
0.463507 0.588095 0.000000
0.495372 0.589461 0.000000
0.526555 0.590825 0.000000
0.557122 0.592189 0.000000
0.587128 0.593552 0.000000
0.616622 0.594913 0.000000
0.645644 0.596274 0.000000
0.674228 0.597633 0.000000
0.702406 0.598991 0.000000
0.730205 0.600349 0.000000
0.757648 0.601705 0.000000
0.784758 0.603060 0.000000
0.811552 0.604415 0.000000
0.838049 0.605768 0.000000
0.864265 0.607120 0.000000
0.890212 0.608471 0.000000
0.915905 0.609821 0.000000
0.941355 0.611170 0.000000
0.966573 0.612518 0.000000
0.991570 0.613865 0.000000
1.000000 0.615211 0.000000
1.000000 0.616556 0.000000
0.000000 0.603274 0.000000
0.061225 0.604628 0.000000
0.117818 0.605981 0.000000
0.166069 0.607333 0.000000
0.209899 0.608684 0.000000
0.250794 0.610034 0.000000
0.289527 0.611383 0.000000
0.326568 0.612731 0.000000
0.362229 0.614077 0.000000
0.396733 0.615423 0.000000
0.430243 0.616768 0.000000
0.462888 0.618112 0.000000
0.494767 0.619455 0.000000
0.525963 0.620797 0.000000
0.556541 0.622138 0.000000
0.586558 0.623478 0.000000
0.616061 0.624817 0.000000
0.645091 0.626155 0.000000
0.673684 0.627492 0.000000
0.701869 0.628828 0.000000
0.729675 0.630163 0.000000
0.757125 0.631497 0.000000
0.784241 0.632830 0.000000
0.811041 0.634163 0.000000
0.837544 0.635494 0.000000
0.863764 0.636824 0.000000
0.889717 0.638154 0.000000
0.915414 0.639482 0.000000
0.940869 0.640810 0.000000
0.966092 0.642136 0.000000
0.991092 0.643462 0.000000
1.000000 0.644786 0.000000
1.000000 0.646110 0.000000
0.000000 0.633040 0.000000
0.059990 0.634372 0.000000
0.116831 0.635704 0.000000
0.165191 0.637034 0.000000
0.209089 0.638363 0.000000
0.250032 0.639691 0.000000
0.288801 0.641019 0.000000
0.325871 0.642345 0.000000
0.361557 0.643671 0.000000
0.396081 0.644995 0.000000
0.429609 0.646319 0.000000
0.462269 0.647641 0.000000
0.494163 0.648963 0.000000
0.525370 0.650284 0.000000
0.555960 0.651604 0.000000
0.585987 0.652923 0.000000
0.615499 0.654241 0.000000
0.644538 0.655559 0.000000
0.673139 0.656875 0.000000
0.701332 0.658190 0.000000
0.729145 0.659505 0.000000
0.756602 0.660819 0.000000
0.783723 0.662132 0.000000
0.810530 0.663443 0.000000
0.837038 0.664754 0.000000
0.863264 0.666065 0.000000
0.889221 0.667374 0.000000
0.914924 0.668682 0.000000
0.940383 0.669990 0.000000
0.965610 0.671296 0.000000
0.990615 0.672602 0.000000
1.000000 0.673907 0.000000
1.000000 0.675211 0.000000
0.000000 0.662338 0.000000
0.058746 0.663650 0.000000
0.115842 0.664961 0.000000
0.164312 0.666271 0.000000
0.208278 0.667580 0.000000
0.249268 0.668888 0.000000
0.288075 0.670196 0.000000
0.325174 0.671502 0.000000
0.360884 0.672808 0.000000
0.395428 0.674113 0.000000
0.428974 0.675417 0.000000
0.461650 0.676720 0.000000
0.493557 0.678022 0.000000
0.524778 0.679323 0.000000
0.555378 0.680624 0.000000
0.585416 0.681924 0.000000
0.614938 0.683223 0.000000
0.643986 0.684521 0.000000
0.672594 0.685818 0.000000
0.700795 0.687114 0.000000
0.728615 0.688410 0.000000
0.756078 0.689704 0.000000
0.783206 0.690998 0.000000
0.810018 0.692291 0.000000
0.836532 0.693583 0.000000
0.862763 0.694875 0.000000
0.888726 0.696165 0.000000
0.914433 0.697455 0.000000
0.939897 0.698744 0.000000
0.965128 0.700032 0.000000
0.990137 0.701320 0.000000
1.000000 0.702606 0.000000
1.000000 0.703892 0.000000
0.000000 0.691202 0.000000
0.057494 0.692495 0.000000
0.114850 0.693787 0.000000
0.163432 0.695078 0.000000
0.207466 0.696369 0.000000
0.248505 0.697658 0.000000
0.287348 0.698947 0.000000
0.324476 0.700235 0.000000
0.360210 0.701522 0.000000
0.394775 0.702809 0.000000
0.428339 0.704094 0.000000
0.461031 0.705379 0.000000
0.492952 0.706663 0.000000
0.524185 0.707946 0.000000
0.554797 0.709229 0.000000
0.584844 0.710511 0.000000
0.614376 0.711791 0.000000
0.643432 0.713071 0.000000
0.672049 0.714351 0.000000
0.700258 0.715629 0.000000
0.728085 0.716907 0.000000
0.755554 0.718184 0.000000
0.782689 0.719460 0.000000
0.809507 0.720736 0.000000
0.836026 0.722010 0.000000
0.862263 0.723284 0.000000
0.888230 0.724557 0.000000
0.913942 0.725830 0.000000
0.939411 0.727101 0.000000
0.964646 0.728372 0.000000
0.989659 0.729642 0.000000
1.000000 0.730912 0.000000
1.000000 0.732180 0.000000
0.000000 0.719661 0.000000
0.056232 0.720937 0.000000
0.113854 0.722211 0.000000
0.162550 0.723485 0.000000
0.206652 0.724758 0.000000
0.247740 0.726030 0.000000
0.286620 0.727302 0.000000
0.323778 0.728572 0.000000
0.359536 0.729842 0.000000
0.394122 0.731112 0.000000
0.427704 0.732380 0.000000
0.460411 0.733648 0.000000
0.492346 0.734915 0.000000
0.523591 0.736181 0.000000
0.554215 0.737447 0.000000
0.584273 0.738711 0.000000
0.613814 0.739976 0.000000
0.642879 0.741239 0.000000
0.671504 0.742501 0.000000
0.699720 0.743763 0.000000
0.727554 0.745024 0.000000
0.755031 0.746285 0.000000
0.782171 0.747544 0.000000
0.808995 0.748803 0.000000
0.835520 0.750062 0.000000
0.861762 0.751319 0.000000
0.887735 0.752576 0.000000
0.913451 0.753832 0.000000
0.938924 0.755087 0.000000
0.964164 0.756342 0.000000
0.989182 0.757596 0.000000
1.000000 0.758849 0.000000
1.000000 0.760102 0.000000
0.000000 0.747743 0.000000
0.054960 0.749002 0.000000
0.112856 0.750260 0.000000
0.161666 0.751517 0.000000
0.205838 0.752774 0.000000
0.246974 0.754030 0.000000
0.285891 0.755285 0.000000
0.323079 0.756540 0.000000
0.358862 0.757794 0.000000
0.393468 0.759047 0.000000
0.427068 0.760299 0.000000
0.459791 0.761551 0.000000
0.491740 0.762802 0.000000
0.522998 0.764052 0.000000
0.553633 0.765302 0.000000
0.583701 0.766551 0.000000
0.613252 0.767799 0.000000
0.642326 0.769047 0.000000
0.670959 0.770294 0.000000
0.699182 0.771540 0.000000
0.727024 0.772785 0.000000
0.754507 0.774030 0.000000
0.781654 0.775274 0.000000
0.808484 0.776518 0.000000
0.835014 0.777761 0.000000
0.861261 0.779003 0.000000
0.887239 0.780244 0.000000
0.912960 0.781485 0.000000
0.938438 0.782725 0.000000
0.963682 0.783965 0.000000
0.988704 0.785203 0.000000
1.000000 0.786441 0.000000
1.000000 0.787679 0.000000
0.000000 0.775470 0.000000
0.053678 0.776714 0.000000
0.111855 0.777956 0.000000
0.160780 0.779198 0.000000
0.205023 0.780440 0.000000
0.246208 0.781680 0.000000
0.285162 0.782921 0.000000
0.322380 0.784160 0.000000
0.358187 0.785399 0.000000
0.392815 0.786637 0.000000
0.426432 0.787874 0.000000
0.459171 0.789111 0.000000
0.491134 0.790347 0.000000
0.522405 0.791582 0.000000
0.553051 0.792817 0.000000
0.583130 0.794051 0.000000
0.612690 0.795284 0.000000
0.641772 0.796517 0.000000
0.670414 0.797749 0.000000
0.698645 0.798980 0.000000
0.726493 0.800211 0.000000
0.753983 0.801441 0.000000
0.781136 0.802671 0.000000
0.807972 0.803900 0.000000
0.834508 0.805128 0.000000
0.860760 0.806356 0.000000
0.886743 0.807583 0.000000
0.912469 0.808809 0.000000
0.937951 0.810035 0.000000
0.963200 0.811260 0.000000
0.988226 0.812484 0.000000
1.000000 0.813708 0.000000
1.000000 0.814931 0.000000
0.000000 0.802865 0.000000
0.052386 0.804094 0.000000
0.110851 0.805322 0.000000
0.159893 0.806549 0.000000
0.204206 0.807776 0.000000
0.245441 0.809002 0.000000
0.284433 0.810228 0.000000
0.321680 0.811453 0.000000
0.357512 0.812677 0.000000
0.392160 0.813901 0.000000
0.425796 0.815124 0.000000
0.458551 0.816347 0.000000
0.490528 0.817569 0.000000
0.521811 0.818790 0.000000
0.552468 0.820010 0.000000
0.582558 0.821230 0.000000
0.612127 0.822450 0.000000
0.641219 0.823669 0.000000
0.669868 0.824887 0.000000
0.698107 0.826104 0.000000
0.725962 0.827321 0.000000
0.753459 0.828538 0.000000
0.780618 0.829753 0.000000
0.807460 0.830968 0.000000
0.834002 0.832183 0.000000
0.860259 0.833397 0.000000
0.886247 0.834610 0.000000
0.911978 0.835823 0.000000
0.937465 0.837035 0.000000
0.962718 0.838247 0.000000
0.987748 0.839457 0.000000
1.000000 0.840668 0.000000
1.000000 0.841878 0.000000
0.000000 0.829945 0.000000
0.051083 0.831160 0.000000
0.109844 0.832374 0.000000
0.159004 0.833588 0.000000
0.203388 0.834801 0.000000
0.244673 0.836014 0.000000
0.283702 0.837226 0.000000
0.320980 0.838437 0.000000
0.356836 0.839648 0.000000
0.391505 0.840858 0.000000
0.425159 0.842068 0.000000
0.457930 0.843277 0.000000
0.489921 0.844486 0.000000
0.521217 0.845693 0.000000
0.551886 0.846901 0.000000
0.581985 0.848108 0.000000
0.611565 0.849314 0.000000
0.640665 0.850519 0.000000
0.669323 0.851724 0.000000
0.697569 0.852929 0.000000
0.725431 0.854132 0.000000
0.752934 0.855336 0.000000
0.780100 0.856538 0.000000
0.806948 0.857740 0.000000
0.833495 0.858942 0.000000
0.859758 0.860143 0.000000
0.885751 0.861343 0.000000
0.911487 0.862543 0.000000
0.936978 0.863742 0.000000
0.962235 0.864941 0.000000
0.987269 0.866139 0.000000
1.000000 0.867336 0.000000
1.000000 0.868533 0.000000
0.000000 0.856728 0.000000
0.049768 0.857930 0.000000
0.108833 0.859131 0.000000
0.158114 0.860332 0.000000
0.202570 0.861532 0.000000
0.243904 0.862732 0.000000
0.282971 0.863931 0.000000
0.320279 0.865130 0.000000
0.356160 0.866328 0.000000
0.390850 0.867525 0.000000
0.424522 0.868722 0.000000
0.457309 0.869918 0.000000
0.489314 0.871114 0.000000
0.520622 0.872309 0.000000
0.551303 0.873504 0.000000
0.581413 0.874698 0.000000
0.611002 0.875892 0.000000
0.640111 0.877085 0.000000
0.668777 0.878277 0.000000
0.697031 0.879469 0.000000
0.724900 0.880660 0.000000
0.752410 0.881851 0.000000
0.779582 0.883041 0.000000
0.806436 0.884231 0.000000
0.832989 0.885420 0.000000
0.859257 0.886609 0.000000
0.885255 0.887797 0.000000
0.910995 0.888984 0.000000
0.936491 0.890171 0.000000
0.961753 0.891358 0.000000
0.986791 0.892544 0.000000
1.000000 0.893729 0.000000
1.000000 0.894914 0.000000
0.000000 0.883229 0.000000
0.048442 0.884418 0.000000
0.107820 0.885607 0.000000
0.157222 0.886796 0.000000
0.201750 0.887984 0.000000
0.243134 0.889171 0.000000
0.282240 0.890358 0.000000
0.319577 0.891545 0.000000
0.355484 0.892731 0.000000
0.390195 0.893916 0.000000
0.423885 0.895101 0.000000
0.456688 0.896285 0.000000
0.488707 0.897469 0.000000
0.520028 0.898652 0.000000
0.550720 0.899834 0.000000
0.580840 0.901016 0.000000
0.610439 0.902198 0.000000
0.639557 0.903379 0.000000
0.668231 0.904560 0.000000
0.696492 0.905740 0.000000
0.724369 0.906919 0.000000
0.751886 0.908098 0.000000
0.779064 0.909277 0.000000
0.805923 0.910455 0.000000
0.832482 0.911632 0.000000
0.858755 0.912809 0.000000
0.884758 0.913985 0.000000
0.910504 0.915161 0.000000
0.936004 0.916336 0.000000
0.961270 0.917511 0.000000
0.986313 0.918686 0.000000
1.000000 0.919859 0.000000
1.000000 0.921033 0.000000
0.000000 0.909462 0.000000
0.047103 0.910640 0.000000
0.106803 0.911817 0.000000
0.156328 0.912994 0.000000
0.200929 0.914171 0.000000
0.242364 0.915346 0.000000
0.281507 0.916522 0.000000
0.318875 0.917696 0.000000
0.354807 0.918871 0.000000
0.389539 0.920044 0.000000
0.423248 0.921218 0.000000
0.456066 0.922390 0.000000
0.488100 0.923562 0.000000
0.519433 0.924734 0.000000
0.550136 0.925905 0.000000
0.580268 0.927076 0.000000
0.609876 0.928246 0.000000
0.639003 0.929416 0.000000
0.667685 0.930585 0.000000
0.695954 0.931754 0.000000
0.723838 0.932922 0.000000
0.751361 0.934090 0.000000
0.778545 0.935257 0.000000
0.805411 0.936424 0.000000
0.831975 0.937590 0.000000
