presets/film_stocks/Kodak_Aerochrome_III_Infrared_Film_1443.cube
# 独寻胶片模拟 -- Kodak Aerochrome III Infrared Film 1443
# Kodak, ISO 40, 2001, positive
TITLE "Kodak Aerochrome III Infrared Film 1443"
LUT_3D_SIZE 5
DOMAIN_MIN 0.0 0.0 0.0
DOMAIN_MAX 1.0 1.0 1.0
0.000000 0.000000 0.000000
0.671747 0.000000 0.000000
1.000000 0.000000 0.000000
1.000000 0.000000 0.000000
1.000000 0.000000 0.000000
0.021185 0.117376 0.001354
0.675540 0.108052 0.000000
1.000000 0.098394 0.000000
1.000000 0.088340 0.000000
1.000000 0.077805 0.000000
0.034757 0.192576 0.002222
0.679324 0.184990 0.000000
1.000000 0.177278 0.000000
1.000000 0.169429 0.000000
1.000000 0.161432 0.000000
0.046432 0.257265 0.002968
0.683099 0.250527 0.000000
1.000000 0.243717 0.000000
1.000000 0.236829 0.000000
1.000000 0.229860 0.000000
0.057024 0.315953 0.003645
0.686866 0.309755 0.000000
1.000000 0.303508 0.000000
1.000000 0.297208 0.000000
1.000000 0.290855 0.000000
0.000000 0.323108 0.372376
0.366674 0.316966 0.371396
0.866612 0.310777 0.370415
1.000000 0.304538 0.369433
1.000000 0.298247 0.368450
0.000000 0.377267 0.372478
0.371499 0.371499 0.371499
0.870038 0.365694 0.370518
1.000000 0.359853 0.369536
1.000000 0.353974 0.368553
0.000000 0.428469 0.372581
0.376298 0.422990 0.371601
0.873459 0.417482 0.370620
1.000000 0.411945 0.369639
1.000000 0.406378 0.368656
0.000000 0.477327 0.372683
0.381073 0.472081 0.371703
0.876874 0.466812 0.370723
1.000000 0.461519 0.369741
1.000000 0.456202 0.368759
0.000000 0.524258 0.372785
0.385825 0.519207 0.371806
0.880285 0.514136 0.370825
1.000000 0.509045 0.369844
1.000000 0.503934 0.368861
0.000000 0.530114 0.610946
0.000000 0.525086 0.610143
0.601592 0.520038 0.609339
1.000000 0.514970 0.608534
1.000000 0.509882 0.607730
0.000000 0.575230 0.611030
0.000000 0.570364 0.610227
0.605554 0.565481 0.609423
1.000000 0.560582 0.608618
1.000000 0.555665 0.607814
0.000000 0.618971 0.611114
0.000000 0.614246 0.610311
0.609507 0.609507 0.609507
1.000000 0.604753 0.608702
1.000000 0.599984 0.607898
0.000000 0.661507 0.611198
0.000000 0.656907 0.610395
0.613449 0.652295 0.609591
1.000000 0.647669 0.608787
1.000000 0.643029 0.607982
0.000000 0.702977 0.611282
0.000000 0.698488 0.610479
0.617381 0.693987 0.609675
1.000000 0.689475 0.608871
1.000000 0.684951 0.608066
0.000000 0.708188 0.816174
0.000000 0.703713 0.815458
0.274286 0.699226 0.814742
0.803676 0.694727 0.814026
1.000000 0.690217 0.813310
0.000000 0.748586 0.816248
0.000000 0.744209 0.815533
0.279697 0.739821 0.814817
0.807207 0.735424 0.814101
1.000000 0.731015 0.813385
0.000000 0.788129 0.816323
0.000000 0.783841 0.815608
0.285067 0.779544 0.814892
0.810732 0.775238 0.814176
1.000000 0.770922 0.813459
0.000000 0.826893 0.816398
0.000000 0.822688 0.815682
0.290397 0.818473 0.814967
0.814251 0.814251 0.814251
1.000000 0.810019 0.813534
0.000000 0.864944 0.816473
0.000000 0.860813 0.815757
0.295688 0.856675 0.815041
0.817763 0.852529 0.814325
1.000000 0.848375 0.813609
0.000000 0.869743 1.000000
0.000000 0.865621 1.000000
0.000000 0.861492 1.000000
0.527989 0.857355 1.000000
0.987014 0.853211 0.999724
0.000000 0.907055 1.000000
0.000000 0.903002 1.000000
0.000000 0.898943 1.000000
0.532163 0.894876 1.000000
0.990267 0.890802 0.999793
0.000000 0.943762 1.000000
0.000000 0.939774 1.000000
0.000000 0.935779 1.000000
0.536324 0.931777 1.000000
0.993515 0.927768 0.999862
0.000000 0.979907 1.000000
0.000000 0.975979 1.000000
0.000000 0.972044 1.000000
0.540472 0.968103 1.000000
0.996760 0.964155 0.999931
0.000000 1.000000 1.000000
0.000000 1.000000 1.000000
0.000000 1.000000 1.000000
0.544608 1.000000 1.000000
1.000000 1.000000 1.000000
