presets/film_stocks/Kodak_Vision_320T_5277.cube
# 独寻胶片模拟 -- Kodak Vision 320T 5277
# Kodak, ISO 320, 1996, negative
TITLE "Kodak Vision 320T 5277"
LUT_3D_SIZE 5
DOMAIN_MIN 0.0 0.0 0.0
DOMAIN_MAX 1.0 1.0 1.0
0.000000 0.000000 0.000000
0.331379 0.010142 0.000000
0.608676 0.018628 0.000000
0.868665 0.026585 0.000000
1.000000 0.034216 0.000000
0.000000 0.318338 0.000000
0.318545 0.323822 0.000000
0.596906 0.329294 0.000000
0.857471 0.334753 0.000000
1.000000 0.340199 0.000000
0.000000 0.584722 0.000000
0.305638 0.589762 0.000000
0.585103 0.594796 0.000000
0.846257 0.599824 0.000000
1.000000 0.604846 0.000000
0.000000 0.834479 0.000000
0.292655 0.839276 0.000000
0.573267 0.844068 0.000000
0.835023 0.848856 0.000000
1.000000 0.853641 0.000000
0.000000 1.000000 0.000000
0.279590 1.000000 0.000000
0.561396 1.000000 0.000000
0.823767 1.000000 0.000000
1.000000 1.000000 0.000000
0.000000 0.000000 0.308371
0.309360 0.000000 0.300808
0.588503 0.000000 0.293217
0.849487 0.000000 0.285599
1.000000 0.000000 0.277952
0.000000 0.290846 0.303979
0.296399 0.296399 0.296399
0.576676 0.301938 0.288793
0.838258 0.307463 0.281158
1.000000 0.312974 0.273495
0.000000 0.559553 0.299577
0.283358 0.564624 0.291982
0.564816 0.569689 0.284359
0.827008 0.574747 0.276708
1.000000 0.579799 0.269027
0.000000 0.810558 0.295166
0.270233 0.815373 0.287555
0.552920 0.820185 0.279916
0.815737 0.824993 0.272247
1.000000 0.829796 0.264548
0.000000 1.000000 0.290746
0.257018 1.000000 0.283119
0.540988 1.000000 0.275463
0.804444 1.000000 0.267776
1.000000 1.000000 0.260059
0.000000 0.000000 0.566416
0.287120 0.000000 0.559475
0.568232 0.000000 0.552523
0.830248 0.000000 0.545558
1.000000 0.000000 0.538580
0.000000 0.262984 0.562384
0.274019 0.268616 0.555436
0.556347 0.274231 0.548476
0.818983 0.279830 0.541504
1.000000 0.285413 0.534520
0.000000 0.534225 0.558347
0.260830 0.539329 0.551393
0.544426 0.544426 0.544426
0.807696 0.549516 0.537446
1.000000 0.554600 0.530454
0.000000 0.786537 0.554307
0.247547 0.791373 0.547345
0.532468 0.796204 0.540371
0.796387 0.801032 0.533384
1.000000 0.805856 0.526385
0.000000 1.000000 0.550262
0.234164 1.000000 0.543293
0.520472 1.000000 0.536312
0.785055 1.000000 0.529318
1.000000 1.000000 0.522310
0.000000 0.000000 0.808354
0.264635 0.000000 0.801752
0.547860 0.000000 0.795143
0.810946 0.000000 0.788526
1.000000 0.000000 0.781902
0.000000 0.234702 0.804518
0.251380 0.240423 0.797912
0.535913 0.246125 0.791298
0.799643 0.251808 0.784677
1.000000 0.257474 0.778048
0.000000 0.508727 0.800679
0.238026 0.513866 0.794069
0.523928 0.518997 0.787451
0.788318 0.524122 0.780825
1.000000 0.529239 0.774191
0.000000 0.762413 0.796839
0.224566 0.767270 0.790224
0.511905 0.772122 0.783601
0.776971 0.776971 0.776971
1.000000 0.781815 0.770332
0.000000 1.000000 0.792995
0.210993 1.000000 0.786376
0.499842 1.000000 0.779748
0.765600 1.000000 0.773113
1.000000 1.000000 0.766470
0.000000 0.000000 1.000000
0.241879 0.000000 1.000000
0.527381 0.000000 1.000000
0.791580 0.000000 1.000000
1.000000 0.000000 1.000000
0.000000 0.205934 1.000000
0.228451 0.211759 1.000000
0.515369 0.217561 1.000000
0.780239 0.223342 1.000000
1.000000 0.229102 1.000000
0.000000 0.483049 1.000000
0.214911 0.488225 1.000000
0.503318 0.493393 1.000000
0.768874 0.498554 1.000000
1.000000 0.503707 1.000000
0.000000 0.738181 1.000000
0.201251 0.743060 1.000000
0.491226 0.747935 1.000000
0.757486 0.752804 1.000000
1.000000 0.757670 1.000000
0.000000 0.981263 1.000000
0.187459 0.985952 1.000000
0.479093 0.990638 1.000000
0.746075 0.995320 1.000000
1.000000 1.000000 1.000000
