presets/film_stocks/Kodak_EXR_200T_5293.cube
# 独寻胶片模拟 -- Kodak EXR 200T 5293
# Kodak, ISO 250, 1982, negative
TITLE "Kodak EXR 200T 5293"
LUT_3D_SIZE 5
DOMAIN_MIN 0.0 0.0 0.0
DOMAIN_MAX 1.0 1.0 1.0
0.000000 0.000000 0.000000
0.338933 0.010592 0.000000
0.619269 0.019352 0.000000
0.881054 0.027533 0.000000
1.000000 0.035359 0.000000
0.000000 0.326143 0.000000
0.325756 0.331644 0.000000
0.607249 0.337131 0.000000
0.869658 0.342605 0.000000
1.000000 0.348066 0.000000
0.000000 0.595899 0.000000
0.312498 0.600928 0.000000
0.595193 0.605950 0.000000
0.858240 0.610966 0.000000
1.000000 0.615976 0.000000
0.000000 0.847804 0.000000
0.299156 0.852575 0.000000
0.583100 0.857341 0.000000
0.846799 0.862104 0.000000
1.000000 0.866863 0.000000
0.000000 1.000000 0.000000
0.285723 1.000000 0.000000
0.570969 1.000000 0.000000
0.835335 1.000000 0.000000
1.000000 1.000000 0.000000
0.000000 0.000000 0.309828
0.312890 0.000000 0.303364
0.595549 0.000000 0.296879
0.858577 0.000000 0.290372
1.000000 0.000000 0.283844
0.000000 0.293964 0.306027
0.299550 0.299550 0.299550
0.583457 0.305121 0.293053
0.847137 0.310677 0.286533
1.000000 0.316218 0.279992
0.000000 0.566616 0.302218
0.286120 0.571683 0.295729
0.571328 0.576743 0.289219
0.835674 0.581796 0.282687
1.000000 0.586843 0.276132
0.000000 0.820065 0.298402
0.272595 0.824859 0.291901
0.559159 0.829650 0.285378
0.824187 0.834436 0.278833
1.000000 0.839218 0.272264
0.000000 1.000000 0.294579
0.258968 1.000000 0.288065
0.546951 1.000000 0.281529
0.812676 1.000000 0.274970
1.000000 1.000000 0.268387
0.000000 0.000000 0.566090
0.286518 0.000000 0.560190
0.571686 0.000000 0.554279
0.836012 0.000000 0.548360
1.000000 0.000000 0.542431
0.000000 0.261246 0.562619
0.272995 0.266931 0.556713
0.559519 0.272598 0.550797
0.824526 0.278248 0.544872
1.000000 0.283880 0.538937
0.000000 0.537104 0.559145
0.259372 0.542212 0.553233
0.547312 0.547312 0.547312
0.813015 0.552405 0.541381
1.000000 0.557491 0.535440
0.000000 0.792184 0.555667
0.245640 0.797003 0.549750
0.535064 0.801818 0.543823
0.801481 0.806629 0.537886
1.000000 0.811435 0.531940
0.000000 1.000000 0.552186
0.231792 1.000000 0.546263
0.522774 1.000000 0.540331
0.789921 1.000000 0.534388
1.000000 1.000000 0.528436
0.000000 0.000000 0.805395
0.259775 0.000000 0.799799
0.547672 0.000000 0.794198
0.813355 0.000000 0.788591
1.000000 0.000000 0.782977
0.000000 0.227900 0.802103
0.246046 0.233701 0.796504
0.535426 0.239481 0.790899
0.801821 0.245240 0.785288
1.000000 0.250979 0.779672
0.000000 0.507347 0.798809
0.232202 0.512498 0.793207
0.523137 0.517641 0.787598
0.790262 0.522777 0.781984
1.000000 0.527905 0.776364
0.000000 0.764155 0.795513
0.218232 0.769000 0.789907
0.510805 0.773841 0.784295
0.778677 0.778677 0.778677
1.000000 0.783509 0.773054
0.000000 1.000000 0.792215
0.204127 1.000000 0.786606
0.498427 1.000000 0.780990
0.767067 1.000000 0.775369
1.000000 1.000000 0.769741
0.000000 0.000000 1.000000
0.232612 0.000000 1.000000
0.523500 0.000000 1.000000
0.790603 0.000000 1.000000
1.000000 0.000000 1.000000
0.000000 0.193802 1.000000
0.218646 0.199744 1.000000
0.511169 0.205659 1.000000
0.779019 0.211549 1.000000
1.000000 0.217415 1.000000
0.000000 0.477326 1.000000
0.204545 0.482524 1.000000
0.498793 0.487713 1.000000
0.767410 0.492895 1.000000
1.000000 0.498068 1.000000
0.000000 0.735971 1.000000
0.190297 0.740844 1.000000
0.486371 0.745712 1.000000
0.755774 0.750575 1.000000
1.000000 0.755433 1.000000
0.000000 0.981350 1.000000
0.175887 0.986017 1.000000
0.473901 0.990682 1.000000
0.744111 0.995342 1.000000
1.000000 1.000000 1.000000
