presets/film_stocks/Kodak_Aerocolor_IV_2460.cube
# 独寻胶片模拟 -- Kodak Aerocolor IV 2460
# Kodak, ISO 125, 2009, negative
TITLE "Kodak Aerocolor IV 2460"
LUT_3D_SIZE 9
DOMAIN_MIN 0.0 0.0 0.0
DOMAIN_MAX 1.0 1.0 1.0
0.000000 0.000000 0.000000
0.195961 0.007730 0.000000
0.347499 0.013707 0.000000
0.485830 0.019163 0.000000
0.616225 0.024307 0.000000
0.741020 0.029229 0.000000
0.861527 0.033983 0.000000
0.978582 0.038600 0.000000
1.000000 0.043103 0.000000
0.000000 0.189111 0.000000
0.189222 0.192369 0.000000
0.341536 0.195616 0.000000
0.480275 0.198852 0.000000
0.610942 0.202076 0.000000
0.735939 0.205290 0.000000
0.856605 0.208493 0.000000
0.973790 0.211686 0.000000
1.000000 0.214869 0.000000
0.000000 0.335353 0.000000
0.182433 0.338245 0.000000
0.335550 0.341131 0.000000
0.474706 0.344012 0.000000
0.605650 0.346888 0.000000
0.730851 0.349760 0.000000
0.851677 0.352626 0.000000
0.968993 0.355487 0.000000
1.000000 0.358344 0.000000
0.000000 0.468848 0.000000
0.175591 0.471544 0.000000
0.329542 0.474237 0.000000
0.469124 0.476926 0.000000
0.600347 0.479612 0.000000
0.725754 0.482295 0.000000
0.846743 0.484975 0.000000
0.964191 0.487652 0.000000
1.000000 0.490326 0.000000
0.000000 0.594685 0.000000
0.168692 0.597250 0.000000
0.323511 0.599813 0.000000
0.463528 0.602373 0.000000
0.595035 0.604932 0.000000
0.720651 0.607487 0.000000
0.841802 0.610041 0.000000
0.959384 0.612592 0.000000
1.000000 0.615141 0.000000
0.000000 0.715119 0.000000
0.161733 0.717587 0.000000
0.317457 0.720053 0.000000
0.457917 0.722517 0.000000
0.589714 0.724979 0.000000
0.715540 0.727440 0.000000
0.836856 0.729899 0.000000
0.954572 0.732356 0.000000
1.000000 0.734812 0.000000
0.000000 0.831414 0.000000
0.154711 0.833805 0.000000
0.311377 0.836194 0.000000
0.452293 0.838583 0.000000
0.584381 0.840969 0.000000
0.710421 0.843355 0.000000
0.831903 0.845739 0.000000
0.949755 0.848121 0.000000
1.000000 0.850502 0.000000
0.000000 0.944376 0.000000
0.147621 0.946704 0.000000
0.305273 0.949031 0.000000
0.446653 0.951357 0.000000
0.579039 0.953681 0.000000
0.705294 0.956005 0.000000
0.826944 0.958327 0.000000
0.944932 0.960648 0.000000
1.000000 0.962967 0.000000
0.000000 1.000000 0.000000
0.140459 1.000000 0.000000
0.299143 1.000000 0.000000
0.440998 1.000000 0.000000
0.573686 1.000000 0.000000
0.700160 1.000000 0.000000
0.821979 1.000000 0.000000
0.940105 1.000000 0.000000
1.000000 1.000000 0.000000
0.000000 0.000000 0.187742
0.186140 0.000000 0.182312
0.338815 0.000000 0.176848
0.477743 0.000000 0.171349
0.608535 0.000292 0.165812
0.733624 0.007850 0.160236
0.854363 0.013814 0.154619
0.971607 0.019263 0.148958
1.000000 0.024402 0.143253
0.000000 0.176019 0.184775
0.179327 0.179327 0.179327
0.332819 0.182621 0.173843
0.472168 0.185903 0.168324
0.603238 0.189173 0.162765
0.728533 0.192431 0.157167
0.849432 0.195678 0.151527
0.966808 0.198913 0.145842
1.000000 0.202137 0.140110
0.000000 0.323789 0.181798
0.172459 0.326702 0.176331
0.326801 0.329609 0.170828
0.466579 0.332511 0.165287
0.597932 0.335408 0.159707
0.723433 0.338299 0.154086
0.844495 0.341186 0.148422
0.962004 0.344067 0.142711
1.000000 0.346943 0.136953
0.000000 0.458083 0.178810
0.165533 0.460792 0.173324
0.320759 0.463498 0.167800
0.460977 0.466200 0.162239
0.592615 0.468899 0.156637
0.718326 0.471595 0.150992
0.839552 0.474288 0.145303
0.957195 0.476977 0.139566
1.000000 0.479663 0.133780
0.000000 0.584451 0.175813
0.158546 0.587025 0.170306
0.314693 0.589597 0.164762
0.455360 0.592167 0.159178
0.587288 0.594734 0.153553
0.713211 0.597299 0.147885
0.834603 0.599862 0.142170
0.952380 0.602422 0.136406
1.000000 0.604980 0.130591
0.000000 0.705277 0.172804
0.151493 0.707752 0.167277
0.308603 0.710225 0.161712
0.449728 0.712696 0.156105
0.581952 0.715166 0.150457
0.708089 0.717633 0.144763
0.829648 0.720099 0.139022
0.947561 0.722563 0.133231
1.000000 0.725026 0.127386
0.000000 0.821880 0.169784
0.144371 0.824277 0.164236
0.302487 0.826673 0.158649
0.444082 0.829067 0.153020
0.576605 0.831459 0.147347
0.702959 0.833850 0.141628
0.824686 0.836240 0.135860
0.942736 0.838628 0.130040
1.000000 0.841015 0.124164
0.000000 0.935096 0.166753
0.137174 0.937429 0.161184
0.296345 0.939761 0.155574
0.438420 0.942091 0.149921
0.571247 0.944421 0.144223
0.697821 0.946749 0.138478
0.819718 0.949075 0.132682
0.937907 0.951401 0.126832
1.000000 0.953725 0.120925
0.000000 1.000000 0.163711
0.129897 1.000000 0.158119
0.290177 1.000000 0.152486
0.432743 1.000000 0.146809
0.565879 1.000000 0.141085
0.692675 1.000000 0.135312
0.814744 1.000000 0.129487
0.933072 1.000000 0.123607
1.000000 1.000000 0.117667
0.000000 0.000000 0.332925
0.176208 0.000000 0.328118
0.330084 0.000000 0.323296
0.469627 0.000000 0.318459
0.600825 0.000000 0.313607
0.726213 0.000000 0.308739
0.847186 0.000000 0.303855
0.964623 0.000000 0.298954
1.000000 0.000517 0.294036
0.000000 0.162720 0.330296
0.169315 0.166081 0.325481
0.324055 0.169429 0.320651
0.464032 0.172762 0.315806
0.595514 0.176082 0.310945
0.721110 0.179389 0.306068
0.842247 0.182683 0.301175
0.959816 0.185965 0.296265
1.000000 0.189235 0.291338
0.000000 0.312137 0.327663
0.162361 0.315072 0.322840
0.318002 0.318002 0.318002
0.458422 0.320926 0.313148
0.590192 0.323844 0.308278
0.716000 0.326757 0.303393
0.837301 0.329664 0.298490
0.955005 0.332566 0.293571
1.000000 0.335463 0.288634
0.000000 0.447264 0.325026
0.155345 0.449987 0.320195
0.311925 0.452706 0.315348
0.452799 0.455422 0.310485
0.584861 0.458134 0.305607
0.710882 0.460843 0.300712
0.832349 0.463549 0.295800
0.950188 0.466251 0.290871
1.000000 0.468950 0.285925
0.000000 0.574178 0.322384
0.148261 0.576762 0.317544
0.305823 0.579344 0.312689
0.447161 0.581923 0.307818
0.579520 0.584500 0.302930
0.705756 0.587074 0.298026
0.827391 0.589646 0.293105
0.945366 0.592215 0.288167
1.000000 0.594783 0.283211
0.000000 0.695406 0.319738
0.141106 0.697888 0.314889
0.299696 0.700368 0.310025
0.441507 0.702847 0.305145
0.574168 0.705324 0.300249
0.700622 0.707798 0.295336
0.822426 0.710272 0.290405
0.940539 0.712743 0.285457
1.000000 0.715212 0.280491
0.000000 0.812324 0.317087
0.133873 0.814727 0.312230
0.293542 0.817128 0.307357
0.435839 0.819528 0.302468
0.568806 0.821926 0.297563
0.695480 0.824323 0.292640
0.817455 0.826718 0.287700
0.935707 0.829112 0.282742
1.000000 0.831504 0.277765
0.000000 0.925797 0.314431
0.126558 0.928135 0.309565
0.287360 0.930471 0.304684
0.430155 0.932807 0.299786
0.563433 0.935141 0.294871
0.690331 0.937473 0.289939
0.812478 0.939805 0.284989
0.930870 0.942136 0.280021
1.000000 0.944465 0.275034
0.000000 1.000000 0.311770
0.119152 1.000000 0.306896
0.281151 1.000000 0.302006
0.424455 1.000000 0.297099
0.558049 1.000000 0.292174
0.685173 1.000000 0.287232
0.807495 1.000000 0.282273
0.926027 1.000000 0.277295
1.000000 1.000000 0.272298
0.000000 0.000000 0.465453
0.166158 0.000000 0.460975
0.321303 0.000000 0.456488
0.461481 0.000000 0.451992
0.593093 0.000000 0.447486
0.718786 0.000000 0.442971
0.839997 0.000000 0.438446
0.957627 0.000000 0.433911
1.000000 0.000000 0.429366
0.000000 0.149187 0.463004
0.159177 0.152610 0.458521
0.315240 0.156016 0.454029
0.455865 0.159407 0.449527
0.587768 0.162783 0.445016
0.713672 0.166145 0.440496
0.835048 0.169492 0.435965
0.952814 0.172825 0.431425
1.000000 0.176145 0.426875
0.000000 0.300394 0.460552
0.152130 0.303352 0.456064
0.309152 0.306305 0.451567
0.450235 0.309252 0.447060
0.582432 0.312193 0.442544
0.708550 0.315128 0.438018
0.830093 0.318057 0.433482
0.947995 0.320981 0.428936
1.000000 0.323899 0.424380
0.000000 0.436391 0.458097
0.145015 0.439127 0.453604
0.303038 0.441860 0.449102
0.444590 0.444590 0.444590
0.577086 0.447316 0.440068
0.703421 0.450039 0.435537
0.825132 0.452758 0.430996
0.943170 0.455473 0.426445
1.000000 0.458186 0.421883
0.000000 0.563867 0.455640
0.137825 0.566461 0.451142
0.296899 0.569052 0.446634
0.438930 0.571641 0.442117
0.571729 0.574227 0.437590
0.698283 0.576811 0.433053
0.820165 0.579393 0.428507
0.938341 0.581972 0.423950
1.000000 0.584548 0.419383
0.000000 0.685505 0.453180
0.130555 0.687995 0.448676
0.290732 0.690482 0.444164
0.433254 0.692968 0.439641
0.566362 0.695453 0.435109
0.693138 0.697935 0.430567
0.815191 0.700415 0.426014
0.933507 0.702894 0.421452
1.000000 0.705370 0.416879
0.000000 0.802744 0.450717
0.123200 0.805152 0.446208
0.284538 0.807560 0.441690
0.427563 0.809965 0.437162
0.560985 0.812369 0.432625
0.687985 0.814772 0.428077
0.810211 0.817173 0.423519
0.928667 0.819573 0.418951
1.000000 0.821971 0.414372
0.000000 0.916478 0.448251
0.115751 0.918821 0.443737
0.278316 0.921162 0.439214
0.421856 0.923502 0.434680
0.555596 0.925841 0.430137
0.682823 0.928179 0.425584
0.805225 0.930516 0.421021
0.923822 0.932851 0.416447
1.000000 0.935185 0.411862
0.000000 1.000000 0.445782
0.108199 1.000000 0.441263
0.272064 1.000000 0.436734
0.416133 1.000000 0.432196
0.550196 1.000000 0.427647
0.677654 1.000000 0.423088
0.800232 1.000000 0.418519
0.918971 1.000000 0.413939
1.000000 1.000000 0.409349
0.000000 0.000000 0.590380
0.155979 0.000000 0.586121
0.312472 0.000000 0.581855
0.453305 0.000000 0.577584
0.585341 0.000000 0.573305
0.711342 0.000000 0.569020
0.832794 0.000000 0.564728
0.950621 0.000000 0.560429
1.000000 0.000000 0.556123
0.000000 0.135392 0.588050
0.148901 0.138884 0.583788
0.306373 0.142357 0.579519
0.447668 0.145813 0.575243
0.580001 0.149252 0.570961
0.706217 0.152675 0.566672
0.827837 0.156081 0.562376
0.945800 0.159472 0.558074
1.000000 0.162847 0.553764
0.000000 0.288553 0.585718
0.141752 0.291536 0.581452
0.300248 0.294514 0.577180
0.442016 0.297485 0.572901
0.574650 0.300450 0.568615
0.701084 0.303408 0.564322
0.822873 0.306361 0.560023
0.940973 0.309308 0.555716
1.000000 0.312249 0.551403
0.000000 0.425460 0.583385
0.134527 0.428211 0.579115
0.294096 0.430959 0.574839
0.436349 0.433702 0.570556
0.569289 0.436443 0.566267
0.695943 0.439179 0.561970
0.817903 0.441912 0.557667
0.936142 0.444642 0.553357
1.000000 0.447368 0.549039
0.000000 0.553517 0.581049
0.127219 0.556120 0.576776
0.287917 0.558722 0.572496
0.430667 0.561320 0.568210
0.563917 0.563917 0.563917
0.690794 0.566510 0.559616
0.812926 0.569101 0.555309
0.931305 0.571690 0.550995
1.000000 0.574276 0.546674
0.000000 0.675574 0.578712
0.119822 0.678072 0.574435
0.281711 0.680567 0.570152
0.424968 0.683060 0.565861
0.558534 0.685552 0.561564
0.685637 0.688042 0.557260
0.807943 0.690530 0.552949
0.926463 0.693016 0.548631
1.000000 0.695500 0.544306
0.000000 0.793139 0.576372
0.112328 0.795554 0.572092
0.275475 0.797967 0.567805
0.419254 0.800379 0.563511
0.553140 0.802789 0.559210
0.680472 0.805198 0.554902
0.802954 0.807605 0.550587
0.921615 0.810011 0.546266
1.000000 0.812415 0.541936
0.000000 0.907139 0.574031
0.104727 0.909487 0.569747
0.269210 0.911833 0.565456
0.413523 0.914178 0.561158
0.547736 0.916522 0.556854
0.675299 0.918865 0.552542
0.797958 0.921207 0.548223
0.916762 0.923547 0.543897
1.000000 0.925886 0.539564
0.000000 1.000000 0.571688
0.097008 1.000000 0.567400
0.262914 1.000000 0.563105
0.407775 1.000000 0.558804
0.542320 1.000000 0.554495
0.670117 1.000000 0.550180
0.792955 1.000000 0.545857
0.911904 1.000000 0.541527
1.000000 1.000000 0.537190
0.000000 0.000000 0.709941
0.145657 0.000000 0.705845
0.303589 0.000000 0.701743
0.445098 0.000000 0.697637
0.577567 0.000000 0.693525
0.703882 0.000000 0.689409
0.825579 0.000000 0.685287
0.943604 0.000000 0.681160
1.000000 0.000000 0.677028
0.000000 0.121294 0.707700
0.138474 0.124866 0.703601
0.297452 0.128417 0.699497
0.439439 0.131947 0.695388
0.572211 0.135458 0.691273
0.698745 0.138950 0.687154
0.820612 0.142423 0.683029
0.938775 0.145879 0.678899
1.000000 0.149317 0.674764
0.000000 0.276609 0.705458
0.131212 0.279619 0.701356
0.291288 0.282622 0.697249
0.433765 0.285619 0.693137
0.566845 0.288609 0.689020
0.693601 0.291593 0.684897
0.815639 0.294570 0.680770
0.933941 0.297541 0.676637
1.000000 0.300506 0.672499
0.000000 0.414470 0.703214
0.123865 0.417236 0.699109
0.285096 0.419998 0.694999
0.428076 0.422757 0.690885
0.561469 0.425512 0.686765
0.688448 0.428263 0.682639
0.810659 0.431011 0.678509
0.929102 0.433754 0.674373
1.000000 0.436494 0.670232
0.000000 0.543125 0.700968
0.116424 0.545739 0.696861
0.278877 0.548351 0.692748
0.422370 0.550960 0.688631
0.556081 0.553566 0.684508
0.683288 0.556170 0.680380
0.805674 0.558771 0.676247
0.924257 0.561370 0.672108
1.000000 0.563966 0.667964
0.000000 0.665613 0.698721
0.108883 0.668118 0.694611
0.272628 0.670621 0.690496
0.416648 0.673122 0.686375
0.550682 0.675621 0.682250
0.678119 0.678119 0.678119
0.800681 0.680614 0.673983
0.919407 0.683108 0.669841
1.000000 0.685599 0.665694
0.000000 0.783511 0.696473
0.101230 0.785932 0.692360
0.266349 0.788351 0.688242
0.410909 0.790769 0.684118
0.545273 0.793185 0.679990
0.672942 0.795600 0.675856
0.795682 0.798013 0.671717
0.914552 0.800425 0.667573
1.000000 0.802835 0.663423
0.000000 0.897780 0.694223
0.093453 0.900133 0.690107
0.260038 0.902484 0.685986
0.405154 0.904834 0.681860
0.539852 0.907183 0.677729
0.667756 0.909531 0.673592
0.790677 0.911878 0.669450
0.909691 0.914223 0.665302
1.000000 0.916567 0.661150
0.000000 1.000000 0.691971
0.085538 1.000000 0.687853
0.253695 1.000000 0.683729
0.399382 1.000000 0.679600
0.534419 1.000000 0.675466
0.662562 1.000000 0.671326
0.785665 1.000000 0.667181
0.904825 1.000000 0.663031
1.000000 1.000000 0.658875
0.000000 0.000000 0.825394
0.135180 0.000000 0.821426
0.294650 0.000000 0.817453
0.436859 0.000000 0.813477
0.569771 0.000000 0.809496
0.696405 0.000000 0.805511
0.818350 0.000000 0.801523
0.936576 0.000000 0.797530
1.000000 0.000000 0.793532
0.000000 0.106842 0.823223
0.127880 0.110509 0.819252
0.288474 0.114150 0.815278
0.431178 0.117767 0.811299
0.564400 0.121361 0.807316
0.691257 0.124933 0.803329
0.813374 0.128484 0.799338
0.931740 0.132014 0.795343
1.000000 0.135524 0.791343
0.000000 0.264556 0.821051
0.120491 0.267594 0.817078
0.282270 0.270625 0.813101
0.425481 0.273649 0.809120
0.559018 0.276666 0.805135
0.686101 0.279676 0.801146
0.808391 0.282679 0.797152
0.926898 0.285676 0.793155
1.000000 0.288666 0.789153
0.000000 0.403418 0.818877
0.113006 0.406200 0.814902
0.276037 0.408978 0.810923
0.419768 0.411752 0.806940
0.553626 0.414522 0.802953
0.680937 0.417288 0.798961
0.803403 0.420051 0.794965
0.922051 0.422809 0.790965
1.000000 0.425564 0.786961
0.000000 0.532691 0.816703
0.105415 0.535316 0.812725
0.269774 0.537938 0.808744
0.414039 0.540558 0.804758
0.548222 0.543175 0.800769
0.675764 0.545789 0.796775
0.798407 0.548400 0.792777
0.917199 0.551009 0.788775
1.000000 0.553615 0.784768
0.000000 0.655620 0.814527
0.097707 0.658133 0.810547
0.263481 0.660644 0.806564
0.408293 0.663153 0.802576
0.542807 0.665660 0.798584
0.670583 0.668165 0.794588
0.793405 0.670668 0.790588
0.912341 0.673170 0.786583
1.000000 0.675669 0.782574
0.000000 0.773857 0.812350
0.089870 0.776284 0.808368
0.257156 0.778710 0.804382
0.402530 0.781134 0.800392
0.537381 0.783556 0.796398
0.665394 0.785977 0.792399
0.788397 0.788397 0.788397
0.907478 0.790815 0.784390
1.000000 0.793231 0.780379
0.000000 0.888400 0.810171
0.081885 0.890758 0.806187
0.250798 0.893115 0.802199
0.396749 0.895470 0.798207
0.531943 0.897824 0.794210
0.660196 0.900177 0.790210
0.783382 0.902529 0.786205
0.902609 0.904879 0.782195
1.000000 0.907228 0.778182
0.000000 0.999913 0.807992
0.073734 1.000000 0.804005
0.244406 1.000000 0.800015
0.390951 1.000000 0.796020
0.526494 1.000000 0.792022
0.654989 1.000000 0.788019
0.778360 1.000000 0.784011
0.897735 1.000000 0.780000
1.000000 1.000000 0.775984
0.000000 0.000000 0.937539
0.124529 0.000000 0.933675
0.285654 0.000000 0.929809
0.428588 0.000000 0.925938
0.561952 0.000000 0.922065
0.688912 0.000000 0.918188
0.811107 0.000000 0.914308
0.929537 0.000000 0.910424
1.000000 0.000000 0.906537
0.000000 0.091965 0.935425
0.117097 0.095747 0.931560
0.279437 0.099497 0.927691
0.422884 0.103218 0.923819
0.556566 0.106911 0.919944
0.683752 0.110578 0.916065
0.806122 0.114219 0.912183
0.924693 0.117836 0.908297
1.000000 0.121429 0.904408
0.000000 0.252386 0.933310
0.109565 0.255454 0.929443
0.273191 0.258515 0.925573
0.417163 0.261568 0.921699
0.551168 0.264613 0.917822
0.678584 0.267651 0.913941
0.801130 0.270682 0.910057
0.919844 0.273706 0.906169
1.000000 0.276723 0.902278
0.000000 0.392302 0.931195
0.101923 0.395100 0.927326
0.266914 0.397894 0.923454
0.411426 0.400685 0.919578
0.545759 0.403470 0.915699
0.673408 0.406252 0.911816
0.796132 0.409030 0.907930
0.914989 0.411804 0.904041
1.000000 0.414574 0.900148
0.000000 0.522215 0.929078
0.094158 0.524851 0.925207
0.260607 0.527483 0.921333
0.405672 0.530114 0.917456
0.540339 0.532741 0.913575
0.668223 0.535366 0.909690
0.791127 0.537988 0.905802
0.910129 0.540607 0.901911
1.000000 0.543224 0.898016
0.000000 0.645595 0.926960
0.086256 0.648116 0.923088
0.254267 0.650635 0.919212
0.399901 0.653152 0.915332
0.534908 0.655667 0.911449
0.663029 0.658180 0.907563
0.786115 0.660692 0.903673
0.905263 0.663201 0.899780
1.000000 0.665708 0.895883
0.000000 0.764178 0.924842
0.078198 0.766611 0.920967
0.247894 0.769044 0.917089
0.394113 0.771474 0.913208
0.529465 0.773903 0.909323
0.657828 0.776330 0.905435
0.781097 0.778756 0.901543
0.900392 0.781180 0.897648
1.000000 0.783602 0.893749
0.000000 0.878999 0.922722
0.069962 0.881363 0.918846
0.241486 0.883725 0.914966
0.388306 0.886085 0.911083
0.524010 0.888445 0.907196
0.652617 0.890803 0.903306
0.776072 0.893159 0.899412
0.895515 0.895515 0.895515
1.000000 0.897869 0.891614
0.000000 0.990744 0.920601
0.061517 0.993049 0.916723
0.235042 0.995352 0.912841
0.382482 0.997655 0.908956
0.518543 0.999956 0.905068
0.647398 1.000000 0.901176
0.771040 1.000000 0.897280
0.890632 1.000000 0.893381
1.000000 1.000000 0.889478
0.000000 0.000000 1.000000
0.113683 0.000000 1.000000
0.276599 0.000000 1.000000
0.420283 0.000000 1.000000
0.554111 0.000000 1.000000
0.681401 0.000000 1.000000
0.803851 0.000000 1.000000
0.922487 0.000000 1.000000
1.000000 0.000000 1.000000
0.000000 0.076563 1.000000
0.106102 0.080489 1.000000
0.270339 0.084375 1.000000
0.414555 0.088224 1.000000
0.548708 0.092037 1.000000
0.676229 0.095818 1.000000
0.798857 0.099568 1.000000
0.917635 0.103289 1.000000
1.000000 0.106981 1.000000
0.000000 0.240092 1.000000
0.098405 0.243192 1.000000
0.264048 0.246284 1.000000
0.408810 0.249368 1.000000
0.543295 0.252444 1.000000
0.671049 0.255512 1.000000
0.793855 0.258573 1.000000
0.912778 0.261625 1.000000
1.000000 0.264671 1.000000
0.000000 0.381120 1.000000
0.090580 0.383935 1.000000
0.257726 0.386746 1.000000
0.403048 0.389553 1.000000
0.537869 0.392355 1.000000
0.665861 0.395153 1.000000
0.788847 0.397947 1.000000
0.907915 0.400737 1.000000
1.000000 0.403523 1.000000
0.000000 0.511694 1.000000
0.082610 0.514341 1.000000
0.251371 0.516985 1.000000
0.397269 0.519626 1.000000
0.532433 0.522265 1.000000
0.660663 0.524900 1.000000
0.783833 0.527533 1.000000
0.903047 0.530164 1.000000
1.000000 0.532791 1.000000
0.000000 0.635537 1.000000
0.074474 0.638067 1.000000
0.244982 0.640594 1.000000
0.391473 0.643119 1.000000
0.526984 0.645643 1.000000
0.655458 0.648164 1.000000
0.778811 0.650683 1.000000
0.898173 0.653200 1.000000
1.000000 0.655715 1.000000
0.000000 0.754473 1.000000
0.066147 0.756913 1.000000
0.238558 0.759352 1.000000
0.385658 0.761789 1.000000
0.521524 0.764224 1.000000
0.650243 0.766658 1.000000
0.773783 0.769090 1.000000
0.893294 0.771520 1.000000
1.000000 0.773949 1.000000
0.000000 0.869578 1.000000
0.057594 0.871946 1.000000
0.232098 0.874314 1.000000
0.379825 0.876679 1.000000
0.516052 0.879044 1.000000
0.645020 0.881407 1.000000
0.768748 0.883769 1.000000
0.888409 0.886130 1.000000
1.000000 0.888489 1.000000
0.000000 0.981558 1.000000
0.048763 0.983867 1.000000
0.225599 0.986175 1.000000
0.373973 0.988482 1.000000
0.510567 0.990788 1.000000
0.639788 0.993093 1.000000
0.763706 0.995396 1.000000
0.883518 0.997699 1.000000
1.000000 1.000000 1.000000
