presets/film_stocks/Kodachrome_64.cube
# 独寻胶片模拟 -- Kodachrome 64
# Kodak, ISO 64, 1974, positive
TITLE "Kodachrome 64"
LUT_3D_SIZE 5
DOMAIN_MIN 0.0 0.0 0.0
DOMAIN_MAX 1.0 1.0 1.0
0.000000 0.000000 0.000000
0.372269 0.037382 0.000000
0.624461 0.062706 0.000000
0.845117 0.084864 0.000000
1.000000 0.105186 0.000000
0.000000 0.377383 0.000000
0.366926 0.390022 0.000000
0.619986 0.402523 0.000000
0.841081 0.414893 0.000000
1.000000 0.427139 0.000000
0.000000 0.633040 0.000000
0.361557 0.643671 0.000000
0.615499 0.654241 0.000000
0.837038 0.664754 0.000000
1.000000 0.675211 0.000000
0.000000 0.856728 0.000000
0.356160 0.866328 0.000000
0.611002 0.875892 0.000000
0.832989 0.885420 0.000000
1.000000 0.894914 0.000000
0.000000 1.000000 0.000000
0.350736 1.000000 0.000000
0.606493 1.000000 0.000000
0.828932 1.000000 0.000000
1.000000 1.000000 0.000000
0.000000 0.000000 0.373414
0.360787 0.000000 0.359054
0.614858 0.000000 0.344496
0.836460 0.014719 0.329726
1.000000 0.045122 0.314728
0.000000 0.342332 0.369796
0.355387 0.355387 0.355387
0.610358 0.368281 0.340777
0.832409 0.381022 0.325950
1.000000 0.393621 0.310891
0.000000 0.603886 0.366165
0.349958 0.614686 0.351707
0.605848 0.625422 0.337043
0.828352 0.636095 0.322160
1.000000 0.646708 0.307038
0.000000 0.830494 0.362523
0.344501 0.840195 0.348014
0.601326 0.849859 0.333296
0.824288 0.859485 0.318354
1.000000 0.869074 0.303169
0.000000 1.000000 0.358867
0.339014 1.000000 0.344307
0.596792 1.000000 0.329534
0.820217 1.000000 0.314532
1.000000 1.000000 0.299283
0.000000 0.000000 0.626383
0.349181 0.000000 0.614379
0.605202 0.000000 0.602295
0.827772 0.000000 0.590128
1.000000 0.000000 0.577875
0.000000 0.306014 0.623350
0.343719 0.319562 0.611327
0.600679 0.332918 0.599222
0.823707 0.346094 0.587033
1.000000 0.359101 0.574758
0.000000 0.574245 0.620313
0.338228 0.585229 0.608269
0.596143 0.596143 0.596143
0.819635 0.606990 0.583933
1.000000 0.617772 0.571636
0.000000 0.803976 0.617271
0.332707 0.813784 0.605206
0.591596 0.823552 0.593060
0.815557 0.833281 0.580828
1.000000 0.842971 0.568507
0.000000 1.000000 0.614223
0.327154 1.000000 0.602138
0.587037 1.000000 0.589970
0.811471 1.000000 0.577716
1.000000 1.000000 0.565373
0.000000 0.000000 0.847717
0.337441 0.000000 0.836899
0.595495 0.000000 0.826033
0.819053 0.000000 0.815118
1.000000 0.000000 0.804153
0.000000 0.268162 0.844982
0.331915 0.282313 0.834152
0.590946 0.296226 0.823274
0.814973 0.309920 0.812346
1.000000 0.323412 0.801369
0.000000 0.544074 0.842244
0.326358 0.555259 0.831402
0.586385 0.566367 0.820511
0.810887 0.577403 0.809571
1.000000 0.588366 0.798581
0.000000 0.777157 0.839503
0.320768 0.787077 0.828649
0.581812 0.796956 0.817746
0.806793 0.806793 0.806793
1.000000 0.816589 0.795790
0.000000 0.988233 0.836759
0.315145 0.997381 0.825892
0.577227 1.000000 0.814977
0.802692 1.000000 0.804011
1.000000 1.000000 0.792995
0.000000 0.000000 1.000000
0.325561 0.000000 1.000000
0.585733 0.000000 1.000000
0.810302 0.000000 1.000000
1.000000 0.000000 1.000000
0.000000 0.228391 1.000000
0.319967 0.243305 1.000000
0.581158 0.257914 1.000000
0.806208 0.272246 1.000000
1.000000 0.286327 1.000000
0.000000 0.513323 1.000000
0.314339 0.524728 1.000000
0.576571 0.536049 1.000000
0.802106 0.547290 1.000000
1.000000 0.558452 1.000000
0.000000 0.750019 1.000000
0.308676 0.760059 1.000000
0.571972 0.770055 1.000000
0.797997 0.780006 1.000000
1.000000 0.789915 1.000000
0.000000 0.963266 1.000000
0.302978 0.972494 1.000000
0.567360 0.981692 1.000000
0.793881 0.990860 1.000000
1.000000 1.000000 1.000000
