presets/film_stocks/Kodak_5247_II.cube
# 独寻胶片模拟 -- Kodak 5247 II
# Kodak, ISO 100, 1974, negative
TITLE "Kodak 5247 II"
LUT_3D_SIZE 9
DOMAIN_MIN 0.0 0.0 0.0
DOMAIN_MAX 1.0 1.0 1.0
0.000000 0.000000 0.000000
0.186151 0.005967 0.000000
0.340118 0.010902 0.000000
0.483897 0.015511 0.000000
0.621434 0.019920 0.000000
0.754510 0.024185 0.000000
0.884134 0.028340 0.000000
1.000000 0.032405 0.000000
1.000000 0.036395 0.000000
0.000000 0.179923 0.000000
0.179086 0.183032 0.000000
0.333674 0.186132 0.000000
0.477788 0.189226 0.000000
0.615551 0.192311 0.000000
0.748796 0.195389 0.000000
0.878556 0.198460 0.000000
1.000000 0.201524 0.000000
1.000000 0.204581 0.000000
0.000000 0.328739 0.000000
0.171980 0.331581 0.000000
0.327211 0.334419 0.000000
0.471666 0.337254 0.000000
0.609660 0.340085 0.000000
0.743076 0.342912 0.000000
0.872972 0.345736 0.000000
1.000000 0.348557 0.000000
1.000000 0.351374 0.000000
0.000000 0.467707 0.000000
0.164829 0.470403 0.000000
0.320729 0.473097 0.000000
0.465533 0.475789 0.000000
0.603760 0.478478 0.000000
0.737350 0.481165 0.000000
0.867382 0.483849 0.000000
0.994542 0.486532 0.000000
1.000000 0.489212 0.000000
0.000000 0.600643 0.000000
0.157632 0.603240 0.000000
0.314227 0.605836 0.000000
0.459388 0.608429 0.000000
0.597851 0.611021 0.000000
0.731616 0.613612 0.000000
0.861787 0.616201 0.000000
0.989061 0.618788 0.000000
1.000000 0.621373 0.000000
0.000000 0.729266 0.000000
0.150384 0.731789 0.000000
0.307704 0.734310 0.000000
0.453230 0.736831 0.000000
0.591934 0.739349 0.000000
0.725876 0.741867 0.000000
0.856187 0.744383 0.000000
0.983576 0.746898 0.000000
1.000000 0.749412 0.000000
0.000000 0.854554 0.000000
0.143084 0.857017 0.000000
0.301161 0.859480 0.000000
0.447060 0.861941 0.000000
0.586007 0.864402 0.000000
0.720129 0.866861 0.000000
0.850581 0.869319 0.000000
0.978086 0.871776 0.000000
1.000000 0.874233 0.000000
0.000000 0.977134 0.000000
0.135728 0.979548 0.000000
0.294597 0.981962 0.000000
0.440877 0.984375 0.000000
0.580072 0.986787 0.000000
0.714376 0.989198 0.000000
0.844970 0.991608 0.000000
0.972592 0.994017 0.000000
1.000000 0.996425 0.000000
0.000000 1.000000 0.000000
0.128311 1.000000 0.000000
0.288010 1.000000 0.000000
0.434681 1.000000 0.000000
0.574127 1.000000 0.000000
0.708615 1.000000 0.000000
0.839353 1.000000 0.000000
0.967092 1.000000 0.000000
1.000000 1.000000 0.000000
0.000000 0.000000 0.169238
0.171104 0.000000 0.165880
0.326416 0.000000 0.162513
0.470913 0.000000 0.159135
0.608935 0.000000 0.155746
0.742373 0.000000 0.152346
0.872285 0.000000 0.148935
0.999346 0.005460 0.145512
1.000000 0.010440 0.142076
0.000000 0.160786 0.167310
0.163947 0.163947 0.163947
0.319931 0.167099 0.160574
0.464779 0.170242 0.157190
0.603034 0.173377 0.153794
0.736646 0.176503 0.150388
0.866695 0.179620 0.146970
0.993869 0.182730 0.143540
1.000000 0.185832 0.140097
0.000000 0.311330 0.165380
0.156744 0.314195 0.162011
0.313426 0.317057 0.158631
0.458632 0.319914 0.155241
0.597125 0.322767 0.151839
0.730911 0.325617 0.148426
0.861100 0.328463 0.145001
0.988388 0.331305 0.141564
1.000000 0.334144 0.138114
0.000000 0.451218 0.163446
0.149490 0.453929 0.160071
0.306902 0.456637 0.156685
0.452473 0.459342 0.153288
0.591206 0.462046 0.149880
0.725171 0.464747 0.146460
0.855499 0.467445 0.143028
0.982902 0.470142 0.139584
1.000000 0.472836 0.136127
0.000000 0.584772 0.161508
0.142183 0.587379 0.158127
0.300356 0.589985 0.154735
0.446301 0.592589 0.151332
0.585278 0.595191 0.147917
0.719423 0.597792 0.144490
0.849892 0.600391 0.141051
0.977411 0.602988 0.137600
1.000000 0.605584 0.134135
0.000000 0.713856 0.159567
0.134820 0.716387 0.156180
0.293789 0.718917 0.152782
0.440116 0.721445 0.149372
0.579342 0.723972 0.145950
0.713668 0.726497 0.142516
0.844280 0.729021 0.139070
0.971916 0.731544 0.135611
1.000000 0.734066 0.132139
0.000000 0.839510 0.157623
0.127395 0.841980 0.154229
0.287200 0.844449 0.150824
0.433919 0.846917 0.147408
0.573396 0.849384 0.143979
0.707907 0.851850 0.140538
0.838663 0.854314 0.137085
0.966416 0.856778 0.133618
1.000000 0.859241 0.130138
0.000000 0.962392 0.155675
0.119905 0.964812 0.152275
0.280588 0.967232 0.148863
0.427708 0.969650 0.145440
0.567441 0.972067 0.142004
0.702138 0.974484 0.138556
0.833040 0.976899 0.135095
0.960912 0.979314 0.131621
1.000000 0.981728 0.128133
0.000000 1.000000 0.153723
0.112344 1.000000 0.150316
0.273952 1.000000 0.146898
0.421483 1.000000 0.143468
0.561477 1.000000 0.140025
0.696362 1.000000 0.136570
0.827411 1.000000 0.133101
0.955403 1.000000 0.129619
1.000000 1.000000 0.126123
0.000000 0.000000 0.309216
0.155855 0.000000 0.306152
0.312626 0.000000 0.303082
0.457876 0.000000 0.300008
0.596398 0.000000 0.296929
0.730206 0.000000 0.293846
0.860412 0.000000 0.290757
0.987714 0.000000 0.287664
1.000000 0.000000 0.284565
0.000000 0.141301 0.307456
0.148595 0.144523 0.304389
0.306098 0.147734 0.301317
0.451715 0.150935 0.298240
0.590478 0.154126 0.295159
0.724465 0.157307 0.292072
0.854810 0.160479 0.288981
0.982227 0.163641 0.285885
1.000000 0.166794 0.282783
0.000000 0.293774 0.305695
0.141282 0.296664 0.302625
0.299550 0.299550 0.299550
0.445542 0.302432 0.296471
0.584550 0.305309 0.293386
0.718716 0.308183 0.290297
0.849203 0.311052 0.287203
0.976736 0.313917 0.284104
1.000000 0.316779 0.281000
0.000000 0.434638 0.303932
0.133911 0.437364 0.300859
0.292980 0.440087 0.297782
0.439356 0.442807 0.294700
0.578612 0.445526 0.291612
0.712961 0.448241 0.288520
0.843590 0.450955 0.285423
0.971241 0.453665 0.282321
1.000000 0.456374 0.279214
0.000000 0.568836 0.302168
0.126478 0.571454 0.299092
0.286388 0.574070 0.296012
0.433156 0.576685 0.292927
0.572665 0.579298 0.289837
0.707198 0.581909 0.286742
0.837972 0.584519 0.283642
0.965740 0.587126 0.280537
1.000000 0.589732 0.277427
0.000000 0.698397 0.300402
0.118980 0.700936 0.297323
0.279774 0.703473 0.294240
0.426944 0.706010 0.291153
0.566709 0.708545 0.288060
0.701429 0.711078 0.284962
0.832348 0.713611 0.281859
0.960235 0.716142 0.278751
1.000000 0.718671 0.275638
0.000000 0.824426 0.298634
0.111410 0.826903 0.295553
0.273135 0.829378 0.292467
0.420717 0.831853 0.289377
0.560744 0.834327 0.286281
0.695652 0.836799 0.283180
0.826719 0.839270 0.280075
0.954725 0.841740 0.276964
1.000000 0.844209 0.273847
0.000000 0.947617 0.296865
0.103762 0.950043 0.293781
0.266473 0.952467 0.290693
0.414477 0.954891 0.287599
0.554769 0.957314 0.284501
0.689868 0.959736 0.281397
0.821083 0.962157 0.278288
0.949211 0.964577 0.275174
1.000000 0.966997 0.272055
0.000000 1.000000 0.295094
0.096028 1.000000 0.292008
0.259785 1.000000 0.288916
0.408223 1.000000 0.285820
0.548784 1.000000 0.282718
0.684077 1.000000 0.279612
0.815442 1.000000 0.276500
0.943692 1.000000 0.273383
1.000000 1.000000 0.270261
0.000000 0.000000 0.439932
0.140379 0.000000 0.437026
0.298744 0.000000 0.434117
0.444782 0.000000 0.431204
0.583820 0.000000 0.428290
0.718009 0.000000 0.425372
0.848514 0.000000 0.422451
0.976061 0.000000 0.419527
1.000000 0.000000 0.416600
0.000000 0.121402 0.438263
0.133001 0.124697 0.435355
0.292172 0.127980 0.432444
0.438595 0.131250 0.429530
0.577882 0.134507 0.426614
0.712253 0.137753 0.423694
0.842900 0.140987 0.420771
0.970565 0.144211 0.417846
1.000000 0.147423 0.414917
0.000000 0.276060 0.436593
0.125561 0.278976 0.433683
0.285577 0.281889 0.430771
0.432394 0.284797 0.427855
0.571934 0.287700 0.424937
0.706490 0.290599 0.422016
0.837281 0.293494 0.419091
0.965064 0.296384 0.416164
1.000000 0.299270 0.413233
0.000000 0.417962 0.434922
0.118054 0.420704 0.432011
0.278959 0.423443 0.429096
0.426179 0.426179 0.426179
0.565977 0.428913 0.423259
0.700719 0.431644 0.420336
0.831657 0.434373 0.417410
0.959558 0.437099 0.414481
1.000000 0.439822 0.411548
0.000000 0.552832 0.433250
0.110475 0.555462 0.430337
0.272318 0.558089 0.427421
0.419951 0.560715 0.424502
0.560010 0.563339 0.421580
0.694942 0.565961 0.418656
0.826026 0.568581 0.415728
0.954048 0.571200 0.412797
1.000000 0.573816 0.409862
0.000000 0.682885 0.431577
0.102816 0.685433 0.428662
0.265652 0.687979 0.425745
0.413710 0.690524 0.422824
0.554034 0.693067 0.419901
0.689157 0.695609 0.416974
0.820390 0.698150 0.414044
0.948533 0.700689 0.411111
1.000000 0.703227 0.408175
0.000000 0.809300 0.429903
0.095072 0.811784 0.426987
0.258961 0.814266 0.424068
0.407454 0.816748 0.421145
0.548048 0.819228 0.418220
0.683365 0.821707 0.415292
0.814748 0.824185 0.412360
0.943013 0.826662 0.409425
1.000000 0.829138 0.406488
0.000000 0.932807 0.428228
0.087231 0.935238 0.425310
0.252244 0.937669 0.422389
0.401183 0.940098 0.419465
0.542052 0.942527 0.416538
0.677566 0.944955 0.413608
0.809101 0.947381 0.410675
0.937488 0.949807 0.407738
1.000000 0.952232 0.404799
0.000000 1.000000 0.426553
0.079283 1.000000 0.423633
0.245501 1.000000 0.420710
0.394898 1.000000 0.417784
0.536047 1.000000 0.414855
0.671759 1.000000 0.411923
0.803447 1.000000 0.408988
0.931959 1.000000 0.406050
1.000000 1.000000 0.403109
0.000000 0.000000 0.564973
0.124642 0.000000 0.562174
0.284765 0.000000 0.559373
0.431631 0.000000 0.556570
0.571202 0.000000 0.553765
0.705781 0.000000 0.550958
0.836591 0.000000 0.548149
0.964388 0.000000 0.545337
1.000000 0.000000 0.542523
0.000000 0.100999 0.563366
0.117127 0.104385 0.560566
0.278144 0.107754 0.557763
0.425415 0.111108 0.554959
0.565244 0.114447 0.552153
0.700010 0.117771 0.549344
0.830965 0.121081 0.546534
0.958882 0.124378 0.543721
1.000000 0.127662 0.540906
0.000000 0.258172 0.561757
0.109538 0.261119 0.558956
0.271500 0.264060 0.556153
0.419185 0.266996 0.553347
0.559276 0.269927 0.550540
0.694231 0.272854 0.547730
0.825334 0.275776 0.544918
0.953371 0.278693 0.542104
1.000000 0.281606 0.539288
0.000000 0.401186 0.560149
0.101870 0.403945 0.557346
0.264831 0.406700 0.554542
0.412942 0.409453 0.551735
0.553299 0.412204 0.548926
0.688446 0.414951 0.546115
0.819697 0.417696 0.543302
0.947855 0.420438 0.540487
1.000000 0.423177 0.537669
0.000000 0.536759 0.558539
0.094114 0.539400 0.555735
0.258137 0.542039 0.552930
0.406684 0.544676 0.550122
0.547312 0.547312 0.547312
0.682653 0.549945 0.544500
0.814055 0.552577 0.541685
0.942334 0.555206 0.538869
1.000000 0.557834 0.536050
0.000000 0.667321 0.556929
0.086260 0.669877 0.554124
0.251417 0.672432 0.551317
0.400412 0.674986 0.548508
0.541315 0.677538 0.545697
0.676853 0.680088 0.542883
0.808406 0.682638 0.540068
0.936809 0.685185 0.537250
1.000000 0.687732 0.534430
0.000000 0.794132 0.555318
0.078298 0.796623 0.552512
0.244670 0.799112 0.549704
0.394125 0.801601 0.546893
0.535308 0.804088 0.544081
0.671045 0.806574 0.541266
0.802752 0.809059 0.538449
0.931279 0.811543 0.535630
1.000000 0.814025 0.532809
0.000000 0.917962 0.553706
0.070212 0.920399 0.550899
0.237895 0.922835 0.548090
0.387823 0.925271 0.545278
0.529291 0.927705 0.542464
0.665229 0.930138 0.539648
0.797092 0.932571 0.536830
0.925744 0.935002 0.534010
1.000000 0.937433 0.531187
0.000000 1.000000 0.552094
0.061984 1.000000 0.549286
0.231090 1.000000 0.546475
0.381505 1.000000 0.543662
0.523264 1.000000 0.540847
0.659406 1.000000 0.538030
0.791425 1.000000 0.535210
0.920203 1.000000 0.532389
1.000000 1.000000 0.529565
0.000000 0.000000 0.685958
0.108600 0.000000 0.683239
0.270682 0.000000 0.680519
0.418419 0.000000 0.677798
0.558542 0.000000 0.675075
0.693521 0.000000 0.672350
0.824642 0.000000 0.669623
0.952693 0.000000 0.666895
1.000000 0.000000 0.664165
0.000000 0.079952 0.684396
0.100922 0.083456 0.681677
0.264010 0.086938 0.678956
0.412174 0.090400 0.676234
0.552564 0.093841 0.673510
0.687734 0.097264 0.670784
0.819004 0.100669 0.668056
0.947177 0.104057 0.665327
1.000000 0.107428 0.662596
0.000000 0.240097 0.682835
0.093154 0.243075 0.680114
0.257313 0.246048 0.677393
0.405914 0.249015 0.674669
0.546575 0.251977 0.671944
0.681941 0.254934 0.669217
0.813361 0.257886 0.666489
0.941656 0.260833 0.663759
1.000000 0.263774 0.661027
0.000000 0.384304 0.681272
0.085288 0.387080 0.678551
0.250590 0.389854 0.675828
0.399640 0.392624 0.673104
0.540577 0.395392 0.670378
0.676139 0.398156 0.667650
0.807712 0.400918 0.664921
0.936130 0.403677 0.662190
1.000000 0.406433 0.659457
0.000000 0.520613 0.679709
0.077312 0.523266 0.676987
0.243839 0.525917 0.674264
0.393351 0.528567 0.671538
0.534569 0.531214 0.668811
0.670331 0.533859 0.666083
0.802057 0.536502 0.663352
0.930599 0.539144 0.660620
1.000000 0.541783 0.657886
0.000000 0.651702 0.678146
0.069210 0.654267 0.675423
0.237060 0.656831 0.672698
0.387047 0.659394 0.669972
0.528551 0.661955 0.667244
0.664514 0.664514 0.664514
0.796396 0.667072 0.661783
0.925063 0.669629 0.659050
1.000000 0.672184 0.656315
0.000000 0.778920 0.676582
0.060962 0.781418 0.673858
0.230252 0.783915 0.671132
0.380728 0.786410 0.668405
0.522522 0.788905 0.665676
0.658690 0.791398 0.662946
0.790728 0.793890 0.660213
0.919522 0.796381 0.657479
1.000000 0.798871 0.654744
0.000000 0.903080 0.675018
0.052543 0.905524 0.672293
0.223414 0.907966 0.669566
0.374393 0.910407 0.666838
0.516483 0.912847 0.664108
0.652859 0.915287 0.661376
0.785055 0.917725 0.658643
0.913976 0.920162 0.655908
1.000000 0.922599 0.653171
0.000000 1.000000 0.673452
0.043916 1.000000 0.670727
0.216544 1.000000 0.667999
0.368042 1.000000 0.665270
0.510434 1.000000 0.662539
0.647019 1.000000 0.659806
0.779376 1.000000 0.657072
0.908426 1.000000 0.654336
1.000000 1.000000 0.651599
0.000000 0.000000 0.803805
0.092193 0.000000 0.801150
0.256488 0.000000 0.798495
0.405144 0.000000 0.795838
0.545839 0.000000 0.793180
0.681228 0.000000 0.790520
0.812667 0.000000 0.787859
0.940977 0.000000 0.785197
1.000000 0.000000 0.782533
0.000000 0.058026 0.802280
0.084314 0.061698 0.799625
0.249762 0.065337 0.796969
0.398868 0.068946 0.794311
0.539840 0.072527 0.791652
0.675426 0.076081 0.788992
0.807017 0.079611 0.786330
0.935450 0.083117 0.783667
1.000000 0.086601 0.781002
0.000000 0.221815 0.800755
0.076323 0.224829 0.798099
0.243008 0.227836 0.795442
0.392578 0.230838 0.792784
0.533830 0.233833 0.790124
0.669616 0.236823 0.787463
0.801361 0.239808 0.784800
0.929919 0.242786 0.782136
1.000000 0.245760 0.779471
0.000000 0.367310 0.799230
0.068204 0.370105 0.796573
0.236225 0.372897 0.793915
0.386272 0.375686 0.791256
0.527811 0.378472 0.788595
0.663799 0.381254 0.785934
0.795700 0.384034 0.783270
0.924382 0.386811 0.780606
1.000000 0.389584 0.777940
0.000000 0.504392 0.797704
0.059938 0.507058 0.795047
0.229414 0.509721 0.792388
0.379950 0.512383 0.789728
0.521781 0.515042 0.787067
0.657974 0.517700 0.784404
0.790032 0.520355 0.781740
0.918841 0.523009 0.779074
1.000000 0.525660 0.776408
0.000000 0.636026 0.796178
0.051495 0.638601 0.793520
0.222572 0.641174 0.790860
0.373613 0.643746 0.788199
0.515741 0.646317 0.785537
0.652142 0.648885 0.782874
0.784358 0.651452 0.780209
0.913295 0.654018 0.777543
1.000000 0.656582 0.774875
0.000000 0.763664 0.794651
0.042839 0.766169 0.791992
0.215698 0.768673 0.789332
0.367260 0.771176 0.786670
0.509690 0.773678 0.784007
0.646301 0.776178 0.781343
0.778677 0.778677 0.778677
0.907743 0.781176 0.776010
1.000000 0.783672 0.773342
0.000000 0.888162 0.793124
0.033909 0.890611 0.790464
0.208791 0.893060 0.787803
0.360890 0.895507 0.785141
0.503628 0.897953 0.782477
0.640453 0.900399 0.779812
0.772991 0.902843 0.777146
0.902187 0.905286 0.774478
1.000000 0.907729 0.771809
0.000000 1.000000 0.791596
0.024607 1.000000 0.788936
0.201850 1.000000 0.786274
0.354504 1.000000 0.783611
0.497555 1.000000 0.780946
0.634597 1.000000 0.778281
0.767298 1.000000 0.775613
0.896625 1.000000 0.772945
1.000000 1.000000 0.770275
0.000000 0.000000 0.919105
0.075333 0.000000 0.916504
0.242176 0.000000 0.913901
0.391804 0.000000 0.911298
0.533091 0.000000 0.908693
0.668902 0.000000 0.906087
0.800666 0.000000 0.903480
0.929239 0.000000 0.900872
1.000000 0.000000 0.898263
0.000000 0.034736 0.917611
0.067197 0.038687 0.915009
0.235390 0.042578 0.912406
0.385496 0.046417 0.909802
0.527070 0.050209 0.907196
0.663084 0.053958 0.904590
0.795003 0.057668 0.901982
0.923702 0.061343 0.899373
1.000000 0.064985 0.896763
0.000000 0.203304 0.916116
0.058910 0.206357 0.913514
0.228575 0.209403 0.910910
0.379173 0.212442 0.908305
0.521039 0.215475 0.905699
0.657258 0.218502 0.903092
0.789335 0.221522 0.900484
0.918160 0.224536 0.897874
1.000000 0.227544 0.895264
0.000000 0.350197 0.914622
0.050444 0.353012 0.912018
0.221729 0.355824 0.909414
0.372834 0.358632 0.906808
0.514998 0.361438 0.904202
0.651425 0.364240 0.901594
0.783660 0.367038 0.898985
0.912613 0.369834 0.896375
1.000000 0.372626 0.893764
0.000000 0.488092 0.913126
0.041758 0.490771 0.910522
0.214851 0.493448 0.907917
0.366478 0.496122 0.905311
0.508945 0.498794 0.902704
0.645583 0.501465 0.900095
0.777979 0.504133 0.897486
0.907061 0.506799 0.894875
1.000000 0.509463 0.892263
0.000000 0.620293 0.911631
0.032789 0.622877 0.909026
0.207940 0.625460 0.906420
0.360106 0.628042 0.903814
0.502882 0.630621 0.901206
0.639734 0.633199 0.898597
0.772292 0.635776 0.895986
0.901503 0.638351 0.893375
1.000000 0.640925 0.890762
0.000000 0.748361 0.910135
0.023430 0.750874 0.907529
0.200994 0.753386 0.904923
0.353718 0.755896 0.902316
0.496808 0.758406 0.899707
0.633876 0.760914 0.897097
0.766598 0.763420 0.894486
0.895941 0.765926 0.891874
1.000000 0.768430 0.889261
0.000000 0.873206 0.908638
0.013450 0.875662 0.906032
0.194012 0.878116 0.903425
0.347311 0.880570 0.900817
0.490723 0.883022 0.898208
0.628011 0.885474 0.895598
0.760899 0.887924 0.892986
0.890373 0.890373 0.890373
1.000000 0.892822 0.887760
0.000000 0.995419 0.907142
0.001923 0.997827 0.904535
0.186993 1.000000 0.901927
0.340888 1.000000 0.899319
0.484627 1.000000 0.896709
0.622137 1.000000 0.894098
0.755192 1.000000 0.891486
0.884801 1.000000 0.888872
1.000000 1.000000 0.886258
0.000000 0.000000 1.000000
0.057880 0.000000 1.000000
0.227735 0.000000 1.000000
0.378395 0.000000 1.000000
0.520298 0.000000 1.000000
0.656542 0.000000 1.000000
0.788638 0.000000 1.000000
0.917478 0.000000 1.000000
1.000000 0.000000 1.000000
0.000000 0.008415 1.000000
0.049390 0.013167 1.000000
0.220885 0.017669 1.000000
0.372054 0.022003 1.000000
0.514255 0.026212 1.000000
0.650707 0.030321 1.000000
0.782962 0.034349 1.000000
0.911931 0.038306 1.000000
1.000000 0.042203 1.000000
0.000000 0.184536 1.000000
0.040673 0.187633 1.000000
0.214003 0.190723 1.000000
0.365696 0.193805 1.000000
0.508201 0.196879 1.000000
0.644865 0.199947 1.000000
0.777281 0.203007 1.000000
0.906378 0.206061 1.000000
1.000000 0.209107 1.000000
0.000000 0.332958 1.000000
0.031663 0.335794 1.000000
0.207088 0.338627 1.000000
0.359322 0.341456 1.000000
0.502137 0.344282 1.000000
0.639014 0.347104 1.000000
0.771593 0.349923 1.000000
0.900820 0.352739 1.000000
1.000000 0.355551 1.000000
0.000000 0.471710 1.000000
0.022245 0.474402 1.000000
0.200138 0.477093 1.000000
0.352931 0.479781 1.000000
0.496061 0.482467 1.000000
0.633156 0.485150 1.000000
0.765898 0.487832 1.000000
0.895257 0.490511 1.000000
1.000000 0.493188 1.000000
0.000000 0.604499 1.000000
0.012157 0.607093 1.000000
0.193152 0.609686 1.000000
0.346523 0.612278 1.000000
0.489975 0.614867 1.000000
0.627290 0.617455 1.000000
0.760198 0.620042 1.000000
0.889689 0.622626 1.000000
1.000000 0.625209 1.000000
0.000000 0.733012 1.000000
0.000000 0.735533 1.000000
0.186127 0.738052 1.000000
0.340097 0.740570 1.000000
0.483877 0.743087 1.000000
0.621415 0.745603 1.000000
0.754491 0.748117 1.000000
0.884116 0.750630 1.000000
1.000000 0.753142 1.000000
0.000000 0.858211 1.000000
0.000000 0.860673 1.000000
0.179063 0.863134 1.000000
0.333653 0.865594 1.000000
0.477767 0.868053 1.000000
0.615532 0.870511 1.000000
0.748777 0.872967 1.000000
0.878537 0.875423 1.000000
1.000000 0.877878 1.000000
0.000000 0.980719 1.000000
0.000000 0.983132 1.000000
0.171956 0.985544 1.000000
0.327189 0.987956 1.000000
0.471646 0.990366 1.000000
0.609640 0.992776 1.000000
0.743057 0.995185 1.000000
0.872953 0.997593 1.000000
1.000000 1.000000 1.000000
