presets/film_stocks/Kodak_Portra_160.cube
# 独寻胶片模拟 -- Kodak Portra 160
# Kodak, ISO 160, 2011, negative
TITLE "Kodak Portra 160"
LUT_3D_SIZE 9
DOMAIN_MIN 0.0 0.0 0.0
DOMAIN_MAX 1.0 1.0 1.0
0.000000 0.000000 0.000000
0.161040 0.004865 0.000000
0.305961 0.009244 0.000000
0.445362 0.013455 0.000000
0.581296 0.017562 0.000000
0.714709 0.021593 0.000000
0.846145 0.025564 0.000000
0.975962 0.029486 0.000000
1.000000 0.033366 0.000000
0.000000 0.157029 0.000000
0.155531 0.160438 0.000000
0.300731 0.163841 0.000000
0.440288 0.167239 0.000000
0.576330 0.170631 0.000000
0.709824 0.174017 0.000000
0.841326 0.177398 0.000000
0.971197 0.180774 0.000000
1.000000 0.184145 0.000000
0.000000 0.298341 0.000000
0.150006 0.301580 0.000000
0.295494 0.304817 0.000000
0.435209 0.308051 0.000000
0.571360 0.311283 0.000000
0.704936 0.314511 0.000000
0.836505 0.317737 0.000000
0.966431 0.320961 0.000000
1.000000 0.324182 0.000000
0.000000 0.434270 0.000000
0.144464 0.437414 0.000000
0.290249 0.440557 0.000000
0.430126 0.443697 0.000000
0.566386 0.446836 0.000000
0.700046 0.449973 0.000000
0.831681 0.453109 0.000000
0.961663 0.456242 0.000000
1.000000 0.459374 0.000000
0.000000 0.566819 0.000000
0.138906 0.569897 0.000000
0.284996 0.572974 0.000000
0.425037 0.576049 0.000000
0.561409 0.579123 0.000000
0.695153 0.582196 0.000000
0.826856 0.585268 0.000000
0.956893 0.588338 0.000000
1.000000 0.591407 0.000000
0.000000 0.696908 0.000000
0.133329 0.699936 0.000000
0.279736 0.702963 0.000000
0.419944 0.705989 0.000000
0.556429 0.709013 0.000000
0.690257 0.712037 0.000000
0.822028 0.715059 0.000000
0.952122 0.718081 0.000000
1.000000 0.721102 0.000000
0.000000 0.825071 0.000000
0.127734 0.828059 0.000000
0.274468 0.831045 0.000000
0.414846 0.834031 0.000000
0.551445 0.837015 0.000000
0.685359 0.839999 0.000000
0.817197 0.842982 0.000000
0.947348 0.845964 0.000000
1.000000 0.848946 0.000000
0.000000 0.951655 0.000000
0.122120 0.954608 0.000000
0.269192 0.957561 0.000000
0.409743 0.960513 0.000000
0.546457 0.963464 0.000000
0.680457 0.966414 0.000000
0.812365 0.969364 0.000000
0.942572 0.972313 0.000000
1.000000 0.975262 0.000000
0.000000 1.000000 0.000000
0.116484 1.000000 0.000000
0.263908 1.000000 0.000000
0.404634 1.000000 0.000000
0.541466 1.000000 0.000000
0.675553 1.000000 0.000000
0.807530 1.000000 0.000000
0.937795 1.000000 0.000000
1.000000 1.000000 0.000000
0.000000 0.000000 0.152654
0.151354 0.000000 0.148058
0.296770 0.000000 0.143452
0.436447 0.000000 0.138833
0.572571 0.000000 0.134202
0.706127 0.003603 0.129558
0.837680 0.008052 0.124900
0.967593 0.012301 0.120229
1.000000 0.016433 0.115543
0.000000 0.142381 0.150417
0.145816 0.145816 0.145816
0.291527 0.149245 0.141203
0.431365 0.152668 0.136579
0.567598 0.156084 0.131941
0.701238 0.159494 0.127291
0.832857 0.162899 0.122627
0.962825 0.166298 0.117949
1.000000 0.169691 0.113255
0.000000 0.284453 0.148178
0.140262 0.287704 0.143571
0.286277 0.290953 0.138953
0.426278 0.294199 0.134322
0.562622 0.297443 0.129678
0.696346 0.300683 0.125021
0.828032 0.303921 0.120350
0.958056 0.307156 0.115665
1.000000 0.310388 0.110964
0.000000 0.420802 0.145935
0.134690 0.423954 0.141323
0.281019 0.427104 0.136699
0.421186 0.430252 0.132062
0.557643 0.433399 0.127412
0.691450 0.436543 0.122748
0.823204 0.439686 0.118070
0.953285 0.442828 0.113377
1.000000 0.445967 0.108669
0.000000 0.553638 0.143691
0.129099 0.556722 0.139072
0.275753 0.559804 0.134442
0.416089 0.562886 0.129799
0.552659 0.565966 0.125142
0.686553 0.569044 0.120471
0.818375 0.572121 0.115786
0.948511 0.575197 0.111086
1.000000 0.578272 0.106370
0.000000 0.683946 0.141443
0.123490 0.686979 0.136819
0.270478 0.690010 0.132182
0.410987 0.693040 0.127532
0.547673 0.696069 0.122869
0.681652 0.699097 0.118191
0.813543 0.702124 0.113499
0.943736 0.705150 0.108791
1.000000 0.708175 0.104067
0.000000 0.812285 0.139192
0.117859 0.815276 0.134562
0.265196 0.818266 0.129919
0.405880 0.821255 0.125263
0.542682 0.824244 0.120593
0.676749 0.827231 0.115908
0.808708 0.830218 0.111208
0.938959 0.833204 0.106492
1.000000 0.836189 0.101760
0.000000 0.939014 0.136939
0.112207 0.941971 0.132302
0.259905 0.944927 0.127653
0.400767 0.947882 0.122990
0.537688 0.950836 0.118313
0.671842 0.953790 0.113621
0.803872 0.956743 0.108913
0.934180 0.959695 0.104189
1.000000 0.962646 0.099448
0.000000 1.000000 0.134682
0.106532 1.000000 0.130039
0.254606 1.000000 0.125384
0.395650 1.000000 0.120714
0.532690 1.000000 0.116029
0.666933 1.000000 0.111330
0.799033 1.000000 0.106614
0.929399 1.000000 0.101882
1.000000 1.000000 0.097133
0.000000 0.000000 0.290028
0.141617 0.000000 0.285665
0.287557 0.000000 0.281297
0.427518 0.000000 0.276923
0.563835 0.000000 0.272544
0.697538 0.000000 0.268159
0.829208 0.000000 0.263769
0.959218 0.000000 0.259372
1.000000 0.000000 0.254970
0.000000 0.127610 0.287904
0.136049 0.131075 0.283538
0.282301 0.134533 0.279167
0.422427 0.137984 0.274791
0.558856 0.141428 0.270409
0.692644 0.144865 0.266022
0.824381 0.148296 0.261628
0.954447 0.151720 0.257229
1.000000 0.155138 0.252824
0.000000 0.270510 0.285778
0.130463 0.273775 0.281410
0.277037 0.277037 0.277037
0.417331 0.280295 0.272658
0.553874 0.283551 0.268273
0.687746 0.286804 0.263883
0.819552 0.290054 0.259486
0.949675 0.293300 0.255084
1.000000 0.296544 0.250676
0.000000 0.407298 0.283651
0.124858 0.410459 0.279281
0.271764 0.413617 0.274904
0.412230 0.416773 0.270523
0.548888 0.419928 0.266135
0.682846 0.423080 0.261742
0.814720 0.426231 0.257343
0.944900 0.429380 0.252938
1.000000 0.432527 0.248526
0.000000 0.540432 0.281523
0.119233 0.543522 0.277150
0.266484 0.546611 0.272771
0.407124 0.549698 0.268387
0.543898 0.552783 0.263996
0.677944 0.555868 0.259600
0.809886 0.558951 0.255198
0.940123 0.562032 0.250790
1.000000 0.565112 0.246376
0.000000 0.670964 0.279394
0.113587 0.674001 0.275018
0.261195 0.677037 0.270636
0.402014 0.680072 0.266249
0.538905 0.683106 0.261856
0.673038 0.686138 0.257457
0.805050 0.689170 0.253052
0.935345 0.692201 0.248641
1.000000 0.695230 0.244223
0.000000 0.799482 0.277263
0.107917 0.802477 0.272885
0.255898 0.805471 0.268500
0.396897 0.808464 0.264110
0.533908 0.811456 0.259714
0.668130 0.814447 0.255312
0.800212 0.817438 0.250904
0.930564 0.820427 0.246490
1.000000 0.823416 0.242070
0.000000 0.926360 0.275131
0.102224 0.929320 0.270750
0.250592 0.932279 0.266363
0.391776 0.935237 0.261970
0.528908 0.938195 0.257571
0.663218 0.941152 0.253166
0.795371 0.944108 0.248755
0.925782 0.947063 0.244338
1.000000 0.950018 0.239914
0.000000 1.000000 0.272998
0.096506 1.000000 0.268614
0.245277 1.000000 0.264224
0.386649 1.000000 0.259828
0.523903 1.000000 0.255426
0.658304 1.000000 0.251019
0.790528 1.000000 0.246605
0.920997 1.000000 0.242184
1.000000 1.000000 0.237757
0.000000 0.000000 0.422170
0.131826 0.000000 0.417937
0.278320 0.000000 0.413701
0.418573 0.000000 0.409461
0.555088 0.000000 0.405217
0.688940 0.000000 0.400970
0.820729 0.000000 0.396720
0.950838 0.000000 0.392466
1.000000 0.000000 0.388208
0.000000 0.112702 0.420109
0.126226 0.116201 0.415874
0.273050 0.119692 0.411636
0.413474 0.123174 0.407394
0.550103 0.126649 0.403149
0.684041 0.130116 0.398901
0.815898 0.133576 0.394648
0.946064 0.137029 0.390393
1.000000 0.140474 0.386133
0.000000 0.256509 0.418047
0.120606 0.259788 0.413810
0.267771 0.263063 0.409571
0.408369 0.266336 0.405327
0.545115 0.269605 0.401081
0.679139 0.272870 0.396830
0.811064 0.276133 0.392576
0.941288 0.279393 0.388318
1.000000 0.282649 0.384057
0.000000 0.393759 0.415984
0.114965 0.396928 0.411746
0.262485 0.400095 0.407504
0.403259 0.403259 0.403259
0.540122 0.406422 0.399011
0.674234 0.409583 0.394759
0.806229 0.412742 0.390503
0.936509 0.415899 0.386243
1.000000 0.419054 0.381980
0.000000 0.527201 0.413920
0.109301 0.530297 0.409680
0.257189 0.533391 0.405437
0.398145 0.536484 0.401191
0.535126 0.539576 0.396940
0.669326 0.542666 0.392686
0.801391 0.545755 0.388429
0.931729 0.548842 0.384167
1.000000 0.551929 0.379902
0.000000 0.657963 0.411856
0.103614 0.661004 0.407614
0.251885 0.664045 0.403369
0.393024 0.667084 0.399121
0.530127 0.670123 0.394869
0.664415 0.673160 0.390613
0.796551 0.676196 0.386354
0.926947 0.679231 0.382091
1.000000 0.682265 0.377824
0.000000 0.786663 0.409790
0.097902 0.789662 0.405547
0.246573 0.792659 0.401301
0.387899 0.795656 0.397050
0.525123 0.798652 0.392797
0.659502 0.801647 0.388539
0.791709 0.804641 0.384278
0.922163 0.807635 0.380013
1.000000 0.810627 0.375744
0.000000 0.913693 0.407724
0.092163 0.916656 0.403479
0.241250 0.919618 0.399231
0.382768 0.922579 0.394979
0.520116 0.925540 0.390723
0.654585 0.928500 0.386464
0.786864 0.931459 0.382201
0.917378 0.934418 0.377934
1.000000 0.937376 0.373663
0.000000 1.000000 0.405657
0.086395 1.000000 0.401411
0.235919 1.000000 0.397161
0.377632 1.000000 0.392907
0.515104 1.000000 0.388649
0.649666 1.000000 0.384388
0.782016 1.000000 0.380123
0.912590 1.000000 0.375855
1.000000 1.000000 0.371582
0.000000 0.000000 0.551025
0.121977 0.000000 0.546882
0.269058 0.000000 0.542736
0.409613 0.000000 0.538587
0.546331 0.000000 0.534437
0.680333 0.000000 0.530283
0.812242 0.000000 0.526127
0.942451 0.000000 0.521969
1.000000 0.000000 0.517807
0.000000 0.097633 0.549007
0.116341 0.101172 0.544863
0.263774 0.104701 0.540716
0.404505 0.108220 0.536566
0.541339 0.111730 0.532414
0.675429 0.115232 0.528259
0.807407 0.118725 0.524102
0.937674 0.122210 0.519942
1.000000 0.125687 0.515780
0.000000 0.242447 0.546989
0.110683 0.245741 0.542843
0.258481 0.249031 0.538695
0.399391 0.252317 0.534544
0.536344 0.255600 0.530391
0.670522 0.258880 0.526235
0.802570 0.262156 0.522076
0.932894 0.265429 0.517915
1.000000 0.268699 0.513751
0.000000 0.380182 0.544970
0.105002 0.383360 0.540823
0.253179 0.386536 0.536674
0.394272 0.389709 0.532522
0.531345 0.392881 0.528367
0.665612 0.396050 0.524210
0.797731 0.399217 0.520050
0.928113 0.402383 0.515887
1.000000 0.405546 0.511722
0.000000 0.513942 0.542951
0.099296 0.517045 0.538802
0.247868 0.520145 0.534652
0.389148 0.523245 0.530498
0.526343 0.526343 0.526343
0.660699 0.529439 0.522184
0.792889 0.532534 0.518023
0.923329 0.535627 0.513859
1.000000 0.538719 0.509693
0.000000 0.644940 0.540931
0.093564 0.647987 0.536781
0.242548 0.651032 0.532629
0.384019 0.654076 0.528475
0.521336 0.657120 0.524318
0.655783 0.660162 0.520158
0.788044 0.663203 0.515995
0.918544 0.666242 0.511830
1.000000 0.669281 0.507662
0.000000 0.773827 0.538910
0.087803 0.776830 0.534759
0.237219 0.779831 0.530606
0.378884 0.782832 0.526450
0.516326 0.785832 0.522292
0.650865 0.788831 0.518131
0.783198 0.791829 0.513967
0.913756 0.794826 0.509800
1.000000 0.797822 0.505631
0.000000 0.901011 0.536889
0.082012 0.903977 0.532737
0.231880 0.906943 0.528582
0.373743 0.909907 0.524425
0.511312 0.912872 0.520266
0.645943 0.915835 0.516103
0.778349 0.918797 0.511938
0.908967 0.921759 0.507770
1.000000 0.924720 0.503600
0.000000 1.000000 0.534867
0.076188 1.000000 0.530714
0.226531 1.000000 0.526558
0.368597 1.000000 0.522400
0.506294 1.000000 0.518239
0.641018 1.000000 0.514075
0.773497 1.000000 0.509908
0.904176 1.000000 0.505739
1.000000 1.000000 0.501567
0.000000 0.000000 0.677490
0.112064 0.000000 0.673414
0.259771 0.000000 0.669337
0.400638 0.000000 0.665258
0.537562 0.000000 0.661177
0.671718 0.000000 0.657094
0.803749 0.000000 0.653009
0.934059 0.000000 0.648922
1.000000 0.000000 0.644833
0.000000 0.082375 0.675505
0.106388 0.085961 0.671429
0.254471 0.089535 0.667351
0.395520 0.093098 0.663271
0.532564 0.096650 0.659189
0.666809 0.100192 0.655105
0.798910 0.103724 0.651019
0.929278 0.107246 0.646931
1.000000 0.110759 0.642841
0.000000 0.228320 0.673520
0.100689 0.231629 0.669443
0.249163 0.234934 0.665364
0.390397 0.238236 0.661283
0.527562 0.241534 0.657200
0.661897 0.244829 0.653115
0.794069 0.248120 0.649028
0.924495 0.251407 0.644939
1.000000 0.254691 0.640848
0.000000 0.366567 0.671535
0.094963 0.369754 0.667457
0.243845 0.372939 0.663377
0.385269 0.376121 0.659295
0.522556 0.379302 0.655211
0.656982 0.382480 0.651125
0.789225 0.385656 0.647037
0.919710 0.388830 0.642947
1.000000 0.392002 0.638854
0.000000 0.500657 0.669549
0.089210 0.503765 0.665470
0.238518 0.506873 0.661389
0.380135 0.509978 0.657306
0.517547 0.513083 0.653221
0.652064 0.516185 0.649134
0.784379 0.519286 0.645045
0.914923 0.522386 0.640954
1.000000 0.525484 0.636860
0.000000 0.631896 0.667562
0.083426 0.634948 0.663482
0.233182 0.637998 0.659401
0.374996 0.641048 0.655317
0.512534 0.644096 0.651231
0.647143 0.647143 0.647143
0.779530 0.650188 0.643053
0.910134 0.653233 0.638960
1.000000 0.656277 0.634866
0.000000 0.760974 0.665576
0.077611 0.763981 0.661495
0.227836 0.766987 0.657412
0.369851 0.769991 0.653327
0.507517 0.772995 0.649240
0.642219 0.775998 0.645151
0.774680 0.779000 0.641060
0.905343 0.782001 0.636967
1.000000 0.785001 0.632871
0.000000 0.888315 0.663588
0.071760 0.891284 0.659506
0.222479 0.894253 0.655422
0.364701 0.897221 0.651337
0.502496 0.900189 0.647249
0.637292 0.903155 0.643159
0.769826 0.906121 0.639066
0.900550 0.909086 0.634972
1.000000 0.912050 0.630876
0.000000 1.000000 0.661600
0.065871 1.000000 0.657518
0.217113 1.000000 0.653433
0.359544 1.000000 0.649346
0.497471 1.000000 0.645257
0.632362 1.000000 0.641166
0.764970 1.000000 0.637073
0.895755 1.000000 0.632977
1.000000 1.000000 0.628880
0.000000 0.000000 0.802082
0.102080 0.000000 0.798061
0.250457 0.000000 0.794040
0.391646 0.000000 0.790016
0.528781 0.000000 0.785991
0.663094 0.000000 0.781964
0.795249 0.000000 0.777936
0.925661 0.000000 0.773906
1.000000 0.000000 0.769874
0.000000 0.066885 0.800124
0.096361 0.070530 0.796103
0.245142 0.074160 0.792080
0.386519 0.077776 0.788056
0.523777 0.081379 0.784030
0.658180 0.084968 0.780002
0.790406 0.088546 0.775973
0.920876 0.092112 0.771942
1.000000 0.095667 0.767909
0.000000 0.214122 0.798166
0.090614 0.217448 0.794144
0.239817 0.220770 0.790120
0.381387 0.224088 0.786095
0.518768 0.227402 0.782068
0.653262 0.230713 0.778040
0.785560 0.234019 0.774010
0.916090 0.237322 0.769978
1.000000 0.240621 0.765945
0.000000 0.352911 0.796207
0.084838 0.356107 0.792184
0.234483 0.359302 0.788160
0.376249 0.362494 0.784134
0.513756 0.365683 0.780107
0.648342 0.368871 0.776077
0.780712 0.372056 0.772047
0.911301 0.375240 0.768014
1.000000 0.378421 0.763980
0.000000 0.487343 0.794248
0.079031 0.490458 0.790225
0.229139 0.493572 0.786200
0.371105 0.496684 0.782173
0.508740 0.499795 0.778144
0.643419 0.502904 0.774114
0.775862 0.506012 0.770083
0.906511 0.509118 0.766049
1.000000 0.512223 0.762014
0.000000 0.618831 0.792289
0.073189 0.621888 0.788264
0.223786 0.624943 0.784239
0.365956 0.627998 0.780211
0.503720 0.631051 0.776182
0.638493 0.634103 0.772151
0.771009 0.637153 0.768118
0.901718 0.640203 0.764084
1.000000 0.643251 0.760048
0.000000 0.748104 0.790329
0.067309 0.751115 0.786304
0.218421 0.754124 0.782277
0.360801 0.757133 0.778249
0.498695 0.760141 0.774219
0.633563 0.763148 0.770187
0.766154 0.766154 0.766154
0.896924 0.769159 0.762119
1.000000 0.772163 0.758082
0.000000 0.875604 0.788369
0.061388 0.878577 0.784343
0.213047 0.881549 0.780315
0.355640 0.884521 0.776286
0.493667 0.887492 0.772255
0.628631 0.890462 0.768223
0.761296 0.893431 0.764189
0.892127 0.896399 0.760153
1.000000 0.899367 0.756115
0.000000 1.000000 0.786408
0.055421 1.000000 0.782381
0.207661 1.000000 0.778353
0.350473 1.000000 0.774323
0.488635 1.000000 0.770292
0.623695 1.000000 0.766258
0.756436 1.000000 0.762223
0.887329 1.000000 0.758187
1.000000 1.000000 0.754148
0.000000 0.000000 0.925138
0.092017 0.000000 0.921163
0.241116 0.000000 0.917187
0.382638 0.000000 0.913210
0.519989 0.000000 0.909231
0.654461 0.000000 0.905251
0.786741 0.000000 0.901270
0.917256 0.000000 0.897287
1.000000 0.000000 0.893303
0.000000 0.051101 0.923202
0.086249 0.054822 0.919227
0.235784 0.058524 0.915250
0.377501 0.062207 0.911272
0.514978 0.065873 0.907293
0.649541 0.069522 0.903312
0.781894 0.073156 0.899330
0.912468 0.076776 0.895347
1.000000 0.080382 0.891362
0.000000 0.199848 0.921266
0.080449 0.203193 0.917290
0.230442 0.206533 0.913313
0.372359 0.209868 0.909335
0.509962 0.213200 0.905355
0.644619 0.216527 0.901373
0.777044 0.219850 0.897390
0.907678 0.223169 0.893406
1.000000 0.226484 0.889421
0.000000 0.339212 0.919330
0.074616 0.342419 0.915353
0.225091 0.345623 0.911376
0.367211 0.348825 0.907396
0.504943 0.352025 0.903416
0.639693 0.355222 0.899434
0.772192 0.358417 0.895450
0.902886 0.361610 0.891465
1.000000 0.364800 0.887479
0.000000 0.474000 0.917393
0.068746 0.477122 0.913416
0.219729 0.480243 0.909438
0.362058 0.483362 0.905458
0.499920 0.486479 0.901476
0.634765 0.489595 0.897494
0.767337 0.492710 0.893509
0.898092 0.495822 0.889524
1.000000 0.498933 0.885537
0.000000 0.605744 0.915456
0.062835 0.608806 0.911479
0.214357 0.611867 0.907499
0.356898 0.614926 0.903519
0.494893 0.617984 0.899537
0.629833 0.621041 0.895553
0.762480 0.624097 0.891568
0.893296 0.627152 0.887582
1.000000 0.630205 0.883594
0.000000 0.735216 0.913519
0.056880 0.738231 0.909541
0.208975 0.741245 0.905561
0.351733 0.744258 0.901579
0.489862 0.747270 0.897597
0.624898 0.750281 0.893613
0.757621 0.753291 0.889627
0.888498 0.756300 0.885640
1.000000 0.759308 0.881652
0.000000 0.862879 0.911582
0.050874 0.865855 0.907602
0.203581 0.868831 0.903622
0.346561 0.871806 0.899640
0.484826 0.874780 0.895657
0.619961 0.877753 0.891672
0.752759 0.880726 0.887685
0.883698 0.883698 0.883698
1.000000 0.886669 0.879709
0.000000 0.989042 0.909644
0.044811 0.991986 0.905664
0.198175 0.994930 0.901683
0.341383 0.997873 0.897700
0.479787 1.000000 0.893716
0.615020 1.000000 0.889730
0.747894 1.000000 0.885743
0.878895 1.000000 0.881755
1.000000 1.000000 0.877765
0.000000 0.000000 1.000000
0.081865 0.000000 1.000000
0.231745 0.000000 1.000000
0.373613 0.000000 1.000000
0.511185 0.000000 1.000000
0.645818 0.000000 1.000000
0.778226 0.000000 1.000000
0.908846 0.000000 1.000000
1.000000 0.000000 1.000000
0.000000 0.034908 1.000000
0.076040 0.038740 1.000000
0.226396 0.042541 1.000000
0.368466 0.046316 1.000000
0.506167 0.050066 1.000000
0.640894 0.053793 1.000000
0.773374 0.057500 1.000000
0.904054 0.061188 1.000000
1.000000 0.064859 1.000000
0.000000 0.185493 1.000000
0.070180 0.188857 1.000000
0.221037 0.192216 1.000000
0.363314 0.195571 1.000000
0.501144 0.198921 1.000000
0.635966 0.202267 1.000000
0.768520 0.205608 1.000000
0.899261 0.208945 1.000000
1.000000 0.212277 1.000000
0.000000 0.325469 1.000000
0.064279 0.328687 1.000000
0.215667 0.331901 1.000000
0.358156 0.335114 1.000000
0.496118 0.338323 1.000000
0.631035 0.341531 1.000000
0.763664 0.344736 1.000000
0.894465 0.347938 1.000000
1.000000 0.351138 1.000000
0.000000 0.460626 1.000000
0.058335 0.463756 1.000000
0.210287 0.466884 1.000000
0.352992 0.470010 1.000000
0.491088 0.473134 1.000000
0.626101 0.476257 1.000000
0.758805 0.479378 1.000000
0.889667 0.482498 1.000000
1.000000 0.485616 1.000000
0.000000 0.592634 1.000000
0.052343 0.595701 1.000000
0.204896 0.598767 1.000000
0.347822 0.601832 1.000000
0.486054 0.604896 1.000000
0.621164 0.607958 1.000000
0.753943 0.611019 1.000000
0.884868 0.614079 1.000000
1.000000 0.617137 1.000000
0.000000 0.722310 1.000000
0.046294 0.725329 1.000000
0.199493 0.728347 1.000000
0.342646 0.731364 1.000000
0.481015 0.734380 1.000000
0.616224 0.737396 1.000000
0.749080 0.740410 1.000000
0.880066 0.743423 1.000000
1.000000 0.746435 1.000000
0.000000 0.850138 1.000000
0.040182 0.853118 1.000000
0.194079 0.856098 1.000000
0.337463 0.859076 1.000000
0.475972 0.862054 1.000000
0.611281 0.865031 1.000000
0.744213 0.868007 1.000000
0.875262 0.870982 1.000000
1.000000 0.873956 1.000000
0.000000 0.976441 1.000000
0.033994 0.979388 1.000000
0.188653 0.982335 1.000000
0.332274 0.985281 1.000000
0.470925 0.988226 1.000000
0.606334 0.991171 1.000000
0.739344 0.994114 1.000000
0.870456 0.997058 1.000000
1.000000 1.000000 1.000000
