presets/film_stocks/Kodak_Verita_200D_5206.cube
# 独寻胶片模拟 -- Kodak Verita 200D 5206
# Kodak, ISO 200, 2026, negative
TITLE "Kodak Verita 200D 5206"
LUT_3D_SIZE 9
DOMAIN_MIN 0.0 0.0 0.0
DOMAIN_MAX 1.0 1.0 1.0
0.000000 0.000000 0.000000
0.247735 0.017940 0.000000
0.403627 0.029230 0.000000
0.537017 0.038889 0.000000
0.657617 0.047623 0.000000
0.769519 0.055727 0.000000
0.874945 0.063361 0.000000
0.975273 0.070627 0.000000
1.000000 0.077590 0.000000
0.000000 0.243358 0.000000
0.241577 0.247569 0.000000
0.398623 0.251750 0.000000
0.532583 0.255902 0.000000
0.653546 0.260026 0.000000
0.765709 0.264122 0.000000
0.871336 0.268192 0.000000
0.971826 0.272236 0.000000
1.000000 0.276256 0.000000
0.000000 0.396497 0.000000
0.235352 0.399933 0.000000
0.393594 0.403357 0.000000
0.528133 0.406769 0.000000
0.649465 0.410169 0.000000
0.761892 0.413557 0.000000
0.867721 0.416933 0.000000
0.968373 0.420298 0.000000
1.000000 0.423652 0.000000
0.000000 0.527530 0.000000
0.229058 0.530580 0.000000
0.388537 0.533623 0.000000
0.523668 0.536658 0.000000
0.645373 0.539686 0.000000
0.758066 0.542707 0.000000
0.864099 0.545721 0.000000
0.964915 0.548728 0.000000
1.000000 0.551728 0.000000
0.000000 0.646000 0.000000
0.222690 0.648802 0.000000
0.383452 0.651598 0.000000
0.519187 0.654390 0.000000
0.641270 0.657177 0.000000
0.754233 0.659959 0.000000
0.860472 0.662736 0.000000
0.961452 0.665508 0.000000
1.000000 0.668275 0.000000
0.000000 0.755925 0.000000
0.216244 0.758549 0.000000
0.378339 0.761168 0.000000
0.514689 0.763784 0.000000
0.637156 0.766396 0.000000
0.750391 0.769005 0.000000
0.856837 0.771609 0.000000
0.957984 0.774210 0.000000
1.000000 0.776808 0.000000
0.000000 0.859489 0.000000
0.209717 0.861975 0.000000
0.373197 0.864458 0.000000
0.510175 0.866938 0.000000
0.633031 0.869415 0.000000
0.746541 0.871889 0.000000
0.853196 0.874360 0.000000
0.954510 0.876828 0.000000
1.000000 0.879294 0.000000
0.000000 0.958045 0.000000
0.203104 0.960420 0.000000
0.368025 0.962793 0.000000
0.505644 0.965164 0.000000
0.628895 0.967532 0.000000
0.742682 0.969898 0.000000
0.849549 0.972261 0.000000
0.951031 0.974622 0.000000
1.000000 0.976980 0.000000
0.000000 1.000000 0.000000
0.196398 1.000000 0.000000
0.362822 1.000000 0.000000
0.501096 1.000000 0.000000
0.624747 1.000000 0.000000
0.738816 1.000000 0.000000
0.845895 1.000000 0.000000
0.947547 1.000000 0.000000
1.000000 1.000000 0.000000
0.000000 0.000000 0.240239
0.237488 0.000000 0.234090
0.395316 0.000000 0.227873
0.529656 0.000000 0.221584
0.650861 0.004882 0.215219
0.763198 0.019887 0.208774
0.868957 0.030832 0.202245
0.969554 0.040316 0.195625
1.000000 0.048936 0.188910
0.000000 0.226883 0.237398
0.231218 0.231218 0.231218
0.390269 0.235519 0.224968
0.525196 0.239787 0.218644
0.646773 0.244024 0.212243
0.759375 0.248230 0.205759
0.865338 0.252406 0.199188
0.966098 0.256553 0.192525
1.000000 0.260673 0.185764
0.000000 0.383174 0.234542
0.224875 0.386659 0.228330
0.385194 0.390132 0.222046
0.520721 0.393592 0.215687
0.642674 0.397039 0.209248
0.755544 0.400473 0.202725
0.861712 0.403895 0.196112
0.962636 0.407305 0.189404
1.000000 0.410703 0.182595
0.000000 0.515741 0.231672
0.218457 0.518820 0.225427
0.380090 0.521891 0.219109
0.516229 0.524955 0.212713
0.638564 0.528011 0.206235
0.751705 0.531060 0.199671
0.858080 0.534101 0.193015
0.959170 0.537135 0.186261
1.000000 0.540162 0.179403
0.000000 0.635185 0.228786
0.211958 0.638007 0.222508
0.374958 0.640824 0.216154
0.511720 0.643635 0.209721
0.634443 0.646441 0.203204
0.747858 0.649243 0.196598
0.854442 0.652039 0.189897
0.955698 0.654830 0.183096
1.000000 0.657616 0.176187
0.000000 0.745809 0.225885
0.205375 0.748447 0.219573
0.369796 0.751081 0.213183
0.507195 0.753712 0.206711
0.630310 0.756339 0.200154
0.744002 0.758962 0.193505
0.850797 0.761581 0.186758
0.952221 0.764196 0.179908
1.000000 0.766807 0.172946
0.000000 0.849908 0.222969
0.198701 0.852406 0.216621
0.364604 0.854900 0.210194
0.502653 0.857392 0.203683
0.626166 0.859881 0.197084
0.740138 0.862366 0.190390
0.847145 0.864849 0.183596
0.948738 0.867328 0.176695
1.000000 0.869805 0.169679
0.000000 0.948894 0.220036
0.191932 0.951279 0.213652
0.359380 0.953662 0.207187
0.498093 0.956042 0.200636
0.622011 0.958419 0.193994
0.736266 0.960794 0.187254
0.843487 0.963167 0.180412
0.945251 0.965537 0.173458
1.000000 0.967905 0.166385
0.000000 1.000000 0.217087
0.185062 1.000000 0.210666
0.354125 1.000000 0.204162
0.493516 1.000000 0.197569
0.617844 1.000000 0.190883
0.732385 1.000000 0.184096
0.839822 1.000000 0.177203
0.941757 1.000000 0.170196
1.000000 1.000000 0.163065
0.000000 0.000000 0.391414
0.227052 0.000000 0.386419
0.386932 0.000000 0.381396
0.522253 0.000000 0.376346
0.644077 0.000000 0.371267
0.756855 0.000000 0.366159
0.862953 0.000000 0.361021
0.963820 0.000000 0.355851
1.000000 0.007953 0.350650
0.000000 0.209888 0.389102
0.220660 0.214365 0.384094
0.381838 0.218803 0.379059
0.517766 0.223204 0.373996
0.639970 0.227568 0.368903
0.753019 0.231897 0.363781
0.859323 0.236193 0.358629
0.960356 0.240456 0.353445
1.000000 0.244688 0.348229
0.000000 0.369653 0.386785
0.214189 0.373192 0.381764
0.376716 0.376716 0.376716
0.513263 0.380227 0.371639
0.635853 0.383724 0.366533
0.749174 0.387207 0.361397
0.855686 0.390678 0.356230
0.956886 0.394135 0.351031
1.000000 0.397580 0.345800
0.000000 0.503838 0.384461
0.207635 0.506947 0.379428
0.371564 0.510048 0.374367
0.508744 0.513141 0.369276
0.631724 0.516227 0.364157
0.745322 0.519304 0.359006
0.852044 0.522374 0.353825
0.953410 0.525437 0.348611
1.000000 0.528492 0.343364
0.000000 0.624293 0.382132
0.200993 0.627135 0.377086
0.366382 0.629972 0.372011
0.504208 0.632804 0.366907
0.627584 0.635630 0.361773
0.741460 0.638451 0.356609
0.848394 0.641267 0.351412
0.949930 0.644078 0.346184
1.000000 0.646883 0.340921
0.000000 0.735634 0.379797
0.194258 0.738288 0.374737
0.361170 0.740937 0.369649
0.499654 0.743583 0.364532
0.623433 0.746225 0.359383
0.737591 0.748862 0.354204
0.844738 0.751496 0.348993
0.946444 0.754126 0.343749
1.000000 0.756752 0.338471
0.000000 0.840282 0.377455
0.187422 0.842791 0.372383
0.355925 0.845298 0.367281
0.495083 0.847801 0.362149
0.619270 0.850302 0.356987
0.733713 0.852799 0.351793
0.841076 0.855293 0.346567
0.942952 0.857784 0.341307
1.000000 0.860272 0.336013
0.000000 0.939706 0.375108
0.180481 0.942101 0.370022
0.350648 0.944493 0.364906
0.490494 0.946883 0.359761
0.615095 0.949270 0.354584
0.729826 0.951655 0.349375
0.837406 0.954037 0.344133
0.939455 0.956416 0.338858
1.000000 0.958794 0.333548
0.000000 1.000000 0.372754
0.173425 1.000000 0.367655
0.345337 1.000000 0.362525
0.485887 1.000000 0.357365
0.610908 1.000000 0.352174
0.725931 1.000000 0.346950
0.833730 1.000000 0.341692
0.935953 1.000000 0.336401
1.000000 1.000000 0.331074
0.000000 0.000000 0.520768
0.216410 0.000000 0.516341
0.378470 0.000000 0.511899
0.514805 0.000000 0.507440
0.637262 0.000000 0.502964
0.750489 0.000000 0.498472
0.856930 0.000000 0.493963
0.958072 0.000000 0.489437
1.000000 0.000000 0.484892
0.000000 0.192294 0.518718
0.209885 0.196936 0.514284
0.373329 0.201532 0.509834
0.510291 0.206085 0.505368
0.633137 0.210596 0.500885
0.746640 0.215067 0.496385
0.853290 0.219499 0.491867
0.954599 0.223893 0.487333
1.000000 0.228252 0.482780
0.000000 0.355922 0.516665
0.203274 0.359517 0.512224
0.368157 0.363096 0.507766
0.505760 0.366661 0.503292
0.629001 0.370212 0.498801
0.742781 0.373748 0.494293
0.849643 0.377270 0.489768
0.951120 0.380778 0.485225
1.000000 0.384273 0.480664
0.000000 0.491816 0.514609
0.196571 0.494956 0.510160
0.362955 0.498089 0.505694
0.501213 0.501213 0.501213
0.624853 0.504328 0.496714
0.738915 0.507436 0.492198
0.845989 0.510536 0.487665
0.947636 0.513628 0.483113
1.000000 0.516712 0.478544
0.000000 0.613321 0.512549
0.189771 0.616184 0.508092
0.357722 0.619042 0.503619
0.496648 0.621894 0.499130
0.620694 0.624741 0.494623
0.735040 0.627583 0.490099
0.842329 0.630419 0.485557
0.944146 0.633249 0.480998
1.000000 0.636075 0.476420
0.000000 0.725401 0.510485
0.182866 0.728070 0.506021
0.352456 0.730735 0.501541
0.492065 0.733396 0.497043
0.616523 0.736053 0.492528
0.731156 0.738706 0.487996
0.838661 0.741354 0.483447
0.940651 0.743999 0.478879
1.000000 0.746640 0.474292
0.000000 0.830609 0.508418
0.175851 0.833131 0.503947
0.347156 0.835649 0.499458
0.487464 0.838165 0.494953
0.612341 0.840677 0.490430
0.727263 0.843186 0.485890
0.834988 0.845692 0.481332
0.937151 0.848195 0.476755
1.000000 0.850695 0.472160
0.000000 0.930481 0.506348
0.168716 0.932885 0.501869
0.341823 0.935287 0.497372
0.482845 0.937687 0.492859
0.608146 0.940084 0.488328
0.723362 0.942478 0.483780
0.831307 0.944870 0.479213
0.933645 0.947259 0.474628
1.000000 0.949646 0.470024
0.000000 1.000000 0.504274
0.161451 1.000000 0.499787
0.336454 1.000000 0.495283
0.478207 1.000000 0.490761
0.603939 1.000000 0.486222
0.719452 1.000000 0.481665
0.827620 1.000000 0.477090
0.930134 1.000000 0.472497
1.000000 1.000000 0.467884
0.000000 0.000000 0.637719
0.205544 0.000000 0.633655
0.369929 0.000000 0.629580
0.507311 0.000000 0.625495
0.630416 0.000000 0.621398
0.744101 0.000000 0.617289
0.850890 0.000000 0.613169
0.952310 0.000000 0.609038
1.000000 0.000000 0.604894
0.000000 0.173995 0.635837
0.198873 0.178832 0.631768
0.364737 0.183615 0.627688
0.502769 0.188346 0.623597
0.626273 0.193028 0.619495
0.740238 0.197663 0.615381
0.847239 0.202252 0.611256
0.948828 0.206798 0.607119
1.000000 0.211303 0.602970
0.000000 0.341964 0.633952
0.192107 0.345619 0.629878
0.359514 0.349258 0.625793
0.498210 0.352882 0.621697
0.622118 0.356489 0.617590
0.736365 0.360081 0.613471
0.843581 0.363659 0.609340
0.945340 0.367221 0.605197
1.000000 0.370769 0.601043
0.000000 0.479669 0.632065
0.185239 0.482842 0.627986
0.354260 0.486007 0.623896
0.493634 0.489163 0.619795
0.617951 0.492311 0.615682
0.732484 0.495450 0.611558
0.839916 0.498581 0.607422
0.941847 0.501704 0.603274
1.000000 0.504819 0.599114
0.000000 0.602265 0.630176
0.178262 0.605150 0.626092
0.348972 0.608030 0.621997
0.489039 0.610904 0.617890
0.613772 0.613772 0.613772
0.728595 0.616635 0.609642
0.836244 0.619492 0.605501
0.938348 0.622343 0.601347
1.000000 0.625189 0.597181
0.000000 0.715106 0.628285
0.171169 0.717791 0.624196
0.343650 0.720472 0.620095
0.484426 0.723149 0.615983
0.609581 0.725821 0.611859
0.724697 0.728490 0.607724
0.832566 0.731154 0.603577
0.934844 0.733814 0.599418
1.000000 0.736471 0.595247
0.000000 0.820888 0.626391
0.163950 0.823423 0.622296
0.338294 0.825954 0.618191
0.479795 0.828482 0.614073
0.605378 0.831006 0.609944
0.720790 0.833528 0.605803
0.828881 0.836046 0.601651
0.931335 0.838561 0.597486
1.000000 0.841073 0.593309
0.000000 0.921216 0.624495
0.156595 0.923631 0.620395
0.332901 0.926043 0.616284
0.475145 0.928453 0.612161
0.601163 0.930859 0.608027
0.716874 0.933264 0.603880
0.825189 0.935665 0.599722
0.927820 0.938065 0.595552
1.000000 0.940461 0.591369
0.000000 1.000000 0.622596
0.149091 1.000000 0.618491
0.327472 1.000000 0.614374
0.470475 1.000000 0.610246
0.596936 1.000000 0.606106
0.712949 1.000000 0.601955
0.821490 1.000000 0.597791
0.924299 1.000000 0.593615
1.000000 1.000000 0.589426
0.000000 0.000000 0.746235
0.194431 0.000000 0.742432
0.361304 0.000000 0.738620
0.499771 0.000000 0.734801
0.623539 0.000000 0.730973
0.737690 0.000000 0.727137
0.844832 0.000000 0.723292
0.946533 0.000000 0.719438
1.000000 0.000000 0.715576
0.000000 0.154847 0.744473
0.187599 0.159922 0.740666
0.356060 0.164930 0.736851
0.495200 0.169875 0.733028
0.619376 0.174760 0.729196
0.733812 0.179589 0.725356
0.841170 0.184364 0.721507
0.943042 0.189087 0.717649
1.000000 0.193761 0.713783
0.000000 0.327763 0.742710
0.180660 0.331483 0.738899
0.350783 0.335186 0.735080
0.490612 0.338872 0.731253
0.615202 0.342541 0.727417
0.729926 0.346194 0.723573
0.837500 0.349830 0.719720
0.939545 0.353451 0.715858
1.000000 0.357056 0.711988
0.000000 0.467391 0.740945
0.173608 0.470599 0.737130
0.345473 0.473798 0.733307
0.486005 0.476988 0.729476
0.611015 0.480169 0.725637
0.726030 0.483341 0.721788
0.833824 0.486505 0.717931
0.936043 0.489660 0.714066
1.000000 0.492806 0.710191
0.000000 0.591123 0.739178
0.166433 0.594031 0.735360
0.340129 0.596933 0.731533
0.481380 0.599829 0.727698
0.606817 0.602720 0.723854
0.722126 0.605604 0.720002
0.830142 0.608483 0.716141
0.932535 0.611356 0.712271
1.000000 0.614223 0.708393
0.000000 0.704748 0.737409
0.159125 0.707450 0.733587
0.334749 0.710147 0.729756
0.476737 0.712840 0.725917
0.602606 0.715529 0.722070
0.718213 0.718213 0.718213
0.826452 0.720894 0.714348
0.929022 0.723570 0.710475
1.000000 0.726242 0.706592
0.000000 0.811119 0.735639
0.151674 0.813666 0.731813
0.329332 0.816210 0.727978
0.472074 0.818751 0.724135
0.598383 0.821288 0.720284
0.714292 0.823822 0.716423
0.822755 0.826352 0.712554
0.925503 0.828879 0.708676
1.000000 0.831404 0.704790
0.000000 0.911913 0.733866
0.144066 0.914338 0.730037
0.323878 0.916760 0.726198
0.467392 0.919180 0.722351
0.594147 0.921597 0.718495
0.710361 0.924011 0.714631
0.819052 0.926423 0.710758
0.921979 0.928832 0.706876
1.000000 0.931238 0.702985
0.000000 1.000000 0.732092
0.136285 1.000000 0.728259
0.318385 1.000000 0.724416
0.462690 1.000000 0.720565
0.589898 1.000000 0.716706
0.706420 1.000000 0.712837
0.815341 1.000000 0.708960
0.918448 1.000000 0.705074
1.000000 1.000000 0.701179
0.000000 0.000000 0.848471
0.183045 0.000000 0.844868
0.352591 0.000000 0.841259
0.492182 0.000000 0.837643
0.616630 0.000000 0.834021
0.731255 0.000000 0.830392
0.838755 0.000000 0.826756
0.940741 0.000000 0.823114
1.000000 0.000000 0.819465
0.000000 0.134645 0.846802
0.176032 0.140019 0.843196
0.347292 0.145307 0.839584
0.487582 0.150516 0.835965
0.612448 0.155651 0.832340
0.727363 0.160715 0.828708
0.835082 0.165713 0.825069
0.937241 0.170648 0.821423
1.000000 0.175524 0.817771
0.000000 0.313298 0.845132
0.168900 0.317089 0.841523
0.341960 0.320861 0.837907
0.482964 0.324615 0.834286
0.608253 0.328350 0.830657
0.723462 0.332068 0.827022
0.831401 0.335768 0.823380
0.933735 0.339451 0.819731
1.000000 0.343117 0.816076
0.000000 0.454976 0.843460
0.161639 0.458221 0.839848
0.336592 0.461455 0.836230
0.478326 0.464681 0.832605
0.604047 0.467897 0.828973
0.719552 0.471104 0.825335
0.827714 0.474301 0.821690
0.930224 0.477490 0.818038
1.000000 0.480669 0.814379
0.000000 0.579893 0.841787
0.154238 0.582824 0.838172
0.331188 0.585749 0.834550
0.473670 0.588669 0.830922
0.599828 0.591582 0.827288
0.715633 0.594489 0.823646
0.824020 0.597390 0.819998
0.926707 0.600285 0.816343
1.000000 0.603174 0.812681
0.000000 0.694326 0.840112
0.146685 0.697045 0.836494
0.325747 0.699759 0.832870
0.468995 0.702469 0.829239
0.595596 0.705174 0.825601
0.711706 0.707875 0.821956
0.820319 0.710572 0.818305
0.923184 0.713264 0.814647
1.000000 0.715952 0.810982
0.000000 0.801301 0.838436
0.138965 0.803861 0.834815
0.320267 0.806417 0.831188
0.464300 0.808971 0.827554
0.591352 0.811521 0.823913
0.707769 0.814067 0.820265
0.816611 0.816611 0.816611
0.919656 0.819150 0.812949
1.000000 0.821687 0.809281
0.000000 0.902569 0.836759
0.131061 0.905004 0.833135
0.314748 0.907437 0.829504
0.459584 0.909867 0.825867
0.587095 0.912295 0.822223
0.703822 0.914719 0.818572
0.812895 0.917141 0.814914
0.916122 0.919561 0.811250
1.000000 0.921977 0.807578
0.000000 0.999265 0.835080
0.122951 1.000000 0.831453
0.309188 1.000000 0.827819
0.454849 1.000000 0.824179
0.582825 1.000000 0.820532
0.699867 1.000000 0.816878
0.809173 1.000000 0.813217
0.912582 1.000000 0.809549
1.000000 1.000000 0.805874
0.000000 0.000000 0.945764
0.171352 0.000000 0.942322
0.343787 0.000000 0.938875
0.484545 0.000000 0.935422
0.609689 0.000000 0.931965
0.724797 0.000000 0.928501
0.832660 0.000000 0.925033
0.934934 0.000000 0.921559
1.000000 0.000000 0.918079
0.000000 0.113074 0.944169
0.164136 0.118844 0.940725
0.338431 0.124498 0.937275
0.479914 0.130046 0.933820
0.605486 0.135497 0.930360
0.720890 0.140857 0.926895
0.828975 0.146133 0.923423
0.931425 0.151330 0.919947
1.000000 0.156453 0.916465
0.000000 0.298548 0.942573
0.156785 0.302415 0.939127
0.333040 0.306263 0.935675
0.475264 0.310090 0.932217
0.601271 0.313897 0.928755
0.716974 0.317685 0.925286
0.825284 0.321454 0.921813
0.927910 0.325204 0.918334
1.000000 0.328937 0.914849
0.000000 0.442417 0.940977
0.149285 0.445700 0.937528
0.327611 0.448973 0.934073
0.470595 0.452235 0.930613
0.597044 0.455488 0.927148
0.713049 0.458731 0.923677
0.821585 0.461964 0.920201
0.924389 0.465188 0.916719
1.000000 0.468403 0.913232
0.000000 0.568570 0.939379
0.141624 0.571526 0.935927
0.322145 0.574475 0.932470
0.465907 0.577418 0.929008
0.592804 0.580355 0.925540
0.709115 0.583285 0.922067
0.817879 0.586210 0.918588
0.920863 0.589128 0.915104
1.000000 0.592040 0.911614
0.000000 0.683839 0.937780
0.133785 0.686574 0.934326
0.316639 0.689306 0.930866
0.461199 0.692033 0.927401
0.588552 0.694755 0.923931
0.705172 0.697473 0.920455
0.814166 0.700186 0.916974
0.917331 0.702895 0.913487
1.000000 0.705600 0.909994
0.000000 0.791431 0.936179
0.125748 0.794005 0.932723
0.311093 0.796575 0.929261
0.456470 0.799141 0.925794
0.584286 0.801704 0.922321
0.701220 0.804264 0.918842
0.810446 0.806820 0.915358
0.913793 0.809373 0.911869
1.000000 0.811922 0.908374
0.000000 0.893184 0.934578
0.117488 0.895631 0.931119
0.305505 0.898074 0.927655
0.451721 0.900515 0.924185
0.580008 0.902953 0.920709
0.697258 0.905388 0.917228
0.806719 0.907820 0.913742
0.910250 0.910250 0.910250
1.000000 0.912677 0.906752
0.000000 0.990275 0.932976
0.108977 0.992618 0.929514
0.299874 0.994958 0.926047
0.446951 0.997297 0.922575
0.575716 0.999632 0.919097
0.693287 1.000000 0.915613
0.802985 1.000000 0.912124
0.906701 1.000000 0.908629
1.000000 1.000000 0.905129
0.000000 0.000000 1.000000
0.159314 0.000000 1.000000
0.334887 0.000000 1.000000
0.476856 0.000000 1.000000
0.602714 0.000000 1.000000
0.718314 0.000000 1.000000
0.826547 0.000000 1.000000
0.929112 0.000000 1.000000
1.000000 0.000000 1.000000
0.000000 0.089600 1.000000
0.151867 0.095937 1.000000
0.329471 0.102103 1.000000
0.472194 0.108115 1.000000
0.598491 0.113991 1.000000
0.714392 0.119742 1.000000
0.822850 0.125379 1.000000
0.925593 0.130911 1.000000
1.000000 0.136347 1.000000
0.000000 0.283484 1.000000
0.144263 0.287436 1.000000
0.324018 0.291365 1.000000
0.467512 0.295273 1.000000
0.594255 0.299158 1.000000
0.710461 0.303023 1.000000
0.819147 0.306867 1.000000
0.922069 0.310691 1.000000
1.000000 0.314495 1.000000
0.000000 0.429707 1.000000
0.136486 0.433030 1.000000
0.318526 0.436342 1.000000
0.462811 0.439644 1.000000
0.590007 0.442935 1.000000
0.706522 0.446216 1.000000
0.815436 0.449487 1.000000
0.918539 0.452748 1.000000
1.000000 0.455999 1.000000
0.000000 0.557152 1.000000
0.128519 0.560133 1.000000
0.312994 0.563107 1.000000
0.458089 0.566075 1.000000
0.585746 0.569036 1.000000
0.702572 0.571991 1.000000
0.811719 0.574939 1.000000
0.915003 0.577881 1.000000
1.000000 0.580817 1.000000
0.000000 0.673283 1.000000
0.120339 0.676036 1.000000
0.307420 0.678786 1.000000
0.453347 0.681530 1.000000
0.581472 0.684270 1.000000
0.698614 0.687005 1.000000
0.807994 0.689736 1.000000
0.911462 0.692462 1.000000
1.000000 0.695183 1.000000
0.000000 0.781510 1.000000
0.111918 0.784097 1.000000
0.301804 0.786680 1.000000
0.448584 0.789260 1.000000
0.577184 0.791837 1.000000
0.694646 0.794410 1.000000
0.804262 0.796979 1.000000
0.907915 0.799545 1.000000
1.000000 0.802107 1.000000
0.000000 0.883758 1.000000
0.103221 0.886215 1.000000
0.296144 0.888670 1.000000
0.443799 0.891121 1.000000
0.572884 0.893570 1.000000
0.690669 0.896016 1.000000
0.800523 0.898459 1.000000
0.904362 0.900899 1.000000
1.000000 0.903336 1.000000
0.000000 0.981252 1.000000
0.094205 0.983604 1.000000
0.290437 0.985953 1.000000
0.438993 0.988300 1.000000
0.568569 0.990645 1.000000
0.686681 0.992987 1.000000
0.796776 0.995327 1.000000
0.900803 0.997665 1.000000
1.000000 1.000000 1.000000
