presets/film_stocks/Kodak_Duraflex_Plus.cube
# 独寻胶片模拟 -- Kodak Duraflex Plus
# , ISO 0, 2004, negative
TITLE "Kodak Duraflex Plus"
LUT_3D_SIZE 33
DOMAIN_MIN 0.0 0.0 0.0
DOMAIN_MAX 1.0 1.0 1.0
0.000000 0.000000 0.000000
0.062799 0.000000 0.005726
0.108389 0.000000 0.009883
0.149155 0.000000 0.013600
0.187075 0.000000 0.017057
0.223009 0.000000 0.020333
0.257436 0.000000 0.023472
0.290659 0.000000 0.026502
0.322884 0.000000 0.029440
0.354262 0.000000 0.032301
0.384905 0.000000 0.035095
0.414903 0.000000 0.037830
0.444326 0.000000 0.040513
0.473231 0.000000 0.043148
0.501667 0.000000 0.045741
0.529674 0.000000 0.048294
0.557286 0.000000 0.050812
0.584534 0.000000 0.053297
0.611443 0.000000 0.055750
0.638035 0.000000 0.058175
0.664332 0.000000 0.060572
0.690351 0.000000 0.062945
0.716107 0.000000 0.065293
0.741616 0.000000 0.067619
0.766889 0.000000 0.069923
0.791940 0.000000 0.072207
0.816779 0.000000 0.074472
0.841415 0.000000 0.076718
0.865858 0.000000 0.078947
0.890116 0.000000 0.081159
0.914197 0.000000 0.083354
0.938108 0.000000 0.085535
0.961855 0.000000 0.087700
0.001157 0.120840 0.000000
0.063109 0.107495 0.005349
0.108656 0.093686 0.009559
0.149401 0.079301 0.013303
0.187306 0.064169 0.016779
0.223229 0.047991 0.020068
0.257648 0.030135 0.023217
0.290864 0.008295 0.026255
0.323083 0.000000 0.029200
0.354456 0.000000 0.032067
0.385095 0.000000 0.034866
0.415089 0.000000 0.037606
0.444508 0.000000 0.040292
0.473410 0.000000 0.042932
0.501844 0.000000 0.045528
0.529848 0.000000 0.048085
0.557458 0.000000 0.050605
0.584704 0.000000 0.053092
0.611610 0.000000 0.055548
0.638201 0.000000 0.057975
0.664496 0.000000 0.060375
0.690513 0.000000 0.062749
0.716268 0.000000 0.065100
0.741775 0.000000 0.067427
0.767047 0.000000 0.069733
0.792097 0.000000 0.072019
0.816934 0.000000 0.074285
0.841569 0.000000 0.076533
0.866011 0.000000 0.078763
0.890268 0.000000 0.080976
0.914348 0.000000 0.083173
0.938257 0.000000 0.085355
0.962004 0.000000 0.087521
0.001998 0.208566 0.000000
0.063418 0.197140 0.004966
0.108923 0.185533 0.009233
0.149646 0.173726 0.013005
0.187536 0.161699 0.016499
0.223449 0.149424 0.019802
0.257860 0.136871 0.022961
0.291069 0.123998 0.026007
0.323283 0.110753 0.028959
0.354650 0.097064 0.031832
0.385285 0.082831 0.034637
0.415275 0.067899 0.037381
0.444691 0.052013 0.040072
0.473590 0.034657 0.042715
0.502020 0.014317 0.045315
0.530022 0.000000 0.047874
0.557630 0.000000 0.050398
0.584873 0.000000 0.052888
0.611778 0.000000 0.055346
0.638367 0.000000 0.057775
0.664660 0.000000 0.060177
0.690675 0.000000 0.062554
0.716428 0.000000 0.064906
0.741934 0.000000 0.067235
0.767205 0.000000 0.069543
0.792253 0.000000 0.071831
0.817089 0.000000 0.074099
0.841723 0.000000 0.076348
0.866163 0.000000 0.078579
0.890419 0.000000 0.080794
0.914498 0.000000 0.082992
0.938407 0.000000 0.085175
0.962152 0.000000 0.087342
0.002749 0.287010 0.000000
0.063727 0.276555 0.004574
0.109190 0.265992 0.008903
0.149891 0.255315 0.012705
0.187767 0.244515 0.016218
0.223669 0.233586 0.019534
0.258071 0.222516 0.022704
0.291274 0.211295 0.025759
0.323482 0.199912 0.028718
0.354845 0.188350 0.031597
0.385475 0.176593 0.034407
0.415461 0.164621 0.037156
0.444874 0.152408 0.039851
0.473770 0.139926 0.042498
0.502197 0.127134 0.045101
0.530197 0.113984 0.047664
0.557802 0.100411 0.050190
0.585043 0.086320 0.052683
0.611946 0.071575 0.055144
0.638533 0.055952 0.057575
0.664824 0.039025 0.059980
0.690838 0.019702 0.062358
0.716589 0.000000 0.064712
0.742093 0.000000 0.067044
0.767363 0.000000 0.069353
0.792409 0.000000 0.071642
0.817244 0.000000 0.073912
0.841877 0.000000 0.076162
0.866316 0.000000 0.078395
0.890571 0.000000 0.080611
0.914648 0.000000 0.082811
0.938556 0.000000 0.084995
0.962300 0.000000 0.087164
0.003448 0.359976 0.000000
0.064036 0.350154 0.004172
0.109457 0.340257 0.008570
0.150136 0.330281 0.012404
0.187998 0.320223 0.015935
0.223889 0.310079 0.019266
0.258283 0.299845 0.022447
0.291479 0.289516 0.025510
0.323681 0.279086 0.028476
0.355039 0.268550 0.031362
0.385665 0.257901 0.034177
0.415648 0.247131 0.036931
0.445056 0.236234 0.039630
0.473949 0.225199 0.042281
0.502374 0.214016 0.044887
0.530371 0.202673 0.047453
0.557974 0.191155 0.049983
0.585213 0.179447 0.052478
0.612113 0.167529 0.054941
0.638698 0.155377 0.057375
0.664988 0.142963 0.059782
0.691000 0.130250 0.062162
0.716750 0.117192 0.064518
0.742252 0.103727 0.066851
0.767520 0.089772 0.069163
0.792566 0.075201 0.071453
0.817399 0.059817 0.073725
0.842030 0.043264 0.075977
0.866469 0.024711 0.078211
0.890722 0.000000 0.080429
0.914799 0.000000 0.082629
0.938705 0.000000 0.084815
0.962449 0.000000 0.086985
0.004110 0.429122 0.000000
0.064344 0.419762 0.003760
0.109724 0.410345 0.008234
0.150381 0.400869 0.012100
0.188228 0.391333 0.015652
0.224109 0.381733 0.018996
0.258495 0.372068 0.022188
0.291683 0.362334 0.025260
0.323880 0.352530 0.028234
0.355233 0.342651 0.031126
0.385855 0.332694 0.033946
0.415834 0.322657 0.036705
0.445239 0.312534 0.039409
0.474129 0.302322 0.042063
0.502551 0.292016 0.044673
0.530545 0.281611 0.047242
0.558146 0.271101 0.049775
0.585382 0.260479 0.052272
0.612281 0.249740 0.054738
0.638864 0.238874 0.057175
0.665152 0.227873 0.059583
0.691162 0.216727 0.061966
0.716910 0.205423 0.064324
0.742411 0.193949 0.066659
0.767678 0.182289 0.068972
0.792722 0.170424 0.071265
0.817554 0.158330 0.073537
0.842184 0.145982 0.075791
0.866621 0.133345 0.078027
0.890874 0.120375 0.080246
0.914949 0.107016 0.082448
0.938855 0.093188 0.084634
0.962597 0.078780 0.086806
0.004745 0.495369 0.000000
0.064652 0.486369 0.003336
0.109991 0.477324 0.007894
0.150626 0.468232 0.011794
0.188459 0.459093 0.015367
0.224329 0.449904 0.018726
0.258706 0.440664 0.021929
0.291888 0.431371 0.025010
0.324079 0.422025 0.027991
0.355427 0.412621 0.030889
0.386045 0.403160 0.033715
0.416020 0.393638 0.036479
0.445422 0.384054 0.039187
0.474309 0.374405 0.041845
0.502728 0.364688 0.044459
0.530719 0.354901 0.047031
0.558317 0.345040 0.049566
0.585552 0.335102 0.052067
0.612449 0.325085 0.054535
0.639030 0.314983 0.056974
0.665316 0.304793 0.059385
0.691324 0.294510 0.061770
0.717071 0.284129 0.064130
0.742571 0.273645 0.066467
0.767836 0.263051 0.068782
0.792878 0.252341 0.071076
0.817709 0.241507 0.073350
0.842338 0.230539 0.075605
0.866774 0.219429 0.077843
0.891025 0.208164 0.080063
0.915100 0.196733 0.082266
0.939004 0.185119 0.084454
0.962745 0.173305 0.086627
0.005357 0.559297 0.000000
0.064959 0.550590 0.002896
0.110257 0.541846 0.007550
0.150871 0.533064 0.011486
0.188689 0.524243 0.015080
0.224549 0.515381 0.018455
0.258918 0.506478 0.021669
0.292093 0.497532 0.024759
0.324278 0.488543 0.027748
0.355621 0.479509 0.030652
0.386235 0.470429 0.033484
0.416206 0.461301 0.036252
0.445605 0.452124 0.038965
0.474488 0.442897 0.041627
0.502905 0.433617 0.044244
0.530893 0.424284 0.046820
0.558489 0.414894 0.049358
0.585722 0.405447 0.051861
0.612616 0.395940 0.054332
0.639196 0.386371 0.056773
0.665480 0.376738 0.059187
0.691486 0.367038 0.061573
0.717232 0.357268 0.063935
0.742730 0.347425 0.066274
0.767993 0.337506 0.068591
0.793035 0.327508 0.070887
0.817864 0.317427 0.073162
0.842492 0.307259 0.075419
0.866927 0.296999 0.077658
0.891177 0.286642 0.079880
0.915250 0.276183 0.082085
0.939153 0.265617 0.084274
0.962894 0.254935 0.086447
0.005951 0.621306 0.000000
0.065266 0.612845 0.002437
0.110523 0.604353 0.007201
0.151115 0.595828 0.011175
0.188919 0.587270 0.014792
0.224769 0.578679 0.018182
0.259129 0.570053 0.021408
0.292298 0.561391 0.024507
0.324477 0.552694 0.027504
0.355815 0.543959 0.030415
0.386424 0.535186 0.033252
0.416392 0.526374 0.036025
0.445787 0.517522 0.038742
0.474668 0.508629 0.041408
0.503081 0.499694 0.044029
0.531068 0.490715 0.046608
0.558661 0.481692 0.049149
0.585891 0.472623 0.051655
0.612784 0.463507 0.054129
0.639361 0.454342 0.056573
0.665644 0.445127 0.058988
0.691649 0.435860 0.061377
0.717392 0.426540 0.063741
0.742889 0.417164 0.066082
0.768151 0.407731 0.068400
0.793191 0.398239 0.070697
0.818019 0.388685 0.072975
0.842646 0.379067 0.075233
0.867079 0.369383 0.077473
0.891328 0.359630 0.079696
0.915400 0.349805 0.081903
0.939303 0.339905 0.084093
0.963042 0.329927 0.086268
0.006529 0.681684 0.000000
0.065573 0.673434 0.001953
0.110789 0.665157 0.006848
0.151360 0.656852 0.010863
0.189150 0.648519 0.014503
0.224988 0.640156 0.017908
0.259341 0.631764 0.021146
0.292502 0.623342 0.024255
0.324676 0.614888 0.027259
0.356009 0.606404 0.030177
0.386614 0.597887 0.033020
0.416578 0.589337 0.035798
0.445970 0.580754 0.038519
0.474847 0.572136 0.041189
0.503258 0.563483 0.043814
0.531242 0.554794 0.046396
0.558833 0.546069 0.048940
0.586061 0.537305 0.051449
0.612951 0.528503 0.053925
0.639527 0.519660 0.056371
0.665808 0.510777 0.058789
0.691811 0.501852 0.061180
0.717553 0.492884 0.063546
0.743048 0.483872 0.065889
0.768309 0.474814 0.068209
0.793347 0.465710 0.070508
0.818174 0.456557 0.072787
0.842799 0.447354 0.075047
0.867232 0.438100 0.077289
0.891480 0.428792 0.079513
0.915551 0.419430 0.081721
0.939452 0.410011 0.083912
0.963190 0.400533 0.086089
0.007094 0.740649 0.000000
0.065879 0.732584 0.001435
0.111055 0.724494 0.006490
0.151604 0.716380 0.010548
0.189380 0.708241 0.014211
0.225208 0.700076 0.017633
0.259552 0.691886 0.020884
0.292707 0.683669 0.024002
0.324875 0.675426 0.027014
0.356203 0.667156 0.029938
0.386804 0.658857 0.032787
0.416764 0.650531 0.035570
0.446152 0.642175 0.038296
0.475027 0.633791 0.040970
0.503435 0.625376 0.043598
0.531416 0.616930 0.046184
0.559005 0.608453 0.048731
0.586231 0.599944 0.051243
0.613119 0.591402 0.053722
0.639693 0.582827 0.056170
0.665971 0.574218 0.058590
0.691973 0.565573 0.060983
0.717713 0.556893 0.063351
0.743207 0.548176 0.065696
0.768466 0.539422 0.068018
0.793504 0.530629 0.070319
0.818329 0.521796 0.072599
0.842953 0.512923 0.074861
0.867384 0.504009 0.077104
0.891631 0.495051 0.079330
0.915701 0.486050 0.081539
0.939601 0.477003 0.083732
0.963339 0.467910 0.085909
0.007647 0.798372 0.000000
0.066185 0.790469 0.000857
0.111321 0.782545 0.006126
0.151848 0.774599 0.010230
0.189610 0.766631 0.013919
0.225427 0.758640 0.017357
0.259763 0.750627 0.020620
0.292911 0.742591 0.023748
0.325074 0.734531 0.026769
0.356397 0.726447 0.029699
0.386994 0.718339 0.032554
0.416950 0.710206 0.035342
0.446335 0.702047 0.038073
0.475206 0.693863 0.040751
0.503611 0.685653 0.043382
0.531590 0.677417 0.045971
0.559177 0.669153 0.048522
0.586400 0.660861 0.051036
0.613287 0.652542 0.053518
0.639858 0.644193 0.055969
0.666135 0.635815 0.058391
0.692135 0.627408 0.060786
0.717874 0.618970 0.063156
0.743366 0.610500 0.065503
0.768624 0.601999 0.067826
0.793660 0.593465 0.070129
0.818484 0.584898 0.072411
0.843107 0.576297 0.074674
0.867537 0.567661 0.076919
0.891783 0.558990 0.079146
0.915851 0.550282 0.081356
0.939751 0.541537 0.083551
0.963487 0.532753 0.085729
0.008189 0.854988 0.000000
0.066490 0.847231 0.000114
0.111586 0.839455 0.005757
0.152093 0.831659 0.009910
0.189840 0.823843 0.013624
0.225647 0.816007 0.017080
0.259975 0.808151 0.020356
0.293116 0.800275 0.023494
0.325273 0.792377 0.026522
0.356591 0.784458 0.029460
0.387184 0.776517 0.032320
0.417136 0.768555 0.035114
0.446517 0.760570 0.037849
0.475386 0.752562 0.040531
0.503788 0.744531 0.043166
0.531764 0.736477 0.045759
0.559348 0.728399 0.048312
0.586570 0.720296 0.050829
0.613454 0.712169 0.053314
0.640024 0.704017 0.055767
0.666299 0.695839 0.058191
0.692297 0.687636 0.060589
0.718035 0.679405 0.062961
0.743525 0.671148 0.065309
0.768782 0.662863 0.067635
0.793816 0.654551 0.069939
0.818639 0.646209 0.072223
0.843261 0.637838 0.074488
0.867689 0.629438 0.076734
0.891934 0.621007 0.078962
0.916002 0.612546 0.081174
0.939900 0.604052 0.083370
0.963635 0.595526 0.085550
0.008722 0.910609 0.000000
0.066795 0.902983 0.000000
0.111852 0.895340 0.005381
0.152337 0.887680 0.009586
0.190070 0.880001 0.013328
0.225866 0.872305 0.016802
0.260186 0.864590 0.020090
0.293320 0.856856 0.023239
0.325471 0.849103 0.026275
0.356785 0.841332 0.029220
0.387373 0.833541 0.032086
0.417322 0.825730 0.034885
0.446700 0.817899 0.037624
0.475565 0.810048 0.040311
0.503965 0.802176 0.042950
0.531938 0.794283 0.045546
0.559520 0.786370 0.048102
0.586739 0.778434 0.050622
0.613622 0.770477 0.053109
0.640190 0.762497 0.055565
0.666463 0.754495 0.057992
0.692460 0.746470 0.060391
0.718195 0.738421 0.062766
0.743684 0.730349 0.065116
0.768939 0.722253 0.067443
0.793972 0.714132 0.069749
0.818794 0.705985 0.072035
0.843414 0.697814 0.074301
0.867842 0.689617 0.076549
0.892085 0.681393 0.078779
0.916152 0.673142 0.080992
0.940049 0.664864 0.083189
0.963784 0.656558 0.085370
0.009246 0.965326 0.000000
0.067100 0.957820 0.000000
0.112117 0.950299 0.004998
0.152581 0.942761 0.009260
0.190300 0.935207 0.013030
0.226086 0.927636 0.016522
0.260397 0.920049 0.019824
0.293525 0.912445 0.022983
0.325670 0.904824 0.026028
0.356979 0.897185 0.028979
0.387563 0.889529 0.031852
0.417507 0.881855 0.034656
0.446883 0.874162 0.037400
0.475745 0.866452 0.040090
0.504142 0.858723 0.042733
0.532113 0.850975 0.045332
0.559692 0.843208 0.047892
0.586909 0.835421 0.050415
0.613789 0.827615 0.052905
0.640355 0.819789 0.055363
0.666627 0.811943 0.057792
0.692622 0.804076 0.060194
0.718356 0.796189 0.062570
0.743843 0.788280 0.064922
0.769097 0.780350 0.067252
0.794129 0.772398 0.069559
0.818949 0.764424 0.071846
0.843568 0.756427 0.074114
0.867995 0.748407 0.076363
0.892237 0.740364 0.078595
0.916302 0.732298 0.080809
0.940199 0.724207 0.083007
0.963932 0.716092 0.085190
0.009762 1.000000 0.000000
0.067404 1.000000 0.000000
0.112382 1.000000 0.004607
0.152825 0.996986 0.008931
0.190529 0.989546 0.012731
0.226305 0.982091 0.016241
0.260608 0.974620 0.019557
0.293729 0.967134 0.022726
0.325869 0.959632 0.025780
0.357173 0.952114 0.028738
0.387753 0.944580 0.031617
0.417693 0.937030 0.034426
0.447065 0.929464 0.037175
0.475924 0.921881 0.039870
0.504318 0.914280 0.042516
0.532287 0.906663 0.045119
0.559864 0.899029 0.047682
0.587078 0.891377 0.050208
0.613957 0.883707 0.052700
0.640521 0.876019 0.055161
0.666791 0.868313 0.057592
0.692784 0.860588 0.059996
0.718516 0.852845 0.062374
0.744002 0.845083 0.064728
0.769255 0.837301 0.067060
0.794285 0.829500 0.069369
0.819104 0.821678 0.071658
0.843722 0.813837 0.073927
0.868147 0.805975 0.076178
0.892388 0.798093 0.078411
0.916453 0.790189 0.080627
0.940348 0.782264 0.082826
0.964080 0.774318 0.085010
0.010271 1.000000 0.000000
0.067708 1.000000 0.000000
0.112647 1.000000 0.004206
0.153068 1.000000 0.008598
0.190759 1.000000 0.012429
0.226524 1.000000 0.015959
0.260819 1.000000 0.019288
0.293934 1.000000 0.022468
0.326068 1.000000 0.025531
0.357367 1.000000 0.028497
0.387942 0.998778 0.031381
0.417879 0.991342 0.034196
0.447247 0.983890 0.036950
0.476104 0.976423 0.039649
0.504495 0.968941 0.042299
0.532461 0.961443 0.044905
0.560035 0.953929 0.047471
0.587248 0.946399 0.050000
0.614124 0.938853 0.052495
0.640686 0.931290 0.054958
0.666954 0.923711 0.057392
0.692946 0.916115 0.059798
0.718677 0.908502 0.062178
0.744161 0.900871 0.064534
0.769412 0.893224 0.066867
0.794441 0.885558 0.069179
0.819259 0.877875 0.071469
0.843876 0.870173 0.073740
0.868300 0.862453 0.075992
0.892540 0.854714 0.078227
0.916603 0.846956 0.080444
0.940497 0.839179 0.082645
0.964229 0.831383 0.084830
0.010773 1.000000 0.000000
0.068012 1.000000 0.000000
0.112911 1.000000 0.003795
0.153312 1.000000 0.008262
0.190989 1.000000 0.012125
0.226744 1.000000 0.015676
0.261030 1.000000 0.019019
0.294138 1.000000 0.022210
0.326266 1.000000 0.025281
0.357561 1.000000 0.028254
0.388132 1.000000 0.031145
0.418065 1.000000 0.033966
0.447430 1.000000 0.036724
0.476283 1.000000 0.039427
0.504671 1.000000 0.042081
0.532635 1.000000 0.044691
0.560207 1.000000 0.047260
0.587417 1.000000 0.049792
0.614292 0.993137 0.052290
0.640852 0.985689 0.054755
0.667118 0.978225 0.057192
0.693108 0.970746 0.059600
0.718837 0.963252 0.061982
0.744320 0.955742 0.064340
0.769570 0.948216 0.066675
0.794597 0.940674 0.068988
0.819414 0.933115 0.071280
0.844029 0.925540 0.073553
0.868452 0.917948 0.075807
0.892691 0.910339 0.078042
0.916753 0.902713 0.080261
0.940647 0.895070 0.082463
0.964377 0.887408 0.084649
0.011269 1.000000 0.000000
0.068315 1.000000 0.000000
0.113176 1.000000 0.003372
0.153556 1.000000 0.007922
0.191218 1.000000 0.011819
0.226963 1.000000 0.015391
0.261241 1.000000 0.018749
0.294342 1.000000 0.021951
0.326465 1.000000 0.025031
0.357755 1.000000 0.028012
0.388321 1.000000 0.030909
0.418251 1.000000 0.033735
0.447612 1.000000 0.036498
0.476462 1.000000 0.039205
0.504848 1.000000 0.041863
0.532809 1.000000 0.044477
0.560379 1.000000 0.047049
0.587587 1.000000 0.049584
0.614459 1.000000 0.052084
0.641018 1.000000 0.054552
0.667282 1.000000 0.056991
0.693270 1.000000 0.059402
0.718998 1.000000 0.061786
0.744479 1.000000 0.064146
0.769727 1.000000 0.066483
0.794754 0.994931 0.068798
0.819569 0.987486 0.071092
0.844183 0.980026 0.073366
0.868605 0.972551 0.075621
0.892842 0.965061 0.077858
0.916904 0.957555 0.080078
0.940796 0.950033 0.082281
0.964525 0.942494 0.084469
0.011759 1.000000 0.000000
0.068618 1.000000 0.000000
0.113440 1.000000 0.002933
0.153799 1.000000 0.007579
0.191448 1.000000 0.011512
0.227182 1.000000 0.015104
0.261452 1.000000 0.018477
0.294547 1.000000 0.021691
0.326664 1.000000 0.024780
0.357949 1.000000 0.027768
0.388511 1.000000 0.030672
0.418437 1.000000 0.033503
0.447795 1.000000 0.036271
0.476642 1.000000 0.038983
0.505025 1.000000 0.041645
0.532983 1.000000 0.044262
0.560550 1.000000 0.046837
0.587756 1.000000 0.049375
0.614627 1.000000 0.051878
0.641183 1.000000 0.054349
0.667446 1.000000 0.056790
0.693432 1.000000 0.059203
0.719158 1.000000 0.061590
0.744638 1.000000 0.063952
0.769885 1.000000 0.066290
0.794910 1.000000 0.068607
0.819724 1.000000 0.070902
0.844337 1.000000 0.073178
0.868757 1.000000 0.075435
0.892994 1.000000 0.077674
0.917054 1.000000 0.079895
0.940945 1.000000 0.082100
0.964673 0.996724 0.084289
0.012244 1.000000 0.000000
0.068920 1.000000 0.000000
0.113704 1.000000 0.002476
0.154042 1.000000 0.007230
0.191677 1.000000 0.011201
0.227401 1.000000 0.014816
0.261663 1.000000 0.018205
0.294751 1.000000 0.021430
0.326862 1.000000 0.024528
0.358142 1.000000 0.027524
0.388700 1.000000 0.030435
0.418622 1.000000 0.033272
0.447977 1.000000 0.036044
0.476821 1.000000 0.038761
0.505201 1.000000 0.041427
0.533157 1.000000 0.044047
0.560722 1.000000 0.046626
0.587926 1.000000 0.049167
0.614794 1.000000 0.051673
0.641349 1.000000 0.054146
0.667610 1.000000 0.056589
0.693594 1.000000 0.059005
0.719319 1.000000 0.061393
0.744797 1.000000 0.063757
0.770042 1.000000 0.066098
0.795066 1.000000 0.068416
0.819879 1.000000 0.070713
0.844490 1.000000 0.072991
0.868910 1.000000 0.075249
0.893145 1.000000 0.077489
0.917204 1.000000 0.079712
0.941094 1.000000 0.081918
0.964822 1.000000 0.084108
0.012723 1.000000 0.000000
0.069223 1.000000 0.000000
0.113969 1.000000 0.001995
0.154286 1.000000 0.006878
0.191906 1.000000 0.010889
0.227620 1.000000 0.014527
0.261874 1.000000 0.017931
0.294955 1.000000 0.021168
0.327061 1.000000 0.024276
0.358336 1.000000 0.027280
0.388890 1.000000 0.030197
0.418808 1.000000 0.033039
0.448160 1.000000 0.035817
0.477000 1.000000 0.038538
0.505378 1.000000 0.041208
0.533331 1.000000 0.043832
0.560894 1.000000 0.046414
0.588095 1.000000 0.048958
0.614961 1.000000 0.051466
0.641514 1.000000 0.053943
0.667773 1.000000 0.056388
0.693756 1.000000 0.058806
0.719479 1.000000 0.061197
0.744956 1.000000 0.063562
0.770200 1.000000 0.065905
0.795222 1.000000 0.068225
0.820034 1.000000 0.070524
0.844644 1.000000 0.072803
0.869062 1.000000 0.075063
0.893297 1.000000 0.077304
0.917355 1.000000 0.079528
0.941244 1.000000 0.081736
0.964970 1.000000 0.083927
0.013198 1.000000 0.000000
0.069524 1.000000 0.000000
0.114232 1.000000 0.001480
0.154529 1.000000 0.006520
0.192136 1.000000 0.010574
0.227839 1.000000 0.014236
0.262085 1.000000 0.017657
0.295159 1.000000 0.020906
0.327259 1.000000 0.024023
0.358530 1.000000 0.027035
0.389079 1.000000 0.029958
0.418994 1.000000 0.032807
0.448342 1.000000 0.035590
0.477180 1.000000 0.038315
0.505554 1.000000 0.040989
0.533505 1.000000 0.043616
0.561065 1.000000 0.046202
0.588265 1.000000 0.048749
0.615129 1.000000 0.051260
0.641680 1.000000 0.053739
0.667937 1.000000 0.056187
0.693918 1.000000 0.058607
0.719640 1.000000 0.061000
0.745115 1.000000 0.063368
0.770358 1.000000 0.065712
0.795379 1.000000 0.068034
0.820189 1.000000 0.070334
0.844798 1.000000 0.072615
0.869215 1.000000 0.074876
0.893448 1.000000 0.077119
0.917505 1.000000 0.079345
0.941393 1.000000 0.081554
0.965118 1.000000 0.083747
0.013668 1.000000 0.000000
0.069826 1.000000 0.000000
0.114496 1.000000 0.000909
0.154772 1.000000 0.006157
0.192365 1.000000 0.010257
0.228058 1.000000 0.013943
0.262296 1.000000 0.017381
0.295363 1.000000 0.020642
0.327458 1.000000 0.023770
0.358723 1.000000 0.026789
0.389269 1.000000 0.029719
0.419180 1.000000 0.032574
0.448524 1.000000 0.035362
0.477359 1.000000 0.038091
0.505731 1.000000 0.040769
0.533679 1.000000 0.043400
0.561237 1.000000 0.045989
0.588434 1.000000 0.048539
0.615296 1.000000 0.051054
0.641845 1.000000 0.053535
0.668101 1.000000 0.055985
0.694081 1.000000 0.058407
0.719800 1.000000 0.060803
0.745274 1.000000 0.063173
0.770515 1.000000 0.065519
0.795535 1.000000 0.067842
0.820344 1.000000 0.070145
0.844951 1.000000 0.072427
0.869367 1.000000 0.074690
0.893599 1.000000 0.076934
0.917655 1.000000 0.079161
0.941542 1.000000 0.081372
0.965266 1.000000 0.083566
0.014134 1.000000 0.000000
0.070127 1.000000 0.000000
0.114760 1.000000 0.000197
0.155015 1.000000 0.005788
0.192594 1.000000 0.009936
0.228277 1.000000 0.013649
0.262506 1.000000 0.017104
0.295567 1.000000 0.020378
0.327656 1.000000 0.023515
0.358917 1.000000 0.026543
0.389458 1.000000 0.029480
0.419365 1.000000 0.032340
0.448707 1.000000 0.035133
0.477538 1.000000 0.037867
0.505907 1.000000 0.040549
0.533853 1.000000 0.043184
0.561409 1.000000 0.045777
0.588604 1.000000 0.048330
0.615464 1.000000 0.050847
0.642011 1.000000 0.053331
0.668264 1.000000 0.055784
0.694243 1.000000 0.058208
0.719961 1.000000 0.060605
0.745433 1.000000 0.062977
0.770673 1.000000 0.065325
0.795691 1.000000 0.067651
0.820498 1.000000 0.069955
0.845105 1.000000 0.072239
0.869520 1.000000 0.074503
0.893751 1.000000 0.076749
0.917806 1.000000 0.078978
0.941691 1.000000 0.081189
0.965415 1.000000 0.083385
0.014596 1.000000 0.000000
0.070428 1.000000 0.000000
0.115023 1.000000 0.000000
0.155258 1.000000 0.005413
0.192823 1.000000 0.009614
0.228495 1.000000 0.013353
0.262717 1.000000 0.016825
0.295771 1.000000 0.020113
0.327855 1.000000 0.023260
0.359111 1.000000 0.026296
0.389648 1.000000 0.029240
0.419551 1.000000 0.032106
0.448889 1.000000 0.034904
0.477718 1.000000 0.037643
0.506084 1.000000 0.040329
0.534027 1.000000 0.042968
0.561580 1.000000 0.045564
0.588773 1.000000 0.048120
0.615631 1.000000 0.050640
0.642176 1.000000 0.053126
0.668428 1.000000 0.055582
0.694405 1.000000 0.058008
0.720121 1.000000 0.060408
0.745592 1.000000 0.062782
0.770830 1.000000 0.065132
0.795847 1.000000 0.067459
0.820653 1.000000 0.069765
0.845259 1.000000 0.072051
0.869672 1.000000 0.074317
0.893902 1.000000 0.076564
0.917956 1.000000 0.078794
0.941841 1.000000 0.081007
0.965563 1.000000 0.083204
0.015053 1.000000 0.000000
0.070728 1.000000 0.000000
0.115286 1.000000 0.000000
0.155500 1.000000 0.005030
0.193052 1.000000 0.009288
0.228714 1.000000 0.013055
0.262928 1.000000 0.016546
0.295975 1.000000 0.019846
0.328053 1.000000 0.023004
0.359304 1.000000 0.026048
0.389837 1.000000 0.029000
0.419736 1.000000 0.031871
0.449071 1.000000 0.034675
0.477897 1.000000 0.037419
0.506260 1.000000 0.040109
0.534201 1.000000 0.042751
0.561752 1.000000 0.045350
0.588943 1.000000 0.047910
0.615798 1.000000 0.050433
0.642342 1.000000 0.052922
0.668592 1.000000 0.055380
0.694567 1.000000 0.057809
0.720282 1.000000 0.060210
0.745751 1.000000 0.062586
0.770988 1.000000 0.064938
