presets/film_stocks/Kodak_Portra_Endura_Paper.cube
# 独寻胶片模拟 -- Kodak Portra Endura Paper
# Kodak, ISO 0, 0, negative
TITLE "Kodak Portra Endura Paper"
LUT_3D_SIZE 33
DOMAIN_MIN 0.0 0.0 0.0
DOMAIN_MAX 1.0 1.0 1.0
0.000000 0.000000 0.000000
0.053021 0.000000 0.000000
0.095402 0.000000 0.000000
0.134521 0.000000 0.000000
0.171660 0.000000 0.000000
0.207394 0.000000 0.000000
0.242047 0.000000 0.000000
0.275825 0.000000 0.000000
0.308873 0.000000 0.000000
0.341294 0.000000 0.000000
0.373170 0.000000 0.000000
0.404562 0.000000 0.000000
0.435521 0.000000 0.000000
0.466089 0.000000 0.000000
0.496300 0.000000 0.000000
0.526183 0.000000 0.000000
0.555763 0.000000 0.000000
0.585063 0.000000 0.000000
0.614100 0.000000 0.000000
0.642893 0.000000 0.000000
0.671455 0.000000 0.000000
0.699800 0.000000 0.000000
0.727940 0.000000 0.000000
0.755885 0.000000 0.000000
0.783646 0.000000 0.000000
0.811230 0.000000 0.000000
0.838647 0.000000 0.000000
0.865903 0.000000 0.000000
0.893006 0.000000 0.000000
0.919961 0.000000 0.000000
0.946775 0.000000 0.000000
0.973453 0.000000 0.000000
1.000000 0.000000 0.000000
0.000000 0.053021 0.000000
0.053021 0.053021 0.000000
0.095402 0.053021 0.000000
0.134521 0.053021 0.000000
0.171660 0.053021 0.000000
0.207394 0.053021 0.000000
0.242047 0.053021 0.000000
0.275825 0.053021 0.000000
0.308873 0.053021 0.000000
0.341294 0.053021 0.000000
0.373170 0.053021 0.000000
0.404562 0.053021 0.000000
0.435521 0.053021 0.000000
0.466089 0.053021 0.000000
0.496300 0.053021 0.000000
0.526183 0.053021 0.000000
0.555763 0.053021 0.000000
0.585063 0.053021 0.000000
0.614100 0.053021 0.000000
0.642893 0.053021 0.000000
0.671455 0.053021 0.000000
0.699800 0.053021 0.000000
0.727940 0.053021 0.000000
0.755885 0.053021 0.000000
0.783646 0.053021 0.000000
0.811230 0.053021 0.000000
0.838647 0.053021 0.000000
0.865903 0.053021 0.000000
0.893006 0.053021 0.000000
0.919961 0.053021 0.000000
0.946775 0.053021 0.000000
0.973453 0.053021 0.000000
1.000000 0.053021 0.000000
0.000000 0.095402 0.000000
0.053021 0.095402 0.000000
0.095402 0.095402 0.000000
0.134521 0.095402 0.000000
0.171660 0.095402 0.000000
0.207394 0.095402 0.000000
0.242047 0.095402 0.000000
0.275825 0.095402 0.000000
0.308873 0.095402 0.000000
0.341294 0.095402 0.000000
0.373170 0.095402 0.000000
0.404562 0.095402 0.000000
0.435521 0.095402 0.000000
0.466089 0.095402 0.000000
0.496300 0.095402 0.000000
0.526183 0.095402 0.000000
0.555763 0.095402 0.000000
0.585063 0.095402 0.000000
0.614100 0.095402 0.000000
0.642893 0.095402 0.000000
0.671455 0.095402 0.000000
0.699800 0.095402 0.000000
0.727940 0.095402 0.000000
0.755885 0.095402 0.000000
0.783646 0.095402 0.000000
0.811230 0.095402 0.000000
0.838647 0.095402 0.000000
0.865903 0.095402 0.000000
0.893006 0.095402 0.000000
0.919961 0.095402 0.000000
0.946775 0.095402 0.000000
0.973453 0.095402 0.000000
1.000000 0.095402 0.000000
0.000000 0.134521 0.000000
0.053021 0.134521 0.000000
0.095402 0.134521 0.000000
0.134521 0.134521 0.000000
0.171660 0.134521 0.000000
0.207394 0.134521 0.000000
0.242047 0.134521 0.000000
0.275825 0.134521 0.000000
0.308873 0.134521 0.000000
0.341294 0.134521 0.000000
0.373170 0.134521 0.000000
0.404562 0.134521 0.000000
0.435521 0.134521 0.000000
0.466089 0.134521 0.000000
0.496300 0.134521 0.000000
0.526183 0.134521 0.000000
0.555763 0.134521 0.000000
0.585063 0.134521 0.000000
0.614100 0.134521 0.000000
0.642893 0.134521 0.000000
0.671455 0.134521 0.000000
0.699800 0.134521 0.000000
0.727940 0.134521 0.000000
0.755885 0.134521 0.000000
0.783646 0.134521 0.000000
0.811230 0.134521 0.000000
0.838647 0.134521 0.000000
0.865903 0.134521 0.000000
0.893006 0.134521 0.000000
0.919961 0.134521 0.000000
0.946775 0.134521 0.000000
0.973453 0.134521 0.000000
1.000000 0.134521 0.000000
0.000000 0.171660 0.000000
0.053021 0.171660 0.000000
0.095402 0.171660 0.000000
0.134521 0.171660 0.000000
0.171660 0.171660 0.000000
0.207394 0.171660 0.000000
0.242047 0.171660 0.000000
0.275825 0.171660 0.000000
0.308873 0.171660 0.000000
0.341294 0.171660 0.000000
0.373170 0.171660 0.000000
0.404562 0.171660 0.000000
0.435521 0.171660 0.000000
0.466089 0.171660 0.000000
0.496300 0.171660 0.000000
0.526183 0.171660 0.000000
0.555763 0.171660 0.000000
0.585063 0.171660 0.000000
0.614100 0.171660 0.000000
0.642893 0.171660 0.000000
0.671455 0.171660 0.000000
0.699800 0.171660 0.000000
0.727940 0.171660 0.000000
0.755885 0.171660 0.000000
0.783646 0.171660 0.000000
0.811230 0.171660 0.000000
0.838647 0.171660 0.000000
0.865903 0.171660 0.000000
0.893006 0.171660 0.000000
0.919961 0.171660 0.000000
0.946775 0.171660 0.000000
0.973453 0.171660 0.000000
1.000000 0.171660 0.000000
0.000000 0.207394 0.000000
0.053021 0.207394 0.000000
0.095402 0.207394 0.000000
0.134521 0.207394 0.000000
0.171660 0.207394 0.000000
0.207394 0.207394 0.000000
0.242047 0.207394 0.000000
0.275825 0.207394 0.000000
0.308873 0.207394 0.000000
0.341294 0.207394 0.000000
0.373170 0.207394 0.000000
0.404562 0.207394 0.000000
0.435521 0.207394 0.000000
0.466089 0.207394 0.000000
0.496300 0.207394 0.000000
0.526183 0.207394 0.000000
0.555763 0.207394 0.000000
0.585063 0.207394 0.000000
0.614100 0.207394 0.000000
0.642893 0.207394 0.000000
0.671455 0.207394 0.000000
0.699800 0.207394 0.000000
0.727940 0.207394 0.000000
0.755885 0.207394 0.000000
0.783646 0.207394 0.000000
0.811230 0.207394 0.000000
0.838647 0.207394 0.000000
0.865903 0.207394 0.000000
0.893006 0.207394 0.000000
0.919961 0.207394 0.000000
0.946775 0.207394 0.000000
0.973453 0.207394 0.000000
1.000000 0.207394 0.000000
0.000000 0.242047 0.000000
0.053021 0.242047 0.000000
0.095402 0.242047 0.000000
0.134521 0.242047 0.000000
0.171660 0.242047 0.000000
0.207394 0.242047 0.000000
0.242047 0.242047 0.000000
0.275825 0.242047 0.000000
0.308873 0.242047 0.000000
0.341294 0.242047 0.000000
0.373170 0.242047 0.000000
0.404562 0.242047 0.000000
0.435521 0.242047 0.000000
0.466089 0.242047 0.000000
0.496300 0.242047 0.000000
0.526183 0.242047 0.000000
0.555763 0.242047 0.000000
0.585063 0.242047 0.000000
0.614100 0.242047 0.000000
0.642893 0.242047 0.000000
0.671455 0.242047 0.000000
0.699800 0.242047 0.000000
0.727940 0.242047 0.000000
0.755885 0.242047 0.000000
0.783646 0.242047 0.000000
0.811230 0.242047 0.000000
0.838647 0.242047 0.000000
0.865903 0.242047 0.000000
0.893006 0.242047 0.000000
0.919961 0.242047 0.000000
0.946775 0.242047 0.000000
0.973453 0.242047 0.000000
1.000000 0.242047 0.000000
0.000000 0.275825 0.000000
0.053021 0.275825 0.000000
0.095402 0.275825 0.000000
0.134521 0.275825 0.000000
0.171660 0.275825 0.000000
0.207394 0.275825 0.000000
0.242047 0.275825 0.000000
0.275825 0.275825 0.000000
0.308873 0.275825 0.000000
0.341294 0.275825 0.000000
0.373170 0.275825 0.000000
0.404562 0.275825 0.000000
0.435521 0.275825 0.000000
0.466089 0.275825 0.000000
0.496300 0.275825 0.000000
0.526183 0.275825 0.000000
0.555763 0.275825 0.000000
0.585063 0.275825 0.000000
0.614100 0.275825 0.000000
0.642893 0.275825 0.000000
0.671455 0.275825 0.000000
0.699800 0.275825 0.000000
0.727940 0.275825 0.000000
0.755885 0.275825 0.000000
0.783646 0.275825 0.000000
0.811230 0.275825 0.000000
0.838647 0.275825 0.000000
0.865903 0.275825 0.000000
0.893006 0.275825 0.000000
0.919961 0.275825 0.000000
0.946775 0.275825 0.000000
0.973453 0.275825 0.000000
1.000000 0.275825 0.000000
0.000000 0.308873 0.000000
0.053021 0.308873 0.000000
0.095402 0.308873 0.000000
0.134521 0.308873 0.000000
0.171660 0.308873 0.000000
0.207394 0.308873 0.000000
0.242047 0.308873 0.000000
0.275825 0.308873 0.000000
0.308873 0.308873 0.000000
0.341294 0.308873 0.000000
0.373170 0.308873 0.000000
0.404562 0.308873 0.000000
0.435521 0.308873 0.000000
0.466089 0.308873 0.000000
0.496300 0.308873 0.000000
0.526183 0.308873 0.000000
0.555763 0.308873 0.000000
0.585063 0.308873 0.000000
0.614100 0.308873 0.000000
0.642893 0.308873 0.000000
0.671455 0.308873 0.000000
0.699800 0.308873 0.000000
0.727940 0.308873 0.000000
0.755885 0.308873 0.000000
0.783646 0.308873 0.000000
0.811230 0.308873 0.000000
0.838647 0.308873 0.000000
0.865903 0.308873 0.000000
0.893006 0.308873 0.000000
0.919961 0.308873 0.000000
0.946775 0.308873 0.000000
0.973453 0.308873 0.000000
1.000000 0.308873 0.000000
0.000000 0.341294 0.000000
0.053021 0.341294 0.000000
0.095402 0.341294 0.000000
0.134521 0.341294 0.000000
0.171660 0.341294 0.000000
0.207394 0.341294 0.000000
0.242047 0.341294 0.000000
0.275825 0.341294 0.000000
0.308873 0.341294 0.000000
0.341294 0.341294 0.000000
0.373170 0.341294 0.000000
0.404562 0.341294 0.000000
0.435521 0.341294 0.000000
0.466089 0.341294 0.000000
0.496300 0.341294 0.000000
0.526183 0.341294 0.000000
0.555763 0.341294 0.000000
0.585063 0.341294 0.000000
0.614100 0.341294 0.000000
0.642893 0.341294 0.000000
0.671455 0.341294 0.000000
0.699800 0.341294 0.000000
0.727940 0.341294 0.000000
0.755885 0.341294 0.000000
0.783646 0.341294 0.000000
0.811230 0.341294 0.000000
0.838647 0.341294 0.000000
0.865903 0.341294 0.000000
0.893006 0.341294 0.000000
0.919961 0.341294 0.000000
0.946775 0.341294 0.000000
0.973453 0.341294 0.000000
1.000000 0.341294 0.000000
0.000000 0.373170 0.000000
0.053021 0.373170 0.000000
0.095402 0.373170 0.000000
0.134521 0.373170 0.000000
0.171660 0.373170 0.000000
0.207394 0.373170 0.000000
0.242047 0.373170 0.000000
0.275825 0.373170 0.000000
0.308873 0.373170 0.000000
0.341294 0.373170 0.000000
0.373170 0.373170 0.000000
0.404562 0.373170 0.000000
0.435521 0.373170 0.000000
0.466089 0.373170 0.000000
0.496300 0.373170 0.000000
0.526183 0.373170 0.000000
0.555763 0.373170 0.000000
0.585063 0.373170 0.000000
0.614100 0.373170 0.000000
0.642893 0.373170 0.000000
0.671455 0.373170 0.000000
0.699800 0.373170 0.000000
0.727940 0.373170 0.000000
0.755885 0.373170 0.000000
0.783646 0.373170 0.000000
0.811230 0.373170 0.000000
0.838647 0.373170 0.000000
0.865903 0.373170 0.000000
0.893006 0.373170 0.000000
0.919961 0.373170 0.000000
0.946775 0.373170 0.000000
0.973453 0.373170 0.000000
1.000000 0.373170 0.000000
0.000000 0.404562 0.000000
0.053021 0.404562 0.000000
0.095402 0.404562 0.000000
0.134521 0.404562 0.000000
0.171660 0.404562 0.000000
0.207394 0.404562 0.000000
0.242047 0.404562 0.000000
0.275825 0.404562 0.000000
0.308873 0.404562 0.000000
0.341294 0.404562 0.000000
0.373170 0.404562 0.000000
0.404562 0.404562 0.000000
0.435521 0.404562 0.000000
0.466089 0.404562 0.000000
0.496300 0.404562 0.000000
0.526183 0.404562 0.000000
0.555763 0.404562 0.000000
0.585063 0.404562 0.000000
0.614100 0.404562 0.000000
0.642893 0.404562 0.000000
0.671455 0.404562 0.000000
0.699800 0.404562 0.000000
0.727940 0.404562 0.000000
0.755885 0.404562 0.000000
0.783646 0.404562 0.000000
0.811230 0.404562 0.000000
0.838647 0.404562 0.000000
0.865903 0.404562 0.000000
0.893006 0.404562 0.000000
0.919961 0.404562 0.000000
0.946775 0.404562 0.000000
0.973453 0.404562 0.000000
1.000000 0.404562 0.000000
0.000000 0.435521 0.000000
0.053021 0.435521 0.000000
0.095402 0.435521 0.000000
0.134521 0.435521 0.000000
0.171660 0.435521 0.000000
0.207394 0.435521 0.000000
0.242047 0.435521 0.000000
0.275825 0.435521 0.000000
0.308873 0.435521 0.000000
0.341294 0.435521 0.000000
0.373170 0.435521 0.000000
0.404562 0.435521 0.000000
0.435521 0.435521 0.000000
0.466089 0.435521 0.000000
0.496300 0.435521 0.000000
0.526183 0.435521 0.000000
0.555763 0.435521 0.000000
0.585063 0.435521 0.000000
0.614100 0.435521 0.000000
0.642893 0.435521 0.000000
0.671455 0.435521 0.000000
0.699800 0.435521 0.000000
0.727940 0.435521 0.000000
0.755885 0.435521 0.000000
0.783646 0.435521 0.000000
0.811230 0.435521 0.000000
0.838647 0.435521 0.000000
0.865903 0.435521 0.000000
0.893006 0.435521 0.000000
0.919961 0.435521 0.000000
0.946775 0.435521 0.000000
0.973453 0.435521 0.000000
1.000000 0.435521 0.000000
0.000000 0.466089 0.000000
0.053021 0.466089 0.000000
0.095402 0.466089 0.000000
0.134521 0.466089 0.000000
0.171660 0.466089 0.000000
0.207394 0.466089 0.000000
0.242047 0.466089 0.000000
0.275825 0.466089 0.000000
0.308873 0.466089 0.000000
0.341294 0.466089 0.000000
0.373170 0.466089 0.000000
0.404562 0.466089 0.000000
0.435521 0.466089 0.000000
0.466089 0.466089 0.000000
0.496300 0.466089 0.000000
0.526183 0.466089 0.000000
0.555763 0.466089 0.000000
0.585063 0.466089 0.000000
0.614100 0.466089 0.000000
0.642893 0.466089 0.000000
0.671455 0.466089 0.000000
0.699800 0.466089 0.000000
0.727940 0.466089 0.000000
0.755885 0.466089 0.000000
0.783646 0.466089 0.000000
0.811230 0.466089 0.000000
0.838647 0.466089 0.000000
0.865903 0.466089 0.000000
0.893006 0.466089 0.000000
0.919961 0.466089 0.000000
0.946775 0.466089 0.000000
0.973453 0.466089 0.000000
1.000000 0.466089 0.000000
0.000000 0.496300 0.000000
0.053021 0.496300 0.000000
0.095402 0.496300 0.000000
0.134521 0.496300 0.000000
0.171660 0.496300 0.000000
0.207394 0.496300 0.000000
0.242047 0.496300 0.000000
0.275825 0.496300 0.000000
0.308873 0.496300 0.000000
0.341294 0.496300 0.000000
0.373170 0.496300 0.000000
0.404562 0.496300 0.000000
0.435521 0.496300 0.000000
0.466089 0.496300 0.000000
0.496300 0.496300 0.000000
0.526183 0.496300 0.000000
0.555763 0.496300 0.000000
0.585063 0.496300 0.000000
0.614100 0.496300 0.000000
0.642893 0.496300 0.000000
0.671455 0.496300 0.000000
0.699800 0.496300 0.000000
0.727940 0.496300 0.000000
0.755885 0.496300 0.000000
0.783646 0.496300 0.000000
0.811230 0.496300 0.000000
0.838647 0.496300 0.000000
0.865903 0.496300 0.000000
0.893006 0.496300 0.000000
0.919961 0.496300 0.000000
0.946775 0.496300 0.000000
0.973453 0.496300 0.000000
1.000000 0.496300 0.000000
0.000000 0.526183 0.000000
0.053021 0.526183 0.000000
0.095402 0.526183 0.000000
0.134521 0.526183 0.000000
0.171660 0.526183 0.000000
0.207394 0.526183 0.000000
0.242047 0.526183 0.000000
0.275825 0.526183 0.000000
0.308873 0.526183 0.000000
0.341294 0.526183 0.000000
0.373170 0.526183 0.000000
0.404562 0.526183 0.000000
0.435521 0.526183 0.000000
0.466089 0.526183 0.000000
0.496300 0.526183 0.000000
0.526183 0.526183 0.000000
0.555763 0.526183 0.000000
0.585063 0.526183 0.000000
0.614100 0.526183 0.000000
0.642893 0.526183 0.000000
0.671455 0.526183 0.000000
0.699800 0.526183 0.000000
0.727940 0.526183 0.000000
0.755885 0.526183 0.000000
0.783646 0.526183 0.000000
0.811230 0.526183 0.000000
0.838647 0.526183 0.000000
0.865903 0.526183 0.000000
0.893006 0.526183 0.000000
0.919961 0.526183 0.000000
0.946775 0.526183 0.000000
0.973453 0.526183 0.000000
1.000000 0.526183 0.000000
0.000000 0.555763 0.000000
0.053021 0.555763 0.000000
0.095402 0.555763 0.000000
0.134521 0.555763 0.000000
0.171660 0.555763 0.000000
0.207394 0.555763 0.000000
0.242047 0.555763 0.000000
0.275825 0.555763 0.000000
0.308873 0.555763 0.000000
0.341294 0.555763 0.000000
0.373170 0.555763 0.000000
0.404562 0.555763 0.000000
0.435521 0.555763 0.000000
0.466089 0.555763 0.000000
0.496300 0.555763 0.000000
0.526183 0.555763 0.000000
0.555763 0.555763 0.000000
0.585063 0.555763 0.000000
0.614100 0.555763 0.000000
0.642893 0.555763 0.000000
0.671455 0.555763 0.000000
0.699800 0.555763 0.000000
0.727940 0.555763 0.000000
0.755885 0.555763 0.000000
0.783646 0.555763 0.000000
0.811230 0.555763 0.000000
0.838647 0.555763 0.000000
0.865903 0.555763 0.000000
0.893006 0.555763 0.000000
0.919961 0.555763 0.000000
0.946775 0.555763 0.000000
0.973453 0.555763 0.000000
1.000000 0.555763 0.000000
0.000000 0.585063 0.000000
0.053021 0.585063 0.000000
0.095402 0.585063 0.000000
0.134521 0.585063 0.000000
0.171660 0.585063 0.000000
0.207394 0.585063 0.000000
0.242047 0.585063 0.000000
0.275825 0.585063 0.000000
0.308873 0.585063 0.000000
0.341294 0.585063 0.000000
0.373170 0.585063 0.000000
0.404562 0.585063 0.000000
0.435521 0.585063 0.000000
0.466089 0.585063 0.000000
0.496300 0.585063 0.000000
0.526183 0.585063 0.000000
0.555763 0.585063 0.000000
0.585063 0.585063 0.000000
0.614100 0.585063 0.000000
0.642893 0.585063 0.000000
0.671455 0.585063 0.000000
0.699800 0.585063 0.000000
0.727940 0.585063 0.000000
0.755885 0.585063 0.000000
0.783646 0.585063 0.000000
0.811230 0.585063 0.000000
0.838647 0.585063 0.000000
0.865903 0.585063 0.000000
0.893006 0.585063 0.000000
0.919961 0.585063 0.000000
0.946775 0.585063 0.000000
0.973453 0.585063 0.000000
1.000000 0.585063 0.000000
0.000000 0.614100 0.000000
0.053021 0.614100 0.000000
0.095402 0.614100 0.000000
0.134521 0.614100 0.000000
0.171660 0.614100 0.000000
0.207394 0.614100 0.000000
0.242047 0.614100 0.000000
0.275825 0.614100 0.000000
0.308873 0.614100 0.000000
0.341294 0.614100 0.000000
0.373170 0.614100 0.000000
0.404562 0.614100 0.000000
0.435521 0.614100 0.000000
0.466089 0.614100 0.000000
0.496300 0.614100 0.000000
0.526183 0.614100 0.000000
0.555763 0.614100 0.000000
0.585063 0.614100 0.000000
0.614100 0.614100 0.000000
0.642893 0.614100 0.000000
0.671455 0.614100 0.000000
0.699800 0.614100 0.000000
0.727940 0.614100 0.000000
0.755885 0.614100 0.000000
0.783646 0.614100 0.000000
0.811230 0.614100 0.000000
0.838647 0.614100 0.000000
0.865903 0.614100 0.000000
0.893006 0.614100 0.000000
0.919961 0.614100 0.000000
0.946775 0.614100 0.000000
0.973453 0.614100 0.000000
1.000000 0.614100 0.000000
0.000000 0.642893 0.000000
0.053021 0.642893 0.000000
0.095402 0.642893 0.000000
0.134521 0.642893 0.000000
0.171660 0.642893 0.000000
0.207394 0.642893 0.000000
0.242047 0.642893 0.000000
0.275825 0.642893 0.000000
0.308873 0.642893 0.000000
0.341294 0.642893 0.000000
0.373170 0.642893 0.000000
0.404562 0.642893 0.000000
0.435521 0.642893 0.000000
0.466089 0.642893 0.000000
0.496300 0.642893 0.000000
0.526183 0.642893 0.000000
0.555763 0.642893 0.000000
0.585063 0.642893 0.000000
0.614100 0.642893 0.000000
0.642893 0.642893 0.000000
0.671455 0.642893 0.000000
0.699800 0.642893 0.000000
0.727940 0.642893 0.000000
0.755885 0.642893 0.000000
0.783646 0.642893 0.000000
0.811230 0.642893 0.000000
0.838647 0.642893 0.000000
0.865903 0.642893 0.000000
0.893006 0.642893 0.000000
0.919961 0.642893 0.000000
0.946775 0.642893 0.000000
0.973453 0.642893 0.000000
1.000000 0.642893 0.000000
0.000000 0.671455 0.000000
0.053021 0.671455 0.000000
0.095402 0.671455 0.000000
0.134521 0.671455 0.000000
0.171660 0.671455 0.000000
0.207394 0.671455 0.000000
0.242047 0.671455 0.000000
0.275825 0.671455 0.000000
0.308873 0.671455 0.000000
0.341294 0.671455 0.000000
0.373170 0.671455 0.000000
0.404562 0.671455 0.000000
0.435521 0.671455 0.000000
0.466089 0.671455 0.000000
0.496300 0.671455 0.000000
0.526183 0.671455 0.000000
0.555763 0.671455 0.000000
0.585063 0.671455 0.000000
0.614100 0.671455 0.000000
0.642893 0.671455 0.000000
0.671455 0.671455 0.000000
0.699800 0.671455 0.000000
0.727940 0.671455 0.000000
0.755885 0.671455 0.000000
0.783646 0.671455 0.000000
0.811230 0.671455 0.000000
0.838647 0.671455 0.000000
0.865903 0.671455 0.000000
0.893006 0.671455 0.000000
0.919961 0.671455 0.000000
0.946775 0.671455 0.000000
0.973453 0.671455 0.000000
1.000000 0.671455 0.000000
0.000000 0.699800 0.000000
0.053021 0.699800 0.000000
0.095402 0.699800 0.000000
0.134521 0.699800 0.000000
0.171660 0.699800 0.000000
0.207394 0.699800 0.000000
0.242047 0.699800 0.000000
0.275825 0.699800 0.000000
0.308873 0.699800 0.000000
0.341294 0.699800 0.000000
0.373170 0.699800 0.000000
0.404562 0.699800 0.000000
0.435521 0.699800 0.000000
0.466089 0.699800 0.000000
0.496300 0.699800 0.000000
0.526183 0.699800 0.000000
0.555763 0.699800 0.000000
0.585063 0.699800 0.000000
0.614100 0.699800 0.000000
0.642893 0.699800 0.000000
0.671455 0.699800 0.000000
0.699800 0.699800 0.000000
0.727940 0.699800 0.000000
0.755885 0.699800 0.000000
0.783646 0.699800 0.000000
0.811230 0.699800 0.000000
0.838647 0.699800 0.000000
0.865903 0.699800 0.000000
0.893006 0.699800 0.000000
0.919961 0.699800 0.000000
0.946775 0.699800 0.000000
0.973453 0.699800 0.000000
1.000000 0.699800 0.000000
0.000000 0.727940 0.000000
0.053021 0.727940 0.000000
0.095402 0.727940 0.000000
0.134521 0.727940 0.000000
0.171660 0.727940 0.000000
0.207394 0.727940 0.000000
0.242047 0.727940 0.000000
0.275825 0.727940 0.000000
0.308873 0.727940 0.000000
0.341294 0.727940 0.000000
0.373170 0.727940 0.000000
0.404562 0.727940 0.000000
0.435521 0.727940 0.000000
0.466089 0.727940 0.000000
0.496300 0.727940 0.000000
0.526183 0.727940 0.000000
0.555763 0.727940 0.000000
0.585063 0.727940 0.000000
0.614100 0.727940 0.000000
0.642893 0.727940 0.000000
0.671455 0.727940 0.000000
0.699800 0.727940 0.000000
0.727940 0.727940 0.000000
0.755885 0.727940 0.000000
0.783646 0.727940 0.000000
0.811230 0.727940 0.000000
0.838647 0.727940 0.000000
0.865903 0.727940 0.000000
0.893006 0.727940 0.000000
0.919961 0.727940 0.000000
0.946775 0.727940 0.000000
0.973453 0.727940 0.000000
1.000000 0.727940 0.000000
0.000000 0.755885 0.000000
0.053021 0.755885 0.000000
0.095402 0.755885 0.000000
0.134521 0.755885 0.000000
0.171660 0.755885 0.000000
0.207394 0.755885 0.000000
0.242047 0.755885 0.000000
0.275825 0.755885 0.000000
0.308873 0.755885 0.000000
0.341294 0.755885 0.000000
0.373170 0.755885 0.000000
0.404562 0.755885 0.000000
0.435521 0.755885 0.000000
0.466089 0.755885 0.000000
0.496300 0.755885 0.000000
0.526183 0.755885 0.000000
0.555763 0.755885 0.000000
0.585063 0.755885 0.000000
0.614100 0.755885 0.000000
0.642893 0.755885 0.000000
0.671455 0.755885 0.000000
0.699800 0.755885 0.000000
0.727940 0.755885 0.000000
0.755885 0.755885 0.000000
0.783646 0.755885 0.000000
0.811230 0.755885 0.000000
0.838647 0.755885 0.000000
0.865903 0.755885 0.000000
0.893006 0.755885 0.000000
0.919961 0.755885 0.000000
0.946775 0.755885 0.000000
0.973453 0.755885 0.000000
1.000000 0.755885 0.000000
0.000000 0.783646 0.000000
0.053021 0.783646 0.000000
0.095402 0.783646 0.000000
0.134521 0.783646 0.000000
0.171660 0.783646 0.000000
0.207394 0.783646 0.000000
0.242047 0.783646 0.000000
0.275825 0.783646 0.000000
0.308873 0.783646 0.000000
0.341294 0.783646 0.000000
0.373170 0.783646 0.000000
0.404562 0.783646 0.000000
0.435521 0.783646 0.000000
0.466089 0.783646 0.000000
0.496300 0.783646 0.000000
0.526183 0.783646 0.000000
0.555763 0.783646 0.000000
0.585063 0.783646 0.000000
0.614100 0.783646 0.000000
0.642893 0.783646 0.000000
0.671455 0.783646 0.000000
0.699800 0.783646 0.000000
0.727940 0.783646 0.000000
0.755885 0.783646 0.000000
0.783646 0.783646 0.000000
0.811230 0.783646 0.000000
0.838647 0.783646 0.000000
0.865903 0.783646 0.000000
0.893006 0.783646 0.000000
0.919961 0.783646 0.000000
0.946775 0.783646 0.000000
0.973453 0.783646 0.000000
1.000000 0.783646 0.000000
0.000000 0.811230 0.000000
0.053021 0.811230 0.000000
0.095402 0.811230 0.000000
0.134521 0.811230 0.000000
0.171660 0.811230 0.000000
0.207394 0.811230 0.000000
0.242047 0.811230 0.000000
0.275825 0.811230 0.000000
0.308873 0.811230 0.000000
0.341294 0.811230 0.000000
0.373170 0.811230 0.000000
0.404562 0.811230 0.000000
0.435521 0.811230 0.000000
0.466089 0.811230 0.000000
0.496300 0.811230 0.000000
0.526183 0.811230 0.000000
0.555763 0.811230 0.000000
0.585063 0.811230 0.000000
0.614100 0.811230 0.000000
0.642893 0.811230 0.000000
0.671455 0.811230 0.000000
0.699800 0.811230 0.000000
0.727940 0.811230 0.000000
0.755885 0.811230 0.000000
0.783646 0.811230 0.000000
0.811230 0.811230 0.000000
0.838647 0.811230 0.000000
0.865903 0.811230 0.000000
0.893006 0.811230 0.000000
0.919961 0.811230 0.000000
0.946775 0.811230 0.000000
0.973453 0.811230 0.000000
1.000000 0.811230 0.000000
0.000000 0.838647 0.000000
0.053021 0.838647 0.000000
0.095402 0.838647 0.000000
0.134521 0.838647 0.000000
0.171660 0.838647 0.000000
0.207394 0.838647 0.000000
0.242047 0.838647 0.000000
0.275825 0.838647 0.000000
0.308873 0.838647 0.000000
0.341294 0.838647 0.000000
0.373170 0.838647 0.000000
0.404562 0.838647 0.000000
0.435521 0.838647 0.000000
0.466089 0.838647 0.000000
0.496300 0.838647 0.000000
0.526183 0.838647 0.000000
0.555763 0.838647 0.000000
0.585063 0.838647 0.000000
0.614100 0.838647 0.000000
0.642893 0.838647 0.000000
0.671455 0.838647 0.000000
0.699800 0.838647 0.000000
0.727940 0.838647 0.000000
0.755885 0.838647 0.000000
