presets/film_stocks/Kodak_Portra_400.cube
# 独寻胶片模拟 -- Kodak Portra 400
# Kodak, ISO 400, 2010, negative
TITLE "Kodak Portra 400"
LUT_3D_SIZE 5
DOMAIN_MIN 0.0 0.0 0.0
DOMAIN_MAX 1.0 1.0 1.0
0.000000 0.000000 0.000000
0.347158 0.014878 0.000000
0.615619 0.026383 0.000000
0.860681 0.036886 0.000000
1.000000 0.046786 0.000000
0.000000 0.338188 0.000000
0.336241 0.344557 0.000000
0.605956 0.350900 0.000000
0.851679 0.357220 0.000000
1.000000 0.363516 0.000000
0.000000 0.599714 0.000000
0.325249 0.605366 0.000000
0.596260 0.611006 0.000000
0.842657 0.616636 0.000000
1.000000 0.622256 0.000000
0.000000 0.838444 0.000000
0.314178 0.843713 0.000000
0.586530 0.848976 0.000000
0.833615 0.854232 0.000000
1.000000 0.859481 0.000000
0.000000 1.000000 0.000000
0.303025 1.000000 0.000000
0.576767 1.000000 0.000000
0.824552 1.000000 0.000000
1.000000 1.000000 0.000000
0.000000 0.000000 0.331859
0.329045 0.000000 0.322638
0.599605 0.000000 0.313362
0.845768 0.000000 0.304028
1.000000 0.000000 0.294634
0.000000 0.311524 0.327250
0.318002 0.318002 0.318002
0.589887 0.324452 0.308697
0.836733 0.330875 0.299333
1.000000 0.337273 0.289907
0.000000 0.576173 0.322627
0.306878 0.581873 0.313351
0.580135 0.587561 0.304017
0.827677 0.593237 0.294622
1.000000 0.598902 0.285164
0.000000 0.816534 0.317991
0.295668 0.821833 0.308686
0.570350 0.827125 0.299322
0.818601 0.832409 0.289896
1.000000 0.837687 0.280405
0.000000 1.000000 0.313340
0.284368 1.000000 0.304006
0.560528 1.000000 0.294611
0.809503 1.000000 0.285153
1.000000 1.000000 0.275628
0.000000 0.000000 0.588489
0.310720 0.000000 0.580326
0.583500 0.000000 0.572139
0.830800 0.000000 0.563927
1.000000 0.000000 0.555689
0.000000 0.284371 0.584406
0.299541 0.290972 0.576230
0.573726 0.297542 0.568031
0.821731 0.304082 0.559806
1.000000 0.310592 0.551556
0.000000 0.552430 0.580316
0.288272 0.558179 0.572129
0.563917 0.563917 0.563917
0.812640 0.569642 0.555679
1.000000 0.575355 0.547416
0.000000 0.794500 0.576220
0.276911 0.799829 0.568021
0.554072 0.805151 0.559796
0.803529 0.810466 0.551546
1.000000 0.815773 0.543270
0.000000 1.000000 0.572119
0.265451 1.000000 0.563907
0.544190 1.000000 0.555669
0.794395 1.000000 0.547406
1.000000 1.000000 0.539117
0.000000 0.000000 0.822751
0.292166 0.000000 0.815146
0.567301 0.000000 0.807526
0.815775 0.000000 0.799892
1.000000 0.000000 0.792242
0.000000 0.256661 0.818946
0.280837 0.263404 0.811334
0.557468 0.270111 0.803706
0.806671 0.276783 0.796064
1.000000 0.283421 0.788406
0.000000 0.528469 0.815137
0.269411 0.534273 0.807517
0.547599 0.540062 0.799882
0.797545 0.545839 0.792232
1.000000 0.551603 0.784567
0.000000 0.772337 0.811324
0.257883 0.777698 0.803697
0.537693 0.783051 0.796055
0.788397 0.788397 0.788397
1.000000 0.793735 0.780723
0.000000 1.000000 0.807508
0.246246 1.000000 0.799873
0.527748 1.000000 0.792223
0.779226 1.000000 0.784557
1.000000 1.000000 0.776876
0.000000 0.000000 1.000000
0.273360 0.000000 1.000000
0.551004 0.000000 1.000000
0.800692 0.000000 1.000000
1.000000 0.000000 1.000000
0.000000 0.228307 1.000000
0.261868 0.235215 1.000000
0.541111 0.242080 1.000000
0.791552 0.248905 1.000000
1.000000 0.255691 1.000000
0.000000 0.504279 1.000000
0.250269 0.510139 1.000000
0.531179 0.515985 1.000000
0.782389 0.521817 1.000000
1.000000 0.527636 1.000000
0.000000 0.750040 1.000000
0.238556 0.755434 1.000000
0.521208 0.760819 1.000000
0.773204 0.766197 1.000000
1.000000 0.771567 1.000000
0.000000 0.979630 1.000000
0.226720 0.984731 1.000000
0.511197 0.989826 1.000000
0.763996 0.994916 1.000000
1.000000 1.000000 1.000000
