presets/film_stocks/Kodak_Vision3_50D_5203.cube
# 独寻胶片模拟 -- Kodak Vision3 50D 5203
# Kodak, ISO 50, 2011, negative
TITLE "Kodak Vision3 50D 5203"
LUT_3D_SIZE 9
DOMAIN_MIN 0.0 0.0 0.0
DOMAIN_MAX 1.0 1.0 1.0
0.000000 0.000000 0.000000
0.185533 0.006934 0.000000
0.335515 0.012539 0.000000
0.474479 0.017732 0.000000
0.606739 0.022674 0.000000
0.734229 0.027439 0.000000
0.858040 0.032066 0.000000
0.978875 0.036581 0.000000
1.000000 0.041004 0.000000
0.000000 0.180077 0.000000
0.179312 0.183478 0.000000
0.329898 0.186869 0.000000
0.469186 0.190249 0.000000
0.601664 0.193618 0.000000
0.729316 0.196978 0.000000
0.853256 0.200328 0.000000
0.974197 0.203669 0.000000
1.000000 0.207000 0.000000
0.000000 0.325649 0.000000
0.173054 0.328727 0.000000
0.324264 0.331800 0.000000
0.463883 0.334867 0.000000
0.596582 0.337931 0.000000
0.724398 0.340989 0.000000
0.848468 0.344043 0.000000
0.969516 0.347092 0.000000
1.000000 0.350137 0.000000
0.000000 0.460527 0.000000
0.166757 0.463430 0.000000
0.318614 0.466329 0.000000
0.458569 0.469225 0.000000
0.591492 0.472118 0.000000
0.719474 0.475008 0.000000
0.843675 0.477895 0.000000
0.964831 0.480780 0.000000
1.000000 0.483661 0.000000
0.000000 0.588899 0.000000
0.160419 0.591682 0.000000
0.312947 0.594464 0.000000
0.453245 0.597244 0.000000
0.586395 0.600021 0.000000
0.714544 0.602796 0.000000
0.838878 0.605569 0.000000
0.960142 0.608340 0.000000
1.000000 0.611108 0.000000
0.000000 0.712639 0.000000
0.154039 0.715334 0.000000
0.307263 0.718028 0.000000
0.447910 0.720720 0.000000
0.581290 0.723410 0.000000
0.709609 0.726098 0.000000
0.834076 0.728785 0.000000
0.955449 0.731470 0.000000
1.000000 0.734153 0.000000
0.000000 0.832810 0.000000
0.147613 0.835435 0.000000
0.301560 0.838058 0.000000
0.442565 0.840681 0.000000
0.576177 0.843301 0.000000
0.704668 0.845921 0.000000
0.829269 0.848539 0.000000
0.950752 0.851155 0.000000
1.000000 0.853771 0.000000
0.000000 0.950091 0.000000
0.141140 0.952658 0.000000
0.295839 0.955224 0.000000
0.437208 0.957789 0.000000
0.571057 0.960352 0.000000
0.699720 0.962914 0.000000
0.824457 0.965475 0.000000
0.946051 0.968035 0.000000
1.000000 0.970594 0.000000
0.000000 1.000000 0.000000
0.134615 1.000000 0.000000
0.290100 1.000000 0.000000
0.431840 1.000000 0.000000
0.565929 1.000000 0.000000
0.694767 1.000000 0.000000
0.819641 1.000000 0.000000
0.941347 1.000000 0.000000
1.000000 1.000000 0.000000
0.000000 0.000000 0.176681
0.175376 0.000000 0.171684
0.326353 0.000000 0.166662
0.465848 0.000000 0.161614
0.598465 0.000000 0.156539
0.726220 0.005685 0.151436
0.850242 0.011419 0.146304
0.971250 0.016679 0.141141
1.000000 0.021666 0.135945
0.000000 0.165645 0.174104
0.169094 0.169094 0.169094
0.320709 0.172531 0.164059
0.460539 0.175957 0.158997
0.593378 0.179371 0.153908
0.721299 0.182774 0.148790
0.845451 0.186167 0.143642
0.966567 0.189549 0.138462
1.000000 0.192921 0.133249
0.000000 0.312646 0.171520
0.162772 0.315745 0.166497
0.315049 0.318838 0.161448
0.455218 0.321927 0.156373
0.588284 0.325011 0.151269
0.716371 0.328089 0.146135
0.840655 0.331163 0.140971
0.961879 0.334232 0.135775
1.000000 0.337296 0.130544
0.000000 0.448282 0.168930
0.156408 0.451197 0.163893
0.309371 0.454110 0.158831
0.449888 0.457019 0.153741
0.583182 0.459925 0.148622
0.711438 0.462828 0.143473
0.835855 0.465728 0.138292
0.957188 0.468625 0.133078
1.000000 0.471519 0.127829
0.000000 0.577161 0.166332
0.149999 0.579955 0.161283
0.303675 0.582746 0.156206
0.444546 0.585535 0.151101
0.578072 0.588321 0.145967
0.706499 0.591106 0.140802
0.831050 0.593888 0.135604
0.952493 0.596668 0.130372
1.000000 0.599445 0.125105
0.000000 0.701280 0.163728
0.143543 0.703983 0.158665
0.297961 0.706684 0.153574
0.439194 0.709383 0.148454
0.572955 0.712080 0.143304
0.701554 0.714776 0.138122
0.826240 0.717470 0.132907
0.947793 0.720162 0.127657
1.000000 0.722852 0.122370
0.000000 0.821750 0.161117
0.137038 0.824381 0.156039
0.292228 0.827011 0.150934
0.433830 0.829639 0.145798
0.567829 0.832266 0.140632
0.696603 0.834891 0.135433
0.821425 0.837515 0.130200
0.943090 0.840137 0.124931
1.000000 0.842758 0.119624
0.000000 0.939279 0.158498
0.130480 0.941850 0.153406
0.286476 0.944421 0.148286
0.428455 0.946991 0.143134
0.562696 0.949559 0.137952
0.691646 0.952126 0.132735
0.816606 0.954692 0.127484
0.938383 0.957257 0.122196
1.000000 0.959821 0.116868
0.000000 1.000000 0.155873
0.123865 1.000000 0.150766
0.280704 1.000000 0.145630
0.423069 1.000000 0.140462
0.557555 1.000000 0.135262
0.686683 1.000000 0.130028
0.811782 1.000000 0.124758
0.933672 1.000000 0.119450
1.000000 1.000000 0.114101
0.000000 0.000000 0.319507
0.165119 0.000000 0.314995
0.317148 0.000000 0.310471
0.457190 0.000000 0.305936
0.590172 0.000000 0.301389
0.718197 0.000000 0.296831
0.842433 0.000000 0.292260
0.963616 0.000000 0.287678
1.000000 0.000000 0.283083
0.000000 0.150995 0.317178
0.158770 0.154498 0.312660
0.311476 0.157988 0.308130
0.451864 0.161464 0.303589
0.585072 0.164928 0.299037
0.713266 0.168380 0.294472
0.837634 0.171820 0.289896
0.958926 0.175248 0.285307
1.000000 0.178664 0.280706
0.000000 0.299550 0.314847
0.152378 0.302671 0.310322
0.305787 0.305787 0.305787
0.446526 0.308897 0.301240
0.579966 0.312003 0.296681
0.708329 0.315103 0.292111
0.832830 0.318197 0.287528
0.954232 0.321287 0.282933
1.000000 0.324372 0.278325
0.000000 0.435979 0.312512
0.145940 0.438909 0.307982
0.300080 0.441835 0.303440
0.441178 0.444758 0.298887
0.574851 0.447677 0.294323
0.703386 0.450593 0.289746
0.828022 0.453506 0.285157
0.949534 0.456416 0.280555
1.000000 0.459323 0.275940
0.000000 0.565383 0.310174
0.139454 0.568186 0.305638
0.294354 0.570987 0.301091
0.435818 0.573786 0.296532
0.569729 0.576582 0.291961
0.698437 0.579376 0.287378
0.823210 0.582167 0.282782
0.944833 0.584957 0.278173
1.000000 0.587744 0.273552
0.000000 0.689890 0.307833
0.132916 0.692600 0.303291
0.288609 0.695308 0.298738
0.430447 0.698015 0.294173
0.564599 0.700720 0.289596
0.693483 0.703423 0.285006
0.818392 0.706124 0.280404
0.940127 0.708823 0.275789
1.000000 0.711521 0.271161
0.000000 0.810666 0.305489
0.126322 0.813303 0.300942
0.282845 0.815938 0.296382
0.425065 0.818572 0.291811
0.559461 0.821205 0.287227
0.688522 0.823836 0.282631
0.813569 0.826466 0.278022
0.935417 0.829094 0.273401
1.000000 0.831721 0.268765
0.000000 0.928445 0.303143
0.119670 0.931022 0.298589
0.277061 0.933597 0.294023
0.419672 0.936172 0.289446
0.554315 0.938745 0.284856
0.683555 0.941317 0.280253
0.808742 0.943888 0.275637
0.930703 0.946458 0.271009
1.000000 0.949027 0.266367
0.000000 1.000000 0.300793
0.112954 1.000000 0.296233
0.271256 1.000000 0.291661
0.414266 1.000000 0.287077
0.549161 1.000000 0.282480
0.678582 1.000000 0.277871
0.803910 1.000000 0.273249
0.925986 1.000000 0.268613
1.000000 1.000000 0.263964
0.000000 0.000000 0.451842
0.154751 0.000000 0.447589
0.307896 0.000000 0.443329
0.448505 0.000000 0.439062
0.581858 0.000000 0.434788
0.710158 0.000000 0.430507
0.834610 0.000000 0.426219
0.955972 0.000000 0.421923
1.000000 0.000000 0.417620
0.000000 0.136099 0.449646
0.148331 0.139664 0.445390
0.302196 0.143213 0.441127
0.443160 0.146747 0.436856
0.576747 0.150267 0.432578
0.705218 0.153773 0.428294
0.829804 0.157266 0.424002
0.951275 0.160745 0.419702
1.000000 0.164211 0.415395
0.000000 0.286355 0.447449
0.141863 0.289501 0.443189
0.296477 0.292640 0.438922
0.437805 0.295774 0.434648
0.571627 0.298902 0.430367
0.700271 0.302024 0.426078
0.824993 0.305141 0.421782
0.946575 0.308253 0.417479
1.000000 0.311359 0.413168
0.000000 0.423618 0.445250
0.135344 0.426561 0.440987
0.290739 0.429501 0.436716
0.432438 0.432438 0.432438
0.566500 0.435372 0.428153
0.695319 0.438302 0.423861
0.820177 0.441229 0.419561
0.941871 0.444152 0.415254
1.000000 0.447072 0.410939
0.000000 0.553563 0.443050
0.128771 0.556377 0.438782
0.284982 0.559187 0.434508
0.427060 0.561996 0.430227
0.561365 0.564802 0.425938
0.690360 0.567606 0.421642
0.815356 0.570407 0.417338
0.937162 0.573206 0.413027
1.000000 0.576003 0.408708
0.000000 0.678467 0.440847
0.122141 0.681185 0.436576
0.279206 0.683901 0.432298
0.421671 0.686615 0.428013
0.556222 0.689328 0.423720
0.685396 0.692038 0.419420
0.810531 0.694747 0.415113
0.932450 0.697454 0.410798
1.000000 0.700159 0.406475
0.000000 0.799555 0.438643
0.115450 0.802198 0.434368
0.273408 0.804840 0.430086
0.416270 0.807480 0.425797
0.551071 0.810119 0.421501
0.680425 0.812756 0.417197
0.805700 0.815392 0.412886
0.927734 0.818026 0.408567
1.000000 0.820659 0.404240
0.000000 0.917589 0.436436
0.108691 0.920171 0.432158
0.267590 0.922752 0.427872
0.410857 0.925332 0.423580
0.545911 0.927910 0.419279
0.675448 0.930488 0.414972
0.800865 0.933064 0.410656
0.923013 0.935638 0.406333
1.000000 0.938212 0.402002
0.000000 1.000000 0.434228
0.101860 1.000000 0.429946
0.261750 1.000000 0.425657
0.405432 1.000000 0.421360
0.540744 1.000000 0.417056
0.670465 1.000000 0.412744
0.796025 1.000000 0.408425
0.918289 1.000000 0.404098
1.000000 1.000000 0.399763
0.000000 0.000000 0.577792
0.144264 0.000000 0.573714
0.298598 0.000000 0.569631
0.439790 0.000000 0.565543
0.573525 0.000000 0.561450
0.702104 0.000000 0.557352
0.826776 0.000000 0.553249
0.948317 0.000000 0.549140
1.000000 0.000000 0.545027
0.000000 0.120920 0.575687
0.137765 0.124555 0.571606
0.292867 0.128173 0.567521
0.434428 0.131774 0.563430
0.568400 0.135358 0.559335
0.697154 0.138926 0.555234
0.821962 0.142478 0.551128
0.943614 0.146016 0.547017
1.000000 0.149539 0.542901
0.000000 0.273057 0.573580
0.131213 0.276227 0.569497
0.287117 0.279392 0.565409
0.429054 0.282550 0.561316
0.563268 0.285703 0.557218
0.692198 0.288849 0.553114
0.817143 0.291990 0.549006
0.938907 0.295125 0.544892
1.000000 0.298254 0.540773
0.000000 0.411194 0.571473
0.124604 0.414153 0.567387
0.281348 0.417108 0.563296
0.423669 0.420059 0.559200
0.558128 0.423007 0.555100
0.687236 0.425951 0.550994
0.812319 0.428892 0.546882
0.934196 0.431830 0.542766
1.000000 0.434764 0.538644
0.000000 0.541700 0.569364
0.117936 0.544524 0.565275
0.275558 0.547345 0.561182
0.418272 0.550164 0.557084
0.552980 0.552980 0.552980
0.682267 0.555794 0.548871
0.807490 0.558605 0.544757
0.929481 0.561414 0.540638
1.000000 0.564220 0.536513
0.000000 0.667012 0.567253
0.111203 0.669738 0.563162
0.269748 0.672462 0.559066
0.412864 0.675184 0.554965
0.547824 0.677904 0.550859
0.677293 0.680622 0.546748
0.802657 0.683338 0.542631
0.924762 0.686053 0.538509
1.000000 0.688766 0.534382
0.000000 0.788418 0.565141
0.104399 0.791067 0.561048
0.263916 0.793715 0.556949
0.407443 0.796362 0.552846
0.542659 0.799007 0.548737
0.672312 0.801650 0.544623
0.797818 0.804292 0.540503
0.920039 0.806933 0.536378
1.000000 0.809572 0.532248
0.000000 0.906712 0.563028
0.097520 0.909299 0.558932
0.258063 0.911885 0.554831
0.402010 0.914470 0.550724
0.537486 0.917054 0.546613
0.667325 0.919636 0.542496
0.792975 0.922217 0.538374
0.915312 0.924797 0.534246
1.000000 0.927376 0.530113
0.000000 1.000000 0.560914
0.090557 1.000000 0.556815
0.252186 1.000000 0.552711
0.396564 1.000000 0.548602
0.532305 1.000000 0.544488
0.662332 1.000000 0.540368
0.788126 1.000000 0.536243
0.910581 1.000000 0.532113
1.000000 1.000000 0.527977
0.000000 0.000000 0.699199
0.133646 0.000000 0.695251
0.289250 0.000000 0.691300
0.431046 0.000000 0.687345
0.565170 0.000000 0.683386
0.694035 0.000000 0.679423
0.818928 0.000000 0.675456
0.940651 0.000000 0.671485
1.000000 0.000000 0.667511
0.000000 0.105408 0.697161
0.127059 0.109128 0.693211
0.283487 0.112827 0.689258
0.425665 0.116505 0.685301
0.560033 0.120164 0.681340
0.689075 0.123803 0.677375
0.814106 0.127425 0.673406
0.935942 0.131029 0.669433
1.000000 0.134616 0.665457
0.000000 0.259647 0.695122
0.120414 0.262845 0.691171
0.277705 0.266036 0.687215
0.420273 0.269221 0.683256
0.554888 0.272399 0.679293
0.684108 0.275571 0.675326
0.809280 0.278736 0.671355
0.931228 0.281896 0.667380
1.000000 0.285050 0.663401
0.000000 0.398707 0.693082
0.113705 0.401681 0.689129
0.271903 0.404651 0.685171
0.414868 0.407618 0.681210
0.549735 0.410580 0.677245
0.679136 0.413540 0.673276
0.804448 0.416495 0.669303
0.926511 0.419448 0.665326
1.000000 0.422396 0.661345
0.000000 0.529793 0.691041
0.106928 0.532627 0.687086
0.266079 0.535459 0.683127
0.409452 0.538288 0.679163
0.544573 0.541115 0.675196
0.674158 0.543939 0.671225
0.799611 0.546761 0.667250
0.921789 0.549580 0.663271
1.000000 0.552396 0.659288
0.000000 0.655524 0.688999
0.100078 0.658257 0.685042
0.260234 0.660989 0.681081
0.404024 0.663719 0.677115
0.539403 0.666447 0.673146
0.669173 0.669173 0.669173
0.794770 0.671897 0.665196
0.917064 0.674620 0.661215
1.000000 0.677340 0.657230
0.000000 0.777254 0.686956
0.093146 0.779910 0.682997
0.254366 0.782565 0.679034
0.398583 0.785217 0.675066
0.534225 0.787869 0.671095
0.664182 0.790518 0.667120
0.789923 0.793167 0.663141
0.912334 0.795813 0.659157
1.000000 0.798459 0.655170
0.000000 0.895812 0.684912
0.086126 0.898405 0.680951
0.248475 0.900996 0.676985
0.393130 0.903586 0.673016
0.529038 0.906175 0.669043
0.659185 0.908763 0.665066
0.785071 0.911349 0.661084
0.907600 0.913934 0.657099
1.000000 0.916518 0.653109
0.000000 1.000000 0.682867
0.079007 1.000000 0.678904
0.242560 1.000000 0.674936
0.387663 1.000000 0.670965
0.523843 1.000000 0.666990
0.654181 1.000000 0.663010
0.780215 1.000000 0.659027
0.902862 1.000000 0.655039
1.000000 1.000000 0.651048
0.000000 0.000000 0.817103
0.122882 0.000000 0.813259
0.279850 0.000000 0.809412
0.422272 0.000000 0.805562
0.556795 0.000000 0.801709
0.685949 0.000000 0.797852
0.811068 0.000000 0.793993
0.932975 0.000000 0.790130
1.000000 0.000000 0.786264
0.000000 0.089497 0.815119
0.116198 0.093319 0.811273
0.274055 0.097116 0.807425
0.416872 0.100887 0.803573
0.551645 0.104634 0.799718
0.680979 0.108359 0.795860
0.806238 0.112062 0.791998
0.928259 0.115744 0.788134
1.000000 0.119407 0.784266
0.000000 0.246119 0.813133
0.109447 0.249346 0.809286
0.268239 0.252565 0.805436
0.411460 0.255778 0.801583
0.546486 0.258984 0.797726
0.676003 0.262183 0.793866
0.801404 0.265375 0.790003
0.923539 0.268561 0.786137
1.000000 0.271741 0.782268
0.000000 0.386152 0.811147
0.102624 0.389142 0.807298
0.262402 0.392129 0.803447
0.406036 0.395111 0.799592
0.541319 0.398090 0.795733
0.671020 0.401064 0.791872
0.796564 0.404036 0.788007
0.918815 0.407003 0.784140
1.000000 0.409967 0.780269
0.000000 0.517840 0.809160
0.095724 0.520686 0.805310
0.256542 0.523528 0.801456
0.400600 0.526368 0.797600
0.536144 0.529205 0.793740
0.666032 0.532040 0.789877
0.791719 0.534872 0.786011
0.914087 0.537702 0.782141
1.000000 0.540529 0.778268
0.000000 0.644001 0.807172
0.088738 0.646743 0.803320
0.250660 0.649483 0.799465
0.395151 0.652221 0.795607
0.530961 0.654957 0.791746
0.661037 0.657691 0.787881
0.786869 0.660423 0.784013
0.909354 0.663153 0.780142
1.000000 0.665882 0.776267
0.000000 0.766063 0.805184
0.081657 0.768726 0.801330
0.244754 0.771386 0.797473
0.389690 0.774046 0.793613
0.525768 0.776704 0.789750
0.656035 0.779360 0.785884
0.782014 0.782014 0.782014
0.904618 0.784668 0.778142
1.000000 0.787319 0.774265
0.000000 0.884890 0.803194
0.074469 0.887488 0.799339
0.238824 0.890085 0.795481
0.384215 0.892680 0.791619
0.520567 0.895275 0.787754
0.651027 0.897868 0.783886
0.777154 0.900459 0.780015
0.899877 0.903050 0.776140
1.000000 0.905639 0.772263
0.000000 1.000000 0.801204
0.067162 1.000000 0.797347
0.232868 1.000000 0.793487
0.378727 1.000000 0.789624
0.515358 1.000000 0.785757
0.646013 1.000000 0.781888
0.772289 1.000000 0.778015
0.895132 1.000000 0.774138
1.000000 1.000000 0.770259
0.000000 0.000000 0.932173
0.111956 0.000000 0.928414
0.270396 0.000000 0.924653
0.413466 0.000000 0.920889
0.548398 0.000000 0.917123
0.677847 0.000000 0.913354
0.803195 0.000000 0.909582
0.925288 0.000000 0.905808
1.000000 0.000000 0.902031
0.000000 0.073086 0.930232
0.105160 0.077039 0.926472
0.264567 0.080958 0.922710
0.408047 0.084844 0.918945
0.543234 0.088701 0.915177
0.672867 0.092529 0.911406
0.798357 0.096331 0.907633
0.920565 0.100107 0.903858
1.000000 0.103859 0.900079
0.000000 0.232463 0.928291
0.098290 0.235721 0.924530
0.258715 0.238971 0.920766
0.402615 0.242214 0.916999
0.538062 0.245449 0.913230
0.667880 0.248677 0.909459
0.793514 0.251898 0.905684
0.915839 0.255113 0.901907
1.000000 0.258320 0.898127
0.000000 0.373528 0.926349
0.091336 0.376535 0.922587
0.252842 0.379538 0.918821
0.397171 0.382537 0.915053
0.532882 0.385532 0.911283
0.662888 0.388523 0.907510
0.788666 0.391510 0.903734
0.911108 0.394493 0.899956
1.000000 0.397473 0.896174
0.000000 0.505840 0.924407
0.084292 0.508697 0.920643
0.246944 0.511551 0.916876
0.391714 0.514402 0.913107
0.527693 0.517250 0.909335
0.657889 0.520096 0.905560
0.783813 0.522939 0.901783
0.906373 0.525780 0.898003
1.000000 0.528617 0.894221
0.000000 0.632442 0.922463
0.077145 0.635193 0.918698
0.241023 0.637941 0.914930
0.386245 0.640688 0.911159
0.522495 0.643432 0.907386
0.652883 0.646174 0.903610
0.778955 0.648915 0.899832
0.901634 0.651653 0.896050
1.000000 0.654390 0.892266
0.000000 0.754844 0.920519
0.069884 0.757513 0.916753
0.235077 0.760181 0.912983
0.380762 0.762847 0.909211
0.517289 0.765511 0.905437
0.647871 0.768174 0.901660
0.774092 0.770835 0.897880
0.896890 0.773495 0.894097
1.000000 0.776153 0.890311
0.000000 0.873945 0.918575
0.062492 0.876548 0.914807
0.229106 0.879151 0.911036
0.375265 0.881752 0.907263
0.512073 0.884351 0.903487
0.642852 0.886950 0.899708
0.769224 0.889547 0.895927
0.892143 0.892143 0.892143
1.000000 0.894737 0.888356
0.000000 0.990339 0.916629
0.054948 0.992888 0.912860
0.223107 0.995435 0.909088
0.369755 0.997982 0.905313
0.506849 1.000000 0.901536
0.637827 1.000000 0.897756
0.764350 1.000000 0.893973
0.887390 1.000000 0.890187
1.000000 1.000000 0.886399
0.000000 0.000000 1.000000
0.100844 0.000000 1.000000
0.260885 0.000000 1.000000
0.404629 0.000000 1.000000
0.539979 0.000000 1.000000
0.669728 0.000000 1.000000
0.795309 0.000000 1.000000
0.917590 0.000000 1.000000
1.000000 0.000000 1.000000
0.000000 0.056016 1.000000
0.093922 0.060145 1.000000
0.255020 0.064227 1.000000
0.399189 0.068264 1.000000
0.534802 0.072262 1.000000
0.664738 0.076222 1.000000
0.790463 0.080148 1.000000
0.912861 0.084041 1.000000
1.000000 0.087904 1.000000
0.000000 0.218669 1.000000
0.086912 0.221961 1.000000
0.249132 0.225244 1.000000
0.393737 0.228519 1.000000
0.529616 0.231787 1.000000
0.659741 0.235046 1.000000
0.785612 0.238298 1.000000
0.908127 0.241542 1.000000
1.000000 0.244779 1.000000
0.000000 0.360831 1.000000
0.079805 0.363855 1.000000
0.243220 0.366876 1.000000
0.388272 0.369892 1.000000
0.524422 0.372904 1.000000
0.654738 0.375912 1.000000
0.780756 0.378916 1.000000
0.903390 0.381916 1.000000
1.000000 0.384911 1.000000
0.000000 0.493792 1.000000
0.072588 0.496660 1.000000
0.237283 0.499525 1.000000
0.382794 0.502388 1.000000
0.519218 0.505248 1.000000
0.649729 0.508105 1.000000
0.775894 0.510959 1.000000
0.898648 0.513811 1.000000
1.000000 0.516660 1.000000
0.000000 0.620848 1.000000
0.065247 0.623607 1.000000
0.231321 0.626364 1.000000
0.377303 0.629119 1.000000
0.514006 0.631872 1.000000
0.644712 0.634623 1.000000
0.771028 0.637372 1.000000
0.893902 0.640118 1.000000
1.000000 0.642863 1.000000
0.000000 0.743597 1.000000
0.057762 0.746273 1.000000
0.225333 0.748947 1.000000
0.371798 0.751620 1.000000
0.508785 0.754291 1.000000
0.639689 0.756960 1.000000
0.766156 0.759628 1.000000
0.889151 0.762294 1.000000
1.000000 0.764959 1.000000
0.000000 0.862976 1.000000
0.050108 0.865586 1.000000
0.219317 0.868193 1.000000
0.366279 0.870800 1.000000
0.503555 0.873405 1.000000
0.634660 0.876009 1.000000
0.761279 0.878611 1.000000
0.884397 0.881213 1.000000
1.000000 0.883813 1.000000
0.000000 0.979602 1.000000
0.042249 0.982156 1.000000
0.213273 0.984708 1.000000
0.360746 0.987260 1.000000
0.498315 0.989810 1.000000
0.629624 0.992359 1.000000
0.756397 0.994907 1.000000
0.879638 0.997454 1.000000
1.000000 1.000000 1.000000
