presets/film_stocks/Kodak_EXR_5386.cube
# 独寻胶片模拟 -- Kodak EXR 5386
# Kodak, ISO 0, 1993, negative
TITLE "Kodak EXR 5386"
LUT_3D_SIZE 5
DOMAIN_MIN 0.0 0.0 0.0
DOMAIN_MAX 1.0 1.0 1.0
0.000000 0.000000 0.000000
0.321002 0.000000 0.000000
0.566571 0.000000 0.000000
0.789935 0.000000 0.000000
1.000000 0.000000 0.000000
0.000000 0.321002 0.000000
0.321002 0.321002 0.000000
0.566571 0.321002 0.000000
0.789935 0.321002 0.000000
1.000000 0.321002 0.000000
0.000000 0.566571 0.000000
0.321002 0.566571 0.000000
0.566571 0.566571 0.000000
0.789935 0.566571 0.000000
1.000000 0.566571 0.000000
0.000000 0.789935 0.000000
0.321002 0.789935 0.000000
0.566571 0.789935 0.000000
0.789935 0.789935 0.000000
1.000000 0.789935 0.000000
0.000000 1.000000 0.000000
0.321002 1.000000 0.000000
0.566571 1.000000 0.000000
0.789935 1.000000 0.000000
1.000000 1.000000 0.000000
0.000000 0.000000 0.321002
0.321002 0.000000 0.321002
0.566571 0.000000 0.321002
0.789935 0.000000 0.321002
1.000000 0.000000 0.321002
0.000000 0.321002 0.321002
0.321002 0.321002 0.321002
0.566571 0.321002 0.321002
0.789935 0.321002 0.321002
1.000000 0.321002 0.321002
0.000000 0.566571 0.321002
0.321002 0.566571 0.321002
0.566571 0.566571 0.321002
0.789935 0.566571 0.321002
1.000000 0.566571 0.321002
0.000000 0.789935 0.321002
0.321002 0.789935 0.321002
0.566571 0.789935 0.321002
0.789935 0.789935 0.321002
1.000000 0.789935 0.321002
0.000000 1.000000 0.321002
0.321002 1.000000 0.321002
0.566571 1.000000 0.321002
0.789935 1.000000 0.321002
1.000000 1.000000 0.321002
0.000000 0.000000 0.566571
0.321002 0.000000 0.566571
0.566571 0.000000 0.566571
0.789935 0.000000 0.566571
1.000000 0.000000 0.566571
0.000000 0.321002 0.566571
0.321002 0.321002 0.566571
0.566571 0.321002 0.566571
0.789935 0.321002 0.566571
1.000000 0.321002 0.566571
0.000000 0.566571 0.566571
0.321002 0.566571 0.566571
0.566571 0.566571 0.566571
0.789935 0.566571 0.566571
1.000000 0.566571 0.566571
0.000000 0.789935 0.566571
0.321002 0.789935 0.566571
0.566571 0.789935 0.566571
0.789935 0.789935 0.566571
1.000000 0.789935 0.566571
0.000000 1.000000 0.566571
0.321002 1.000000 0.566571
0.566571 1.000000 0.566571
0.789935 1.000000 0.566571
1.000000 1.000000 0.566571
0.000000 0.000000 0.789935
0.321002 0.000000 0.789935
0.566571 0.000000 0.789935
0.789935 0.000000 0.789935
1.000000 0.000000 0.789935
0.000000 0.321002 0.789935
0.321002 0.321002 0.789935
0.566571 0.321002 0.789935
0.789935 0.321002 0.789935
1.000000 0.321002 0.789935
0.000000 0.566571 0.789935
0.321002 0.566571 0.789935
0.566571 0.566571 0.789935
0.789935 0.566571 0.789935
1.000000 0.566571 0.789935
0.000000 0.789935 0.789935
0.321002 0.789935 0.789935
0.566571 0.789935 0.789935
0.789935 0.789935 0.789935
1.000000 0.789935 0.789935
0.000000 1.000000 0.789935
0.321002 1.000000 0.789935
0.566571 1.000000 0.789935
0.789935 1.000000 0.789935
1.000000 1.000000 0.789935
0.000000 0.000000 1.000000
0.321002 0.000000 1.000000
0.566571 0.000000 1.000000
0.789935 0.000000 1.000000
1.000000 0.000000 1.000000
0.000000 0.321002 1.000000
0.321002 0.321002 1.000000
0.566571 0.321002 1.000000
0.789935 0.321002 1.000000
1.000000 0.321002 1.000000
0.000000 0.566571 1.000000
0.321002 0.566571 1.000000
0.566571 0.566571 1.000000
0.789935 0.566571 1.000000
1.000000 0.566571 1.000000
0.000000 0.789935 1.000000
0.321002 0.789935 1.000000
0.566571 0.789935 1.000000
0.789935 0.789935 1.000000
1.000000 0.789935 1.000000
0.000000 1.000000 1.000000
0.321002 1.000000 1.000000
0.566571 1.000000 1.000000
0.789935 1.000000 1.000000
1.000000 1.000000 1.000000
