presets/film_stocks/Kodachrome_64.cube
# 独寻胶片模拟 -- Kodachrome 64
# Kodak, ISO 64, 1974, positive
TITLE "Kodachrome 64"
LUT_3D_SIZE 9
DOMAIN_MIN 0.0 0.0 0.0
DOMAIN_MAX 1.0 1.0 1.0
0.000000 0.000000 0.000000
0.221925 0.022285 0.000000
0.372269 0.037382 0.000000
0.503811 0.050591 0.000000
0.624461 0.062706 0.000000
0.737610 0.074068 0.000000
0.845117 0.084864 0.000000
0.948150 0.095210 0.000000
1.000000 0.105186 0.000000
0.000000 0.224974 0.000000
0.218740 0.232509 0.000000
0.369601 0.239961 0.000000
0.501405 0.247336 0.000000
0.622225 0.254636 0.000000
0.735496 0.261866 0.000000
0.843100 0.269029 0.000000
0.946211 0.276128 0.000000
1.000000 0.283165 0.000000
0.000000 0.377383 0.000000
0.215540 0.383720 0.000000
0.366926 0.390022 0.000000
0.498995 0.396289 0.000000
0.619986 0.402523 0.000000
0.733381 0.408724 0.000000
0.841081 0.414893 0.000000
0.944269 0.421031 0.000000
1.000000 0.427139 0.000000
0.000000 0.510733 0.000000
0.212323 0.516456 0.000000
0.364245 0.522157 0.000000
0.496581 0.527837 0.000000
0.617744 0.533497 0.000000
0.731264 0.539136 0.000000
0.839060 0.544756 0.000000
0.942327 0.550355 0.000000
1.000000 0.555936 0.000000
0.000000 0.633040 0.000000
0.209089 0.638363 0.000000
0.361557 0.643671 0.000000
0.494163 0.648963 0.000000
0.615499 0.654241 0.000000
0.729145 0.659505 0.000000
0.837038 0.664754 0.000000
0.940383 0.669990 0.000000
1.000000 0.675211 0.000000
0.000000 0.747743 0.000000
0.205838 0.752774 0.000000
0.358862 0.757794 0.000000
0.491740 0.762802 0.000000
0.613252 0.767799 0.000000
0.727024 0.772785 0.000000
0.835014 0.777761 0.000000
0.938438 0.782725 0.000000
1.000000 0.787679 0.000000
0.000000 0.856728 0.000000
0.202570 0.861532 0.000000
0.356160 0.866328 0.000000
0.489314 0.871114 0.000000
0.611002 0.875892 0.000000
0.724900 0.880660 0.000000
0.832989 0.885420 0.000000
0.936491 0.890171 0.000000
1.000000 0.894914 0.000000
0.000000 0.961176 0.000000
0.199283 0.965797 0.000000
0.353452 0.970411 0.000000
0.486884 0.975017 0.000000
0.608749 0.979615 0.000000
0.722775 0.984206 0.000000
0.830961 0.988790 0.000000
0.934543 0.993367 0.000000
1.000000 0.997936 0.000000
0.000000 1.000000 0.000000
0.195978 1.000000 0.000000
0.350736 1.000000 0.000000
0.484449 1.000000 0.000000
0.606493 1.000000 0.000000
0.720647 1.000000 0.000000
0.828932 1.000000 0.000000
0.932594 1.000000 0.000000
1.000000 1.000000 0.000000
0.000000 0.000000 0.222608
0.215081 0.000000 0.214048
0.366543 0.000000 0.205369
0.498650 0.008775 0.196564
0.619666 0.026899 0.187623
0.733079 0.041314 0.178534
0.840792 0.054158 0.169285
0.943992 0.066032 0.159861
1.000000 0.077216 0.150244
0.000000 0.204079 0.220451
0.211862 0.211862 0.211862
0.363861 0.219548 0.203152
0.496235 0.227144 0.194313
0.617424 0.234655 0.185336
0.730962 0.242084 0.176208
0.838772 0.249437 0.166916
0.942049 0.256717 0.157445
1.000000 0.263928 0.147776
0.000000 0.360003 0.218287
0.208625 0.366441 0.209668
0.361172 0.372841 0.200926
0.493817 0.379204 0.192053
0.615178 0.385531 0.183039
0.728842 0.391823 0.173871
0.836749 0.398080 0.164535
0.940105 0.404305 0.155016
1.000000 0.410497 0.145293
0.000000 0.495094 0.216115
0.205372 0.500877 0.207466
0.358476 0.506638 0.198692
0.491394 0.512376 0.189785
0.612931 0.518093 0.180732
0.726720 0.523788 0.171523
0.834725 0.529463 0.162143
0.938160 0.535117 0.152574
1.000000 0.540750 0.142796
0.000000 0.618522 0.213936
0.202101 0.623886 0.205256
0.355774 0.629235 0.196450
0.488967 0.634569 0.187506
0.610680 0.639887 0.178416
0.724597 0.645190 0.169165
0.832699 0.650479 0.159738
0.936213 0.655753 0.150118
1.000000 0.661012 0.140284
0.000000 0.734034 0.211750
0.198812 0.739097 0.203039
0.353064 0.744148 0.194198
0.486536 0.749187 0.185219
0.608427 0.754215 0.176089
0.722471 0.759231 0.166795
0.830671 0.764236 0.157321
0.934265 0.769230 0.147649
1.000000 0.774214 0.137757
0.000000 0.843646 0.209556
0.195505 0.848475 0.200812
0.350347 0.853296 0.191938
0.484101 0.858107 0.182922
0.606170 0.862909 0.173751
0.720343 0.867701 0.164413
0.828642 0.872485 0.154892
0.932315 0.877260 0.145166
1.000000 0.882026 0.135214
0.000000 0.948601 0.207353
0.192178 0.953242 0.198578
0.347623 0.957876 0.189669
0.481662 0.962502 0.180614
0.603911 0.967121 0.171403
0.718213 0.971732 0.162020
0.826611 0.976336 0.152449
0.930364 0.980933 0.142668
1.000000 0.985522 0.132654
0.000000 1.000000 0.205143
0.188831 1.000000 0.196335
0.344892 1.000000 0.187390
0.479219 1.000000 0.178297
0.601649 1.000000 0.169044
0.716080 1.000000 0.159615
0.824579 1.000000 0.149993
0.928412 1.000000 0.140156
1.000000 1.000000 0.130078
0.000000 0.000000 0.373414
0.208162 0.000000 0.366258
0.360787 0.000000 0.359054
0.493471 0.000000 0.351801
0.614858 0.000000 0.344496
0.728539 0.000000 0.337139
0.836460 0.014719 0.329726
0.939827 0.031257 0.322257
1.000000 0.045122 0.314728
0.000000 0.182428 0.371606
0.204906 0.190505 0.364438
0.358091 0.198467 0.357222
0.491048 0.206321 0.349956
0.612609 0.214076 0.342638
0.726417 0.221736 0.335267
0.834436 0.229307 0.327840
0.937882 0.236794 0.320356
1.000000 0.244201 0.312811
0.000000 0.342332 0.369796
0.201632 0.348880 0.362616
0.355387 0.355387 0.355387
0.488620 0.361853 0.348108
0.610358 0.368281 0.340777
0.724293 0.374670 0.333392
0.832409 0.381022 0.325950
0.935935 0.387339 0.318451
1.000000 0.393621 0.310891
0.000000 0.479285 0.367982
0.198341 0.485132 0.360790
0.352676 0.490955 0.353549
0.486189 0.496755 0.346257
0.608104 0.502532 0.338912
0.722167 0.508286 0.331513
0.830382 0.514018 0.324057
0.933986 0.519729 0.316542
1.000000 0.525418 0.308967
0.000000 0.603886 0.366165
0.195030 0.609294 0.358961
0.349958 0.614686 0.351707
0.483753 0.620062 0.344402
0.605848 0.625422 0.337043
0.720039 0.630766 0.329630
0.828352 0.636095 0.322160
0.932036 0.641409 0.314630
1.000000 0.646708 0.307038
0.000000 0.720238 0.364345
0.191701 0.725333 0.357129
0.347234 0.730416 0.349862
0.481313 0.735487 0.342543
0.603588 0.740547 0.335171
0.717908 0.745594 0.327744
0.826321 0.750630 0.320259
0.930085 0.755655 0.312714
1.000000 0.760668 0.305106
0.000000 0.830494 0.362523
0.188352 0.835350 0.355293
0.344501 0.840195 0.348014
0.478869 0.845032 0.340682
0.601326 0.849859 0.333296
0.715776 0.854676 0.325854
0.824288 0.859485 0.318354
0.928133 0.864284 0.310793
1.000000 0.869074 0.303169
0.000000 0.935968 0.360697
0.184982 0.940631 0.353455
0.341762 0.945286 0.346162
0.476421 0.949933 0.338817
0.599060 0.954572 0.331417
0.713641 0.959204 0.323960
0.822254 0.963828 0.316445
0.926179 0.968445 0.308869
1.000000 0.973054 0.301228
0.000000 1.000000 0.358867
0.181591 1.000000 0.351613
0.339014 1.000000 0.344307
0.473968 1.000000 0.336948
0.596792 1.000000 0.329534
0.711504 1.000000 0.322063
0.820217 1.000000 0.314532
0.924223 1.000000 0.306940
1.000000 1.000000 0.299283
0.000000 0.000000 0.505361
0.201163 0.000000 0.498912
0.355000 0.000000 0.492434
0.488273 0.000000 0.485927
0.610036 0.000000 0.479391
0.723989 0.000000 0.472824
0.832120 0.000000 0.466226
0.935656 0.000000 0.459595
1.000000 0.000000 0.452933
0.000000 0.159863 0.503731
0.197869 0.168299 0.497274
0.352288 0.176593 0.490789
0.485841 0.184757 0.484275
0.607782 0.192800 0.477731
0.721863 0.200730 0.471156
0.830092 0.208555 0.464550
0.933708 0.216282 0.457911
1.000000 0.223916 0.451240
0.000000 0.324346 0.502098
0.194556 0.331014 0.495635
0.349570 0.337636 0.489142
0.483405 0.344215 0.482621
0.605525 0.350751 0.476069
0.719734 0.357246 0.469486
0.828062 0.363701 0.462872
0.931758 0.370117 0.456225
1.000000 0.376496 0.449545
0.000000 0.463297 0.500464
0.191224 0.469211 0.493994
0.346844 0.475100 0.487494
0.480964 0.480964 0.480964
0.603265 0.486804 0.474405
0.717604 0.492621 0.467814
0.826031 0.498414 0.461192
0.929806 0.504184 0.454537
1.000000 0.509932 0.447849
0.000000 0.589129 0.498828
0.187871 0.594582 0.492350
0.344110 0.600019 0.485843
0.478520 0.605439 0.479306
0.601002 0.610842 0.472739
0.715471 0.616230 0.466140
0.823998 0.621601 0.459510
0.927854 0.626956 0.452846
1.000000 0.632296 0.446150
0.000000 0.706351 0.497191
0.184499 0.711480 0.490705
0.341370 0.716597 0.484191
0.476071 0.721701 0.477646
0.598736 0.726792 0.471071
0.713336 0.731872 0.464464
0.821963 0.736940 0.457825
0.925899 0.741996 0.451154
1.000000 0.747040 0.444448
0.000000 0.817272 0.495551
0.181105 0.822153 0.489058
0.338621 0.827025 0.482536
0.473618 0.831888 0.475984
0.596468 0.836740 0.469401
0.711198 0.841584 0.462786
0.819926 0.846417 0.456139
0.923944 0.851241 0.449459
1.000000 0.856056 0.442745
0.000000 0.923278 0.493910
0.177689 0.927962 0.487410
0.335866 0.932638 0.480880
0.471160 0.937306 0.474320
0.594196 0.941967 0.467729
0.709059 0.946619 0.461106
0.817888 0.951264 0.454451
0.921987 0.955901 0.447762
1.000000 0.960531 0.441039
0.000000 1.000000 0.492266
0.174252 1.000000 0.485759
0.333102 1.000000 0.479222
0.468698 1.000000 0.472654
0.591922 1.000000 0.466055
0.706917 1.000000 0.459424
0.815848 1.000000 0.452760
0.920028 1.000000 0.446063
1.000000 1.000000 0.439331
0.000000 0.000000 0.626383
0.194081 0.000000 0.620391
0.349181 0.000000 0.614379
0.483056 0.000000 0.608347
0.605202 0.000000 0.602295
0.719430 0.000000 0.596222
0.827772 0.000000 0.590128
0.931479 0.000000 0.584012
1.000000 0.000000 0.577875
0.000000 0.136154 0.624867
0.190746 0.145044 0.618870
0.346454 0.153753 0.612853
0.480615 0.162298 0.606817
0.602942 0.170692 0.600759
0.717299 0.178947 0.594681
0.825740 0.187076 0.588581
0.929527 0.195086 0.582460
1.000000 0.202985 0.576317
0.000000 0.306014 0.623350
0.187391 0.312813 0.617348
0.343719 0.319562 0.611327
0.478170 0.326263 0.605285
0.600679 0.332918 0.599222
0.715166 0.339527 0.593138
0.823707 0.346094 0.587033
0.927574 0.352618 0.580907
1.000000 0.359101 0.574758
0.000000 0.447119 0.621832
0.184015 0.453104 0.615825
0.340977 0.459063 0.609799
0.475721 0.464996 0.603751
0.598413 0.470903 0.597683
0.713030 0.476785 0.591594
0.821672 0.482642 0.585484
0.925620 0.488475 0.579352
1.000000 0.494285 0.573198
0.000000 0.574245 0.620313
0.180618 0.579746 0.614301
0.338228 0.585229 0.608269
0.473267 0.590695 0.602217
0.596143 0.596143 0.596143
0.710893 0.601575 0.590049
0.819635 0.606990 0.583933
0.923664 0.612389 0.577796
1.000000 0.617772 0.571636
0.000000 0.692371 0.618793
0.177200 0.697535 0.612776
0.335471 0.702686 0.606738
0.470809 0.707824 0.600681
0.593871 0.712949 0.594602
0.708753 0.718062 0.588502
0.817597 0.723162 0.582381
0.921707 0.728251 0.576238
1.000000 0.733327 0.570072
0.000000 0.803976 0.617271
0.173758 0.808885 0.611249
0.332707 0.813784 0.605206
0.468346 0.818673 0.599143
0.591596 0.823552 0.593060
0.706611 0.828421 0.586954
0.815557 0.833281 0.580828
0.919748 0.838130 0.574679
1.000000 0.842971 0.568507
0.000000 0.910527 0.615748
0.170294 0.915234 0.609721
0.329934 0.919932 0.603673
0.465879 0.924622 0.597605
0.589318 0.929304 0.591516
0.704467 0.933978 0.585405
0.813515 0.938644 0.579273
0.917788 0.943302 0.573118
1.000000 0.947952 0.566941
0.000000 1.000000 0.614223
0.166805 1.000000 0.608191
0.327154 1.000000 0.602138
0.463408 1.000000 0.596065
0.587037 1.000000 0.589970
0.702321 1.000000 0.583854
0.811471 1.000000 0.577716
0.915827 1.000000 0.571556
1.000000 1.000000 0.565373
0.000000 0.000000 0.739879
0.186910 0.000000 0.734219
0.343328 0.000000 0.728543
0.477820 0.000000 0.722853
0.600355 0.000000 0.717148
0.714861 0.000000 0.711427
0.823416 0.000000 0.705690
0.927295 0.000000 0.699937
1.000000 0.000000 0.694169
0.000000 0.110939 0.738447
0.183531 0.120439 0.732783
0.340585 0.129691 0.727104
0.475370 0.138724 0.721410
0.598089 0.147560 0.715700
0.712725 0.156220 0.709975
0.821381 0.164720 0.704235
0.925341 0.173073 0.698478
1.000000 0.181291 0.692705
0.000000 0.287300 0.737014
0.180131 0.294244 0.731346
0.337835 0.301133 0.725663
0.472916 0.307969 0.719965
0.595819 0.314754 0.714252
0.710587 0.321489 0.708523
0.819344 0.328177 0.702779
0.923385 0.334818 0.697018
1.000000 0.341415 0.691241
0.000000 0.430739 0.735580
0.176709 0.436801 0.729909
0.335077 0.442833 0.724222
0.470457 0.448838 0.718520
0.593547 0.454816 0.712803
0.708447 0.460767 0.707070
0.817305 0.466692 0.701321
0.921427 0.472592 0.695556
1.000000 0.478467 0.689775
0.000000 0.559229 0.734145
0.173265 0.564779 0.728470
0.332311 0.570311 0.722780
0.467994 0.575824 0.717074
0.591271 0.581320 0.711353
0.706305 0.586798 0.705616
0.815265 0.592259 0.699863
0.919468 0.597703 0.694094
1.000000 0.603130 0.688309
0.000000 0.678294 0.732710
0.169797 0.683494 0.727030
0.329537 0.688680 0.721336
0.465527 0.693853 0.715627
0.588993 0.699013 0.709901
0.704160 0.704160 0.704160
0.813223 0.709295 0.698404
0.917508 0.714417 0.692631
1.000000 0.719526 0.686841
0.000000 0.790605 0.731273
0.166305 0.795542 0.725590
0.326756 0.800468 0.719892
0.463055 0.805385 0.714178
0.586711 0.810291 0.708449
0.702014 0.815187 0.702704
0.811179 0.820073 0.696943
0.915547 0.824949 0.691166
1.000000 0.829816 0.685372
0.000000 0.897716 0.729835
0.162787 0.902445 0.724148
0.323966 0.907166 0.718446
0.460578 0.911878 0.712729
0.584427 0.916582 0.706996
0.699865 0.921278 0.701247
0.809133 0.925966 0.695482
0.913584 0.930645 0.689701
1.000000 0.935317 0.683903
0.000000 1.000000 0.728397
0.159244 1.000000 0.722706
0.321168 1.000000 0.717000
0.458097 1.000000 0.711279
0.582139 1.000000 0.705542
0.697714 1.000000 0.699789
0.807086 1.000000 0.694019
0.911619 1.000000 0.688234
1.000000 1.000000 0.682432
0.000000 0.000000 0.847717
0.179644 0.000000 0.842314
0.337441 0.000000 0.836899
0.472565 0.000000 0.831472
0.595495 0.000000 0.826033
0.710282 0.000000 0.820582
0.819053 0.000000 0.815118
0.923105 0.000000 0.809642
1.000000 0.000000 0.804153
0.000000 0.083577 0.846350
0.176219 0.093973 0.840944
0.334682 0.103992 0.835526
0.470106 0.113691 0.830096
0.593222 0.123117 0.824654
0.708141 0.132303 0.819199
0.817014 0.141277 0.813733
0.921148 0.150061 0.808253
1.000000 0.158674 0.802762
0.000000 0.268162 0.844982
0.172771 0.275268 0.839573
0.331915 0.282313 0.834152
0.467642 0.289298 0.828719
0.590946 0.296226 0.823274
0.705999 0.303099 0.817816
0.814973 0.309920 0.812346
0.919189 0.316690 0.806864
1.000000 0.323412 0.801369
0.000000 0.414145 0.843614
0.169300 0.420287 0.838202
0.329140 0.426399 0.832777
0.465174 0.432481 0.827341
0.588667 0.438534 0.821893
0.703854 0.444558 0.816432
0.812931 0.450556 0.810959
0.917228 0.456526 0.805474
1.000000 0.462469 0.799975
0.000000 0.544074 0.842244
0.165804 0.549676 0.836829
0.326358 0.555259 0.831402
0.462701 0.560822 0.825963
0.586385 0.566367 0.820511
0.701707 0.571894 0.815048
0.810887 0.577403 0.809571
0.915266 0.582893 0.804082
1.000000 0.588366 0.798581
0.000000 0.664117 0.840874
0.162283 0.669354 0.835456
0.323567 0.674577 0.830026
0.460224 0.679787 0.824583
0.584100 0.684983 0.819129
0.699558 0.690165 0.813662
0.808841 0.695335 0.808183
0.913303 0.700491 0.802690
1.000000 0.705634 0.797186
0.000000 0.777157 0.839503
0.158736 0.782122 0.834082
0.320768 0.787077 0.828649
0.457742 0.792022 0.823203
0.581812 0.796956 0.817746
0.697406 0.801880 0.812276
0.806793 0.806793 0.806793
0.911338 0.811696 0.801298
1.000000 0.816589 0.795790
0.000000 0.884842 0.838132
0.155161 0.889594 0.832707
0.317961 0.894338 0.827271
0.455256 0.899073 0.821823
0.579521 0.903800 0.816362
0.695252 0.908518 0.810888
0.804744 0.913228 0.805403
0.909372 0.917930 0.799904
1.000000 0.922623 0.794393
0.000000 0.988233 0.836759
0.151559 0.992811 0.831332
0.315145 0.997381 0.825892
0.452765 1.000000 0.820441
0.577227 1.000000 0.814977
0.693096 1.000000 0.809501
0.802692 1.000000 0.804011
0.907404 1.000000 0.798510
1.000000 1.000000 0.792995
0.000000 0.000000 0.951068
0.172276 0.000000 0.945873
0.331519 0.000000 0.940668
0.467290 0.000000 0.935453
0.590620 0.000000 0.930228
0.705692 0.000000 0.924994
0.814682 0.000000 0.919749
0.918909 0.000000 0.914494
1.000000 0.000000 0.909229
0.000000 0.052657 0.949753
0.168802 0.064630 0.944555
0.328743 0.075888 0.939348
0.464821 0.086602 0.934131
0.588341 0.096883 0.928904
0.703547 0.106804 0.923667
0.812639 0.116421 0.918419
0.916948 0.125775 0.913162
1.000000 0.134898 0.907894
0.000000 0.248547 0.948438
0.165302 0.255836 0.943238
0.325959 0.263055 0.938028
0.462347 0.270207 0.932808
0.586059 0.277295 0.927578
0.701400 0.284322 0.922339
0.810594 0.291290 0.917089
0.914986 0.298203 0.911829
1.000000 0.305061 0.906558
0.000000 0.397322 0.947122
0.161778 0.403550 0.941919
0.323167 0.409746 0.936707
0.459870 0.415910 0.931485
0.583774 0.422043 0.926253
0.699250 0.428146 0.921010
0.808548 0.434220 0.915758
0.913022 0.440265 0.910495
1.000000 0.446281 0.905222
0.000000 0.528774 0.945805
0.158227 0.534431 0.940600
0.320367 0.540067 0.935385
0.457387 0.545683 0.930161
0.581485 0.551279 0.924926
0.697099 0.556856 0.919681
0.806500 0.562415 0.914426
0.911057 0.567954 0.909161
1.000000 0.573476 0.903885
0.000000 0.649837 0.944488
0.154648 0.655112 0.939281
0.317559 0.660374 0.934063
0.454900 0.665621 0.928836
0.579194 0.670854 0.923599
0.694945 0.676073 0.918351
0.804451 0.681279 0.913094
0.909091 0.686471 0.907826
1.000000 0.691649 0.902548
0.000000 0.763629 0.943170
0.151042 0.768624 0.937960
0.314742 0.773608 0.932741
0.452409 0.778582 0.927511
0.576899 0.783545 0.922271
0.692788 0.788497 0.917021
0.802399 0.793438 0.911761
0.907123 0.798369 0.906490
1.000000 0.803290 0.901209
0.000000 0.871904 0.941852
0.147405 0.876680 0.936640
0.311916 0.881448 0.931417
0.449913 0.886206 0.926185
0.574602 0.890956 0.920942
0.690630 0.895697 0.915690
0.800346 0.900430 0.910427
0.905154 0.905154 0.905154
1.000000 0.909870 0.899870
0.000000 0.975777 0.940533
0.143738 0.980374 0.935318
0.309082 0.984964 0.930093
0.447412 0.989547 0.924858
0.572301 0.994123 0.919613
0.688469 0.998691 0.914358
0.798291 1.000000 0.909093
0.903183 1.000000 0.903817
1.000000 1.000000 0.898531
0.000000 0.000000 1.000000
0.164800 0.000000 1.000000
0.325561 0.000000 1.000000
0.461994 0.000000 1.000000
0.585733 0.000000 1.000000
0.701093 0.000000 1.000000
0.810302 0.000000 1.000000
0.914705 0.000000 1.000000
1.000000 0.000000 1.000000
0.000000 0.012323 1.000000
0.161272 0.029438 1.000000
0.322768 0.043522 1.000000
0.459515 0.056178 1.000000
0.583447 0.067923 1.000000
0.698943 0.079011 1.000000
0.808256 0.089591 1.000000
0.912742 0.099762 1.000000
1.000000 0.109591 1.000000
0.000000 0.228391 1.000000
0.157717 0.235888 1.000000
0.319967 0.243305 1.000000
0.457032 0.250645 1.000000
0.581158 0.257914 1.000000
0.696791 0.265113 1.000000
0.806208 0.272246 1.000000
0.910777 0.279316 1.000000
1.000000 0.286327 1.000000
0.000000 0.380252 1.000000
0.154135 0.386573 1.000000
0.317157 0.392859 1.000000
0.454545 0.399111 1.000000
0.578866 0.405330 1.000000
0.694637 0.411517 1.000000
0.804158 0.417672 1.000000
0.908810 0.423797 1.000000
1.000000 0.429891 1.000000
0.000000 0.513323 1.000000
0.150524 0.519036 1.000000
0.314339 0.524728 1.000000
0.452053 0.530399 1.000000
0.576571 0.536049 1.000000
0.692480 0.541679 1.000000
0.802106 0.547290 1.000000
0.906842 0.552881 1.000000
1.000000 0.558452 1.000000
0.000000 0.635449 1.000000
0.146883 0.640764 1.000000
0.311512 0.646065 1.000000
0.449556 0.651351 1.000000
0.574273 0.656623 1.000000
0.690321 0.661880 1.000000
0.800052 0.667123 1.000000
0.904872 0.672352 1.000000
1.000000 0.677567 1.000000
0.000000 0.750019 1.000000
0.143212 0.755045 1.000000
0.308676 0.760059 1.000000
0.447054 0.765063 1.000000
0.571972 0.770055 1.000000
0.688160 0.775036 1.000000
0.797997 0.780006 1.000000
0.902901 0.784966 1.000000
1.000000 0.789915 1.000000
0.000000 0.858901 1.000000
0.139508 0.863701 1.000000
0.305832 0.868493 1.000000
0.444548 0.873275 1.000000
0.569668 0.878049 1.000000
0.685996 0.882813 1.000000
0.795940 0.887569 1.000000
0.900929 0.892317 1.000000
1.000000 0.897055 1.000000
0.000000 0.963266 1.000000
0.135771 0.967884 1.000000
0.302978 0.972494 1.000000
0.442037 0.977096 1.000000
0.567360 0.981692 1.000000
0.683830 0.986280 1.000000
0.793881 0.990860 1.000000
0.898955 0.995434 1.000000
1.000000 1.000000 1.000000
