presets/film_stocks/Kodak_Supra_Endura_Paper.cube
# 独寻胶片模拟 -- Kodak Supra Endura Paper
# Kodak, ISO 0, 0, negative
TITLE "Kodak Supra Endura Paper"
LUT_3D_SIZE 5
DOMAIN_MIN 0.0 0.0 0.0
DOMAIN_MAX 1.0 1.0 1.0
0.000000 0.000000 0.000000
0.311937 0.000000 0.000000
0.558513 0.000000 0.000000
0.785253 0.000000 0.000000
1.000000 0.000000 0.000000
0.000000 0.311937 0.000000
0.311937 0.311937 0.000000
0.558513 0.311937 0.000000
0.785253 0.311937 0.000000
1.000000 0.311937 0.000000
0.000000 0.558513 0.000000
0.311937 0.558513 0.000000
0.558513 0.558513 0.000000
0.785253 0.558513 0.000000
1.000000 0.558513 0.000000
0.000000 0.785253 0.000000
0.311937 0.785253 0.000000
0.558513 0.785253 0.000000
0.785253 0.785253 0.000000
1.000000 0.785253 0.000000
0.000000 1.000000 0.000000
0.311937 1.000000 0.000000
0.558513 1.000000 0.000000
0.785253 1.000000 0.000000
1.000000 1.000000 0.000000
0.000000 0.000000 0.311937
0.311937 0.000000 0.311937
0.558513 0.000000 0.311937
0.785253 0.000000 0.311937
1.000000 0.000000 0.311937
0.000000 0.311937 0.311937
0.311937 0.311937 0.311937
0.558513 0.311937 0.311937
0.785253 0.311937 0.311937
1.000000 0.311937 0.311937
0.000000 0.558513 0.311937
0.311937 0.558513 0.311937
0.558513 0.558513 0.311937
0.785253 0.558513 0.311937
1.000000 0.558513 0.311937
0.000000 0.785253 0.311937
0.311937 0.785253 0.311937
0.558513 0.785253 0.311937
0.785253 0.785253 0.311937
1.000000 0.785253 0.311937
0.000000 1.000000 0.311937
0.311937 1.000000 0.311937
0.558513 1.000000 0.311937
0.785253 1.000000 0.311937
1.000000 1.000000 0.311937
0.000000 0.000000 0.558513
0.311937 0.000000 0.558513
0.558513 0.000000 0.558513
0.785253 0.000000 0.558513
1.000000 0.000000 0.558513
0.000000 0.311937 0.558513
0.311937 0.311937 0.558513
0.558513 0.311937 0.558513
0.785253 0.311937 0.558513
1.000000 0.311937 0.558513
0.000000 0.558513 0.558513
0.311937 0.558513 0.558513
0.558513 0.558513 0.558513
0.785253 0.558513 0.558513
1.000000 0.558513 0.558513
0.000000 0.785253 0.558513
0.311937 0.785253 0.558513
0.558513 0.785253 0.558513
0.785253 0.785253 0.558513
1.000000 0.785253 0.558513
0.000000 1.000000 0.558513
0.311937 1.000000 0.558513
0.558513 1.000000 0.558513
0.785253 1.000000 0.558513
1.000000 1.000000 0.558513
0.000000 0.000000 0.785253
0.311937 0.000000 0.785253
0.558513 0.000000 0.785253
0.785253 0.000000 0.785253
1.000000 0.000000 0.785253
0.000000 0.311937 0.785253
0.311937 0.311937 0.785253
0.558513 0.311937 0.785253
0.785253 0.311937 0.785253
1.000000 0.311937 0.785253
0.000000 0.558513 0.785253
0.311937 0.558513 0.785253
0.558513 0.558513 0.785253
0.785253 0.558513 0.785253
1.000000 0.558513 0.785253
0.000000 0.785253 0.785253
0.311937 0.785253 0.785253
0.558513 0.785253 0.785253
0.785253 0.785253 0.785253
1.000000 0.785253 0.785253
0.000000 1.000000 0.785253
0.311937 1.000000 0.785253
0.558513 1.000000 0.785253
0.785253 1.000000 0.785253
1.000000 1.000000 0.785253
0.000000 0.000000 1.000000
0.311937 0.000000 1.000000
0.558513 0.000000 1.000000
0.785253 0.000000 1.000000
1.000000 0.000000 1.000000
0.000000 0.311937 1.000000
0.311937 0.311937 1.000000
0.558513 0.311937 1.000000
0.785253 0.311937 1.000000
1.000000 0.311937 1.000000
0.000000 0.558513 1.000000
0.311937 0.558513 1.000000
0.558513 0.558513 1.000000
0.785253 0.558513 1.000000
1.000000 0.558513 1.000000
0.000000 0.785253 1.000000
0.311937 0.785253 1.000000
0.558513 0.785253 1.000000
0.785253 0.785253 1.000000
1.000000 0.785253 1.000000
0.000000 1.000000 1.000000
0.311937 1.000000 1.000000
0.558513 1.000000 1.000000
0.785253 1.000000 1.000000
1.000000 1.000000 1.000000
