presets/film_stocks/Kodak_Vision_320T_5277.cube
# 独寻胶片模拟 -- Kodak Vision 320T 5277
# Kodak, ISO 320, 1996, negative
TITLE "Kodak Vision 320T 5277"
LUT_3D_SIZE 33
DOMAIN_MIN 0.0 0.0 0.0
DOMAIN_MAX 1.0 1.0 1.0
0.000000 0.000000 0.000000
0.053474 0.001637 0.000000
0.098220 0.003006 0.000000
0.140174 0.004290 0.000000
0.180411 0.005521 0.000000
0.219418 0.006715 0.000000
0.257472 0.007880 0.000000
0.294751 0.009021 0.000000
0.331379 0.010142 0.000000
0.367448 0.011246 0.000000
0.403027 0.012334 0.000000
0.438170 0.013410 0.000000
0.472923 0.014474 0.000000
0.507322 0.015526 0.000000
0.541397 0.016569 0.000000
0.575175 0.017603 0.000000
0.608676 0.018628 0.000000
0.641921 0.019646 0.000000
0.674927 0.020656 0.000000
0.707708 0.021659 0.000000
0.740278 0.022656 0.000000
0.772649 0.023647 0.000000
0.804831 0.024631 0.000000
0.836833 0.025611 0.000000
0.868665 0.026585 0.000000
0.900334 0.027554 0.000000
0.931849 0.028519 0.000000
0.963214 0.029479 0.000000
0.994438 0.030434 0.000000
1.000000 0.031386 0.000000
1.000000 0.032333 0.000000
1.000000 0.033276 0.000000
1.000000 0.034216 0.000000
0.000000 0.051369 0.000000
0.051403 0.052254 0.000000
0.096321 0.053137 0.000000
0.138368 0.054018 0.000000
0.178668 0.054897 0.000000
0.217722 0.055774 0.000000
0.255814 0.056649 0.000000
0.293124 0.057522 0.000000
0.329779 0.058393 0.000000
0.365870 0.059263 0.000000
0.401470 0.060130 0.000000
0.436632 0.060996 0.000000
0.471401 0.061860 0.000000
0.505815 0.062723 0.000000
0.539904 0.063584 0.000000
0.573693 0.064443 0.000000
0.607207 0.065300 0.000000
0.640463 0.066156 0.000000
0.673479 0.067011 0.000000
0.706270 0.067864 0.000000
0.738849 0.068715 0.000000
0.771228 0.069565 0.000000
0.803417 0.070414 0.000000
0.835428 0.071261 0.000000
0.867267 0.072107 0.000000
0.898943 0.072951 0.000000
0.930464 0.073794 0.000000
0.961836 0.074635 0.000000
0.993066 0.075476 0.000000
1.000000 0.076315 0.000000
1.000000 0.077152 0.000000
1.000000 0.077989 0.000000
1.000000 0.078824 0.000000
0.000000 0.094355 0.000000
0.049320 0.095168 0.000000
0.094417 0.095981 0.000000
0.136558 0.096792 0.000000
0.176922 0.097602 0.000000
0.216025 0.098412 0.000000
0.254154 0.099220 0.000000
0.291496 0.100028 0.000000
0.328177 0.100835 0.000000
0.364292 0.101641 0.000000
0.399912 0.102445 0.000000
0.435092 0.103249 0.000000
0.469878 0.104053 0.000000
0.504307 0.104855 0.000000
0.538409 0.105656 0.000000
0.572212 0.106457 0.000000
0.605737 0.107257 0.000000
0.639004 0.108055 0.000000
0.672030 0.108853 0.000000
0.704830 0.109651 0.000000
0.737418 0.110447 0.000000
0.769806 0.111243 0.000000
0.802004 0.112038 0.000000
0.834022 0.112832 0.000000
0.865868 0.113625 0.000000
0.897552 0.114417 0.000000
0.929080 0.115209 0.000000
0.960458 0.116000 0.000000
0.991694 0.116790 0.000000
1.000000 0.117580 0.000000
1.000000 0.118368 0.000000
1.000000 0.119156 0.000000
1.000000 0.119944 0.000000
0.000000 0.134658 0.000000
0.047225 0.135432 0.000000
0.092507 0.136205 0.000000
0.134745 0.136978 0.000000
0.175175 0.137750 0.000000
0.214325 0.138521 0.000000
0.252493 0.139292 0.000000
0.289866 0.140062 0.000000
0.326575 0.140832 0.000000
0.362713 0.141601 0.000000
0.398353 0.142370 0.000000
0.433552 0.143138 0.000000
0.468354 0.143905 0.000000
0.502798 0.144672 0.000000
0.536914 0.145438 0.000000
0.570729 0.146204 0.000000
0.604266 0.146969 0.000000
0.637544 0.147733 0.000000
0.670581 0.148497 0.000000
0.703391 0.149261 0.000000
0.735988 0.150024 0.000000
0.768384 0.150786 0.000000
0.800590 0.151548 0.000000
0.832616 0.152309 0.000000
0.864470 0.153070 0.000000
0.896160 0.153830 0.000000
0.927695 0.154590 0.000000
0.959080 0.155349 0.000000
0.990321 0.156108 0.000000
1.000000 0.156866 0.000000
1.000000 0.157623 0.000000
1.000000 0.158380 0.000000
1.000000 0.159137 0.000000
0.000000 0.173311 0.000000
0.045117 0.174058 0.000000
0.090591 0.174805 0.000000
0.132929 0.175551 0.000000
0.173424 0.176297 0.000000
0.212624 0.177043 0.000000
0.250830 0.177787 0.000000
0.288235 0.178532 0.000000
0.324971 0.179276 0.000000
0.361133 0.180020 0.000000
0.396793 0.180763 0.000000
0.432010 0.181506 0.000000
0.466829 0.182248 0.000000
0.501288 0.182990 0.000000
0.535418 0.183731 0.000000
0.569246 0.184472 0.000000
0.602795 0.185213 0.000000
0.636084 0.185953 0.000000
0.669131 0.186693 0.000000
0.701951 0.187433 0.000000
0.734557 0.188172 0.000000
0.766962 0.188910 0.000000
0.799176 0.189648 0.000000
0.831209 0.190386 0.000000
0.863071 0.191124 0.000000
0.894768 0.191861 0.000000
0.926309 0.192597 0.000000
0.957701 0.193333 0.000000
0.988949 0.194069 0.000000
1.000000 0.194805 0.000000
1.000000 0.195540 0.000000
1.000000 0.196274 0.000000
1.000000 0.197009 0.000000
0.000000 0.210783 0.000000
0.042995 0.211510 0.000000
0.088670 0.212237 0.000000
0.131109 0.212963 0.000000
0.171671 0.213689 0.000000
0.210920 0.214414 0.000000
0.249166 0.215140 0.000000
0.286603 0.215865 0.000000
0.323366 0.216589 0.000000
0.359551 0.217313 0.000000
0.395233 0.218037 0.000000
0.430468 0.218761 0.000000
0.465304 0.219484 0.000000
0.499778 0.220207 0.000000
0.533922 0.220930 0.000000
0.567763 0.221652 0.000000
0.601323 0.222374 0.000000
0.634624 0.223095 0.000000
0.667681 0.223817 0.000000
0.700510 0.224537 0.000000
0.733126 0.225258 0.000000
0.765539 0.225978 0.000000
0.797761 0.226698 0.000000
0.829803 0.227418 0.000000
0.861671 0.228137 0.000000
0.893376 0.228856 0.000000
0.924924 0.229575 0.000000
0.956322 0.230293 0.000000
0.987576 0.231011 0.000000
1.000000 0.231729 0.000000
1.000000 0.232447 0.000000
1.000000 0.233164 0.000000
1.000000 0.233880 0.000000
0.000000 0.247339 0.000000
0.040858 0.248050 0.000000
0.086743 0.248761 0.000000
0.129286 0.249471 0.000000
0.169916 0.250181 0.000000
0.209215 0.250891 0.000000
0.247500 0.251600 0.000000
0.284970 0.252310 0.000000
0.321760 0.253019 0.000000
0.357969 0.253727 0.000000
0.393672 0.254436 0.000000
0.428926 0.255144 0.000000
0.463778 0.255852 0.000000
0.498268 0.256559 0.000000
0.532425 0.257266 0.000000
0.566279 0.257973 0.000000
0.599851 0.258680 0.000000
0.633163 0.259387 0.000000
0.666230 0.260093 0.000000
0.699069 0.260799 0.000000
0.731694 0.261505 0.000000
0.764116 0.262210 0.000000
0.796347 0.262915 0.000000
0.828396 0.263620 0.000000
0.860272 0.264325 0.000000
0.891983 0.265029 0.000000
0.923538 0.265733 0.000000
0.954942 0.266437 0.000000
0.986203 0.267140 0.000000
1.000000 0.267844 0.000000
1.000000 0.268547 0.000000
1.000000 0.269250 0.000000
1.000000 0.269952 0.000000
0.000000 0.283151 0.000000
0.038705 0.283849 0.000000
0.084810 0.284546 0.000000
0.127459 0.285243 0.000000
0.168158 0.285940 0.000000
0.207508 0.286637 0.000000
0.245833 0.287333 0.000000
0.283335 0.288029 0.000000
0.320153 0.288725 0.000000
0.356386 0.289421 0.000000
0.392110 0.290116 0.000000
0.427382 0.290812 0.000000
0.462252 0.291507 0.000000
0.496756 0.292201 0.000000
0.530928 0.292896 0.000000
0.564795 0.293590 0.000000
0.598379 0.294284 0.000000
0.631701 0.294978 0.000000
0.664779 0.295672 0.000000
0.697628 0.296365 0.000000
0.730262 0.297058 0.000000
0.762693 0.297751 0.000000
0.794931 0.298444 0.000000
0.826988 0.299137 0.000000
0.858872 0.299829 0.000000
0.890590 0.300521 0.000000
0.922152 0.301213 0.000000
0.953563 0.301904 0.000000
0.984829 0.302596 0.000000
1.000000 0.303287 0.000000
1.000000 0.303978 0.000000
1.000000 0.304669 0.000000
1.000000 0.305359 0.000000
0.000000 0.318338 0.000000
0.036536 0.319024 0.000000
0.082870 0.319710 0.000000
0.125628 0.320396 0.000000
0.166397 0.321082 0.000000
0.205799 0.321767 0.000000
0.244164 0.322452 0.000000
0.281699 0.323137 0.000000
0.318545 0.323822 0.000000
0.354802 0.324507 0.000000
0.390547 0.325191 0.000000
0.425838 0.325876 0.000000
0.460724 0.326560 0.000000
0.495244 0.327243 0.000000
0.529430 0.327927 0.000000
0.563309 0.328611 0.000000
0.596906 0.329294 0.000000
0.630239 0.329977 0.000000
0.663328 0.330660 0.000000
0.696186 0.331342 0.000000
0.728829 0.332025 0.000000
0.761269 0.332707 0.000000
0.793516 0.333389 0.000000
0.825580 0.334071 0.000000
0.857471 0.334753 0.000000
0.889197 0.335434 0.000000
0.920765 0.336115 0.000000
0.952183 0.336796 0.000000
0.983455 0.337477 0.000000
1.000000 0.338158 0.000000
1.000000 0.338839 0.000000
1.000000 0.339519 0.000000
1.000000 0.340199 0.000000
0.000000 0.352987 0.000000
0.034348 0.353664 0.000000
0.080925 0.354340 0.000000
0.123794 0.355016 0.000000
0.164634 0.355692 0.000000
0.204087 0.356367 0.000000
0.242493 0.357043 0.000000
0.280062 0.357718 0.000000
0.316936 0.358394 0.000000
0.353217 0.359069 0.000000
0.388983 0.359743 0.000000
0.424293 0.360418 0.000000
0.459196 0.361092 0.000000
0.493732 0.361767 0.000000
0.527932 0.362441 0.000000
0.561824 0.363115 0.000000
0.595432 0.363789 0.000000
0.628777 0.364462 0.000000
0.661876 0.365136 0.000000
0.694744 0.365809 0.000000
0.727396 0.366482 0.000000
0.759845 0.367155 0.000000
0.792100 0.367828 0.000000
0.824172 0.368500 0.000000
0.856071 0.369172 0.000000
0.887804 0.369845 0.000000
0.919379 0.370517 0.000000
0.950802 0.371189 0.000000
0.982082 0.371860 0.000000
1.000000 0.372532 0.000000
1.000000 0.373203 0.000000
1.000000 0.373874 0.000000
1.000000 0.374545 0.000000
0.000000 0.387166 0.000000
0.032140 0.387834 0.000000
0.078972 0.388501 0.000000
0.121956 0.389169 0.000000
0.162868 0.389836 0.000000
0.202374 0.390503 0.000000
0.240821 0.391170 0.000000
0.278423 0.391837 0.000000
0.315325 0.392503 0.000000
0.351631 0.393170 0.000000
0.387418 0.393836 0.000000
0.422747 0.394502 0.000000
0.457667 0.395168 0.000000
0.492218 0.395834 0.000000
0.526432 0.396500 0.000000
0.560338 0.397165 0.000000
0.593958 0.397831 0.000000
0.627314 0.398496 0.000000
0.660423 0.399161 0.000000
0.693302 0.399826 0.000000
0.725963 0.400491 0.000000
0.758420 0.401155 0.000000
0.790684 0.401820 0.000000
0.822764 0.402484 0.000000
0.854670 0.403148 0.000000
0.886410 0.403812 0.000000
0.917992 0.404476 0.000000
0.949422 0.405140 0.000000
0.980707 0.405803 0.000000
1.000000 0.406466 0.000000
1.000000 0.407130 0.000000
1.000000 0.407793 0.000000
1.000000 0.408456 0.000000
0.000000 0.420927 0.000000
0.029911 0.421587 0.000000
0.077013 0.422246 0.000000
0.120113 0.422906 0.000000
0.161100 0.423566 0.000000
0.200659 0.424225 0.000000
0.239147 0.424884 0.000000
0.276783 0.425543 0.000000
0.313714 0.426202 0.000000
0.350044 0.426861 0.000000
0.385852 0.427520 0.000000
0.421201 0.428179 0.000000
0.456138 0.428837 0.000000
0.490704 0.429495 0.000000
0.524933 0.430153 0.000000
0.558851 0.430811 0.000000
0.592484 0.431469 0.000000
0.625851 0.432127 0.000000
0.658971 0.432784 0.000000
0.691859 0.433442 0.000000
0.724529 0.434099 0.000000
0.756995 0.434756 0.000000
0.789267 0.435413 0.000000
0.821355 0.436070 0.000000
0.853269 0.436727 0.000000
0.885016 0.437383 0.000000
0.916604 0.438040 0.000000
0.948041 0.438696 0.000000
0.979333 0.439352 0.000000
1.000000 0.440008 0.000000
1.000000 0.440664 0.000000
1.000000 0.441320 0.000000
1.000000 0.441976 0.000000
0.000000 0.454312 0.000000
0.027659 0.454965 0.000000
0.075047 0.455618 0.000000
0.118267 0.456271 0.000000
0.159329 0.456923 0.000000
0.198942 0.457576 0.000000
0.237472 0.458228 0.000000
0.275142 0.458880 0.000000
0.312101 0.459532 0.000000
0.348456 0.460184 0.000000
0.384286 0.460836 0.000000
0.419653 0.461488 0.000000
0.454608 0.462139 0.000000
0.489190 0.462791 0.000000
0.523432 0.463442 0.000000
0.557364 0.464093 0.000000
0.591008 0.464744 0.000000
0.624387 0.465395 0.000000
0.657517 0.466046 0.000000
0.690415 0.466696 0.000000
0.723095 0.467347 0.000000
0.755570 0.467997 0.000000
0.787850 0.468648 0.000000
0.819946 0.469298 0.000000
0.851867 0.469948 0.000000
0.883621 0.470598 0.000000
0.915217 0.471247 0.000000
0.946660 0.471897 0.000000
0.977958 0.472547 0.000000
1.000000 0.473196 0.000000
1.000000 0.473845 0.000000
1.000000 0.474494 0.000000
1.000000 0.475143 0.000000
0.000000 0.487357 0.000000
0.025381 0.488004 0.000000
0.073074 0.488650 0.000000
0.116417 0.489297 0.000000
0.157555 0.489943 0.000000
0.197222 0.490589 0.000000
0.235795 0.491235 0.000000
0.273499 0.491881 0.000000
0.310487 0.492527 0.000000
0.346866 0.493172 0.000000
0.382718 0.493818 0.000000
0.418105 0.494463 0.000000
0.453077 0.495108 0.000000
0.487674 0.495754 0.000000
0.521931 0.496399 0.000000
0.555876 0.497044 0.000000
0.589533 0.497688 0.000000
0.622923 0.498333 0.000000
0.656064 0.498978 0.000000
0.688972 0.499622 0.000000
0.721661 0.500266 0.000000
0.754144 0.500911 0.000000
0.786433 0.501555 0.000000
0.818537 0.502199 0.000000
0.850465 0.502843 0.000000
0.882227 0.503486 0.000000
0.913829 0.504130 0.000000
0.945279 0.504774 0.000000
0.976583 0.505417 0.000000
1.000000 0.506060 0.000000
1.000000 0.506704 0.000000
1.000000 0.507347 0.000000
1.000000 0.507990 0.000000
0.000000 0.520091 0.000000
0.023073 0.520732 0.000000
0.071093 0.521373 0.000000
0.114563 0.522013 0.000000
0.155778 0.522653 0.000000
0.195501 0.523294 0.000000
0.234116 0.523934 0.000000
0.271855 0.524574 0.000000
0.308872 0.525214 0.000000
0.345276 0.525854 0.000000
0.381150 0.526494 0.000000
0.416556 0.527133 0.000000
0.451545 0.527773 0.000000
0.486158 0.528412 0.000000
0.520430 0.529052 0.000000
0.554388 0.529691 0.000000
0.588057 0.530330 0.000000
0.621458 0.530969 0.000000
0.654609 0.531608 0.000000
0.687527 0.532247 0.000000
0.720226 0.532885 0.000000
0.752718 0.533524 0.000000
0.785015 0.534162 0.000000
0.817127 0.534801 0.000000
0.849063 0.535439 0.000000
0.880832 0.536077 0.000000
0.912441 0.536715 0.000000
0.943897 0.537353 0.000000
0.975208 0.537991 0.000000
1.000000 0.538628 0.000000
1.000000 0.539266 0.000000
1.000000 0.539904 0.000000
1.000000 0.540541 0.000000
0.000000 0.552539 0.000000
0.020733 0.553174 0.000000
0.069105 0.553810 0.000000
0.112705 0.554445 0.000000
0.153999 0.555080 0.000000
0.193777 0.555715 0.000000
0.232436 0.556350 0.000000
0.270210 0.556984 0.000000
0.307256 0.557619 0.000000
0.343685 0.558253 0.000000
0.379581 0.558888 0.000000
0.415006 0.559522 0.000000
0.450013 0.560156 0.000000
0.484642 0.560791 0.000000
0.518928 0.561425 0.000000
0.552899 0.562059 0.000000
0.586580 0.562692 0.000000
0.619993 0.563326 0.000000
0.653155 0.563960 0.000000
0.686083 0.564593 0.000000
0.718791 0.565227 0.000000
0.751292 0.565860 0.000000
0.783597 0.566493 0.000000
0.815717 0.567126 0.000000
0.847660 0.567759 0.000000
0.879436 0.568392 0.000000
0.911052 0.569025 0.000000
0.942515 0.569658 0.000000
0.973832 0.570290 0.000000
1.000000 0.570923 0.000000
1.000000 0.571555 0.000000
1.000000 0.572188 0.000000
1.000000 0.572820 0.000000
0.000000 0.584722 0.000000
0.018355 0.585353 0.000000
0.067108 0.585983 0.000000
0.110842 0.586613 0.000000
0.152216 0.587243 0.000000
0.192052 0.587873 0.000000
0.230754 0.588503 0.000000
0.268563 0.589133 0.000000
0.305638 0.589762 0.000000
0.342093 0.590392 0.000000
0.378010 0.591021 0.000000
0.413456 0.591651 0.000000
0.448480 0.592280 0.000000
0.483125 0.592909 0.000000
0.517425 0.593538 0.000000
0.551409 0.594167 0.000000
0.585103 0.594796 0.000000
0.618527 0.595425 0.000000
0.651700 0.596054 0.000000
0.684638 0.596682 0.000000
0.717355 0.597311 0.000000
0.749865 0.597939 0.000000
0.782179 0.598568 0.000000
0.814306 0.599196 0.000000
0.846257 0.599824 0.000000
0.878041 0.600452 0.000000
0.909663 0.601080 0.000000
0.941133 0.601708 0.000000
0.972456 0.602336 0.000000
1.000000 0.602964 0.000000
1.000000 0.603591 0.000000
1.000000 0.604219 0.000000
1.000000 0.604846 0.000000
0.000000 0.616659 0.000000
0.015933 0.617285 0.000000
0.065104 0.617910 0.000000
0.108975 0.618536 0.000000
0.150431 0.619161 0.000000
0.190324 0.619787 0.000000
0.229070 0.620412 0.000000
0.266915 0.621037 0.000000
0.304020 0.621662 0.000000
0.340500 0.622287 0.000000
0.376439 0.622912 0.000000
0.411904 0.623536 0.000000
0.446946 0.624161 0.000000
0.481607 0.624786 0.000000
0.515921 0.625410 0.000000
0.549919 0.626035 0.000000
0.583625 0.626659 0.000000
0.617061 0.627283 0.000000
0.650244 0.627907 0.000000
0.683192 0.628531 0.000000
0.715919 0.629155 0.000000
0.748438 0.629779 0.000000
0.780760 0.630403 0.000000
0.812895 0.631027 0.000000
0.844854 0.631651 0.000000
0.876645 0.632274 0.000000
0.908274 0.632898 0.000000
0.939751 0.633521 0.000000
0.971080 0.634144 0.000000
1.000000 0.634767 0.000000
1.000000 0.635391 0.000000
1.000000 0.636014 0.000000
1.000000 0.636637 0.000000
0.000000 0.648366 0.000000
0.013458 0.648987 0.000000
0.063090 0.649609 0.000000
0.107103 0.650230 0.000000
0.148642 0.650851 0.000000
0.188594 0.651472 0.000000
0.227384 0.652092 0.000000
0.265265 0.652713 0.000000
0.302400 0.653334 0.000000
0.338905 0.653955 0.000000
0.374867 0.654575 0.000000
0.410352 0.655196 0.000000
0.445411 0.655816 0.000000
0.480088 0.656436 0.000000
0.514417 0.657056 0.000000
0.548429 0.657677 0.000000
0.582147 0.658297 0.000000
0.615594 0.658917 0.000000
0.648788 0.659536 0.000000
0.681746 0.660156 0.000000
0.714483 0.660776 0.000000
0.747010 0.661396 0.000000
0.779341 0.662015 0.000000
0.811484 0.662635 0.000000
0.843451 0.663254 0.000000
0.875248 0.663873 0.000000
0.906885 0.664492 0.000000
0.938368 0.665112 0.000000
0.969704 0.665731 0.000000
1.000000 0.666350 0.000000
1.000000 0.666969 0.000000
1.000000 0.667587 0.000000
1.000000 0.668206 0.000000
0.000000 0.679857 0.000000
0.010917 0.680474 0.000000
0.061067 0.681091 0.000000
0.105227 0.681709 0.000000
0.146851 0.682325 0.000000
0.186861 0.682942 0.000000
0.225697 0.683559 0.000000
0.263614 0.684176 0.000000
0.300779 0.684792 0.000000
0.337310 0.685409 0.000000
0.373294 0.686025 0.000000
0.408799 0.686642 0.000000
0.443876 0.687258 0.000000
0.478569 0.687874 0.000000
0.512913 0.688490 0.000000
0.546938 0.689107 0.000000
0.580668 0.689723 0.000000
0.614127 0.690339 0.000000
0.647332 0.690954 0.000000
0.680300 0.691570 0.000000
0.713046 0.692186 0.000000
0.745582 0.692801 0.000000
0.777921 0.693417 0.000000
0.810073 0.694032 0.000000
0.842047 0.694648 0.000000
0.873852 0.695263 0.000000
0.905495 0.695878 0.000000
0.936985 0.696494 0.000000
0.968327 0.697109 0.000000
0.999527 0.697724 0.000000
1.000000 0.698339 0.000000
1.000000 0.698953 0.000000
1.000000 0.699568 0.000000
0.000000 0.711145 0.000000
0.008289 0.711759 0.000000
0.059035 0.712372 0.000000
0.103346 0.712985 0.000000
0.145056 0.713598 0.000000
0.185127 0.714211 0.000000
0.224008 0.714824 0.000000
0.261961 0.715437 0.000000
0.299156 0.716050 0.000000
0.335714 0.716662 0.000000
0.371721 0.717275 0.000000
0.407245 0.717888 0.000000
0.442340 0.718500 0.000000
0.477049 0.719113 0.000000
0.511408 0.719725 0.000000
0.545446 0.720337 0.000000
0.579189 0.720949 0.000000
0.612659 0.721561 0.000000
0.645875 0.722173 0.000000
0.678853 0.722785 0.000000
0.711608 0.723397 0.000000
0.744154 0.724009 0.000000
0.776501 0.724621 0.000000
0.808661 0.725233 0.000000
0.840643 0.725844 0.000000
0.872455 0.726456 0.000000
0.904105 0.727067 0.000000
0.935602 0.727679 0.000000
0.966950 0.728290 0.000000
0.998157 0.728901 0.000000
1.000000 0.729512 0.000000
1.000000 0.730124 0.000000
1.000000 0.730735 0.000000
0.000000 0.742242 0.000000
0.005537 0.742852 0.000000
0.056994 0.743461 0.000000
0.101460 0.744071 0.000000
0.143259 0.744680 0.000000
0.183390 0.745289 0.000000
0.222317 0.745899 0.000000
0.260307 0.746508 0.000000
0.297533 0.747117 0.000000
0.334116 0.747726 0.000000
0.370146 0.748335 0.000000
0.405690 0.748944 0.000000
0.440803 0.749553 0.000000
0.475528 0.750162 0.000000
0.509902 0.750771 0.000000
0.543953 0.751379 0.000000
0.577709 0.751988 0.000000
0.611191 0.752596 0.000000
0.644417 0.753205 0.000000
0.677406 0.753813 0.000000
0.710171 0.754421 0.000000
0.742725 0.755030 0.000000
0.775081 0.755638 0.000000
0.807249 0.756246 0.000000
0.839238 0.756854 0.000000
0.871058 0.757462 0.000000
0.902715 0.758070 0.000000
0.934218 0.758678 0.000000
0.965573 0.759285 0.000000
0.996786 0.759893 0.000000
1.000000 0.760501 0.000000
1.000000 0.761108 0.000000
1.000000 0.761716 0.000000
0.000000 0.773157 0.000000
0.002565 0.773763 0.000000
0.054941 0.774369 0.000000
0.099570 0.774975 0.000000
0.141458 0.775581 0.000000
0.181651 0.776187 0.000000
0.220624 0.776793 0.000000
0.258651 0.777399 0.000000
0.295908 0.778005 0.000000
0.332518 0.778610 0.000000
0.368570 0.779216 0.000000
0.404135 0.779821 0.000000
0.439266 0.780427 0.000000
0.474007 0.781032 0.000000
0.508395 0.781637 0.000000
0.542461 0.782243 0.000000
0.576229 0.782848 0.000000
0.609722 0.783453 0.000000
0.642960 0.784058 0.000000
0.675958 0.784663 0.000000
0.708733 0.785268 0.000000
0.741296 0.785873 0.000000
0.773660 0.786477 0.000000
0.805836 0.787082 0.000000
0.837833 0.787687 0.000000
0.869660 0.788291 0.000000
0.901325 0.788896 0.000000
0.932834 0.789500 0.000000
0.964195 0.790105 0.000000
0.995414 0.790709 0.000000
1.000000 0.791313 0.000000
1.000000 0.791918 0.000000
1.000000 0.792522 0.000000
0.000000 0.803900 0.000000
0.000000 0.804503 0.000000
0.052878 0.805106 0.000000
0.097674 0.805709 0.000000
0.139654 0.806311 0.000000
0.179909 0.806914 0.000000
0.218930 0.807516 0.000000
0.256994 0.808119 0.000000
0.294282 0.808721 0.000000
0.330918 0.809324 0.000000
0.366993 0.809926 0.000000
0.402578 0.810528 0.000000
0.437727 0.811130 0.000000
0.472485 0.811733 0.000000
0.506888 0.812335 0.000000
0.540967 0.812937 0.000000
0.574748 0.813538 0.000000
0.608253 0.814140 0.000000
0.641501 0.814742 0.000000
0.674510 0.815344 0.000000
0.707294 0.815946 0.000000
0.739867 0.816547 0.000000
0.772240 0.817149 0.000000
0.804423 0.817750 0.000000
0.836428 0.818352 0.000000
0.868262 0.818953 0.000000
0.899934 0.819554 0.000000
0.931450 0.820155 0.000000
0.962817 0.820757 0.000000
0.994042 0.821358 0.000000
1.000000 0.821959 0.000000
1.000000 0.822560 0.000000
1.000000 0.823161 0.000000
0.000000 0.834479 0.000000
0.000000 0.835079 0.000000
0.050804 0.835679 0.000000
0.095773 0.836278 0.000000
0.137847 0.836878 0.000000
0.178165 0.837477 0.000000
0.217233 0.838077 0.000000
0.255336 0.838676 0.000000
0.292655 0.839276 0.000000
0.329317 0.839875 0.000000
0.365416 0.840474 0.000000
0.401021 0.841073 0.000000
0.436188 0.841672 0.000000
0.470962 0.842271 0.000000
0.505380 0.842870 0.000000
0.539473 0.843469 0.000000
0.573267 0.844068 0.000000
0.606783 0.844667 0.000000
0.640043 0.845265 0.000000
0.673061 0.845864 0.000000
0.705855 0.846463 0.000000
0.738437 0.847061 0.000000
0.770818 0.847660 0.000000
0.803010 0.848258 0.000000
0.835023 0.848856 0.000000
0.866864 0.849455 0.000000
0.898543 0.850053 0.000000
0.930065 0.850651 0.000000
0.961439 0.851249 0.000000
0.992671 0.851847 0.000000
1.000000 0.852445 0.000000
1.000000 0.853043 0.000000
1.000000 0.853641 0.000000
0.000000 0.864903 0.000000
0.000000 0.865499 0.000000
0.048718 0.866096 0.000000
0.093867 0.866693 0.000000
0.136036 0.867289 0.000000
0.176419 0.867886 0.000000
0.215535 0.868482 0.000000
0.253676 0.869078 0.000000
0.291026 0.869675 0.000000
0.327716 0.870271 0.000000
0.363837 0.870867 0.000000
0.399463 0.871463 0.000000
0.434648 0.872060 0.000000
0.469439 0.872656 0.000000
0.503872 0.873252 0.000000
0.537978 0.873847 0.000000
0.571785 0.874443 0.000000
0.605313 0.875039 0.000000
0.638583 0.875635 0.000000
0.671612 0.876231 0.000000
0.704416 0.876826 0.000000
0.737006 0.877422 0.000000
0.769396 0.878017 0.000000
0.801597 0.878613 0.000000
0.833617 0.879208 0.000000
0.865466 0.879804 0.000000
0.897151 0.880399 0.000000
0.928681 0.880994 0.000000
0.960061 0.881589 0.000000
0.991298 0.882184 0.000000
1.000000 0.882779 0.000000
1.000000 0.883374 0.000000
1.000000 0.883969 0.000000
0.000000 0.895177 0.000000
0.000000 0.895770 0.000000
0.046619 0.896364 0.000000
0.091955 0.896958 0.000000
0.134223 0.897552 0.000000
0.174671 0.898145 0.000000
0.213835 0.898739 0.000000
0.252014 0.899332 0.000000
0.289396 0.899926 0.000000
0.326113 0.900519 0.000000
0.362258 0.901113 0.000000
0.397904 0.901706 0.000000
0.433108 0.902299 0.000000
0.467915 0.902892 0.000000
0.502363 0.903486 0.000000
0.536483 0.904079 0.000000
0.570302 0.904672 0.000000
0.603842 0.905265 0.000000
0.637124 0.905858 0.000000
0.670163 0.906451 0.000000
0.702976 0.907043 0.000000
0.735576 0.907636 0.000000
0.767974 0.908229 0.000000
0.800183 0.908821 0.000000
