presets/film_stocks/Kodak_Aerochrome_III_Infrared_Film_1443.cube
# 独寻胶片模拟 -- Kodak Aerochrome III Infrared Film 1443
# Kodak, ISO 40, 2001, positive
TITLE "Kodak Aerochrome III Infrared Film 1443"
LUT_3D_SIZE 9
DOMAIN_MIN 0.0 0.0 0.0
DOMAIN_MAX 1.0 1.0 1.0
0.000000 0.000000 0.000000
0.409434 0.000000 0.000000
0.671747 0.000000 0.000000
0.897398 0.000000 0.000000
1.000000 0.000000 0.000000
1.000000 0.000000 0.000000
1.000000 0.000000 0.000000
1.000000 0.000000 0.000000
1.000000 0.000000 0.000000
0.012912 0.071542 0.000825
0.411746 0.065859 0.000000
0.673644 0.059972 0.000000
0.899088 0.053844 0.000000
1.000000 0.047422 0.000000
1.000000 0.040631 0.000000
1.000000 0.033349 0.000000
1.000000 0.025358 0.000000
1.000000 0.016169 0.000000
0.021185 0.117376 0.001354
0.414052 0.112753 0.000000
0.675540 0.108052 0.000000
0.900777 0.103268 0.000000
1.000000 0.098394 0.000000
1.000000 0.093421 0.000000
1.000000 0.088340 0.000000
1.000000 0.083139 0.000000
1.000000 0.077805 0.000000
0.028301 0.156805 0.001809
0.416354 0.152698 0.000000
0.677433 0.148547 0.000000
0.902465 0.144349 0.000000
1.000000 0.140101 0.000000
1.000000 0.135801 0.000000
1.000000 0.131446 0.000000
1.000000 0.127033 0.000000
1.000000 0.122557 0.000000
0.034757 0.192576 0.002222
0.418650 0.188798 0.000000
0.679324 0.184990 0.000000
0.904151 0.181150 0.000000
1.000000 0.177278 0.000000
1.000000 0.173371 0.000000
1.000000 0.169429 0.000000
1.000000 0.165450 0.000000
1.000000 0.161432 0.000000
0.040763 0.225851 0.002606
0.420941 0.222310 0.000000
0.681212 0.218746 0.000000
0.905836 0.215158 0.000000
1.000000 0.211547 0.000000
1.000000 0.207910 0.000000
1.000000 0.204248 0.000000
1.000000 0.200560 0.000000
1.000000 0.196844 0.000000
0.046432 0.257265 0.002968
0.423227 0.253905 0.000000
0.683099 0.250527 0.000000
0.907520 0.247131 0.000000
1.000000 0.243717 0.000000
1.000000 0.240282 0.000000
1.000000 0.236829 0.000000
1.000000 0.233355 0.000000
1.000000 0.229860 0.000000
0.051837 0.287210 0.003314
0.425508 0.283996 0.000000
0.684984 0.280768 0.000000
0.909202 0.277524 0.000000
1.000000 0.274266 0.000000
1.000000 0.270992 0.000000
1.000000 0.267701 0.000000
1.000000 0.264395 0.000000
1.000000 0.261072 0.000000
0.057024 0.315953 0.003645
0.427785 0.312860 0.000000
0.686866 0.309755 0.000000
0.910884 0.306638 0.000000
1.000000 0.303508 0.000000
1.000000 0.300365 0.000000
1.000000 0.297208 0.000000
1.000000 0.294038 0.000000
1.000000 0.290855 0.000000
0.000000 0.196937 0.226966
0.223490 0.193193 0.226369
0.528206 0.189421 0.225771
0.771649 0.185618 0.225172
0.987182 0.181783 0.224573
1.000000 0.177916 0.223973
1.000000 0.174015 0.223373
1.000000 0.170079 0.222772
1.000000 0.166106 0.222170
0.000000 0.229947 0.227028
0.226431 0.226431 0.226431
0.530294 0.222893 0.225833
0.773444 0.219333 0.225235
0.988809 0.215749 0.224636
1.000000 0.212142 0.224036
1.000000 0.208509 0.223436
1.000000 0.204852 0.222835
1.000000 0.201168 0.222233
0.000000 0.261155 0.227090
0.229356 0.257815 0.226493
0.532379 0.254458 0.225896
0.775238 0.251083 0.225297
0.990435 0.247690 0.224698
1.000000 0.244279 0.224099
1.000000 0.240848 0.223498
1.000000 0.237397 0.222897
1.000000 0.233927 0.222296
0.000000 0.290934 0.227153
0.232267 0.287737 0.226556
0.534461 0.284525 0.225958
0.777030 0.281299 0.225360
0.992060 0.278058 0.224761
1.000000 0.274802 0.224161
1.000000 0.271530 0.223561
1.000000 0.268243 0.222960
1.000000 0.264939 0.222359
0.000000 0.319539 0.227215
0.235163 0.316460 0.226618
0.536540 0.313369 0.226021
0.778820 0.310266 0.225422
0.993684 0.307151 0.224823
1.000000 0.304023 0.224224
1.000000 0.300882 0.223624
1.000000 0.297728 0.223023
1.000000 0.294560 0.222422
0.000000 0.347152 0.227277
0.238044 0.344175 0.226680
0.538615 0.341187 0.226083
0.780608 0.338188 0.225485
0.995306 0.335179 0.224886
1.000000 0.332159 0.224287
1.000000 0.329128 0.223687
1.000000 0.326086 0.223086
1.000000 0.323032 0.222484
0.000000 0.373913 0.227340
0.240912 0.371023 0.226743
0.540687 0.368124 0.226145
0.782395 0.365216 0.225547
0.996928 0.362299 0.224949
1.000000 0.359372 0.224349
1.000000 0.356435 0.223749
1.000000 0.353489 0.223149
1.000000 0.350533 0.222547
0.000000 0.399928 0.227402
0.243767 0.397115 0.226805
0.542756 0.394295 0.226208
0.784181 0.391466 0.225610
0.998549 0.388628 0.225011
1.000000 0.385783 0.224412
1.000000 0.382929 0.223812
1.000000 0.380067 0.223211
1.000000 0.377195 0.222610
0.000000 0.425283 0.227464
0.246608 0.422539 0.226868
0.544822 0.419787 0.226270
0.785964 0.417029 0.225672
1.000000 0.414263 0.225074
1.000000 0.411489 0.224475
1.000000 0.408708 0.223875
1.000000 0.405920 0.223274
1.000000 0.403124 0.222673
0.000000 0.323108 0.372376
0.000000 0.320043 0.371886
0.366674 0.316966 0.371396
0.637056 0.313878 0.370906
0.866612 0.310777 0.370415
1.000000 0.307664 0.369924
1.000000 0.304538 0.369433
1.000000 0.301399 0.368942
1.000000 0.298247 0.368450
0.000000 0.350606 0.372427
0.000000 0.347641 0.371937
0.369090 0.344665 0.371447
0.638994 0.341678 0.370957
0.868326 0.338682 0.370467
1.000000 0.335674 0.369976
1.000000 0.332656 0.369485
1.000000 0.329627 0.368993
1.000000 0.326586 0.368502
0.000000 0.377267 0.372478
0.000000 0.374387 0.371989
0.371499 0.371499 0.371499
0.640929 0.368601 0.371008
0.870038 0.365694 0.370518
1.000000 0.362778 0.370027
1.000000 0.359853 0.369536
1.000000 0.356918 0.369045
1.000000 0.353974 0.368553
0.000000 0.403193 0.372529
0.000000 0.400390 0.372040
0.373901 0.397578 0.371550
0.642863 0.394758 0.371060
0.871749 0.391931 0.370569
1.000000 0.389095 0.370078
1.000000 0.386251 0.369587
1.000000 0.383398 0.369096
1.000000 0.380537 0.368605
0.000000 0.428469 0.372581
0.000000 0.425733 0.372091
0.376298 0.422990 0.371601
0.644793 0.420240 0.371111
0.873459 0.417482 0.370620
1.000000 0.414717 0.370130
1.000000 0.411945 0.369639
1.000000 0.409166 0.369147
1.000000 0.406378 0.368656
0.000000 0.453161 0.372632
0.000000 0.450486 0.372142
0.378689 0.447805 0.371652
0.646722 0.445117 0.371162
0.875167 0.442422 0.370672
1.000000 0.439721 0.370181
1.000000 0.437014 0.369690
1.000000 0.434299 0.369199
1.000000 0.431578 0.368707
0.000000 0.477327 0.372683
0.000000 0.474707 0.372193
0.381073 0.472081 0.371703
0.648648 0.469450 0.371213
0.876874 0.466812 0.370723
1.000000 0.464169 0.370232
1.000000 0.461519 0.369741
1.000000 0.458864 0.369250
1.000000 0.456202 0.368759
0.000000 0.501012 0.372734
0.000000 0.498443 0.372244
0.383452 0.495868 0.371755
0.650572 0.493288 0.371264
0.878580 0.490702 0.370774
1.000000 0.488111 0.370283
1.000000 0.485515 0.369792
1.000000 0.482913 0.369301
1.000000 0.480305 0.368810
0.000000 0.524258 0.372785
0.000000 0.521735 0.372296
0.385825 0.519207 0.371806
0.652494 0.516674 0.371316
0.880285 0.514136 0.370825
1.000000 0.511593 0.370335
1.000000 0.509045 0.369844
1.000000 0.506492 0.369353
1.000000 0.503934 0.368861
0.000000 0.431646 0.497463
0.000000 0.428918 0.497027
0.167179 0.426183 0.496591
0.489846 0.423441 0.496154
0.738892 0.420692 0.495718
0.957574 0.417936 0.495281
1.000000 0.415172 0.494844
1.000000 0.412401 0.494407
1.000000 0.409623 0.493970
0.000000 0.456268 0.497509
0.000000 0.453600 0.497073
0.170477 0.450926 0.496637
0.491998 0.448246 0.496200
0.740718 0.445559 0.495763
0.959221 0.442865 0.495327
1.000000 0.440165 0.494890
1.000000 0.437459 0.494453
1.000000 0.434746 0.494015
0.000000 0.480370 0.497555
0.000000 0.477757 0.497118
0.173750 0.475138 0.496682
0.494147 0.472513 0.496246
0.742543 0.469882 0.495809
0.960867 0.467246 0.495372
1.000000 0.464603 0.494935
1.000000 0.461955 0.494498
1.000000 0.459300 0.494061
0.000000 0.503997 0.497600
0.000000 0.501434 0.497164
0.176999 0.498865 0.496728
0.496291 0.496291 0.496291
0.744366 0.493712 0.495855
0.962511 0.491127 0.495418
1.000000 0.488537 0.494981
1.000000 0.485942 0.494544
1.000000 0.483341 0.494107
0.000000 0.527189 0.497646
0.000000 0.524672 0.497210
0.180224 0.522149 0.496773
0.498432 0.519622 0.496337
0.746187 0.517090 0.495900
0.964155 0.514553 0.495464
1.000000 0.512011 0.495027
1.000000 0.509464 0.494590
1.000000 0.506911 0.494152
0.000000 0.549980 0.497691
0.000000 0.547505 0.497255
0.183426 0.545025 0.496819
0.500569 0.542541 0.496382
0.748006 0.540053 0.495946
0.965797 0.537559 0.495509
1.000000 0.535062 0.495072
1.000000 0.532559 0.494635
1.000000 0.530052 0.494198
0.000000 0.572399 0.497737
0.000000 0.569963 0.497301
0.186605 0.567523 0.496864
0.502703 0.565079 0.496428
0.749824 0.562631 0.495991
0.967438 0.560178 0.495555
1.000000 0.557722 0.495118
1.000000 0.555260 0.494681
1.000000 0.552795 0.494244
0.000000 0.594472 0.497782
0.000000 0.592073 0.497346
0.189763 0.589670 0.496910
0.504833 0.587263 0.496474
0.751640 0.584853 0.496037
0.969078 0.582438 0.495600
1.000000 0.580019 0.495164
1.000000 0.577596 0.494727
1.000000 0.575169 0.494289
0.000000 0.616222 0.497828
0.000000 0.613857 0.497392
0.192901 0.611489 0.496956
0.506959 0.609117 0.496519
0.753454 0.606741 0.496083
0.970717 0.604362 0.495646
1.000000 0.601979 0.495209
1.000000 0.599592 0.494772
1.000000 0.597201 0.494335
0.000000 0.530114 0.610946
0.000000 0.527602 0.610545
0.000000 0.525086 0.610143
0.321813 0.522564 0.609741
0.601592 0.520038 0.609339
0.835381 0.517506 0.608937
1.000000 0.514970 0.608534
1.000000 0.512429 0.608132
1.000000 0.509882 0.607730
0.000000 0.552856 0.610988
0.000000 0.550386 0.610587
0.000000 0.547912 0.610185
0.324357 0.545433 0.609783
0.603574 0.542950 0.609381
0.837120 0.540462 0.608979
1.000000 0.537969 0.608576
1.000000 0.535472 0.608174
1.000000 0.532970 0.607772
0.000000 0.575230 0.611030
0.000000 0.572799 0.610629
0.000000 0.570364 0.610227
0.326893 0.567924 0.609825
0.605554 0.565481 0.609423
0.838858 0.563033 0.609021
1.000000 0.560582 0.608618
1.000000 0.558125 0.608216
1.000000 0.555665 0.607814
0.000000 0.597260 0.611072
0.000000 0.594866 0.610671
0.000000 0.592467 0.610269
0.329421 0.590065 0.609867
0.607532 0.587659 0.609465
0.840594 0.585249 0.609063
1.000000 0.582835 0.608660
1.000000 0.580417 0.608258
1.000000 0.577994 0.607856
0.000000 0.618971 0.611114
0.000000 0.616610 0.610713
0.000000 0.614246 0.610311
0.331942 0.611878 0.609909
0.609507 0.609507 0.609507
0.842329 0.607132 0.609105
1.000000 0.604753 0.608702
1.000000 0.602370 0.608300
1.000000 0.599984 0.607898
0.000000 0.640380 0.611156
0.000000 0.638052 0.610755
0.000000 0.635720 0.610353
0.334455 0.633385 0.609951
0.611479 0.631046 0.609549
0.844062 0.628704 0.609147
1.000000 0.626358 0.608745
1.000000 0.624009 0.608342
1.000000 0.621656 0.607940
0.000000 0.661507 0.611198
0.000000 0.659209 0.610796
0.000000 0.656907 0.610395
0.336960 0.654603 0.609993
0.613449 0.652295 0.609591
0.845794 0.649983 0.609189
1.000000 0.647669 0.608787
1.000000 0.645351 0.608384
1.000000 0.643029 0.607982
0.000000 0.682368 0.611240
0.000000 0.680098 0.610838
0.000000 0.677825 0.610437
0.339458 0.675549 0.610035
0.615416 0.673270 0.609633
0.847525 0.670988 0.609231
1.000000 0.668702 0.608829
1.000000 0.666414 0.608426
1.000000 0.664122 0.608024
0.000000 0.702977 0.611282
0.000000 0.700733 0.610880
0.000000 0.698488 0.610479
0.341949 0.696239 0.610077
0.617381 0.693987 0.609675
0.849254 0.691732 0.609273
1.000000 0.689475 0.608871
1.000000 0.687214 0.608468
1.000000 0.684951 0.608066
0.000000 0.621714 0.716514
0.000000 0.619358 0.716137
0.000000 0.616998 0.715760
0.101687 0.614635 0.715383
0.450244 0.612267 0.715006
0.705542 0.609897 0.714628
0.927595 0.607522 0.714251
1.000000 0.605144 0.713874
1.000000 0.602762 0.713496
0.000000 0.643087 0.716553
0.000000 0.640762 0.716176
0.000000 0.638434 0.715799
0.105696 0.636103 0.715422
0.452470 0.633768 0.715045
0.707403 0.631430 0.714668
0.929263 0.629089 0.714291
1.000000 0.626743 0.713913
1.000000 0.624395 0.713536
0.000000 0.664179 0.716593
0.000000 0.661885 0.716216
0.000000 0.659587 0.715839
0.109644 0.657286 0.715462
0.454691 0.654981 0.715084
0.709261 0.652674 0.714707
0.930929 0.650363 0.714330
1.000000 0.648049 0.713953
1.000000 0.645732 0.713575
0.000000 0.685007 0.716632
0.000000 0.682741 0.716255
0.000000 0.680471 0.715878
0.113537 0.678199 0.715501
0.456908 0.675923 0.715124
0.711118 0.673645 0.714747
0.932595 0.671363 0.714369
1.000000 0.669078 0.713992
1.000000 0.666790 0.713615
0.000000 0.705584 0.716671
0.000000 0.703345 0.716294
0.000000 0.701102 0.715917
0.117376 0.698857 0.715540
0.459121 0.696608 0.715163
0.712973 0.694357 0.714786
0.934259 0.692103 0.714409
1.000000 0.689846 0.714031
1.000000 0.687586 0.713654
0.000000 0.725924 0.716711
0.000000 0.723710 0.716334
0.000000 0.721493 0.715957
0.121167 0.719273 0.715580
0.461329 0.717051 0.715203
0.714825 0.714825 0.714825
0.935922 0.712597 0.714448
1.000000 0.710367 0.714071
1.000000 0.708133 0.713693
0.000000 0.746039 0.716750
0.000000 0.743849 0.716373
0.000000 0.741656 0.715996
0.124910 0.739461 0.715619
0.463533 0.737263 0.715242
0.716676 0.735062 0.714865
0.937584 0.732859 0.714488
1.000000 0.730653 0.714110
1.000000 0.728444 0.713733
0.000000 0.765939 0.716789
0.000000 0.763772 0.716412
0.000000 0.761602 0.716036
0.128609 0.759430 0.715659
0.465733 0.757255 0.715281
0.718525 0.755078 0.714904
0.939245 0.752898 0.714527
1.000000 0.750716 0.714150
1.000000 0.748531 0.713772
0.000000 0.785634 0.716829
0.000000 0.783489 0.716452
0.000000 0.781341 0.716075
0.132266 0.779191 0.715698
0.467929 0.777039 0.715321
0.720372 0.774884 0.714944
0.940905 0.772727 0.714566
1.000000 0.770567 0.714189
1.000000 0.768405 0.713812
0.000000 0.708188 0.816174
0.000000 0.705952 0.815816
0.000000 0.703713 0.815458
0.000000 0.701471 0.815100
0.274286 0.699226 0.814742
0.565270 0.696978 0.814384
0.803676 0.694727 0.814026
1.000000 0.692473 0.813668
1.000000 0.690217 0.813310
0.000000 0.728499 0.816211
0.000000 0.726288 0.815853
0.000000 0.724074 0.815495
0.000000 0.721857 0.815138
0.276997 0.719638 0.814780
0.567302 0.717416 0.814422
0.805443 0.715191 0.814064
1.000000 0.712964 0.813705
1.000000 0.710733 0.813347
0.000000 0.748586 0.816248
0.000000 0.746398 0.815891
0.000000 0.744209 0.815533
0.000000 0.742016 0.815175
0.279697 0.739821 0.814817
0.569332 0.737624 0.814459
0.807207 0.735424 0.814101
1.000000 0.733221 0.813743
1.000000 0.731015 0.813385
0.000000 0.768459 0.816286
0.000000 0.766295 0.815928
0.000000 0.764128 0.815570
0.000000 0.761958 0.815212
0.282387 0.759787 0.814854
0.571359 0.757613 0.814496
0.808970 0.755436 0.814138
1.000000 0.753257 0.813780
1.000000 0.751075 0.813422
0.000000 0.788129 0.816323
0.000000 0.785986 0.815965
0.000000 0.783841 0.815608
0.000000 0.781694 0.815250
0.285067 0.779544 0.814892
0.573383 0.777392 0.814534
0.810732 0.775238 0.814176
1.000000 0.773081 0.813818
1.000000 0.770922 0.813459
0.000000 0.807604 0.816361
0.000000 0.805482 0.816003
0.000000 0.803358 0.815645
0.000000 0.801232 0.815287
0.287737 0.799104 0.814929
0.575404 0.796973 0.814571
0.812492 0.794840 0.814213
1.000000 0.792705 0.813855
1.000000 0.790567 0.813497
0.000000 0.826893 0.816398
0.000000 0.824791 0.816040
0.000000 0.822688 0.815682
0.000000 0.820582 0.815324
0.290397 0.818473 0.814967
0.577422 0.816363 0.814609
0.814251 0.814251 0.814251
1.000000 0.812136 0.813892
1.000000 0.810019 0.813534
0.000000 0.846004 0.816435
0.000000 0.843922 0.816078
0.000000 0.841837 0.815720
0.000000 0.839750 0.815362
0.293047 0.837661 0.815004
0.579438 0.835571 0.814646
0.816008 0.833478 0.814288
1.000000 0.831383 0.813930
1.000000 0.829285 0.813572
0.000000 0.864944 0.816473
0.000000 0.862880 0.816115
0.000000 0.860813 0.815757
0.000000 0.858745 0.815399
0.295688 0.856675 0.815041
0.581450 0.854603 0.814683
0.817763 0.852529 0.814325
1.000000 0.850453 0.813967
1.000000 0.848375 0.813609
0.000000 0.790620 0.911175
0.000000 0.788480 0.910833
0.000000 0.786338 0.910490
0.000000 0.784194 0.910148
0.000000 0.782047 0.909805
0.409194 0.779898 0.909463
0.671550 0.777746 0.909120
0.897223 0.775592 0.908777
1.000000 0.773436 0.908435
0.000000 0.810071 0.911211
0.000000 0.807952 0.910868
0.000000 0.805831 0.910526
0.000000 0.803707 0.910183
0.011940 0.801582 0.909841
0.411506 0.799454 0.909498
0.673448 0.797323 0.909156
0.898913 0.795191 0.908813
1.000000 0.793056 0.908470
0.000000 0.829337 0.911246
0.000000 0.827238 0.910904
0.000000 0.825137 0.910562
0.000000 0.823033 0.910219
0.020393 0.820928 0.909877
0.413813 0.818820 0.909534
0.675343 0.816710 0.909192
0.900602 0.814598 0.908849
1.000000 0.812483 0.908506
0.000000 0.848426 0.911282
0.000000 0.846346 0.910940
0.000000 0.844264 0.910597
0.000000 0.842179 0.910255
0.027598 0.840093 0.909912
0.416115 0.838005 0.909570
0.677236 0.835914 0.909227
0.902290 0.833822 0.908885
1.000000 0.831727 0.908542
0.000000 0.867345 0.911318
0.000000 0.865283 0.910976
0.000000 0.863219 0.910633
0.000000 0.861153 0.910291
0.034110 0.859085 0.909948
0.418412 0.857015 0.909606
0.679127 0.854944 0.909263
0.903976 0.852870 0.908920
1.000000 0.850794 0.908578
0.000000 0.886099 0.911354
0.000000 0.884055 0.911011
0.000000 0.882009 0.910669
0.000000 0.879961 0.910327
0.040156 0.877911 0.909984
0.420703 0.875859 0.909641
0.681016 0.873805 0.909299
0.905661 0.871749 0.908956
1.000000 0.869692 0.908614
0.000000 0.904697 0.911389
0.000000 0.902669 0.911047
0.000000 0.900640 0.910705
0.000000 0.898609 0.910362
0.045857 0.896576 0.910020
0.422990 0.894542 0.909677
0.682903 0.892505 0.909335
0.907345 0.890467 0.908992
1.000000 0.888426 0.908649
0.000000 0.923142 0.911425
0.000000 0.921131 0.911083
0.000000 0.919118 0.910740
0.000000 0.917104 0.910398
0.051287 0.915087 0.910056
0.425272 0.913069 0.909713
0.684788 0.911050 0.909370
0.909028 0.909028 0.909028
1.000000 0.907004 0.908685
0.000000 0.941441 0.911461
0.000000 0.939446 0.911119
0.000000 0.937449 0.910776
0.000000 0.935451 0.910434
0.056495 0.933450 0.910091
0.427549 0.931448 0.909749
0.686671 0.929444 0.909406
0.910709 0.927439 0.909064
1.000000 0.925431 0.908721
0.000000 0.869743 1.000000
0.000000 0.867683 1.000000
0.000000 0.865621 1.000000
0.000000 0.863558 1.000000
0.000000 0.861492 1.000000
0.223184 0.859425 1.000000
0.527989 0.857355 1.000000
0.771463 0.855284 1.000000
0.987014 0.853211 0.999724
0.000000 0.888477 1.000000
0.000000 0.886435 1.000000
0.000000 0.884391 1.000000
0.000000 0.882345 1.000000
0.000000 0.880297 1.000000
0.226126 0.878248 1.000000
0.530077 0.876196 1.000000
0.773258 0.874142 1.000000
0.988641 0.872087 0.999759
0.000000 0.907055 1.000000
0.000000 0.905029 1.000000
0.000000 0.903002 1.000000
0.000000 0.900973 1.000000
0.000000 0.898943 1.000000
0.229053 0.896910 1.000000
0.532163 0.894876 1.000000
0.775052 0.892840 1.000000
0.990267 0.890802 0.999793
0.000000 0.925481 1.000000
0.000000 0.923472 1.000000
0.000000 0.921462 1.000000
0.000000 0.919449 1.000000
0.000000 0.917435 1.000000
0.231965 0.915419 1.000000
0.534245 0.913401 1.000000
0.776844 0.911381 1.000000
0.991891 0.909360 0.999828
0.000000 0.943762 1.000000
0.000000 0.941769 1.000000
0.000000 0.939774 1.000000
0.000000 0.937777 1.000000
0.000000 0.935779 1.000000
0.234863 0.933779 1.000000
0.536324 0.931777 1.000000
0.778634 0.929773 1.000000
0.993515 0.927768 0.999862
0.000000 0.961903 1.000000
0.000000 0.959925 1.000000
0.000000 0.957945 1.000000
0.000000 0.955963 1.000000
0.000000 0.953980 1.000000
0.237746 0.951996 1.000000
0.538400 0.950009 1.000000
0.780423 0.948021 1.000000
0.995138 0.946031 0.999897
0.000000 0.979907 1.000000
0.000000 0.977944 1.000000
0.000000 0.975979 1.000000
0.000000 0.974012 1.000000
0.000000 0.972044 1.000000
0.240615 0.970074 1.000000
0.540472 0.968103 1.000000
0.782210 0.966129 1.000000
0.996760 0.964155 0.999931
0.000000 0.997781 1.000000
0.000000 0.995831 1.000000
0.000000 0.993880 1.000000
0.000000 0.991928 1.000000
0.000000 0.989974 1.000000
0.243471 0.988019 1.000000
0.542541 0.986062 1.000000
0.783995 0.984103 1.000000
0.998380 0.982143 0.999966
0.000000 1.000000 1.000000
0.000000 1.000000 1.000000
0.000000 1.000000 1.000000
0.000000 1.000000 1.000000
0.000000 1.000000 1.000000
0.246313 1.000000 1.000000
0.544608 1.000000 1.000000
0.785779 1.000000 1.000000
1.000000 1.000000 1.000000
