presets/film_stocks/Kodak_Ektar_100.cube
# 独寻胶片模拟 -- Kodak Ektar 100
# Kodak, ISO 100, 2008, negative
TITLE "Kodak Ektar 100"
LUT_3D_SIZE 9
DOMAIN_MIN 0.0 0.0 0.0
DOMAIN_MAX 1.0 1.0 1.0
0.000000 0.000000 0.000000
0.146566 0.004009 0.000000
0.287273 0.007858 0.000000
0.425851 0.011649 0.000000
0.563064 0.015402 0.000000
0.699270 0.019128 0.000000
0.834680 0.022832 0.000000
0.969431 0.026518 0.000000
1.000000 0.030189 0.000000
0.000000 0.143636 0.000000
0.141650 0.147131 0.000000
0.282456 0.150623 0.000000
0.421091 0.154113 0.000000
0.558344 0.157601 0.000000
0.694581 0.161086 0.000000
0.830015 0.164569 0.000000
0.964787 0.168050 0.000000
1.000000 0.171529 0.000000
0.000000 0.281530 0.000000
0.136728 0.284955 0.000000
0.277637 0.288380 0.000000
0.416329 0.291803 0.000000
0.553622 0.295225 0.000000
0.689890 0.298646 0.000000
0.825350 0.302066 0.000000
0.960143 0.305484 0.000000
1.000000 0.308902 0.000000
0.000000 0.417337 0.000000
0.131801 0.420722 0.000000
0.272815 0.424107 0.000000
0.411566 0.427491 0.000000
0.548900 0.430875 0.000000
0.685199 0.434257 0.000000
0.820684 0.437639 0.000000
0.955498 0.441020 0.000000
1.000000 0.444400 0.000000
0.000000 0.551806 0.000000
0.126868 0.555163 0.000000
0.267990 0.558520 0.000000
0.406801 0.561877 0.000000
0.544176 0.565232 0.000000
0.680507 0.568587 0.000000
0.816017 0.571942 0.000000
0.950853 0.575296 0.000000
1.000000 0.578649 0.000000
0.000000 0.685289 0.000000
0.121930 0.688625 0.000000
0.263163 0.691960 0.000000
0.402034 0.695295 0.000000
0.539451 0.698629 0.000000
0.675813 0.701963 0.000000
0.811349 0.705297 0.000000
0.946206 0.708630 0.000000
1.000000 0.711962 0.000000
0.000000 0.817991 0.000000
0.116986 0.821309 0.000000
0.258333 0.824627 0.000000
0.397266 0.827945 0.000000
0.534725 0.831262 0.000000
0.671119 0.834578 0.000000
0.806681 0.837895 0.000000
0.941559 0.841210 0.000000
1.000000 0.844526 0.000000
0.000000 0.950048 0.000000
0.112035 0.953351 0.000000
0.253501 0.956654 0.000000
0.392496 0.959957 0.000000
0.529997 0.963259 0.000000
0.666424 0.966561 0.000000
0.802011 0.969863 0.000000
0.936912 0.973164 0.000000
1.000000 0.976466 0.000000
0.000000 1.000000 0.000000
0.107078 1.000000 0.000000
0.248665 1.000000 0.000000
0.387724 1.000000 0.000000
0.525268 1.000000 0.000000
0.661727 1.000000 0.000000
0.797341 1.000000 0.000000
0.932263 1.000000 0.000000
1.000000 1.000000 0.000000
0.000000 0.000000 0.139498
0.137731 0.000000 0.134902
0.278619 0.000000 0.130300
0.417299 0.000000 0.125694
0.554584 0.000000 0.121083
0.690846 0.003642 0.116466
0.826300 0.007498 0.111844
0.961089 0.011294 0.107216
1.000000 0.015050 0.102582
0.000000 0.129299 0.137404
0.132805 0.132805 0.132805
0.273797 0.136308 0.128201
0.412536 0.139808 0.123593
0.549862 0.143306 0.118979
0.686154 0.146801 0.114360
0.821634 0.150294 0.109735
0.956444 0.153784 0.105105
1.000000 0.157272 0.100468
0.000000 0.267491 0.135308
0.127873 0.270921 0.130707
0.268973 0.274351 0.126101
0.407772 0.277780 0.121490
0.545138 0.281207 0.116874
0.681462 0.284632 0.112252
0.816968 0.288057 0.107625
0.951799 0.291481 0.102992
1.000000 0.294903 0.098352
0.000000 0.403466 0.133211
0.122936 0.406855 0.128608
0.264146 0.410243 0.124000
0.403005 0.413631 0.119387
0.540413 0.417017 0.114768
0.676769 0.420403 0.110144
0.812300 0.423788 0.105514
0.947153 0.427172 0.100878
1.000000 0.430556 0.096235
0.000000 0.538052 0.131113
0.117993 0.541413 0.126508
0.259317 0.544772 0.121898
0.398237 0.548131 0.117282
0.535687 0.551489 0.112661
0.672075 0.554847 0.108034
0.807632 0.558204 0.103401
0.942506 0.561560 0.098762
1.000000 0.564916 0.094117
0.000000 0.671626 0.129015
0.113044 0.674963 0.124407
0.254485 0.678301 0.119794
0.393468 0.681638 0.115176
0.530960 0.684974 0.110552
0.667380 0.688310 0.105923
0.802962 0.691646 0.101287
0.937858 0.694981 0.096645
1.000000 0.698315 0.091997
0.000000 0.804401 0.126915
0.108088 0.807721 0.122305
0.249650 0.811040 0.117690
0.388696 0.814360 0.113069
0.526232 0.817678 0.108443
0.662684 0.820997 0.103811
0.798293 0.824314 0.099172
0.933210 0.827632 0.094527
1.000000 0.830949 0.089875
0.000000 0.936519 0.124814
0.103126 0.939824 0.120202
0.244813 0.943128 0.115584
0.383923 0.946433 0.110961
0.521502 0.949736 0.106332
0.657987 0.953040 0.101697
0.793622 0.956343 0.097056
0.928561 0.959646 0.092408
1.000000 0.962948 0.087753
0.000000 1.000000 0.122712
0.098156 1.000000 0.118098
0.239972 1.000000 0.113477
0.379148 1.000000 0.108852
0.516771 1.000000 0.104220
0.653289 1.000000 0.099582
0.788950 1.000000 0.094938
0.923911 1.000000 0.090287
1.000000 1.000000 0.085628
0.000000 0.000000 0.273421
0.128878 0.000000 0.268917
0.269956 0.000000 0.264411
0.408742 0.000000 0.259903
0.546100 0.000000 0.255392
0.682418 0.000000 0.250879
0.817918 0.000000 0.246364
0.952745 0.000000 0.241846
1.000000 0.000000 0.237325
0.000000 0.114914 0.271368
0.123942 0.118432 0.266863
0.265130 0.121947 0.262356
0.403976 0.125459 0.257847
0.541376 0.128968 0.253335
0.677725 0.132474 0.248821
0.813251 0.135978 0.244305
0.948099 0.139478 0.239786
1.000000 0.142976 0.235264
0.000000 0.253429 0.269315
0.119000 0.256866 0.264809
0.260301 0.260301 0.260301
0.399209 0.263735 0.255791
0.536650 0.267167 0.251278
0.673031 0.270598 0.246763
0.808582 0.274028 0.242245
0.943452 0.277456 0.237725
1.000000 0.280884 0.233202
0.000000 0.389581 0.267261
0.114052 0.392974 0.262754
0.255470 0.396365 0.258245
0.394439 0.399756 0.253734
0.531923 0.403146 0.249220
0.668336 0.406536 0.244704
0.803913 0.409924 0.240185
0.938805 0.413312 0.235663
1.000000 0.416698 0.231139
0.000000 0.524289 0.265207
0.109098 0.527651 0.260699
0.250635 0.531014 0.256189
0.389668 0.534375 0.251676
0.527195 0.537736 0.247161
0.663640 0.541096 0.242644
0.799244 0.544455 0.238124
0.934157 0.547814 0.233602
1.000000 0.551173 0.229076
0.000000 0.657954 0.263152
0.104137 0.661294 0.258644
0.245798 0.664634 0.254132
0.384895 0.667973 0.249619
0.522465 0.671311 0.245103
0.658944 0.674649 0.240584
0.794573 0.677986 0.236063
0.929508 0.681323 0.231539
1.000000 0.684660 0.227013
0.000000 0.790804 0.261097
0.099169 0.794126 0.256587
0.240959 0.797447 0.252075
0.380121 0.800768 0.247560
0.517734 0.804088 0.243043
0.654246 0.807408 0.238523
0.789902 0.810728 0.234001
0.924858 0.814047 0.229476
1.000000 0.817366 0.224948
0.000000 0.922985 0.259042
0.094193 0.926291 0.254531
0.236116 0.929597 0.250017
0.375344 0.932902 0.245501
0.513002 0.936208 0.240983
0.649547 0.939512 0.236462
0.785229 0.942817 0.231939
0.920208 0.946121 0.227413
1.000000 0.949425 0.222884
0.000000 1.000000 0.256986
0.089209 1.000000 0.252474
0.231270 1.000000 0.247959
0.370566 1.000000 0.243442
0.508269 1.000000 0.238923
0.644847 1.000000 0.234401
0.780556 1.000000 0.229876
0.915557 1.000000 0.225348
1.000000 1.000000 0.220818
0.000000 0.000000 0.405316
0.120007 0.000000 0.400865
0.261285 0.000000 0.396413
0.400180 0.000000 0.391960
0.537612 0.000000 0.387505
0.673987 0.000000 0.383049
0.809533 0.000000 0.378591
0.944399 0.000000 0.374131
1.000000 0.000000 0.369670
0.000000 0.100475 0.403287
0.115061 0.104007 0.398836
0.256454 0.107536 0.394384
0.395411 0.111061 0.389929
0.532886 0.114583 0.385474
0.669293 0.118101 0.381017
0.804864 0.121616 0.376558
0.939751 0.125128 0.372098
1.000000 0.128638 0.367636
0.000000 0.239345 0.401258
0.110108 0.242787 0.396807
0.251620 0.246228 0.392353
0.390640 0.249667 0.387899
0.528158 0.253105 0.383442
0.664597 0.256542 0.378984
0.800195 0.259977 0.374525
0.935103 0.263411 0.370064
1.000000 0.266844 0.365601
0.000000 0.375681 0.399229
0.105148 0.379077 0.394777
0.246784 0.382473 0.390323
0.385867 0.385867 0.385867
0.523428 0.389261 0.381410
0.659900 0.392654 0.376952
0.795524 0.396046 0.372492
0.930455 0.399437 0.368030
1.000000 0.402827 0.363566
0.000000 0.510514 0.397200
0.100181 0.513880 0.392747
0.241944 0.517244 0.388292
0.381093 0.520608 0.383836
0.518698 0.523972 0.379378
0.655203 0.527335 0.374919
0.790853 0.530697 0.370458
0.925805 0.534058 0.365995
1.000000 0.537419 0.361531
0.000000 0.644274 0.395170
0.095207 0.647616 0.390716
0.237102 0.650958 0.386261
0.376317 0.654299 0.381804
0.513966 0.657639 0.377346
0.650504 0.660979 0.372886
0.786181 0.664319 0.368424
0.921155 0.667658 0.363961
1.000000 0.670996 0.359496
0.000000 0.777200 0.393140
0.090225 0.780524 0.388686
0.232257 0.783846 0.384230
0.371539 0.787169 0.379772
0.509233 0.790491 0.375313
0.645804 0.793813 0.370852
0.781508 0.797134 0.366390
0.916505 0.800455 0.361926
1.000000 0.803775 0.357460
0.000000 0.909444 0.391110
0.085235 0.912752 0.386655
0.227409 0.916059 0.382198
0.366760 0.919366 0.377739
0.504498 0.922673 0.373280
0.641104 0.925979 0.368818
0.776834 0.929285 0.364355
0.911853 0.932591 0.359890
1.000000 0.935896 0.355424
0.000000 1.000000 0.389079
0.080235 1.000000 0.384623
0.222558 1.000000 0.380166
0.361978 1.000000 0.375707
0.499763 1.000000 0.371246
0.636402 1.000000 0.366784
0.772160 1.000000 0.362320
0.907201 1.000000 0.357854
1.000000 1.000000 0.353387
0.000000 0.000000 0.535912
0.111117 0.000000 0.531499
0.252605 0.000000 0.527084
0.391612 0.000000 0.522669
0.529121 0.000000 0.518253
0.665553 0.000000 0.513835
0.801146 0.000000 0.509416
0.936050 0.000000 0.504997
1.000000 0.000000 0.500576
0.000000 0.085974 0.533900
0.106159 0.089522 0.529487
0.247769 0.093066 0.525072
0.386840 0.096606 0.520656
0.524392 0.100142 0.516239
0.660857 0.103675 0.511821
0.796476 0.107203 0.507402
0.931402 0.110729 0.502981
1.000000 0.114251 0.498560
0.000000 0.225235 0.531888
0.101193 0.228684 0.527474
0.242930 0.232131 0.523059
0.382066 0.235576 0.518643
0.519661 0.239020 0.514225
0.656159 0.242463 0.509807
0.791804 0.245904 0.505387
0.926752 0.249343 0.500966
1.000000 0.252781 0.496544
0.000000 0.361766 0.529876
0.096221 0.365166 0.525462
0.238089 0.368565 0.521046
0.377290 0.371964 0.516629
0.514930 0.375361 0.512211
0.651461 0.378757 0.507792
0.787132 0.382153 0.503372
0.922102 0.385548 0.498950
1.000000 0.388941 0.494528
0.000000 0.496728 0.527864
0.091240 0.500097 0.523449
0.233244 0.503464 0.519033
0.372512 0.506831 0.514615
0.510197 0.510197 0.510197
0.646762 0.513562 0.505777
0.782460 0.516927 0.501357
0.917452 0.520291 0.496935
1.000000 0.523655 0.492511
0.000000 0.630586 0.525852
0.086252 0.633930 0.521436
0.228397 0.637274 0.517019
0.367733 0.640617 0.512601
0.505463 0.643959 0.508182
0.642061 0.647301 0.503762
0.777786 0.650643 0.499341
0.912801 0.653984 0.494918
1.000000 0.657325 0.490495
0.000000 0.763589 0.523839
0.081254 0.766914 0.519423
0.223546 0.770239 0.515006
0.362952 0.773563 0.510587
0.500727 0.776887 0.506168
0.637359 0.780210 0.501747
0.773112 0.783533 0.497325
0.908149 0.786856 0.492902
1.000000 0.790178 0.488478
0.000000 0.895898 0.521826
0.076248 0.899207 0.517409
0.218692 0.902516 0.512992
0.358169 0.905824 0.508573
0.495990 0.909132 0.504153
0.632657 0.912440 0.499731
0.768436 0.915748 0.495309
0.903496 0.919055 0.490885
1.000000 0.922361 0.486461
0.000000 1.000000 0.519813
0.071231 1.000000 0.515396
0.213835 1.000000 0.510977
0.353384 1.000000 0.506558
0.491252 1.000000 0.502137
0.627953 1.000000 0.497716
0.763760 1.000000 0.493293
0.898842 1.000000 0.488869
1.000000 1.000000 0.484443
0.000000 0.000000 0.665550
0.102205 0.000000 0.661166
0.243916 0.000000 0.656780
0.383038 0.000000 0.652394
0.520625 0.000000 0.648007
0.657116 0.000000 0.643619
0.792756 0.000000 0.639230
0.927699 0.000000 0.634841
1.000000 0.000000 0.630450
0.000000 0.071398 0.663551
0.097234 0.074965 0.659167
0.239075 0.078528 0.654781
0.378263 0.082086 0.650394
0.515894 0.085639 0.646007
0.652418 0.089188 0.641619
0.788084 0.092732 0.637229
0.923050 0.096273 0.632839
1.000000 0.099809 0.628448
0.000000 0.211099 0.661553
0.092255 0.214554 0.657168
0.234231 0.218008 0.652781
0.373486 0.221460 0.648395
0.511161 0.224910 0.644007
0.647719 0.228359 0.639618
0.783411 0.231806 0.635228
0.918399 0.235252 0.630838
1.000000 0.238696 0.626446
0.000000 0.347834 0.659554
0.087268 0.351239 0.655168
0.229384 0.354642 0.650782
0.368707 0.358044 0.646394
0.506427 0.361445 0.642006
0.643018 0.364846 0.637617
0.778738 0.368245 0.633227
0.913748 0.371643 0.628836
1.000000 0.375041 0.624444
0.000000 0.482931 0.657555
0.082273 0.486302 0.653169
0.224534 0.489672 0.648782
0.363926 0.493042 0.644394
0.501692 0.496411 0.640006
0.638317 0.499779 0.635616
0.774064 0.503147 0.631226
0.909096 0.506514 0.626834
1.000000 0.509880 0.622442
0.000000 0.616888 0.655556
0.077268 0.620235 0.651169
0.219681 0.623580 0.646782
0.359143 0.626926 0.642394
0.496955 0.630270 0.638005
0.633615 0.633615 0.633615
0.769389 0.636958 0.629224
0.904443 0.640302 0.624832
1.000000 0.643644 0.620439
0.000000 0.749971 0.653556
0.072254 0.753298 0.649169
0.214825 0.756624 0.644782
0.354358 0.759950 0.640393
0.492217 0.763276 0.636004
0.628911 0.766601 0.631613
0.764713 0.769926 0.627222
0.899790 0.773250 0.622830
1.000000 0.776574 0.618437
0.000000 0.882345 0.651557
0.067229 0.885656 0.647169
0.209965 0.888966 0.642781
0.349572 0.892276 0.638392
0.487478 0.895586 0.634002
0.624207 0.898895 0.629612
0.760036 0.902204 0.625220
0.895136 0.905512 0.620827
1.000000 0.908821 0.616434
0.000000 1.000000 0.649557
0.062193 1.000000 0.645169
0.205102 1.000000 0.640781
0.344783 1.000000 0.636391
0.482737 1.000000 0.632001
0.619501 1.000000 0.627610
0.755358 1.000000 0.623218
0.890481 1.000000 0.618825
1.000000 1.000000 0.614431
0.000000 0.000000 0.794430
0.093270 0.000000 0.790069
0.235218 0.000000 0.785707
0.374459 0.000000 0.781344
0.512125 0.000000 0.776981
0.648676 0.000000 0.772617
0.784363 0.000000 0.768252
0.919346 0.000000 0.763887
1.000000 0.000000 0.759521
0.000000 0.056731 0.792442
0.088285 0.060323 0.788081
0.230372 0.063908 0.783718
0.369680 0.067488 0.779356
0.507391 0.071061 0.774992
0.643976 0.074629 0.770628
0.779690 0.078192 0.766263
0.914695 0.081751 0.761897
1.000000 0.085304 0.757530
0.000000 0.196934 0.790454
0.083291 0.200397 0.786092
0.225522 0.203857 0.781730
0.364900 0.207316 0.777367
0.502656 0.210773 0.773003
0.639275 0.214229 0.768638
0.775016 0.217682 0.764272
0.910044 0.221134 0.759906
1.000000 0.224585 0.755539
0.000000 0.333886 0.788466
0.078288 0.337295 0.784104
0.220670 0.340702 0.779741
0.360117 0.344108 0.775377
0.497920 0.347513 0.771013
0.634572 0.350918 0.766648
0.770341 0.354321 0.762282
0.905391 0.357723 0.757916
1.000000 0.361125 0.753548
0.000000 0.469122 0.786478
0.073276 0.472496 0.782115
0.215814 0.475869 0.777752
0.355333 0.479242 0.773388
0.493182 0.482613 0.769023
0.629869 0.485985 0.764658
0.765665 0.489355 0.760292
0.900738 0.492725 0.755925
1.000000 0.496093 0.751557
0.000000 0.603181 0.784489
0.068253 0.606530 0.780126
0.210955 0.609878 0.775763
0.350547 0.613226 0.771399
0.488443 0.616573 0.767034
0.625165 0.619919 0.762668
0.760988 0.623265 0.758301
0.896084 0.626610 0.753934
1.000000 0.629955 0.749566
0.000000 0.736345 0.782500
0.063220 0.739674 0.778137
0.206093 0.743002 0.773773
0.345759 0.746330 0.769409
0.483703 0.749657 0.765044
0.620460 0.752984 0.760678
0.756311 0.756311 0.756311
0.891429 0.759637 0.751943
1.000000 0.762962 0.747575
0.000000 0.868786 0.780512
0.058174 0.872098 0.776148
0.201227 0.875410 0.771784
0.340969 0.878722 0.767419
0.478961 0.882033 0.763053
0.615753 0.885344 0.758687
0.751632 0.888654 0.754320
0.886774 0.891964 0.749952
1.000000 0.895274 0.745583
0.000000 1.000000 0.778523
0.053115 1.000000 0.774159
0.196358 1.000000 0.769794
0.336176 1.000000 0.765429
0.474218 1.000000 0.761063
0.611046 1.000000 0.756696
0.746953 1.000000 0.752329
0.882118 1.000000 0.747961
1.000000 1.000000 0.743592
0.000000 0.000000 0.922683
0.084309 0.000000 0.918341
0.226510 0.000000 0.913999
0.365873 0.000000 0.909657
0.503621 0.000000 0.905313
0.640232 0.000000 0.900969
0.775968 0.000000 0.896625
0.910991 0.000000 0.892279
1.000000 0.000000 0.887933
0.000000 0.041949 0.920704
0.079308 0.045572 0.916362
0.221658 0.049187 0.912020
0.361091 0.052793 0.907677
0.498885 0.056393 0.903333
0.635530 0.059985 0.898989
0.771293 0.063571 0.894644
0.906339 0.067151 0.890298
1.000000 0.070725 0.885952
0.000000 0.182739 0.918725
0.074298 0.186209 0.914383
0.216803 0.189677 0.910040
0.356308 0.193144 0.905697
0.494147 0.196608 0.901353
0.630827 0.200070 0.897008
0.766617 0.203531 0.892663
0.901686 0.206990 0.888317
1.000000 0.210447 0.883971
0.000000 0.319921 0.916746
0.069277 0.323333 0.912403
0.211945 0.326745 0.908060
0.351522 0.330155 0.903717
0.489408 0.333565 0.899372
0.626123 0.336973 0.895028
0.761941 0.340381 0.890682
0.897032 0.343787 0.886336
1.000000 0.347193 0.881989
0.000000 0.455301 0.914766
0.064246 0.458678 0.910424
0.207083 0.462054 0.906080
0.346734 0.465429 0.901736
0.484668 0.468804 0.897392
0.621418 0.472178 0.893047
0.757263 0.475551 0.888701
0.892377 0.478924 0.884355
1.000000 0.482296 0.880008
0.000000 0.589465 0.912787
0.059203 0.592816 0.908444
0.202218 0.596167 0.904100
0.341944 0.599517 0.899756
0.479927 0.602866 0.895411
0.616712 0.606215 0.891066
0.752585 0.609563 0.886720
0.887722 0.612910 0.882373
1.000000 0.616257 0.878026
0.000000 0.722712 0.910807
0.054146 0.726042 0.906464
0.197350 0.729372 0.902120
0.337153 0.732702 0.897776
0.475184 0.736031 0.893431
0.612005 0.739360 0.889085
0.747906 0.742688 0.884739
0.883066 0.746016 0.880391
1.000000 0.749344 0.876044
0.000000 0.855221 0.908827
0.049076 0.858535 0.904484
0.192477 0.861848 0.900140
0.332359 0.865161 0.895795
0.470439 0.868474 0.891450
0.607296 0.871786 0.887104
0.743226 0.875098 0.882757
0.878410 0.878410 0.878410
1.000000 0.881721 0.874062
0.000000 0.987114 0.906848
0.043990 0.990414 0.902504
0.187602 0.993713 0.898159
0.327563 0.997012 0.893814
0.465694 1.000000 0.889469
0.602587 1.000000 0.885122
0.738545 1.000000 0.880775
0.873752 1.000000 0.876428
1.000000 1.000000 0.872080
0.000000 0.000000 1.000000
0.075319 0.000000 1.000000
0.217792 0.000000 1.000000
0.357282 0.000000 1.000000
0.495112 0.000000 1.000000
0.631785 0.000000 1.000000
0.767570 0.000000 1.000000
0.902633 0.000000 1.000000
1.000000 0.000000 1.000000
0.000000 0.027005 1.000000
0.070300 0.030674 1.000000
0.212935 0.034329 1.000000
0.352497 0.037974 1.000000
0.490374 0.041607 1.000000
0.627081 0.045231 1.000000
0.762893 0.048846 1.000000
0.897980 0.052454 1.000000
1.000000 0.056054 1.000000
0.000000 0.168511 1.000000
0.065271 0.171989 1.000000
0.208074 0.175465 1.000000
0.347709 0.178940 1.000000
0.485634 0.182412 1.000000
0.622376 0.185882 1.000000
0.758216 0.189351 1.000000
0.893325 0.192817 1.000000
1.000000 0.196281 1.000000
0.000000 0.305937 1.000000
0.060231 0.309354 1.000000
0.203209 0.312770 1.000000
0.342920 0.316185 1.000000
0.480893 0.319599 1.000000
0.617671 0.323012 1.000000
0.753538 0.326423 1.000000
0.888670 0.329834 1.000000
1.000000 0.333244 1.000000
0.000000 0.441467 1.000000
0.055177 0.444847 1.000000
0.198341 0.448226 1.000000
0.338129 0.451605 1.000000
0.476150 0.454983 1.000000
0.612963 0.458360 1.000000
0.748859 0.461736 1.000000
0.884015 0.465111 1.000000
1.000000 0.468486 1.000000
0.000000 0.575740 1.000000
0.050110 0.579093 1.000000
0.193470 0.582446 1.000000
0.333335 0.585798 1.000000
0.471406 0.589150 1.000000
0.608255 0.592501 1.000000
0.744179 0.595851 1.000000
0.879358 0.599201 1.000000
1.000000 0.602550 1.000000
0.000000 0.709071 1.000000
0.045027 0.712403 1.000000
0.188595 0.715735 1.000000
0.328540 0.719067 1.000000
0.466660 0.722398 1.000000
0.603546 0.725728 1.000000
0.739499 0.729059 1.000000
0.874701 0.732388 1.000000
1.000000 0.735718 1.000000
0.000000 0.841649 1.000000
0.039927 0.844965 1.000000
0.183716 0.848280 1.000000
0.323742 0.851594 1.000000
0.461913 0.854909 1.000000
0.598836 0.858222 1.000000
0.734817 0.861536 1.000000
0.870043 0.864849 1.000000
1.000000 0.868162 1.000000
0.000000 0.973601 1.000000
0.034807 0.976902 1.000000
0.178833 0.980203 1.000000
0.318943 0.983503 1.000000
0.457165 0.986803 1.000000
0.594124 0.990103 1.000000
0.730135 0.993402 1.000000
0.865384 0.996701 1.000000
1.000000 1.000000 1.000000
