presets/film_stocks/Kodak_Portra_Endura_Paper.cube
# 独寻胶片模拟 -- Kodak Portra Endura Paper
# Kodak, ISO 0, 0, negative
TITLE "Kodak Portra Endura Paper"
LUT_3D_SIZE 5
DOMAIN_MIN 0.0 0.0 0.0
DOMAIN_MAX 1.0 1.0 1.0
0.000000 0.000000 0.000000
0.308873 0.000000 0.000000
0.555763 0.000000 0.000000
0.783646 0.000000 0.000000
1.000000 0.000000 0.000000
0.000000 0.308873 0.000000
0.308873 0.308873 0.000000
0.555763 0.308873 0.000000
0.783646 0.308873 0.000000
1.000000 0.308873 0.000000
0.000000 0.555763 0.000000
0.308873 0.555763 0.000000
0.555763 0.555763 0.000000
0.783646 0.555763 0.000000
1.000000 0.555763 0.000000
0.000000 0.783646 0.000000
0.308873 0.783646 0.000000
0.555763 0.783646 0.000000
0.783646 0.783646 0.000000
1.000000 0.783646 0.000000
0.000000 1.000000 0.000000
0.308873 1.000000 0.000000
0.555763 1.000000 0.000000
0.783646 1.000000 0.000000
1.000000 1.000000 0.000000
0.000000 0.000000 0.308873
0.308873 0.000000 0.308873
0.555763 0.000000 0.308873
0.783646 0.000000 0.308873
1.000000 0.000000 0.308873
0.000000 0.308873 0.308873
0.308873 0.308873 0.308873
0.555763 0.308873 0.308873
0.783646 0.308873 0.308873
1.000000 0.308873 0.308873
0.000000 0.555763 0.308873
0.308873 0.555763 0.308873
0.555763 0.555763 0.308873
0.783646 0.555763 0.308873
1.000000 0.555763 0.308873
0.000000 0.783646 0.308873
0.308873 0.783646 0.308873
0.555763 0.783646 0.308873
0.783646 0.783646 0.308873
1.000000 0.783646 0.308873
0.000000 1.000000 0.308873
0.308873 1.000000 0.308873
0.555763 1.000000 0.308873
0.783646 1.000000 0.308873
1.000000 1.000000 0.308873
0.000000 0.000000 0.555763
0.308873 0.000000 0.555763
0.555763 0.000000 0.555763
0.783646 0.000000 0.555763
1.000000 0.000000 0.555763
0.000000 0.308873 0.555763
0.308873 0.308873 0.555763
0.555763 0.308873 0.555763
0.783646 0.308873 0.555763
1.000000 0.308873 0.555763
0.000000 0.555763 0.555763
0.308873 0.555763 0.555763
0.555763 0.555763 0.555763
0.783646 0.555763 0.555763
1.000000 0.555763 0.555763
0.000000 0.783646 0.555763
0.308873 0.783646 0.555763
0.555763 0.783646 0.555763
0.783646 0.783646 0.555763
1.000000 0.783646 0.555763
0.000000 1.000000 0.555763
0.308873 1.000000 0.555763
0.555763 1.000000 0.555763
0.783646 1.000000 0.555763
1.000000 1.000000 0.555763
0.000000 0.000000 0.783646
0.308873 0.000000 0.783646
0.555763 0.000000 0.783646
0.783646 0.000000 0.783646
1.000000 0.000000 0.783646
0.000000 0.308873 0.783646
0.308873 0.308873 0.783646
0.555763 0.308873 0.783646
0.783646 0.308873 0.783646
1.000000 0.308873 0.783646
0.000000 0.555763 0.783646
0.308873 0.555763 0.783646
0.555763 0.555763 0.783646
0.783646 0.555763 0.783646
1.000000 0.555763 0.783646
0.000000 0.783646 0.783646
0.308873 0.783646 0.783646
0.555763 0.783646 0.783646
0.783646 0.783646 0.783646
1.000000 0.783646 0.783646
0.000000 1.000000 0.783646
0.308873 1.000000 0.783646
0.555763 1.000000 0.783646
0.783646 1.000000 0.783646
1.000000 1.000000 0.783646
0.000000 0.000000 1.000000
0.308873 0.000000 1.000000
0.555763 0.000000 1.000000
0.783646 0.000000 1.000000
1.000000 0.000000 1.000000
0.000000 0.308873 1.000000
0.308873 0.308873 1.000000
0.555763 0.308873 1.000000
0.783646 0.308873 1.000000
1.000000 0.308873 1.000000
0.000000 0.555763 1.000000
0.308873 0.555763 1.000000
0.555763 0.555763 1.000000
0.783646 0.555763 1.000000
1.000000 0.555763 1.000000
0.000000 0.783646 1.000000
0.308873 0.783646 1.000000
0.555763 0.783646 1.000000
0.783646 0.783646 1.000000
1.000000 0.783646 1.000000
0.000000 1.000000 1.000000
0.308873 1.000000 1.000000
0.555763 1.000000 1.000000
0.783646 1.000000 1.000000
1.000000 1.000000 1.000000
