presets/film_stocks/Kodak_5247.cube
# 独寻胶片模拟 -- Kodak 5247
# Kodak, ISO 16, 1950, negative
TITLE "Kodak 5247"
LUT_3D_SIZE 9
DOMAIN_MIN 0.0 0.0 0.0
DOMAIN_MAX 1.0 1.0 1.0
0.000000 0.000000 0.000000
0.187151 0.005839 0.000000
0.341946 0.010668 0.000000
0.486497 0.015178 0.000000
0.624773 0.019492 0.000000
0.758564 0.023666 0.000000
0.888885 0.027732 0.000000
1.000000 0.031710 0.000000
1.000000 0.035614 0.000000
0.000000 0.180351 0.000000
0.179849 0.183382 0.000000
0.335285 0.186405 0.000000
0.480182 0.189422 0.000000
0.618693 0.192431 0.000000
0.752658 0.195433 0.000000
0.883118 0.198428 0.000000
1.000000 0.201417 0.000000
1.000000 0.204399 0.000000
0.000000 0.329521 0.000000
0.172502 0.332292 0.000000
0.328604 0.335059 0.000000
0.473855 0.337823 0.000000
0.612603 0.340584 0.000000
0.746746 0.343341 0.000000
0.877347 0.346095 0.000000
1.000000 0.348846 0.000000
1.000000 0.351593 0.000000
0.000000 0.468819 0.000000
0.165107 0.471448 0.000000
0.321902 0.474075 0.000000
0.467515 0.476699 0.000000
0.606504 0.479321 0.000000
0.740826 0.481941 0.000000
0.871569 0.484559 0.000000
0.999422 0.487175 0.000000
1.000000 0.489788 0.000000
0.000000 0.602071 0.000000
0.157663 0.604604 0.000000
0.315180 0.607134 0.000000
0.461162 0.609663 0.000000
0.600396 0.612191 0.000000
0.734900 0.614716 0.000000
0.865786 0.617241 0.000000
0.993756 0.619763 0.000000
1.000000 0.622285 0.000000
0.000000 0.731000 0.000000
0.150165 0.733460 0.000000
0.308436 0.735918 0.000000
0.454796 0.738376 0.000000
0.594278 0.740832 0.000000
0.728966 0.743286 0.000000
0.859997 0.745740 0.000000
0.988086 0.748192 0.000000
1.000000 0.750643 0.000000
0.000000 0.856586 0.000000
0.142611 0.858988 0.000000
0.301669 0.861389 0.000000
0.448416 0.863789 0.000000
0.588151 0.866188 0.000000
0.723025 0.868586 0.000000
0.854202 0.870983 0.000000
0.982411 0.873379 0.000000
1.000000 0.875774 0.000000
0.000000 0.979457 0.000000
0.134997 0.981811 0.000000
0.294880 0.984165 0.000000
0.442023 0.986517 0.000000
0.582015 0.988869 0.000000
0.717076 0.991220 0.000000
0.848401 0.993570 0.000000
0.976731 0.995919 0.000000
1.000000 0.998267 0.000000
0.000000 1.000000 0.000000
0.127317 1.000000 0.000000
0.288068 1.000000 0.000000
0.435616 1.000000 0.000000
0.575869 1.000000 0.000000
0.711121 1.000000 0.000000
0.842594 1.000000 0.000000
0.971046 1.000000 0.000000
1.000000 1.000000 0.000000
0.000000 0.000000 0.169060
0.171349 0.000000 0.165848
0.327558 0.000000 0.162627
0.472865 0.000000 0.159397
0.611650 0.000000 0.156157
0.745821 0.000000 0.152906
0.876444 0.000000 0.149645
1.000000 0.003924 0.146374
1.000000 0.008945 0.143091
0.000000 0.160864 0.167164
0.163947 0.163947 0.163947
0.320853 0.167022 0.160721
0.466523 0.170088 0.157485
0.605550 0.173145 0.154238
0.739901 0.176195 0.150982
0.870666 0.179237 0.147715
0.998537 0.182271 0.144437
1.000000 0.185297 0.141148
0.000000 0.311795 0.165266
0.156495 0.314589 0.162043
0.314127 0.317379 0.158811
0.460168 0.320166 0.155569
0.599440 0.322948 0.152316
0.733973 0.325728 0.149054
0.864882 0.328503 0.145780
0.992871 0.331276 0.142496
1.000000 0.334044 0.139200
0.000000 0.452030 0.163364
0.148989 0.454673 0.160136
0.307380 0.457314 0.156897
0.453800 0.459953 0.153649
0.593322 0.462589 0.150391
0.728038 0.465223 0.147122
0.859092 0.467855 0.143842
0.987200 0.470484 0.140551
1.000000 0.473111 0.137248
0.000000 0.585912 0.161458
0.141425 0.588454 0.158225
0.300610 0.590995 0.154981
0.447418 0.593534 0.151726
0.587193 0.596072 0.148462
0.722096 0.598608 0.145186
0.853296 0.601142 0.141900
0.981524 0.603675 0.138602
1.000000 0.606206 0.135292
0.000000 0.715311 0.159550
0.133801 0.717778 0.156310
0.293817 0.720245 0.153060
0.441023 0.722710 0.149800
0.581055 0.725174 0.146529
0.716146 0.727636 0.143247
0.847494 0.730098 0.139953
0.975843 0.732558 0.136648
1.000000 0.735017 0.133331
0.000000 0.841269 0.157638
0.126111 0.843677 0.154392
0.287001 0.846085 0.151136
0.434613 0.848491 0.147869
0.574907 0.850897 0.144592
0.710189 0.853301 0.141303
0.841686 0.855704 0.138003
0.970157 0.858107 0.134691
1.000000 0.860508 0.131367
0.000000 0.964448 0.155722
0.118349 0.966808 0.152470
0.280160 0.969167 0.149208
0.428190 0.971525 0.145935
0.568750 0.973882 0.142651
0.704225 0.976238 0.139356
0.835872 0.978593 0.136049
0.964467 0.980948 0.132729
1.000000 0.983302 0.129398
0.000000 1.000000 0.153803
0.110511 1.000000 0.150545
0.273294 1.000000 0.147277
0.421752 1.000000 0.143997
0.562582 1.000000 0.140707
0.698253 1.000000 0.137404
0.830053 1.000000 0.134090
0.958771 1.000000 0.130763
1.000000 1.000000 0.127424
0.000000 0.000000 0.308891
0.155326 0.000000 0.305959
0.313074 0.000000 0.303023
0.459174 0.000000 0.300083
0.598485 0.000000 0.297139
0.733046 0.000000 0.294190
0.863977 0.000000 0.291236
0.991985 0.000000 0.288278
1.000000 0.000000 0.285316
0.000000 0.141016 0.307160
0.147811 0.144160 0.304226
0.306323 0.147294 0.301288
0.452803 0.150417 0.298345
0.592365 0.153531 0.295398
0.727110 0.156636 0.292446
0.858186 0.159731 0.289490
0.986313 0.162817 0.286529
1.000000 0.165895 0.283564
0.000000 0.293917 0.305428
0.140238 0.296736 0.302491
0.299550 0.299550 0.299550
0.446419 0.302361 0.296605
0.586235 0.305167 0.293655
0.721167 0.307970 0.290701
0.852390 0.310769 0.287742
0.980637 0.313565 0.284779
1.000000 0.316356 0.281811
0.000000 0.435147 0.303694
0.132604 0.437805 0.300755
0.292754 0.440461 0.297811
0.440022 0.443114 0.294863
0.580095 0.445765 0.291911
0.715216 0.448414 0.288954
0.846587 0.451060 0.285993
0.974955 0.453704 0.283027
1.000000 0.456346 0.280056
0.000000 0.569685 0.301959
0.124903 0.572238 0.299017
0.285934 0.574789 0.296071
0.433610 0.577339 0.293120
0.573946 0.579887 0.290165
0.709258 0.582434 0.287206
0.840778 0.584979 0.284242
0.969269 0.587522 0.281273
1.000000 0.590063 0.278299
0.000000 0.699569 0.300222
0.117130 0.702045 0.297278
0.279089 0.704520 0.294329
0.427185 0.706993 0.291376
0.567787 0.709465 0.288418
0.703292 0.711936 0.285456
0.834963 0.714405 0.282489
0.963577 0.716873 0.279517
1.000000 0.719340 0.276541
0.000000 0.825910 0.298484
0.109279 0.828325 0.295537
0.272219 0.830739 0.292586
0.420744 0.833152 0.289630
0.561617 0.835564 0.286669
0.697319 0.837975 0.283704
0.829143 0.840385 0.280735
0.957880 0.842794 0.277760
1.000000 0.845202 0.274781
0.000000 0.949404 0.296744
0.101342 0.951769 0.293795
0.265323 0.954134 0.290841
0.414289 0.956497 0.287882
0.555438 0.958860 0.284919
0.691338 0.961221 0.281951
0.823316 0.963582 0.278979
0.952179 0.965942 0.276002
1.000000 0.968301 0.273020
0.000000 1.000000 0.295003
0.093310 1.000000 0.292051
0.258400 1.000000 0.289094
0.407819 1.000000 0.286133
0.549248 1.000000 0.283167
0.685349 1.000000 0.280196
0.817483 1.000000 0.277221
0.946472 1.000000 0.274241
1.000000 1.000000 0.271256
0.000000 0.000000 0.439469
0.139049 0.000000 0.436689
0.298490 0.000000 0.433906
0.445421 0.000000 0.431121
0.585276 0.000000 0.428333
0.720237 0.000000 0.425542
0.851483 0.000000 0.422748
0.979749 0.000000 0.419952
1.000000 0.000000 0.417153
0.000000 0.120738 0.437828
0.131405 0.123955 0.435046
0.291690 0.127159 0.432262
0.439021 0.130352 0.429475
0.579135 0.133532 0.426685
0.714285 0.136702 0.423892
0.845680 0.139860 0.421097
0.974067 0.143008 0.418299
1.000000 0.146145 0.415498
0.000000 0.275874 0.436185
0.123693 0.278719 0.433402
0.284866 0.281560 0.430616
0.432607 0.284397 0.427827
0.572984 0.287230 0.425036
0.708326 0.290058 0.422242
0.839870 0.292882 0.419445
0.968380 0.295702 0.416645
1.000000 0.298518 0.413843
0.000000 0.418165 0.434542
0.115908 0.420839 0.431757
0.278017 0.423510 0.428970
0.426179 0.426179 0.426179
0.566823 0.428846 0.423386
0.702359 0.431510 0.420591
0.834054 0.434171 0.417792
0.962687 0.436830 0.414991
1.000000 0.439487 0.412187
0.000000 0.553388 0.432898
0.108044 0.555953 0.430111
0.271143 0.558515 0.427322
0.419737 0.561076 0.424530
0.560653 0.563635 0.421736
0.696385 0.566192 0.418938
0.828233 0.568748 0.416138
0.956990 0.571302 0.413335
1.000000 0.573854 0.410529
0.000000 0.683774 0.431252
0.100093 0.686259 0.428464
0.264243 0.688742 0.425674
0.413279 0.691223 0.422880
0.554472 0.693704 0.420084
0.690403 0.696183 0.417285
0.822405 0.698660 0.414483
0.951287 0.701137 0.411678
1.000000 0.703612 0.408871
0.000000 0.810508 0.429606
0.092046 0.812930 0.426817
0.257316 0.815351 0.424024
0.406807 0.817771 0.421229
0.548280 0.820190 0.418431
0.684413 0.822607 0.415631
0.816571 0.825024 0.412827
0.945580 0.827439 0.410021
1.000000 0.829854 0.407212
0.000000 0.934324 0.427959
0.083892 0.936695 0.425168
0.250360 0.939065 0.422374
0.400319 0.941434 0.419577
0.542078 0.943802 0.416778
0.678415 0.946170 0.413975
0.810730 0.948536 0.411170
0.939867 0.950902 0.408362
1.000000 0.953266 0.405551
0.000000 1.000000 0.426311
0.075617 1.000000 0.423518
0.243376 1.000000 0.420723
0.393815 1.000000 0.417924
0.535866 1.000000 0.415123
0.672409 1.000000 0.412319
0.804884 1.000000 0.409512
0.934149 1.000000 0.406703
1.000000 1.000000 0.403890
0.000000 0.000000 0.564379
0.122482 0.000000 0.561701
0.283797 0.000000 0.559022
0.431604 0.000000 0.556341
0.572022 0.000000 0.553658
0.707394 0.000000 0.550973
0.838962 0.000000 0.548285
0.967490 0.000000 0.545596
1.000000 0.000000 0.542905
0.000000 0.099933 0.562798
0.114685 0.103241 0.560119
0.276945 0.106533 0.557439
0.425174 0.109810 0.554757
0.565860 0.113072 0.552072
0.701426 0.116320 0.549386
0.833145 0.119555 0.546698
0.961797 0.122776 0.544007
1.000000 0.125985 0.541315
0.000000 0.257652 0.561216
0.106808 0.260527 0.558537
0.270067 0.263396 0.555855
0.418729 0.266262 0.553172
0.559687 0.269122 0.550486
0.695451 0.271978 0.547799
0.827322 0.274829 0.545109
0.956099 0.277676 0.542418
1.000000 0.280519 0.539724
0.000000 0.401079 0.559634
0.098842 0.403769 0.556953
0.263163 0.406457 0.554271
0.412269 0.409143 0.551586
0.553505 0.411826 0.548899
0.689467 0.414506 0.546211
0.821494 0.417183 0.543520
0.950396 0.419858 0.540827
1.000000 0.422531 0.538133
0.000000 0.537019 0.558051
0.090780 0.539595 0.555369
0.256231 0.542169 0.552685
0.405794 0.544741 0.550000
0.547312 0.547312 0.547312
0.683476 0.549880 0.544622
0.815658 0.552447 0.541930
0.944688 0.555012 0.539236
1.000000 0.557575 0.536541
0.000000 0.667924 0.556468
0.082608 0.670417 0.553785
0.249271 0.672909 0.551100
0.399303 0.675400 0.548413
0.541108 0.677889 0.545724
0.677477 0.680376 0.543033
0.809817 0.682862 0.540340
0.938974 0.685347 0.537645
1.000000 0.687831 0.534948
0.000000 0.795062 0.554883
0.074312 0.797491 0.552199
0.242282 0.799919 0.549513
0.392797 0.802346 0.546825
0.534894 0.804772 0.544135
0.671470 0.807196 0.541443
0.803969 0.809619 0.538748
0.933255 0.812042 0.536052
1.000000 0.814463 0.533354
0.000000 0.919207 0.553298
0.065875 0.921584 0.550613
0.235262 0.923960 0.547926
0.386274 0.926335 0.545236
0.528669 0.928709 0.542545
0.665455 0.931082 0.539852
0.798115 0.933454 0.537156
0.927531 0.935825 0.534459
1.000000 0.938195 0.531760
0.000000 1.000000 0.551713
0.057273 1.000000 0.549026
0.228211 1.000000 0.546338
0.379735 1.000000 0.543647
0.522433 1.000000 0.540955
0.659432 1.000000 0.538260
0.792255 1.000000 0.535564
0.921802 1.000000 0.532865
1.000000 1.000000 0.530165
0.000000 0.000000 0.685236
0.105569 0.000000 0.682636
0.268990 0.000000 0.680034
0.417720 0.000000 0.677430
0.558722 0.000000 0.674826
0.694516 0.000000 0.672219
0.826412 0.000000 0.669611
0.955208 0.000000 0.667002
1.000000 0.000000 0.664391
0.000000 0.078450 0.683701
0.097589 0.081878 0.681099
0.262081 0.085284 0.678497
0.411258 0.088670 0.675892
0.552538 0.092036 0.673287
0.688532 0.095384 0.670679
0.820582 0.098715 0.668070
0.949504 0.102029 0.665460
1.000000 0.105327 0.662848
0.000000 0.239235 0.682165
0.089510 0.242141 0.679562
0.255145 0.245042 0.676959
0.404781 0.247939 0.674354
0.546343 0.250830 0.671747
0.682539 0.253716 0.669139
0.814746 0.256597 0.666529
0.943795 0.259473 0.663918
1.000000 0.262344 0.661305
0.000000 0.383882 0.680628
0.081320 0.386591 0.678025
0.248181 0.389296 0.675421
0.398288 0.391999 0.672815
0.540138 0.394699 0.670207
0.676539 0.397396 0.667598
0.808904 0.400091 0.664987
0.938081 0.402783 0.662375
1.000000 0.405472 0.659761
0.000000 0.520575 0.679091
0.073004 0.523163 0.676487
0.241187 0.525749 0.673882
0.391779 0.528333 0.671275
0.533922 0.530915 0.668666
0.670531 0.533496 0.666056
0.803055 0.536074 0.663445
0.932361 0.538650 0.660832
1.000000 0.541225 0.658217
0.000000 0.652018 0.677554
0.064543 0.654520 0.674949
0.234163 0.657021 0.672342
0.385254 0.659520 0.669735
0.527695 0.662018 0.667125
0.664514 0.664514 0.664514
0.797200 0.667009 0.661902
0.926636 0.669503 0.659288
1.000000 0.671995 0.656672
0.000000 0.779571 0.676015
0.055911 0.782008 0.673410
0.227107 0.784443 0.670803
0.378712 0.786876 0.668194
0.521457 0.789309 0.665584
0.658490 0.791741 0.662972
0.791339 0.794171 0.660358
0.920906 0.796600 0.657744
1.000000 0.799029 0.655127
0.000000 0.904053 0.674477
0.047074 0.906436 0.671870
0.220017 0.908818 0.669262
0.372153 0.911198 0.666653
0.515208 0.913578 0.664041
0.652457 0.915957 0.661429
0.785471 0.918335 0.658814
0.915170 0.920712 0.656199
1.000000 0.923088 0.653581
0.000000 1.000000 0.672938
0.037979 1.000000 0.670330
0.212894 1.000000 0.667721
0.365577 1.000000 0.665111
0.508948 1.000000 0.662499
0.646416 1.000000 0.659885
0.779596 1.000000 0.657270
0.909430 1.000000 0.654653
1.000000 1.000000 0.652035
0.000000 0.000000 0.802959
0.088238 0.000000 0.800420
0.254059 0.000000 0.797880
0.403767 0.000000 0.795338
0.545374 0.000000 0.792795
0.681602 0.000000 0.790251
0.813834 0.000000 0.787706
0.942903 0.000000 0.785160
1.000000 0.000000 0.782612
0.000000 0.056031 0.801460
0.080029 0.059631 0.798920
0.247090 0.063198 0.796379
0.397272 0.066736 0.793837
0.539167 0.070245 0.791293
0.675601 0.073728 0.788748
0.807990 0.077187 0.786202
0.937187 0.080623 0.783655
1.000000 0.084037 0.781107
0.000000 0.220602 0.799960
0.071692 0.223544 0.797420
0.240092 0.226480 0.794878
0.390760 0.229410 0.792335
0.532950 0.232335 0.789790
0.669591 0.235254 0.787245
0.802141 0.238167 0.784698
0.931467 0.241076 0.782150
1.000000 0.243979 0.779601
0.000000 0.366570 0.798460
0.063206 0.369297 0.795919
0.233062 0.372021 0.793376
0.384233 0.374742 0.790832
0.526721 0.377461 0.788287
0.663574 0.380176 0.785741
0.796285 0.382888 0.783194
0.925741 0.385598 0.780645
1.000000 0.388304 0.778095
0.000000 0.504053 0.796959
0.054545 0.506653 0.794417
0.226001 0.509252 0.791874
0.377688 0.511848 0.789330
0.520482 0.514443 0.786784
0.657548 0.517035 0.784237
0.790422 0.519625 0.781689
0.920010 0.522214 0.779139
1.000000 0.524801 0.776589
0.000000 0.636053 0.795458
0.045672 0.638565 0.792916
0.218907 0.641074 0.790372
0.371127 0.643583 0.787826
0.514231 0.646090 0.785280
0.651514 0.648596 0.782732
0.784553 0.651100 0.780183
0.914274 0.653602 0.777633
1.000000 0.656104 0.775082
0.000000 0.764034 0.793957
0.036530 0.766478 0.791413
0.211777 0.768920 0.788869
0.364548 0.771361 0.786323
0.507969 0.773801 0.783776
0.645471 0.776240 0.781227
0.778677 0.778677 0.778677
0.908532 0.781114 0.776127
1.000000 0.783549 0.773574
0.000000 0.888861 0.792455
0.027026 0.891250 0.789911
0.204612 0.893637 0.787365
0.357951 0.896024 0.784819
0.501695 0.898410 0.782271
0.639420 0.900795 0.779722
0.772795 0.903179 0.777171
0.902785 0.905562 0.774620
1.000000 0.907944 0.772067
0.000000 1.000000 0.790953
0.016977 1.000000 0.788408
0.197409 1.000000 0.785862
0.351336 1.000000 0.783314
0.495409 1.000000 0.780766
0.633360 1.000000 0.778216
0.766906 1.000000 0.775664
0.897032 1.000000 0.773112
1.000000 1.000000 0.770558
0.000000 0.000000 0.918138
0.070376 0.000000 0.915650
0.238995 0.000000 0.913160
0.389741 0.000000 0.910670
0.531977 0.000000 0.908178
0.668651 0.000000 0.905685
0.801226 0.000000 0.903192
0.930573 0.000000 0.900697
1.000000 0.000000 0.898201
0.000000 0.032122 0.916669
0.061865 0.036019 0.914180
0.231961 0.039854 0.911689
0.383211 0.043634 0.909198
0.525747 0.047366 0.906706
0.662632 0.051054 0.904213
0.795369 0.054702 0.901719
0.924846 0.058314 0.899223
1.000000 0.061893 0.896727
0.000000 0.201730 0.915199
0.053174 0.204711 0.912709
0.224895 0.207685 0.910218
0.376664 0.210654 0.907727
0.519506 0.213616 0.905234
0.656605 0.216572 0.902740
0.789506 0.219521 0.900245
0.919114 0.222465 0.897749
1.000000 0.225403 0.895252
0.000000 0.349134 0.913729
0.044263 0.351881 0.911238
0.217795 0.354625 0.908747
0.370100 0.357365 0.906255
0.513253 0.360103 0.903761
0.650570 0.362837 0.901267
0.783635 0.365569 0.898771
0.913377 0.368297 0.896275
1.000000 0.371022 0.893777
0.000000 0.487449 0.912258
0.035072 0.490062 0.909767
0.210660 0.492674 0.907275
0.363518 0.495283 0.904782
0.506989 0.497890 0.902288
0.644526 0.500495 0.899793
0.777759 0.503099 0.897297
0.907634 0.505700 0.894800
1.000000 0.508299 0.892302
0.000000 0.620028 0.910787
0.025499 0.622549 0.908296
0.203489 0.625068 0.905803
0.356918 0.627586 0.903310
0.500714 0.630103 0.900815
0.638474 0.632618 0.898319
0.771875 0.635131 0.895823
0.901886 0.637643 0.893325
1.000000 0.640154 0.890826
0.000000 0.748449 0.909316
0.015334 0.750900 0.906824
0.196280 0.753350 0.904331
0.350300 0.755799 0.901837
0.494426 0.758246 0.899341
0.632413 0.760692 0.896845
0.765985 0.763138 0.894348
0.896133 0.765581 0.891849
1.000000 0.768024 0.889350
0.000000 0.873630 0.907845
0.003871 0.876025 0.905352
0.189031 0.878419 0.902858
0.343664 0.880811 0.900363
0.488127 0.883203 0.897867
0.626343 0.885594 0.895370
0.760088 0.887984 0.892872
0.890373 0.890373 0.890373
1.000000 0.892762 0.887873
0.000000 0.996165 0.906373
0.000000 0.998514 0.903879
0.181740 1.000000 0.901385
0.337008 1.000000 0.898889
0.481815 1.000000 0.896393
0.620265 1.000000 0.893895
0.754185 1.000000 0.891397
0.884609 1.000000 0.888897
1.000000 1.000000 0.886397
0.000000 0.000000 1.000000
0.051797 0.000000 1.000000
0.223788 0.000000 1.000000
0.375639 0.000000 1.000000
0.518529 0.000000 1.000000
0.655663 0.000000 1.000000
0.788589 0.000000 1.000000
0.918218 0.000000 1.000000
1.000000 0.000000 1.000000
0.000000 0.004483 1.000000
0.042847 0.009442 1.000000
0.216682 0.014018 1.000000
0.369073 0.018377 1.000000
0.512275 0.022584 1.000000
0.649626 0.026676 1.000000
0.782718 0.030675 1.000000
0.912480 0.034597 1.000000
1.000000 0.038454 1.000000
0.000000 0.182588 1.000000
0.033605 0.185614 1.000000
0.209542 0.188632 1.000000
0.362488 0.191643 1.000000
0.506009 0.194647 1.000000
0.643581 0.197644 1.000000
0.776840 0.200634 1.000000
0.906736 0.203618 1.000000
1.000000 0.206595 1.000000
0.000000 0.331566 1.000000
0.023957 0.334334 1.000000
0.202365 0.337099 1.000000
0.355886 0.339861 1.000000
0.499732 0.342619 1.000000
0.637527 0.345374 1.000000
0.770956 0.348125 1.000000
0.900988 0.350873 1.000000
1.000000 0.353619 1.000000
0.000000 0.470760 1.000000
0.013664 0.473387 1.000000
0.195150 0.476012 1.000000
0.349265 0.478634 1.000000
0.493442 0.481255 1.000000
0.631465 0.483873 1.000000
0.765064 0.486490 1.000000
0.895233 0.489104 1.000000
1.000000 0.491716 1.000000
0.000000 0.603940 1.000000
0.001727 0.606471 1.000000
0.187894 0.609001 1.000000
0.342625 0.611529 1.000000
0.487141 0.614055 1.000000
0.625394 0.616579 1.000000
0.759166 0.619103 1.000000
0.889473 0.621624 1.000000
1.000000 0.624144 1.000000
0.000000 0.732816 1.000000
0.000000 0.735274 1.000000
0.180596 0.737732 1.000000
0.335966 0.740188 1.000000
0.480827 0.742643 1.000000
0.619314 0.745097 1.000000
0.753262 0.747550 1.000000
0.883707 0.750001 1.000000
1.000000 0.752452 1.000000
0.000000 0.858358 1.000000
0.000000 0.860760 1.000000
0.173254 0.863160 1.000000
0.329287 0.865559 1.000000
0.474501 0.867957 1.000000
0.613225 0.870355 1.000000
0.747350 0.872751 1.000000
0.877936 0.875146 1.000000
1.000000 0.877540 1.000000
0.000000 0.981195 1.000000
0.000000 0.983548 1.000000
0.165864 0.985901 1.000000
0.322587 0.988253 1.000000
0.468163 0.990604 1.000000
0.607127 0.992954 1.000000
0.741431 0.995304 1.000000
0.872159 0.997652 1.000000
1.000000 1.000000 1.000000
