presets/film_stocks/Kodak_Ektachrome_100D.cube
# 独寻胶片模拟 -- Kodak Ektachrome 100D
# Kodak, ISO 100, 2018, positive
TITLE "Kodak Ektachrome 100D"
LUT_3D_SIZE 5
DOMAIN_MIN 0.0 0.0 0.0
DOMAIN_MAX 1.0 1.0 1.0
0.000000 0.000000 0.000000
0.312138 0.010709 0.000000
0.586153 0.020109 0.000000
0.847410 0.029072 0.000000
1.000000 0.037763 0.000000
0.000000 0.306789 0.000000
0.302278 0.313742 0.000000
0.576902 0.320679 0.000000
0.838497 0.327601 0.000000
1.000000 0.334509 0.000000
0.000000 0.576108 0.000000
0.292386 0.582639 0.000000
0.567637 0.589164 0.000000
0.829574 0.595681 0.000000
1.000000 0.602191 0.000000
0.000000 0.832888 0.000000
0.282460 0.839185 0.000000
0.558356 0.845476 0.000000
0.820642 0.851763 0.000000
1.000000 0.858046 0.000000
0.000000 1.000000 0.000000
0.272499 1.000000 0.000000
0.549060 1.000000 0.000000
0.811699 1.000000 0.000000
1.000000 1.000000 0.000000
0.000000 0.000000 0.296223
0.293500 0.000000 0.287556
0.568680 0.000000 0.278863
0.830578 0.000000 0.270142
1.000000 0.000000 0.261394
0.000000 0.276554 0.292257
0.283578 0.283578 0.283578
0.559401 0.290585 0.274873
0.821647 0.297575 0.266140
1.000000 0.304548 0.257378
0.000000 0.547793 0.288286
0.273621 0.554357 0.279595
0.550107 0.560914 0.270877
0.812706 0.567463 0.262131
1.000000 0.574004 0.253355
0.000000 0.805621 0.284309
0.263628 0.811938 0.275606
0.540797 0.818250 0.266875
0.803755 0.824558 0.258116
1.000000 0.830861 0.249327
0.000000 1.000000 0.280327
0.253596 1.000000 0.271611
0.531471 1.000000 0.262868
0.794794 1.000000 0.254095
1.000000 1.000000 0.245291
0.000000 0.000000 0.556265
0.274743 0.000000 0.548134
0.551153 0.000000 0.539990
0.813712 0.000000 0.531834
1.000000 0.000000 0.523665
0.000000 0.245984 0.552543
0.264754 0.253089 0.544406
0.541845 0.260175 0.536257
0.804762 0.267242 0.528095
1.000000 0.274290 0.519921
0.000000 0.519330 0.548818
0.254727 0.525930 0.540675
0.532521 0.532521 0.532521
0.795802 0.539103 0.524353
1.000000 0.545678 0.516173
0.000000 0.778261 0.545091
0.244660 0.784600 0.536943
0.523180 0.790934 0.528782
0.786832 0.797263 0.520609
1.000000 0.803587 0.512423
0.000000 1.000000 0.541361
0.234552 1.000000 0.533207
0.513823 1.000000 0.525041
0.777852 1.000000 0.516862
1.000000 1.000000 0.508669
0.000000 0.000000 0.804202
0.255857 0.000000 0.796366
0.533570 0.000000 0.788523
0.796811 0.000000 0.780672
1.000000 0.000000 0.772813
0.000000 0.215028 0.800614
0.245794 0.222228 0.792775
0.524231 0.229405 0.784929
0.787842 0.236560 0.777074
1.000000 0.243693 0.769212
0.000000 0.490711 0.797026
0.235691 0.497347 0.789183
0.514876 0.503975 0.781333
0.778863 0.510594 0.773475
1.000000 0.517205 0.765608
0.000000 0.750804 0.793435
0.225544 0.757166 0.785589
0.505504 0.763522 0.777735
0.769873 0.769873 0.769873
1.000000 0.776219 0.762004
0.000000 1.000000 0.789843
0.215351 1.000000 0.781994
0.496114 1.000000 0.774136
0.760874 1.000000 0.766271
1.000000 1.000000 0.758397
0.000000 0.000000 1.000000
0.236830 0.000000 1.000000
0.515929 0.000000 1.000000
0.779873 0.000000 1.000000
1.000000 0.000000 1.000000
0.000000 0.183618 1.000000
0.226688 0.190930 1.000000
0.506559 0.198215 1.000000
0.770885 0.205473 1.000000
1.000000 0.212705 1.000000
0.000000 0.461924 1.000000
0.216500 0.468600 1.000000
0.497171 0.475267 1.000000
0.761886 0.481925 1.000000
1.000000 0.488573 1.000000
0.000000 0.723247 1.000000
0.206264 0.729632 1.000000
0.487765 0.736012 1.000000
0.752877 0.742386 1.000000
1.000000 0.748755 1.000000
0.000000 0.975230 1.000000
0.195977 0.981429 1.000000
0.478342 0.987623 1.000000
0.743857 0.993813 1.000000
1.000000 1.000000 1.000000
