presets/film_stocks/Kodak_Portra_Endura_Paper.cube
# 独寻胶片模拟 -- Kodak Portra Endura Paper
# Kodak, ISO 0, 0, negative
TITLE "Kodak Portra Endura Paper"
LUT_3D_SIZE 9
DOMAIN_MIN 0.0 0.0 0.0
DOMAIN_MAX 1.0 1.0 1.0
0.000000 0.000000 0.000000
0.171660 0.000000 0.000000
0.308873 0.000000 0.000000
0.435521 0.000000 0.000000
0.555763 0.000000 0.000000
0.671455 0.000000 0.000000
0.783646 0.000000 0.000000
0.893006 0.000000 0.000000
1.000000 0.000000 0.000000
0.000000 0.171660 0.000000
0.171660 0.171660 0.000000
0.308873 0.171660 0.000000
0.435521 0.171660 0.000000
0.555763 0.171660 0.000000
0.671455 0.171660 0.000000
0.783646 0.171660 0.000000
0.893006 0.171660 0.000000
1.000000 0.171660 0.000000
0.000000 0.308873 0.000000
0.171660 0.308873 0.000000
0.308873 0.308873 0.000000
0.435521 0.308873 0.000000
0.555763 0.308873 0.000000
0.671455 0.308873 0.000000
0.783646 0.308873 0.000000
0.893006 0.308873 0.000000
1.000000 0.308873 0.000000
0.000000 0.435521 0.000000
0.171660 0.435521 0.000000
0.308873 0.435521 0.000000
0.435521 0.435521 0.000000
0.555763 0.435521 0.000000
0.671455 0.435521 0.000000
0.783646 0.435521 0.000000
0.893006 0.435521 0.000000
1.000000 0.435521 0.000000
0.000000 0.555763 0.000000
0.171660 0.555763 0.000000
0.308873 0.555763 0.000000
0.435521 0.555763 0.000000
0.555763 0.555763 0.000000
0.671455 0.555763 0.000000
0.783646 0.555763 0.000000
0.893006 0.555763 0.000000
1.000000 0.555763 0.000000
0.000000 0.671455 0.000000
0.171660 0.671455 0.000000
0.308873 0.671455 0.000000
0.435521 0.671455 0.000000
0.555763 0.671455 0.000000
0.671455 0.671455 0.000000
0.783646 0.671455 0.000000
0.893006 0.671455 0.000000
1.000000 0.671455 0.000000
0.000000 0.783646 0.000000
0.171660 0.783646 0.000000
0.308873 0.783646 0.000000
0.435521 0.783646 0.000000
0.555763 0.783646 0.000000
0.671455 0.783646 0.000000
0.783646 0.783646 0.000000
0.893006 0.783646 0.000000
1.000000 0.783646 0.000000
0.000000 0.893006 0.000000
0.171660 0.893006 0.000000
0.308873 0.893006 0.000000
0.435521 0.893006 0.000000
0.555763 0.893006 0.000000
0.671455 0.893006 0.000000
0.783646 0.893006 0.000000
0.893006 0.893006 0.000000
1.000000 0.893006 0.000000
0.000000 1.000000 0.000000
0.171660 1.000000 0.000000
0.308873 1.000000 0.000000
0.435521 1.000000 0.000000
0.555763 1.000000 0.000000
0.671455 1.000000 0.000000
0.783646 1.000000 0.000000
0.893006 1.000000 0.000000
1.000000 1.000000 0.000000
0.000000 0.000000 0.171660
0.171660 0.000000 0.171660
0.308873 0.000000 0.171660
0.435521 0.000000 0.171660
0.555763 0.000000 0.171660
0.671455 0.000000 0.171660
0.783646 0.000000 0.171660
0.893006 0.000000 0.171660
1.000000 0.000000 0.171660
0.000000 0.171660 0.171660
0.171660 0.171660 0.171660
0.308873 0.171660 0.171660
0.435521 0.171660 0.171660
0.555763 0.171660 0.171660
0.671455 0.171660 0.171660
0.783646 0.171660 0.171660
0.893006 0.171660 0.171660
1.000000 0.171660 0.171660
0.000000 0.308873 0.171660
0.171660 0.308873 0.171660
0.308873 0.308873 0.171660
0.435521 0.308873 0.171660
0.555763 0.308873 0.171660
0.671455 0.308873 0.171660
0.783646 0.308873 0.171660
0.893006 0.308873 0.171660
1.000000 0.308873 0.171660
0.000000 0.435521 0.171660
0.171660 0.435521 0.171660
0.308873 0.435521 0.171660
0.435521 0.435521 0.171660
0.555763 0.435521 0.171660
0.671455 0.435521 0.171660
0.783646 0.435521 0.171660
0.893006 0.435521 0.171660
1.000000 0.435521 0.171660
0.000000 0.555763 0.171660
0.171660 0.555763 0.171660
0.308873 0.555763 0.171660
0.435521 0.555763 0.171660
0.555763 0.555763 0.171660
0.671455 0.555763 0.171660
0.783646 0.555763 0.171660
0.893006 0.555763 0.171660
1.000000 0.555763 0.171660
0.000000 0.671455 0.171660
0.171660 0.671455 0.171660
0.308873 0.671455 0.171660
0.435521 0.671455 0.171660
0.555763 0.671455 0.171660
0.671455 0.671455 0.171660
0.783646 0.671455 0.171660
0.893006 0.671455 0.171660
1.000000 0.671455 0.171660
0.000000 0.783646 0.171660
0.171660 0.783646 0.171660
0.308873 0.783646 0.171660
0.435521 0.783646 0.171660
0.555763 0.783646 0.171660
0.671455 0.783646 0.171660
0.783646 0.783646 0.171660
0.893006 0.783646 0.171660
1.000000 0.783646 0.171660
0.000000 0.893006 0.171660
0.171660 0.893006 0.171660
0.308873 0.893006 0.171660
0.435521 0.893006 0.171660
0.555763 0.893006 0.171660
0.671455 0.893006 0.171660
0.783646 0.893006 0.171660
0.893006 0.893006 0.171660
1.000000 0.893006 0.171660
0.000000 1.000000 0.171660
0.171660 1.000000 0.171660
0.308873 1.000000 0.171660
0.435521 1.000000 0.171660
0.555763 1.000000 0.171660
0.671455 1.000000 0.171660
0.783646 1.000000 0.171660
0.893006 1.000000 0.171660
1.000000 1.000000 0.171660
0.000000 0.000000 0.308873
0.171660 0.000000 0.308873
0.308873 0.000000 0.308873
0.435521 0.000000 0.308873
0.555763 0.000000 0.308873
0.671455 0.000000 0.308873
0.783646 0.000000 0.308873
0.893006 0.000000 0.308873
1.000000 0.000000 0.308873
0.000000 0.171660 0.308873
0.171660 0.171660 0.308873
0.308873 0.171660 0.308873
0.435521 0.171660 0.308873
0.555763 0.171660 0.308873
0.671455 0.171660 0.308873
0.783646 0.171660 0.308873
0.893006 0.171660 0.308873
1.000000 0.171660 0.308873
0.000000 0.308873 0.308873
0.171660 0.308873 0.308873
0.308873 0.308873 0.308873
0.435521 0.308873 0.308873
0.555763 0.308873 0.308873
0.671455 0.308873 0.308873
0.783646 0.308873 0.308873
0.893006 0.308873 0.308873
1.000000 0.308873 0.308873
0.000000 0.435521 0.308873
0.171660 0.435521 0.308873
0.308873 0.435521 0.308873
0.435521 0.435521 0.308873
0.555763 0.435521 0.308873
0.671455 0.435521 0.308873
0.783646 0.435521 0.308873
0.893006 0.435521 0.308873
1.000000 0.435521 0.308873
0.000000 0.555763 0.308873
0.171660 0.555763 0.308873
0.308873 0.555763 0.308873
0.435521 0.555763 0.308873
0.555763 0.555763 0.308873
0.671455 0.555763 0.308873
0.783646 0.555763 0.308873
0.893006 0.555763 0.308873
1.000000 0.555763 0.308873
0.000000 0.671455 0.308873
0.171660 0.671455 0.308873
0.308873 0.671455 0.308873
0.435521 0.671455 0.308873
0.555763 0.671455 0.308873
0.671455 0.671455 0.308873
0.783646 0.671455 0.308873
0.893006 0.671455 0.308873
1.000000 0.671455 0.308873
0.000000 0.783646 0.308873
0.171660 0.783646 0.308873
0.308873 0.783646 0.308873
0.435521 0.783646 0.308873
0.555763 0.783646 0.308873
0.671455 0.783646 0.308873
0.783646 0.783646 0.308873
0.893006 0.783646 0.308873
1.000000 0.783646 0.308873
0.000000 0.893006 0.308873
0.171660 0.893006 0.308873
0.308873 0.893006 0.308873
0.435521 0.893006 0.308873
0.555763 0.893006 0.308873
0.671455 0.893006 0.308873
0.783646 0.893006 0.308873
0.893006 0.893006 0.308873
1.000000 0.893006 0.308873
0.000000 1.000000 0.308873
0.171660 1.000000 0.308873
0.308873 1.000000 0.308873
0.435521 1.000000 0.308873
0.555763 1.000000 0.308873
0.671455 1.000000 0.308873
0.783646 1.000000 0.308873
0.893006 1.000000 0.308873
1.000000 1.000000 0.308873
0.000000 0.000000 0.435521
0.171660 0.000000 0.435521
0.308873 0.000000 0.435521
0.435521 0.000000 0.435521
0.555763 0.000000 0.435521
0.671455 0.000000 0.435521
0.783646 0.000000 0.435521
0.893006 0.000000 0.435521
1.000000 0.000000 0.435521
0.000000 0.171660 0.435521
0.171660 0.171660 0.435521
0.308873 0.171660 0.435521
0.435521 0.171660 0.435521
0.555763 0.171660 0.435521
0.671455 0.171660 0.435521
0.783646 0.171660 0.435521
0.893006 0.171660 0.435521
1.000000 0.171660 0.435521
0.000000 0.308873 0.435521
0.171660 0.308873 0.435521
0.308873 0.308873 0.435521
0.435521 0.308873 0.435521
0.555763 0.308873 0.435521
0.671455 0.308873 0.435521
0.783646 0.308873 0.435521
0.893006 0.308873 0.435521
1.000000 0.308873 0.435521
0.000000 0.435521 0.435521
0.171660 0.435521 0.435521
0.308873 0.435521 0.435521
0.435521 0.435521 0.435521
0.555763 0.435521 0.435521
0.671455 0.435521 0.435521
0.783646 0.435521 0.435521
0.893006 0.435521 0.435521
1.000000 0.435521 0.435521
0.000000 0.555763 0.435521
0.171660 0.555763 0.435521
0.308873 0.555763 0.435521
0.435521 0.555763 0.435521
0.555763 0.555763 0.435521
0.671455 0.555763 0.435521
0.783646 0.555763 0.435521
0.893006 0.555763 0.435521
1.000000 0.555763 0.435521
0.000000 0.671455 0.435521
0.171660 0.671455 0.435521
0.308873 0.671455 0.435521
0.435521 0.671455 0.435521
0.555763 0.671455 0.435521
0.671455 0.671455 0.435521
0.783646 0.671455 0.435521
0.893006 0.671455 0.435521
1.000000 0.671455 0.435521
0.000000 0.783646 0.435521
0.171660 0.783646 0.435521
0.308873 0.783646 0.435521
0.435521 0.783646 0.435521
0.555763 0.783646 0.435521
0.671455 0.783646 0.435521
0.783646 0.783646 0.435521
0.893006 0.783646 0.435521
1.000000 0.783646 0.435521
0.000000 0.893006 0.435521
0.171660 0.893006 0.435521
0.308873 0.893006 0.435521
0.435521 0.893006 0.435521
0.555763 0.893006 0.435521
0.671455 0.893006 0.435521
0.783646 0.893006 0.435521
0.893006 0.893006 0.435521
1.000000 0.893006 0.435521
0.000000 1.000000 0.435521
0.171660 1.000000 0.435521
0.308873 1.000000 0.435521
0.435521 1.000000 0.435521
0.555763 1.000000 0.435521
0.671455 1.000000 0.435521
0.783646 1.000000 0.435521
0.893006 1.000000 0.435521
1.000000 1.000000 0.435521
0.000000 0.000000 0.555763
0.171660 0.000000 0.555763
0.308873 0.000000 0.555763
0.435521 0.000000 0.555763
0.555763 0.000000 0.555763
0.671455 0.000000 0.555763
0.783646 0.000000 0.555763
0.893006 0.000000 0.555763
1.000000 0.000000 0.555763
0.000000 0.171660 0.555763
0.171660 0.171660 0.555763
0.308873 0.171660 0.555763
0.435521 0.171660 0.555763
0.555763 0.171660 0.555763
0.671455 0.171660 0.555763
0.783646 0.171660 0.555763
0.893006 0.171660 0.555763
1.000000 0.171660 0.555763
0.000000 0.308873 0.555763
0.171660 0.308873 0.555763
0.308873 0.308873 0.555763
0.435521 0.308873 0.555763
0.555763 0.308873 0.555763
0.671455 0.308873 0.555763
0.783646 0.308873 0.555763
0.893006 0.308873 0.555763
1.000000 0.308873 0.555763
0.000000 0.435521 0.555763
0.171660 0.435521 0.555763
0.308873 0.435521 0.555763
0.435521 0.435521 0.555763
0.555763 0.435521 0.555763
0.671455 0.435521 0.555763
0.783646 0.435521 0.555763
0.893006 0.435521 0.555763
1.000000 0.435521 0.555763
0.000000 0.555763 0.555763
0.171660 0.555763 0.555763
0.308873 0.555763 0.555763
0.435521 0.555763 0.555763
0.555763 0.555763 0.555763
0.671455 0.555763 0.555763
0.783646 0.555763 0.555763
0.893006 0.555763 0.555763
1.000000 0.555763 0.555763
0.000000 0.671455 0.555763
0.171660 0.671455 0.555763
0.308873 0.671455 0.555763
0.435521 0.671455 0.555763
0.555763 0.671455 0.555763
0.671455 0.671455 0.555763
0.783646 0.671455 0.555763
0.893006 0.671455 0.555763
1.000000 0.671455 0.555763
0.000000 0.783646 0.555763
0.171660 0.783646 0.555763
0.308873 0.783646 0.555763
0.435521 0.783646 0.555763
0.555763 0.783646 0.555763
0.671455 0.783646 0.555763
0.783646 0.783646 0.555763
0.893006 0.783646 0.555763
1.000000 0.783646 0.555763
0.000000 0.893006 0.555763
0.171660 0.893006 0.555763
0.308873 0.893006 0.555763
0.435521 0.893006 0.555763
0.555763 0.893006 0.555763
0.671455 0.893006 0.555763
0.783646 0.893006 0.555763
0.893006 0.893006 0.555763
1.000000 0.893006 0.555763
0.000000 1.000000 0.555763
0.171660 1.000000 0.555763
0.308873 1.000000 0.555763
0.435521 1.000000 0.555763
0.555763 1.000000 0.555763
0.671455 1.000000 0.555763
0.783646 1.000000 0.555763
0.893006 1.000000 0.555763
1.000000 1.000000 0.555763
0.000000 0.000000 0.671455
0.171660 0.000000 0.671455
0.308873 0.000000 0.671455
0.435521 0.000000 0.671455
0.555763 0.000000 0.671455
0.671455 0.000000 0.671455
0.783646 0.000000 0.671455
0.893006 0.000000 0.671455
1.000000 0.000000 0.671455
0.000000 0.171660 0.671455
0.171660 0.171660 0.671455
0.308873 0.171660 0.671455
0.435521 0.171660 0.671455
0.555763 0.171660 0.671455
0.671455 0.171660 0.671455
0.783646 0.171660 0.671455
0.893006 0.171660 0.671455
1.000000 0.171660 0.671455
0.000000 0.308873 0.671455
0.171660 0.308873 0.671455
0.308873 0.308873 0.671455
0.435521 0.308873 0.671455
0.555763 0.308873 0.671455
0.671455 0.308873 0.671455
0.783646 0.308873 0.671455
0.893006 0.308873 0.671455
1.000000 0.308873 0.671455
0.000000 0.435521 0.671455
0.171660 0.435521 0.671455
0.308873 0.435521 0.671455
0.435521 0.435521 0.671455
0.555763 0.435521 0.671455
0.671455 0.435521 0.671455
0.783646 0.435521 0.671455
0.893006 0.435521 0.671455
1.000000 0.435521 0.671455
0.000000 0.555763 0.671455
0.171660 0.555763 0.671455
0.308873 0.555763 0.671455
0.435521 0.555763 0.671455
0.555763 0.555763 0.671455
0.671455 0.555763 0.671455
0.783646 0.555763 0.671455
0.893006 0.555763 0.671455
1.000000 0.555763 0.671455
0.000000 0.671455 0.671455
0.171660 0.671455 0.671455
0.308873 0.671455 0.671455
0.435521 0.671455 0.671455
0.555763 0.671455 0.671455
0.671455 0.671455 0.671455
0.783646 0.671455 0.671455
0.893006 0.671455 0.671455
1.000000 0.671455 0.671455
0.000000 0.783646 0.671455
0.171660 0.783646 0.671455
0.308873 0.783646 0.671455
0.435521 0.783646 0.671455
0.555763 0.783646 0.671455
0.671455 0.783646 0.671455
0.783646 0.783646 0.671455
0.893006 0.783646 0.671455
1.000000 0.783646 0.671455
0.000000 0.893006 0.671455
0.171660 0.893006 0.671455
0.308873 0.893006 0.671455
0.435521 0.893006 0.671455
0.555763 0.893006 0.671455
0.671455 0.893006 0.671455
0.783646 0.893006 0.671455
0.893006 0.893006 0.671455
1.000000 0.893006 0.671455
0.000000 1.000000 0.671455
0.171660 1.000000 0.671455
0.308873 1.000000 0.671455
0.435521 1.000000 0.671455
0.555763 1.000000 0.671455
0.671455 1.000000 0.671455
0.783646 1.000000 0.671455
0.893006 1.000000 0.671455
1.000000 1.000000 0.671455
0.000000 0.000000 0.783646
0.171660 0.000000 0.783646
0.308873 0.000000 0.783646
0.435521 0.000000 0.783646
0.555763 0.000000 0.783646
0.671455 0.000000 0.783646
0.783646 0.000000 0.783646
0.893006 0.000000 0.783646
1.000000 0.000000 0.783646
0.000000 0.171660 0.783646
0.171660 0.171660 0.783646
0.308873 0.171660 0.783646
0.435521 0.171660 0.783646
0.555763 0.171660 0.783646
0.671455 0.171660 0.783646
0.783646 0.171660 0.783646
0.893006 0.171660 0.783646
1.000000 0.171660 0.783646
0.000000 0.308873 0.783646
0.171660 0.308873 0.783646
0.308873 0.308873 0.783646
0.435521 0.308873 0.783646
0.555763 0.308873 0.783646
0.671455 0.308873 0.783646
0.783646 0.308873 0.783646
0.893006 0.308873 0.783646
1.000000 0.308873 0.783646
0.000000 0.435521 0.783646
0.171660 0.435521 0.783646
0.308873 0.435521 0.783646
0.435521 0.435521 0.783646
0.555763 0.435521 0.783646
0.671455 0.435521 0.783646
0.783646 0.435521 0.783646
0.893006 0.435521 0.783646
1.000000 0.435521 0.783646
0.000000 0.555763 0.783646
0.171660 0.555763 0.783646
0.308873 0.555763 0.783646
0.435521 0.555763 0.783646
0.555763 0.555763 0.783646
0.671455 0.555763 0.783646
0.783646 0.555763 0.783646
0.893006 0.555763 0.783646
1.000000 0.555763 0.783646
0.000000 0.671455 0.783646
0.171660 0.671455 0.783646
0.308873 0.671455 0.783646
0.435521 0.671455 0.783646
0.555763 0.671455 0.783646
0.671455 0.671455 0.783646
0.783646 0.671455 0.783646
0.893006 0.671455 0.783646
1.000000 0.671455 0.783646
0.000000 0.783646 0.783646
0.171660 0.783646 0.783646
0.308873 0.783646 0.783646
0.435521 0.783646 0.783646
0.555763 0.783646 0.783646
0.671455 0.783646 0.783646
0.783646 0.783646 0.783646
0.893006 0.783646 0.783646
1.000000 0.783646 0.783646
0.000000 0.893006 0.783646
0.171660 0.893006 0.783646
0.308873 0.893006 0.783646
0.435521 0.893006 0.783646
0.555763 0.893006 0.783646
0.671455 0.893006 0.783646
0.783646 0.893006 0.783646
0.893006 0.893006 0.783646
1.000000 0.893006 0.783646
0.000000 1.000000 0.783646
0.171660 1.000000 0.783646
0.308873 1.000000 0.783646
0.435521 1.000000 0.783646
0.555763 1.000000 0.783646
0.671455 1.000000 0.783646
0.783646 1.000000 0.783646
0.893006 1.000000 0.783646
1.000000 1.000000 0.783646
0.000000 0.000000 0.893006
0.171660 0.000000 0.893006
0.308873 0.000000 0.893006
0.435521 0.000000 0.893006
0.555763 0.000000 0.893006
0.671455 0.000000 0.893006
0.783646 0.000000 0.893006
0.893006 0.000000 0.893006
1.000000 0.000000 0.893006
0.000000 0.171660 0.893006
0.171660 0.171660 0.893006
0.308873 0.171660 0.893006
0.435521 0.171660 0.893006
0.555763 0.171660 0.893006
0.671455 0.171660 0.893006
0.783646 0.171660 0.893006
0.893006 0.171660 0.893006
1.000000 0.171660 0.893006
0.000000 0.308873 0.893006
0.171660 0.308873 0.893006
0.308873 0.308873 0.893006
0.435521 0.308873 0.893006
0.555763 0.308873 0.893006
0.671455 0.308873 0.893006
0.783646 0.308873 0.893006
0.893006 0.308873 0.893006
1.000000 0.308873 0.893006
0.000000 0.435521 0.893006
0.171660 0.435521 0.893006
0.308873 0.435521 0.893006
0.435521 0.435521 0.893006
0.555763 0.435521 0.893006
0.671455 0.435521 0.893006
0.783646 0.435521 0.893006
0.893006 0.435521 0.893006
1.000000 0.435521 0.893006
0.000000 0.555763 0.893006
0.171660 0.555763 0.893006
0.308873 0.555763 0.893006
0.435521 0.555763 0.893006
0.555763 0.555763 0.893006
0.671455 0.555763 0.893006
0.783646 0.555763 0.893006
0.893006 0.555763 0.893006
1.000000 0.555763 0.893006
0.000000 0.671455 0.893006
0.171660 0.671455 0.893006
0.308873 0.671455 0.893006
0.435521 0.671455 0.893006
0.555763 0.671455 0.893006
0.671455 0.671455 0.893006
0.783646 0.671455 0.893006
0.893006 0.671455 0.893006
1.000000 0.671455 0.893006
0.000000 0.783646 0.893006
0.171660 0.783646 0.893006
0.308873 0.783646 0.893006
0.435521 0.783646 0.893006
0.555763 0.783646 0.893006
0.671455 0.783646 0.893006
0.783646 0.783646 0.893006
0.893006 0.783646 0.893006
1.000000 0.783646 0.893006
0.000000 0.893006 0.893006
0.171660 0.893006 0.893006
0.308873 0.893006 0.893006
0.435521 0.893006 0.893006
0.555763 0.893006 0.893006
0.671455 0.893006 0.893006
0.783646 0.893006 0.893006
0.893006 0.893006 0.893006
1.000000 0.893006 0.893006
0.000000 1.000000 0.893006
0.171660 1.000000 0.893006
0.308873 1.000000 0.893006
0.435521 1.000000 0.893006
0.555763 1.000000 0.893006
0.671455 1.000000 0.893006
0.783646 1.000000 0.893006
0.893006 1.000000 0.893006
1.000000 1.000000 0.893006
0.000000 0.000000 1.000000
0.171660 0.000000 1.000000
0.308873 0.000000 1.000000
0.435521 0.000000 1.000000
0.555763 0.000000 1.000000
0.671455 0.000000 1.000000
0.783646 0.000000 1.000000
0.893006 0.000000 1.000000
1.000000 0.000000 1.000000
0.000000 0.171660 1.000000
0.171660 0.171660 1.000000
0.308873 0.171660 1.000000
0.435521 0.171660 1.000000
0.555763 0.171660 1.000000
0.671455 0.171660 1.000000
0.783646 0.171660 1.000000
0.893006 0.171660 1.000000
1.000000 0.171660 1.000000
0.000000 0.308873 1.000000
0.171660 0.308873 1.000000
0.308873 0.308873 1.000000
0.435521 0.308873 1.000000
0.555763 0.308873 1.000000
0.671455 0.308873 1.000000
0.783646 0.308873 1.000000
0.893006 0.308873 1.000000
1.000000 0.308873 1.000000
0.000000 0.435521 1.000000
0.171660 0.435521 1.000000
0.308873 0.435521 1.000000
0.435521 0.435521 1.000000
0.555763 0.435521 1.000000
0.671455 0.435521 1.000000
0.783646 0.435521 1.000000
0.893006 0.435521 1.000000
1.000000 0.435521 1.000000
0.000000 0.555763 1.000000
0.171660 0.555763 1.000000
0.308873 0.555763 1.000000
0.435521 0.555763 1.000000
0.555763 0.555763 1.000000
0.671455 0.555763 1.000000
0.783646 0.555763 1.000000
0.893006 0.555763 1.000000
1.000000 0.555763 1.000000
0.000000 0.671455 1.000000
0.171660 0.671455 1.000000
0.308873 0.671455 1.000000
0.435521 0.671455 1.000000
0.555763 0.671455 1.000000
0.671455 0.671455 1.000000
0.783646 0.671455 1.000000
0.893006 0.671455 1.000000
1.000000 0.671455 1.000000
0.000000 0.783646 1.000000
0.171660 0.783646 1.000000
0.308873 0.783646 1.000000
0.435521 0.783646 1.000000
0.555763 0.783646 1.000000
0.671455 0.783646 1.000000
0.783646 0.783646 1.000000
0.893006 0.783646 1.000000
1.000000 0.783646 1.000000
0.000000 0.893006 1.000000
0.171660 0.893006 1.000000
0.308873 0.893006 1.000000
0.435521 0.893006 1.000000
0.555763 0.893006 1.000000
0.671455 0.893006 1.000000
0.783646 0.893006 1.000000
0.893006 0.893006 1.000000
1.000000 0.893006 1.000000
0.000000 1.000000 1.000000
0.171660 1.000000 1.000000
0.308873 1.000000 1.000000
0.435521 1.000000 1.000000
0.555763 1.000000 1.000000
0.671455 1.000000 1.000000
0.783646 1.000000 1.000000
0.893006 1.000000 1.000000
1.000000 1.000000 1.000000
