presets/film_stocks/Kodak_Gold_200.cube
# 独寻胶片模拟 -- Kodak Gold 200
# Kodak, ISO 200, 2007, negative
TITLE "Kodak Gold 200"
LUT_3D_SIZE 9
DOMAIN_MIN 0.0 0.0 0.0
DOMAIN_MAX 1.0 1.0 1.0
0.000000 0.000000 0.000000
0.194382 0.007468 0.000000
0.346349 0.013307 0.000000
0.485576 0.018656 0.000000
0.617125 0.023711 0.000000
0.743244 0.028556 0.000000
0.865198 0.033242 0.000000
0.983795 0.037798 0.000000
1.000000 0.042247 0.000000
0.000000 0.187839 0.000000
0.187635 0.191098 0.000000
0.340349 0.194347 0.000000
0.479971 0.197585 0.000000
0.611784 0.200812 0.000000
0.738099 0.204029 0.000000
0.860208 0.207236 0.000000
0.978931 0.210433 0.000000
1.000000 0.213620 0.000000
0.000000 0.334690 0.000000
0.180840 0.337597 0.000000
0.334328 0.340498 0.000000
0.474354 0.343395 0.000000
0.606434 0.346287 0.000000
0.732947 0.349174 0.000000
0.855212 0.352056 0.000000
0.974063 0.354933 0.000000
1.000000 0.357806 0.000000
0.000000 0.469230 0.000000
0.173993 0.471947 0.000000
0.328285 0.474662 0.000000
0.468722 0.477373 0.000000
0.601074 0.480081 0.000000
0.727787 0.482786 0.000000
0.850210 0.485488 0.000000
0.969190 0.488187 0.000000
1.000000 0.490883 0.000000
0.000000 0.596350 0.000000
0.167091 0.598941 0.000000
0.322220 0.601529 0.000000
0.463078 0.604115 0.000000
0.595705 0.606699 0.000000
0.722621 0.609281 0.000000
0.845202 0.611860 0.000000
0.964312 0.614438 0.000000
1.000000 0.617013 0.000000
0.000000 0.718224 0.000000
0.160133 0.720720 0.000000
0.316132 0.723214 0.000000
0.457419 0.725707 0.000000
0.590326 0.728198 0.000000
0.717447 0.730688 0.000000
0.840188 0.733175 0.000000
0.959430 0.735661 0.000000
1.000000 0.738146 0.000000
0.000000 0.836073 0.000000
0.153113 0.838494 0.000000
0.310020 0.840915 0.000000
0.451747 0.843333 0.000000
0.584938 0.845751 0.000000
0.712265 0.848167 0.000000
0.835169 0.850582 0.000000
0.954542 0.852995 0.000000
1.000000 0.855407 0.000000
0.000000 0.950677 0.000000
0.146028 0.953037 0.000000
0.303884 0.955397 0.000000
0.446060 0.957755 0.000000
0.579539 0.960111 0.000000
0.707076 0.962467 0.000000
0.830143 0.964822 0.000000
0.949649 0.967175 0.000000
1.000000 0.969527 0.000000
0.000000 1.000000 0.000000
0.138874 1.000000 0.000000
0.297723 1.000000 0.000000
0.440359 1.000000 0.000000
0.574131 1.000000 0.000000
0.701880 1.000000 0.000000
0.825111 1.000000 0.000000
0.944751 1.000000 0.000000
1.000000 1.000000 0.000000
0.000000 0.000000 0.184371
0.183602 0.000000 0.179472
0.336773 0.000000 0.174546
0.476634 0.000000 0.169592
0.608605 0.000000 0.164609
0.735037 0.005100 0.159595
0.857239 0.011237 0.154550
0.976039 0.016732 0.149471
1.000000 0.021882 0.144358
0.000000 0.173465 0.181691
0.176777 0.176777 0.176777
0.330739 0.180076 0.171835
0.471008 0.183363 0.166866
0.603250 0.186638 0.161866
0.729881 0.189902 0.156835
0.852240 0.193155 0.151772
0.971168 0.196397 0.146675
1.000000 0.199628 0.141542
0.000000 0.321936 0.179002
0.169898 0.324865 0.174073
0.324683 0.327789 0.169116
0.465369 0.330708 0.164130
0.597884 0.333621 0.159114
0.724718 0.336530 0.154065
0.847234 0.339433 0.148984
0.966292 0.342332 0.143867
1.000000 0.345225 0.138714
0.000000 0.457325 0.176305
0.162963 0.460056 0.171361
0.318604 0.462784 0.166388
0.459716 0.465509 0.161386
0.592510 0.468231 0.156352
0.719547 0.470949 0.151286
0.842223 0.473665 0.146185
0.961411 0.476377 0.141048
1.000000 0.479087 0.135874
0.000000 0.585009 0.173600
0.155968 0.587610 0.168640
0.312502 0.590208 0.163651
0.454050 0.592804 0.158632
0.587125 0.595398 0.153580
0.714368 0.597989 0.148496
0.837206 0.600579 0.143375
0.956525 0.603165 0.138219
1.000000 0.605750 0.133023
0.000000 0.707301 0.170886
0.148910 0.709805 0.165911
0.306376 0.712307 0.160905
0.448369 0.714808 0.155869
0.581730 0.717306 0.150799
0.709182 0.719803 0.145695
0.832182 0.722298 0.140555
0.951634 0.724792 0.135377
1.000000 0.727283 0.130159
0.000000 0.825480 0.168164
0.141784 0.827908 0.163172
0.300225 0.830334 0.158150
0.442673 0.832759 0.153095
0.576326 0.835183 0.148007
0.703989 0.837605 0.142884
0.827153 0.840026 0.137723
0.946739 0.842445 0.132524
1.000000 0.844863 0.127283
0.000000 0.940355 0.165433
0.134586 0.942720 0.160425
0.294049 0.945085 0.155385
0.436963 0.947448 0.150312
0.570911 0.949810 0.145205
0.698788 0.952170 0.140061
0.822117 0.954530 0.134880
0.941838 0.956889 0.129658
1.000000 0.959246 0.124394
0.000000 1.000000 0.162693
0.127311 1.000000 0.157668
0.287847 1.000000 0.152610
0.431238 1.000000 0.147518
0.565486 1.000000 0.142391
0.693579 1.000000 0.137227
0.817076 1.000000 0.132024
0.936932 1.000000 0.126779
1.000000 1.000000 0.121491
0.000000 0.000000 0.328512
0.172695 0.000000 0.324153
0.327142 0.000000 0.319783
0.467658 0.000000 0.315400
0.600062 0.000000 0.311006
0.726813 0.000000 0.306598
0.849265 0.000000 0.302178
0.968270 0.000000 0.297746
1.000000 0.000000 0.293299
0.000000 0.158849 0.326126
0.165783 0.162219 0.321760
0.321073 0.165575 0.317383
0.462011 0.168917 0.312994
0.594691 0.172246 0.308593
0.721645 0.175562 0.304178
0.844256 0.178865 0.299751
0.963391 0.182157 0.295311
1.000000 0.185436 0.290858
0.000000 0.309080 0.323736
0.158813 0.312033 0.319364
0.314980 0.314980 0.314980
0.456350 0.317922 0.310584
0.589310 0.320859 0.306176
0.716470 0.323790 0.301755
0.839241 0.326716 0.297321
0.958508 0.329636 0.292873
1.000000 0.332552 0.288412
0.000000 0.445357 0.321342
0.151781 0.448103 0.316964
0.308864 0.450845 0.312573
0.450675 0.453585 0.308171
0.583920 0.456320 0.303755
0.711287 0.459053 0.299327
0.834221 0.461782 0.294886
0.953619 0.464508 0.290431
1.000000 0.467231 0.285962
0.000000 0.573625 0.318945
0.144683 0.576235 0.314560
0.302723 0.578844 0.310163
0.444985 0.581450 0.305753
0.578519 0.584054 0.301331
0.706096 0.586655 0.296896
0.829194 0.589254 0.292447
0.948725 0.591851 0.287985
1.000000 0.594445 0.283508
0.000000 0.696345 0.316544
0.137515 0.698857 0.312153
0.296558 0.701367 0.307749
0.439281 0.703875 0.303332
0.573109 0.706381 0.298903
0.700898 0.708885 0.294460
0.824161 0.711388 0.290004
0.943826 0.713889 0.285534
1.000000 0.716388 0.281050
0.000000 0.814860 0.314140
0.130272 0.817294 0.309741
0.290366 0.819727 0.305331
0.433562 0.822158 0.300907
0.567688 0.824588 0.296470
0.695692 0.827016 0.292020
0.819122 0.829443 0.287557
0.938922 0.831868 0.283079
1.000000 0.834293 0.278588
0.000000 0.930010 0.311732
0.122947 0.932381 0.307327
0.284149 0.934750 0.302909
0.427828 0.937118 0.298478
0.562257 0.939486 0.294034
0.690479 0.941852 0.289577
0.814076 0.944216 0.285105
0.934013 0.946580 0.280620
1.000000 0.948942 0.276121
0.000000 1.000000 0.309320
0.115533 1.000000 0.304908
0.277903 1.000000 0.300483
0.422079 1.000000 0.296045
0.556815 1.000000 0.291594
0.685257 1.000000 0.287129
0.809024 1.000000 0.282650
0.929099 1.000000 0.278157
1.000000 1.000000 0.273649
0.000000 0.000000 0.460569
0.161647 0.000000 0.456496
0.317455 0.000000 0.452417
0.458648 0.000000 0.448330
0.591494 0.000000 0.444236
0.718570 0.000000 0.440134
0.841276 0.000000 0.436024
0.960489 0.000000 0.431907
1.000000 0.000000 0.427782
0.000000 0.143959 0.458339
0.154641 0.147395 0.454262
0.311348 0.150814 0.450179
0.452979 0.154219 0.446088
0.586108 0.157608 0.441990
0.713390 0.160983 0.437884
0.836258 0.164343 0.433770
0.955603 0.167690 0.429648
1.000000 0.171024 0.425519
0.000000 0.296116 0.456106
0.147571 0.299094 0.452026
0.305217 0.302066 0.447939
0.447295 0.305033 0.443844
0.580711 0.307994 0.439741
0.708203 0.310949 0.435631
0.831234 0.313898 0.431513
0.950711 0.316842 0.427387
1.000000 0.319781 0.423253
0.000000 0.433325 0.453872
0.140432 0.436086 0.449788
0.299062 0.438843 0.445696
0.441597 0.441597 0.441597
0.575305 0.444347 0.437490
0.703008 0.447095 0.433376
0.826203 0.449838 0.429253
0.945814 0.452579 0.425123
1.000000 0.455316 0.420985
0.000000 0.562195 0.451635
0.133220 0.564816 0.447547
0.292881 0.567435 0.443451
0.435884 0.570051 0.439348
0.569888 0.572665 0.435237
0.697805 0.575277 0.431118
0.821166 0.577886 0.426992
0.940912 0.580493 0.422857
1.000000 0.583097 0.418714
0.000000 0.685354 0.449396
0.125928 0.687874 0.445304
0.286674 0.690392 0.441204
0.430156 0.692908 0.437097
0.564461 0.695422 0.432981
0.692595 0.697934 0.428858
0.816124 0.700445 0.424727
0.936005 0.702953 0.420588
1.000000 0.705460 0.416441
0.000000 0.804212 0.447155
0.118552 0.806653 0.443059
0.280440 0.809092 0.438955
0.424413 0.811529 0.434843
0.559024 0.813965 0.430724
0.687376 0.816400 0.426596
0.811074 0.818833 0.422461
0.931093 0.821265 0.418317
1.000000 0.823695 0.414166
0.000000 0.919642 0.444912
0.111082 0.922018 0.440811
0.274178 0.924393 0.436703
0.418654 0.926766 0.432587
0.553576 0.929139 0.428463
0.682150 0.931510 0.424332
0.806019 0.933880 0.420192
0.926176 0.936249 0.416044
1.000000 0.938616 0.411887
0.000000 1.000000 0.442666
0.103510 1.000000 0.438562
0.267888 1.000000 0.434449
0.412880 1.000000 0.430329
0.548117 1.000000 0.426201
0.676916 1.000000 0.422065
0.800957 1.000000 0.417920
0.921253 1.000000 0.413768
1.000000 1.000000 0.409607
0.000000 0.000000 0.585342
0.150447 0.000000 0.581462
0.307707 0.000000 0.577576
0.449602 0.000000 0.573685
0.582902 0.000000 0.569788
0.710308 0.000000 0.565887
0.833272 0.000000 0.561979
0.952696 0.000000 0.558067
1.000000 0.000000 0.554149
0.000000 0.128753 0.583217
0.143336 0.132265 0.579333
0.301562 0.135759 0.575445
0.443910 0.139234 0.571551
0.577499 0.142693 0.567651
0.705116 0.146134 0.563747
0.828244 0.149560 0.559837
0.947801 0.152970 0.555921
1.000000 0.156365 0.552000
0.000000 0.283037 0.581090
0.136154 0.286042 0.577204
0.295391 0.289041 0.573312
0.438203 0.292034 0.569415
0.572087 0.295020 0.565513
0.699917 0.298001 0.561605
0.823210 0.300975 0.557692
0.942901 0.303944 0.553774
1.000000 0.306907 0.549850
0.000000 0.421225 0.578961
0.128896 0.424002 0.575072
0.289195 0.426775 0.571178
0.432482 0.429544 0.567278
0.566664 0.432310 0.563373
0.694709 0.435072 0.559462
0.818170 0.437830 0.555546
0.937996 0.440586 0.551624
1.000000 0.443337 0.547697
0.000000 0.550718 0.576831
0.121555 0.553350 0.572939
0.282972 0.555979 0.569042
0.426745 0.558606 0.565139
0.561231 0.561231 0.561231
0.689494 0.563853 0.557317
0.813123 0.566473 0.553398
0.933086 0.569090 0.549474
1.000000 0.571705 0.545543
0.000000 0.674328 0.574700
0.114124 0.676856 0.570805
0.276722 0.679382 0.566904
0.420992 0.681906 0.562999
0.555787 0.684428 0.559088
0.684271 0.686948 0.555171
0.808071 0.689467 0.551249
0.928171 0.691984 0.547321
1.000000 0.694498 0.543388
0.000000 0.793536 0.572567
0.106594 0.795983 0.568669
0.270443 0.798429 0.564765
0.415224 0.800873 0.560857
0.550333 0.803315 0.556943
0.679040 0.805756 0.553023
0.803011 0.808196 0.549098
0.923251 0.810634 0.545167
1.000000 0.813071 0.541230
0.000000 0.909250 0.570432
0.098957 0.911632 0.566531
0.264135 0.914012 0.562625
0.409440 0.916391 0.558713
0.544868 0.918769 0.554796
0.673801 0.921145 0.550873
0.797946 0.923521 0.546945
0.918325 0.925895 0.543011
1.000000 0.928267 0.539071
0.000000 1.000000 0.568295
0.091200 1.000000 0.564392
0.257796 1.000000 0.560482
0.403639 1.000000 0.556568
0.539392 1.000000 0.552648
0.668554 1.000000 0.548722
0.792874 1.000000 0.544790
0.913394 1.000000 0.540853
1.000000 1.000000 0.536911
0.000000 0.000000 0.704966
0.139077 0.000000 0.701228
0.297898 0.000000 0.697485
0.440520 0.000000 0.693739
0.574284 0.000000 0.689988
0.702027 0.000000 0.686233
0.825253 0.000000 0.682475
0.944890 0.000000 0.678712
1.000000 0.000000 0.674945
0.000000 0.113178 0.702919
0.131850 0.116781 0.699178
0.291712 0.120361 0.695433
0.434804 0.123920 0.691684
0.568865 0.127458 0.687932
0.696823 0.130977 0.684175
0.820215 0.134478 0.680414
0.939987 0.137960 0.676649
1.000000 0.141424 0.672879
0.000000 0.269837 0.700870
0.124543 0.272870 0.697127
0.285500 0.275898 0.693380
0.429074 0.278918 0.689629
0.563436 0.281932 0.685874
0.691611 0.284939 0.682115
0.815171 0.287940 0.678351
0.935079 0.290935 0.674584
1.000000 0.293924 0.670812
0.000000 0.409056 0.698820
0.117149 0.411849 0.695075
0.279261 0.414638 0.691325
0.423327 0.417423 0.687572
0.557997 0.420204 0.683815
0.686391 0.422982 0.680054
0.810121 0.425756 0.676288
0.930166 0.428527 0.672518
1.000000 0.431294 0.668744
0.000000 0.539193 0.696768
0.109661 0.541836 0.693021
0.272993 0.544477 0.689270
0.417566 0.547115 0.685514
0.552547 0.549750 0.681755
0.681163 0.552383 0.677991
0.805064 0.555014 0.674223
0.925247 0.557642 0.670451
1.000000 0.560267 0.666675
0.000000 0.663265 0.694716
0.102069 0.665802 0.690966
0.266697 0.668336 0.687213
0.411788 0.670868 0.683455
0.547086 0.673399 0.679693
0.675927 0.675927 0.675927
0.800001 0.678454 0.672157
0.920324 0.680979 0.668383
1.000000 0.683502 0.664604
0.000000 0.782831 0.692662
0.094362 0.785285 0.688911
0.260371 0.787737 0.685155
0.405994 0.790188 0.681395
0.541614 0.792637 0.677631
0.670683 0.795084 0.673862
0.794932 0.797530 0.670090
0.915395 0.799975 0.666313
1.000000 0.802418 0.662532
0.000000 0.898835 0.690607
0.086527 0.901222 0.686853
0.254014 0.903608 0.683095
0.400184 0.905992 0.679333
0.536132 0.908375 0.675567
0.665431 0.910757 0.671796
0.789856 0.913138 0.668021
0.910461 0.915517 0.664242
1.000000 0.917895 0.660459
0.000000 1.000000 0.688551
0.078547 1.000000 0.684795
0.247625 1.000000 0.681035
0.394356 1.000000 0.677270
0.530638 1.000000 0.673501
0.660171 1.000000 0.669729
0.784774 1.000000 0.665951
0.905522 1.000000 0.662170
1.000000 1.000000 0.658384
0.000000 0.000000 0.820640
0.127517 0.000000 0.817014
0.288023 0.000000 0.813384
0.431400 0.000000 0.809751
0.565640 0.000000 0.806115
0.693726 0.000000 0.802476
0.817218 0.000000 0.798833
0.937070 0.000000 0.795188
1.000000 0.000000 0.791538
0.000000 0.097161 0.818654
0.120159 0.100872 0.815026
0.281795 0.104557 0.811394
0.425660 0.108215 0.807760
0.560205 0.111849 0.804122
0.688509 0.115460 0.800481
0.812170 0.119048 0.796836
0.932159 0.122615 0.793189
1.000000 0.126161 0.789538
0.000000 0.256506 0.816666
0.112711 0.259570 0.813037
0.275539 0.262627 0.809404
0.419905 0.265677 0.805767
0.554759 0.268721 0.802128
0.683285 0.271757 0.798485
0.807116 0.274786 0.794838
0.927243 0.277809 0.791189
1.000000 0.280825 0.787536
0.000000 0.396813 0.814678
0.105162 0.399623 0.811047
0.269255 0.402429 0.807412
0.414134 0.405231 0.803774
0.549303 0.408029 0.800132
0.678052 0.410823 0.796488
0.802056 0.413613 0.792839
0.922322 0.416400 0.789188
1.000000 0.419183 0.785533
0.000000 0.527619 0.812689
0.097503 0.530273 0.809056
0.262941 0.532925 0.805419
0.408346 0.535575 0.801779
0.543835 0.538221 0.798136
0.672812 0.540865 0.794489
0.796989 0.543507 0.790839
0.917395 0.546146 0.787186
1.000000 0.548782 0.783529
0.000000 0.652166 0.810699
0.089722 0.654711 0.807064
0.256597 0.657254 0.803425
0.402543 0.659794 0.799784
0.538357 0.662333 0.796139
0.667563 0.664870 0.792490
0.791916 0.667405 0.788838
0.912463 0.669938 0.785183
1.000000 0.672469 0.781525
0.000000 0.772097 0.808708
0.081803 0.774557 0.805071
0.250221 0.777016 0.801431
0.396722 0.779474 0.797787
0.532868 0.781929 0.794140
0.662306 0.784384 0.790490
0.786836 0.786836 0.786836
0.907526 0.789287 0.783179
1.000000 0.791737 0.779519
0.000000 0.888396 0.806716
0.073727 0.890788 0.803077
0.243812 0.893179 0.799435
0.390884 0.895569 0.795789
0.527367 0.897958 0.792141
0.657040 0.900345 0.788489
0.781750 0.902732 0.784833
0.902583 0.905116 0.781174
1.000000 0.907500 0.777512
0.000000 1.000000 0.804723
0.065471 1.000000 0.801082
0.237370 1.000000 0.797438
0.385029 1.000000 0.793791
0.521855 1.000000 0.790140
0.651767 1.000000 0.786486
0.776657 1.000000 0.782829
0.897635 1.000000 0.779168
1.000000 1.000000 0.775504
0.000000 0.000000 0.933129
0.115744 0.000000 0.929595
0.278080 0.000000 0.926058
0.422241 0.000000 0.922519
0.556969 0.000000 0.918976
0.685405 0.000000 0.915431
0.809167 0.000000 0.911884
0.929238 0.000000 0.908333
1.000000 0.000000 0.904780
0.000000 0.080594 0.931193
0.108237 0.084443 0.927658
0.271807 0.088257 0.924119
0.416477 0.092039 0.920578
0.551517 0.095790 0.917035
0.680176 0.099512 0.913488
0.804109 0.103206 0.909939
0.924319 0.106874 0.906387
1.000000 0.110517 0.902832
0.000000 0.243034 0.929256
0.100624 0.246132 0.925719
0.265506 0.249221 0.922180
0.410696 0.252304 0.918637
0.546054 0.255378 0.915092
0.674938 0.258445 0.911544
0.799045 0.261505 0.907993
0.919394 0.264558 0.904440
1.000000 0.267603 0.900884
0.000000 0.384495 0.927319
0.092894 0.387323 0.923780
0.259174 0.390146 0.920239
0.404899 0.392965 0.916695
0.540581 0.395780 0.913149
0.669693 0.398592 0.909599
0.793975 0.401399 0.906047
0.914464 0.404202 0.902492
1.000000 0.407001 0.898934
0.000000 0.515993 0.925381
0.085033 0.518660 0.921841
0.252811 0.521323 0.918298
0.399085 0.523984 0.914753
0.535096 0.526643 0.911204
0.664439 0.529298 0.907653
0.788898 0.531951 0.904100
0.909529 0.534602 0.900543
1.000000 0.537249 0.896984
0.000000 0.641029 0.923442
0.077024 0.643582 0.919900
0.246416 0.646134 0.916356
0.393255 0.648683 0.912809
0.529600 0.651231 0.909259
0.659177 0.653776 0.905707
0.783814 0.656320 0.902152
0.904589 0.658861 0.898593
1.000000 0.661401 0.895033
0.000000 0.761333 0.921502
0.068844 0.763800 0.917959
0.239988 0.766266 0.914413
0.387407 0.768730 0.910865
0.524092 0.771193 0.907313
0.653907 0.773654 0.903759
0.778724 0.776113 0.900203
0.899643 0.778571 0.896643
1.000000 0.781027 0.893081
0.000000 0.877932 0.919561
0.060464 0.880330 0.916017
0.233525 0.882727 0.912469
0.381541 0.885122 0.908919
0.518573 0.887517 0.905367
0.648628 0.889910 0.901811
0.773627 0.892301 0.898253
0.894692 0.894692 0.894692
1.000000 0.897081 0.891128
0.000000 0.991503 0.917620
0.051845 0.993843 0.914074
0.227026 0.996183 0.910525
0.375657 0.998521 0.906973
0.513042 1.000000 0.903419
0.643341 1.000000 0.899862
0.768523 1.000000 0.896302
0.889735 1.000000 0.892739
1.000000 1.000000 0.889174
0.000000 0.000000 1.000000
0.103725 0.000000 1.000000
0.268066 0.000000 1.000000
0.413043 0.000000 1.000000
0.548272 0.000000 1.000000
0.677064 0.000000 1.000000
0.801100 0.000000 1.000000
0.921392 0.000000 1.000000
1.000000 0.000000 1.000000
0.000000 0.063309 1.000000
0.096044 0.067342 1.000000
0.261746 0.071328 1.000000
0.407252 0.075270 1.000000
0.542802 0.079170 1.000000
0.671822 0.083033 1.000000
0.796032 0.086860 1.000000
0.916465 0.090654 1.000000
1.000000 0.094416 1.000000
0.000000 0.229412 1.000000
0.088239 0.232545 1.000000
0.255396 0.235670 1.000000
0.401446 0.238786 1.000000
0.537322 0.241895 1.000000
0.666571 0.244995 1.000000
0.790958 0.248087 1.000000
0.911532 0.251172 1.000000
1.000000 0.254249 1.000000
0.000000 0.372097 1.000000
0.080292 0.374943 1.000000
0.249014 0.377785 1.000000
0.395622 0.380622 1.000000
0.531831 0.383455 1.000000
0.661313 0.386284 1.000000
0.785877 0.389109 1.000000
0.906594 0.391930 1.000000
1.000000 0.394747 1.000000
0.000000 0.504315 1.000000
0.072184 0.506994 1.000000
0.242599 0.509670 1.000000
0.389781 0.512343 1.000000
0.526328 0.515013 1.000000
0.656046 0.517680 1.000000
0.780789 0.520345 1.000000
0.901650 0.523007 1.000000
1.000000 0.525666 1.000000
0.000000 0.629853 1.000000
0.063890 0.632415 1.000000
0.236151 0.634976 1.000000
0.383922 0.637534 1.000000
0.520813 0.640090 1.000000
0.650770 0.642644 1.000000
0.775695 0.645197 1.000000
0.896701 0.647747 1.000000
1.000000 0.650295 1.000000
0.000000 0.750538 1.000000
0.055373 0.753012 1.000000
0.229666 0.755485 1.000000
0.378046 0.757956 1.000000
0.515287 0.760426 1.000000
0.645486 0.762894 1.000000
0.770594 0.765360 1.000000
0.891746 0.767825 1.000000
1.000000 0.770288 1.000000
0.000000 0.867443 1.000000
0.046585 0.869847 1.000000
0.223145 0.872249 1.000000
0.372151 0.874651 1.000000
0.509749 0.877050 1.000000
0.640194 0.879449 1.000000
0.765487 0.881846 1.000000
0.886786 0.884242 1.000000
1.000000 0.886637 1.000000
0.000000 0.981267 1.000000
0.037449 0.983613 1.000000
0.216586 0.985957 1.000000
0.366238 0.988300 1.000000
0.504199 0.990643 1.000000
0.634892 0.992984 1.000000
0.760372 0.995323 1.000000
0.881820 0.997662 1.000000
1.000000 1.000000 1.000000
