presets/film_stocks/Kodak_Ektar_100.cube
# 独寻胶片模拟 -- Kodak Ektar 100
# Kodak, ISO 100, 2008, negative
TITLE "Kodak Ektar 100"
LUT_3D_SIZE 33
DOMAIN_MIN 0.0 0.0 0.0
DOMAIN_MAX 1.0 1.0 1.0
0.000000 0.000000 0.000000
0.038151 0.001044 0.000000
0.074778 0.002046 0.000000
0.110849 0.003032 0.000000
0.146566 0.004009 0.000000
0.182021 0.004979 0.000000
0.217268 0.005943 0.000000
0.252344 0.006903 0.000000
0.287273 0.007858 0.000000
0.322076 0.008810 0.000000
0.356766 0.009759 0.000000
0.391354 0.010705 0.000000
0.425851 0.011649 0.000000
0.460265 0.012590 0.000000
0.494601 0.013530 0.000000
0.528866 0.014467 0.000000
0.563064 0.015402 0.000000
0.597200 0.016336 0.000000
0.631277 0.017268 0.000000
0.665300 0.018199 0.000000
0.699270 0.019128 0.000000
0.733191 0.020056 0.000000
0.767065 0.020983 0.000000
0.800894 0.021908 0.000000
0.834680 0.022832 0.000000
0.868425 0.023755 0.000000
0.902131 0.024677 0.000000
0.935799 0.025598 0.000000
0.969431 0.026518 0.000000
1.000000 0.027437 0.000000
1.000000 0.028356 0.000000
1.000000 0.029273 0.000000
1.000000 0.030189 0.000000
0.000000 0.037388 0.000000
0.036872 0.038298 0.000000
0.073524 0.039207 0.000000
0.109610 0.040116 0.000000
0.145337 0.041024 0.000000
0.180800 0.041931 0.000000
0.216054 0.042838 0.000000
0.251135 0.043744 0.000000
0.286069 0.044649 0.000000
0.320876 0.045554 0.000000
0.355569 0.046459 0.000000
0.390161 0.047362 0.000000
0.424661 0.048266 0.000000
0.459077 0.049169 0.000000
0.493416 0.050071 0.000000
0.527683 0.050973 0.000000
0.561884 0.051874 0.000000
0.596022 0.052775 0.000000
0.630102 0.053676 0.000000
0.664126 0.054576 0.000000
0.698098 0.055475 0.000000
0.732020 0.056375 0.000000
0.765896 0.057273 0.000000
0.799726 0.058172 0.000000
0.833514 0.059069 0.000000
0.867260 0.059967 0.000000
0.900968 0.060864 0.000000
0.934637 0.061761 0.000000
0.968270 0.062657 0.000000
1.000000 0.063553 0.000000
1.000000 0.064448 0.000000
1.000000 0.065343 0.000000
1.000000 0.066238 0.000000
0.000000 0.073282 0.000000
0.035590 0.074174 0.000000
0.072269 0.075066 0.000000
0.108371 0.075957 0.000000
0.144108 0.076847 0.000000
0.179579 0.077738 0.000000
0.214839 0.078628 0.000000
0.249926 0.079518 0.000000
0.284865 0.080407 0.000000
0.319676 0.081297 0.000000
0.354373 0.082186 0.000000
0.388968 0.083074 0.000000
0.423471 0.083963 0.000000
0.457890 0.084851 0.000000
0.492232 0.085739 0.000000
0.526501 0.086626 0.000000
0.560704 0.087513 0.000000
0.594844 0.088401 0.000000
0.628926 0.089287 0.000000
0.662952 0.090174 0.000000
0.696926 0.091060 0.000000
0.730850 0.091946 0.000000
0.764727 0.092832 0.000000
0.798559 0.093717 0.000000
0.832348 0.094602 0.000000
0.866096 0.095487 0.000000
0.899804 0.096372 0.000000
0.933475 0.097256 0.000000
0.967109 0.098141 0.000000
1.000000 0.099025 0.000000
1.000000 0.099908 0.000000
1.000000 0.100792 0.000000
1.000000 0.101675 0.000000
0.000000 0.108633 0.000000
0.034308 0.109514 0.000000
0.071014 0.110395 0.000000
0.107131 0.111276 0.000000
0.142879 0.112157 0.000000
0.178358 0.113038 0.000000
0.213625 0.113918 0.000000
0.248717 0.114798 0.000000
0.283661 0.115678 0.000000
0.318476 0.116557 0.000000
0.353177 0.117437 0.000000
0.387775 0.118316 0.000000
0.422281 0.119195 0.000000
0.456703 0.120074 0.000000
0.491047 0.120953 0.000000
0.525319 0.121831 0.000000
0.559524 0.122709 0.000000
0.593666 0.123588 0.000000
0.627750 0.124465 0.000000
0.661778 0.125343 0.000000
0.695753 0.126221 0.000000
0.729679 0.127098 0.000000
0.763558 0.127975 0.000000
0.797391 0.128852 0.000000
0.831182 0.129729 0.000000
0.864931 0.130606 0.000000
0.898641 0.131482 0.000000
0.932313 0.132359 0.000000
0.965948 0.133235 0.000000
0.999549 0.134111 0.000000
1.000000 0.134986 0.000000
1.000000 0.135862 0.000000
1.000000 0.136737 0.000000
0.000000 0.143636 0.000000
0.033024 0.144510 0.000000
0.069758 0.145383 0.000000
0.105891 0.146257 0.000000
0.141650 0.147131 0.000000
0.177137 0.148004 0.000000
0.212410 0.148877 0.000000
0.247508 0.149750 0.000000
0.282456 0.150623 0.000000
0.317275 0.151496 0.000000
0.351980 0.152368 0.000000
0.386582 0.153241 0.000000
0.421091 0.154113 0.000000
0.455516 0.154985 0.000000
0.489862 0.155857 0.000000
0.524136 0.156729 0.000000
0.558344 0.157601 0.000000
0.592488 0.158472 0.000000
0.626573 0.159344 0.000000
0.660603 0.160215 0.000000
0.694581 0.161086 0.000000
0.728508 0.161957 0.000000
0.762388 0.162828 0.000000
0.796223 0.163699 0.000000
0.830015 0.164569 0.000000
0.863766 0.165440 0.000000
0.897477 0.166310 0.000000
0.931151 0.167180 0.000000
0.964787 0.168050 0.000000
0.998389 0.168920 0.000000
1.000000 0.169790 0.000000
1.000000 0.170659 0.000000
1.000000 0.171529 0.000000
0.000000 0.178381 0.000000
0.031739 0.179250 0.000000
0.068502 0.180118 0.000000
0.104650 0.180986 0.000000
0.140420 0.181854 0.000000
0.175915 0.182722 0.000000
0.211195 0.183589 0.000000
0.246298 0.184457 0.000000
0.281252 0.185324 0.000000
0.316075 0.186192 0.000000
0.350783 0.187059 0.000000
0.385389 0.187926 0.000000
0.419901 0.188793 0.000000
0.454328 0.189660 0.000000
0.488677 0.190527 0.000000
0.522954 0.191393 0.000000
0.557163 0.192260 0.000000
0.591310 0.193126 0.000000
0.625397 0.193992 0.000000
0.659429 0.194859 0.000000
0.693408 0.195725 0.000000
0.727337 0.196591 0.000000
0.761219 0.197456 0.000000
0.795056 0.198322 0.000000
0.828849 0.199188 0.000000
0.862601 0.200053 0.000000
0.896314 0.200919 0.000000
0.929988 0.201784 0.000000
0.963626 0.202649 0.000000
0.997229 0.203514 0.000000
1.000000 0.204379 0.000000
1.000000 0.205244 0.000000
1.000000 0.206108 0.000000
0.000000 0.212924 0.000000
0.030452 0.213788 0.000000
0.067244 0.214651 0.000000
0.103409 0.215515 0.000000
0.139189 0.216378 0.000000
0.174693 0.217242 0.000000
0.209980 0.218105 0.000000
0.245089 0.218968 0.000000
0.280047 0.219831 0.000000
0.314874 0.220694 0.000000
0.349586 0.221557 0.000000
0.384195 0.222419 0.000000
0.418710 0.223282 0.000000
0.453141 0.224144 0.000000
0.487492 0.225007 0.000000
0.521771 0.225869 0.000000
0.555983 0.226731 0.000000
0.590132 0.227594 0.000000
0.624221 0.228456 0.000000
0.658255 0.229318 0.000000
0.692236 0.230179 0.000000
0.726167 0.231041 0.000000
0.760050 0.231903 0.000000
0.793888 0.232764 0.000000
0.827683 0.233626 0.000000
0.861436 0.234487 0.000000
0.895150 0.235348 0.000000
0.928826 0.236209 0.000000
0.962465 0.237071 0.000000
0.996069 0.237931 0.000000
1.000000 0.238792 0.000000
1.000000 0.239653 0.000000
1.000000 0.240514 0.000000
0.000000 0.247298 0.000000
0.029163 0.248158 0.000000
0.065986 0.249018 0.000000
0.102167 0.249878 0.000000
0.137959 0.250737 0.000000
0.173471 0.251597 0.000000
0.208764 0.252456 0.000000
0.243879 0.253316 0.000000
0.278842 0.254175 0.000000
0.313674 0.255034 0.000000
0.348389 0.255893 0.000000
0.383002 0.256752 0.000000
0.417520 0.257611 0.000000
0.451953 0.258470 0.000000
0.486307 0.259329 0.000000
0.520589 0.260187 0.000000
0.554803 0.261046 0.000000
0.588953 0.261904 0.000000
0.623045 0.262763 0.000000
0.657080 0.263621 0.000000
0.691063 0.264479 0.000000
0.724996 0.265338 0.000000
0.758881 0.266196 0.000000
0.792720 0.267054 0.000000
0.826517 0.267911 0.000000
0.860271 0.268769 0.000000
0.893987 0.269627 0.000000
0.927664 0.270485 0.000000
0.961304 0.271342 0.000000
0.994909 0.272200 0.000000
1.000000 0.273057 0.000000
1.000000 0.273915 0.000000
1.000000 0.274772 0.000000
0.000000 0.281530 0.000000
0.027873 0.282386 0.000000
0.064728 0.283243 0.000000
0.100925 0.284099 0.000000
0.136728 0.284955 0.000000
0.172248 0.285812 0.000000
0.207549 0.286668 0.000000
0.242669 0.287524 0.000000
0.277637 0.288380 0.000000
0.312473 0.289236 0.000000
0.347192 0.290092 0.000000
0.381808 0.290947 0.000000
0.416329 0.291803 0.000000
0.450765 0.292659 0.000000
0.485122 0.293514 0.000000
0.519406 0.294370 0.000000
0.553622 0.295225 0.000000
0.587775 0.296081 0.000000
0.621869 0.296936 0.000000
0.655906 0.297791 0.000000
0.689890 0.298646 0.000000
0.723825 0.299501 0.000000
0.757711 0.300356 0.000000
0.791552 0.301211 0.000000
0.825350 0.302066 0.000000
0.859106 0.302921 0.000000
0.892823 0.303775 0.000000
0.926501 0.304630 0.000000
0.960143 0.305484 0.000000
0.993749 0.306339 0.000000
1.000000 0.307193 0.000000
1.000000 0.308047 0.000000
1.000000 0.308902 0.000000
0.000000 0.315636 0.000000
0.026580 0.316490 0.000000
0.063468 0.317343 0.000000
0.099682 0.318197 0.000000
0.135497 0.319050 0.000000
0.171026 0.319904 0.000000
0.206333 0.320757 0.000000
0.241459 0.321610 0.000000
0.276432 0.322463 0.000000
0.311272 0.323316 0.000000
0.345995 0.324169 0.000000
0.380614 0.325022 0.000000
0.415139 0.325875 0.000000
0.449577 0.326728 0.000000
0.483937 0.327581 0.000000
0.518223 0.328433 0.000000
0.552442 0.329286 0.000000
0.586597 0.330138 0.000000
0.620692 0.330991 0.000000
0.654731 0.331843 0.000000
0.688718 0.332696 0.000000
0.722653 0.333548 0.000000
0.756542 0.334400 0.000000
0.790384 0.335252 0.000000
0.824184 0.336104 0.000000
0.857941 0.336956 0.000000
0.891659 0.337808 0.000000
0.925339 0.338660 0.000000
0.958982 0.339512 0.000000
0.992589 0.340364 0.000000
1.000000 0.341215 0.000000
1.000000 0.342067 0.000000
1.000000 0.342919 0.000000
0.000000 0.349632 0.000000
0.025286 0.350483 0.000000
0.062208 0.351334 0.000000
0.098439 0.352185 0.000000
0.134265 0.353036 0.000000
0.169803 0.353887 0.000000
0.205117 0.354737 0.000000
0.240248 0.355588 0.000000
0.275226 0.356439 0.000000
0.310071 0.357289 0.000000
0.344798 0.358140 0.000000
0.379420 0.358990 0.000000
0.413948 0.359840 0.000000
0.448389 0.360691 0.000000
0.482752 0.361541 0.000000
0.517040 0.362391 0.000000
0.551261 0.363241 0.000000
0.585418 0.364091 0.000000
0.619516 0.364941 0.000000
0.653557 0.365791 0.000000
0.687545 0.366641 0.000000
0.721482 0.367491 0.000000
0.755372 0.368340 0.000000
0.789216 0.369190 0.000000
0.823017 0.370040 0.000000
0.856776 0.370889 0.000000
0.890496 0.371739 0.000000
0.924177 0.372588 0.000000
0.957821 0.373438 0.000000
0.991429 0.374287 0.000000
1.000000 0.375136 0.000000
1.000000 0.375985 0.000000
1.000000 0.376835 0.000000
0.000000 0.383529 0.000000
0.023990 0.384378 0.000000
0.060947 0.385226 0.000000
0.097196 0.386075 0.000000
0.133033 0.386924 0.000000
0.168579 0.387772 0.000000
0.203900 0.388620 0.000000
0.239038 0.389469 0.000000
0.274021 0.390317 0.000000
0.308869 0.391165 0.000000
0.343600 0.392013 0.000000
0.378226 0.392861 0.000000
0.412757 0.393709 0.000000
0.447201 0.394557 0.000000
0.481566 0.395405 0.000000
0.515857 0.396253 0.000000
0.550080 0.397101 0.000000
0.584240 0.397949 0.000000
0.618339 0.398797 0.000000
0.652382 0.399644 0.000000
0.686372 0.400492 0.000000
0.720311 0.401339 0.000000
0.754203 0.402187 0.000000
0.788048 0.403034 0.000000
0.821851 0.403882 0.000000
0.855611 0.404729 0.000000
0.889332 0.405576 0.000000
0.923014 0.406424 0.000000
0.956659 0.407271 0.000000
0.990269 0.408118 0.000000
1.000000 0.408965 0.000000
1.000000 0.409812 0.000000
1.000000 0.410659 0.000000
0.000000 0.417337 0.000000
0.022692 0.418183 0.000000
0.059686 0.419029 0.000000
0.095952 0.419876 0.000000
0.131801 0.420722 0.000000
0.167356 0.421569 0.000000
0.202684 0.422415 0.000000
0.237827 0.423261 0.000000
0.272815 0.424107 0.000000
0.307668 0.424953 0.000000
0.342403 0.425799 0.000000
0.377032 0.426645 0.000000
0.411566 0.427491 0.000000
0.446013 0.428337 0.000000
0.480381 0.429183 0.000000
0.514674 0.430029 0.000000
0.548900 0.430875 0.000000
0.583061 0.431720 0.000000
0.617162 0.432566 0.000000
0.651207 0.433411 0.000000
0.685199 0.434257 0.000000
0.719140 0.435103 0.000000
0.753033 0.435948 0.000000
0.786880 0.436793 0.000000
0.820684 0.437639 0.000000
0.854446 0.438484 0.000000
0.888168 0.439329 0.000000
0.921851 0.440175 0.000000
0.955498 0.441020 0.000000
0.989109 0.441865 0.000000
1.000000 0.442710 0.000000
1.000000 0.443555 0.000000
1.000000 0.444400 0.000000
0.000000 0.451062 0.000000
0.021392 0.451906 0.000000
0.058423 0.452751 0.000000
0.094707 0.453595 0.000000
0.130568 0.454440 0.000000
0.166132 0.455284 0.000000
0.201467 0.456128 0.000000
0.236616 0.456973 0.000000
0.271609 0.457817 0.000000
0.306466 0.458661 0.000000
0.341205 0.459505 0.000000
0.375838 0.460349 0.000000
0.410375 0.461193 0.000000
0.444825 0.462037 0.000000
0.479195 0.462881 0.000000
0.513491 0.463725 0.000000
0.547719 0.464569 0.000000
0.581882 0.465413 0.000000
0.615986 0.466256 0.000000
0.650033 0.467100 0.000000
0.684026 0.467944 0.000000
0.717969 0.468787 0.000000
0.751863 0.469631 0.000000
0.785712 0.470474 0.000000
0.819517 0.471318 0.000000
0.853281 0.472161 0.000000
0.887004 0.473005 0.000000
0.920689 0.473848 0.000000
0.954337 0.474691 0.000000
0.987949 0.475535 0.000000
1.000000 0.476378 0.000000
1.000000 0.477221 0.000000
1.000000 0.478064 0.000000
0.000000 0.484711 0.000000
0.020089 0.485554 0.000000
0.057160 0.486397 0.000000
0.093462 0.487239 0.000000
0.129335 0.488082 0.000000
0.164908 0.488925 0.000000
0.200250 0.489767 0.000000
0.235405 0.490610 0.000000
0.270403 0.491452 0.000000
0.305265 0.492294 0.000000
0.340007 0.493137 0.000000
0.374644 0.493979 0.000000
0.409184 0.494821 0.000000
0.443637 0.495663 0.000000
0.478009 0.496506 0.000000
0.512308 0.497348 0.000000
0.546538 0.498190 0.000000
0.580704 0.499032 0.000000
0.614809 0.499874 0.000000
0.648858 0.500716 0.000000
0.682853 0.501558 0.000000
0.716797 0.502399 0.000000
0.750694 0.503241 0.000000
0.784544 0.504083 0.000000
0.818351 0.504925 0.000000
0.852115 0.505766 0.000000
0.885840 0.506608 0.000000
0.919526 0.507450 0.000000
0.953175 0.508291 0.000000
0.986789 0.509133 0.000000
1.000000 0.509974 0.000000
1.000000 0.510816 0.000000
1.000000 0.511657 0.000000
0.000000 0.518291 0.000000
0.018784 0.519132 0.000000
0.055896 0.519973 0.000000
0.092217 0.520814 0.000000
0.128102 0.521655 0.000000
0.163684 0.522496 0.000000
0.199033 0.523337 0.000000
0.234194 0.524177 0.000000
0.269197 0.525018 0.000000
0.304063 0.525859 0.000000
0.338809 0.526700 0.000000
0.373449 0.527540 0.000000
0.407993 0.528381 0.000000
0.442448 0.529221 0.000000
0.476824 0.530062 0.000000
0.511125 0.530902 0.000000
0.545357 0.531743 0.000000
0.579525 0.532583 0.000000
0.613632 0.533423 0.000000
0.647683 0.534264 0.000000
0.681680 0.535104 0.000000
0.715626 0.535944 0.000000
0.749524 0.536784 0.000000
0.783376 0.537625 0.000000
0.817184 0.538465 0.000000
0.850950 0.539305 0.000000
0.884676 0.540145 0.000000
0.918364 0.540985 0.000000
0.952014 0.541825 0.000000
0.985629 0.542665 0.000000
1.000000 0.543505 0.000000
1.000000 0.544344 0.000000
1.000000 0.545184 0.000000
0.000000 0.551806 0.000000
0.017476 0.552645 0.000000
0.054631 0.553485 0.000000
0.090971 0.554324 0.000000
0.126868 0.555163 0.000000
0.162459 0.556003 0.000000
0.197816 0.556842 0.000000
0.232983 0.557681 0.000000
0.267990 0.558520 0.000000
0.302861 0.559359 0.000000
0.337611 0.560198 0.000000
0.372255 0.561038 0.000000
0.406801 0.561877 0.000000
0.441260 0.562716 0.000000
0.475638 0.563555 0.000000
0.509941 0.564393 0.000000
0.544176 0.565232 0.000000
0.578346 0.566071 0.000000
0.612455 0.566910 0.000000
0.646508 0.567749 0.000000
0.680507 0.568587 0.000000
0.714454 0.569426 0.000000
0.748354 0.570265 0.000000
0.782207 0.571103 0.000000
0.816017 0.571942 0.000000
0.849785 0.572781 0.000000
0.883512 0.573619 0.000000
0.917201 0.574458 0.000000
0.950853 0.575296 0.000000
0.984469 0.576134 0.000000
1.000000 0.576973 0.000000
1.000000 0.577811 0.000000
1.000000 0.578649 0.000000
0.000000 0.585259 0.000000
0.016165 0.586097 0.000000
0.053365 0.586935 0.000000
0.089725 0.587773 0.000000
0.125634 0.588611 0.000000
0.161234 0.589449 0.000000
0.196598 0.590286 0.000000
0.231771 0.591124 0.000000
0.266784 0.591962 0.000000
0.301659 0.592800 0.000000
0.336413 0.593637 0.000000
0.371060 0.594475 0.000000
0.405610 0.595312 0.000000
0.440071 0.596150 0.000000
0.474452 0.596988 0.000000
0.508758 0.597825 0.000000
0.542995 0.598662 0.000000
0.577167 0.599500 0.000000
0.611278 0.600337 0.000000
0.645333 0.601175 0.000000
0.679333 0.602012 0.000000
0.713283 0.602849 0.000000
0.747184 0.603686 0.000000
0.781039 0.604524 0.000000
0.814850 0.605361 0.000000
0.848619 0.606198 0.000000
0.882348 0.607035 0.000000
0.916038 0.607872 0.000000
0.949691 0.608709 0.000000
0.983308 0.609546 0.000000
1.000000 0.610383 0.000000
1.000000 0.611220 0.000000
1.000000 0.612057 0.000000
0.000000 0.618655 0.000000
0.014851 0.619492 0.000000
0.052098 0.620328 0.000000
0.088478 0.621165 0.000000
0.124400 0.622001 0.000000
0.160009 0.622838 0.000000
0.195380 0.623674 0.000000
0.230559 0.624511 0.000000
0.265577 0.625347 0.000000
0.300457 0.626183 0.000000
0.335215 0.627020 0.000000
0.369865 0.627856 0.000000
0.404418 0.628692 0.000000
0.438883 0.629528 0.000000
0.473266 0.630364 0.000000
0.507574 0.631201 0.000000
0.541814 0.632037 0.000000
0.575988 0.632873 0.000000
0.610101 0.633709 0.000000
0.644158 0.634545 0.000000
0.678160 0.635381 0.000000
0.712111 0.636216 0.000000
0.746014 0.637052 0.000000
0.779871 0.637888 0.000000
0.813683 0.638724 0.000000
0.847454 0.639560 0.000000
0.881184 0.640396 0.000000
0.914875 0.641231 0.000000
0.948529 0.642067 0.000000
0.982148 0.642903 0.000000
1.000000 0.643738 0.000000
1.000000 0.644574 0.000000
1.000000 0.645409 0.000000
0.000000 0.651998 0.000000
0.013533 0.652833 0.000000
0.050831 0.653668 0.000000
0.087230 0.654503 0.000000
0.123165 0.655338 0.000000
0.158784 0.656174 0.000000
0.194162 0.657009 0.000000
0.229347 0.657844 0.000000
0.264370 0.658679 0.000000
0.299254 0.659514 0.000000
0.334016 0.660349 0.000000
0.368670 0.661184 0.000000
0.403226 0.662019 0.000000
0.437694 0.662853 0.000000
0.472080 0.663688 0.000000
0.506391 0.664523 0.000000
0.540632 0.665358 0.000000
0.574809 0.666193 0.000000
0.608924 0.667027 0.000000
0.642983 0.667862 0.000000
0.676987 0.668697 0.000000
0.710940 0.669531 0.000000
0.744844 0.670366 0.000000
0.778702 0.671201 0.000000
0.812516 0.672035 0.000000
0.846288 0.672870 0.000000
0.880020 0.673704 0.000000
0.913712 0.674539 0.000000
0.947368 0.675373 0.000000
0.980988 0.676207 0.000000
1.000000 0.677042 0.000000
1.000000 0.677876 0.000000
1.000000 0.678710 0.000000
0.000000 0.685289 0.000000
0.012212 0.686123 0.000000
0.049562 0.686957 0.000000
0.085982 0.687791 0.000000
0.121930 0.688625 0.000000
0.157558 0.689458 0.000000
0.192944 0.690292 0.000000
0.228135 0.691126 0.000000
0.263163 0.691960 0.000000
0.298052 0.692794 0.000000
0.332818 0.693627 0.000000
0.367475 0.694461 0.000000
0.402034 0.695295 0.000000
0.436505 0.696128 0.000000
0.470894 0.696962 0.000000
0.505207 0.697796 0.000000
0.539451 0.698629 0.000000
0.573630 0.699463 0.000000
0.607747 0.700296 0.000000
0.641807 0.701130 0.000000
0.675813 0.701963 0.000000
0.709768 0.702797 0.000000
0.743674 0.703630 0.000000
0.777534 0.704463 0.000000
0.811349 0.705297 0.000000
0.845123 0.706130 0.000000
0.878855 0.706963 0.000000
0.912549 0.707797 0.000000
0.946206 0.708630 0.000000
0.979827 0.709463 0.000000
1.000000 0.710296 0.000000
1.000000 0.711129 0.000000
1.000000 0.711962 0.000000
0.000000 0.718531 0.000000
0.010886 0.719364 0.000000
0.048292 0.720197 0.000000
0.084733 0.721030 0.000000
0.120695 0.721862 0.000000
0.156332 0.722695 0.000000
0.191725 0.723528 0.000000
0.226923 0.724360 0.000000
0.261956 0.725193 0.000000
0.296849 0.726026 0.000000
0.331619 0.726858 0.000000
0.366280 0.727691 0.000000
0.400843 0.728523 0.000000
0.435316 0.729356 0.000000
0.469707 0.730188 0.000000
0.504023 0.731021 0.000000
0.538269 0.731853 0.000000
0.572450 0.732686 0.000000
0.606570 0.733518 0.000000
0.640632 0.734350 0.000000
0.674640 0.735182 0.000000
0.708596 0.736015 0.000000
0.742504 0.736847 0.000000
0.776365 0.737679 0.000000
0.810182 0.738511 0.000000
0.843957 0.739343 0.000000
0.877691 0.740176 0.000000
0.911387 0.741008 0.000000
0.945045 0.741840 0.000000
0.978667 0.742672 0.000000
1.000000 0.743504 0.000000
1.000000 0.744336 0.000000
1.000000 0.745168 0.000000
0.000000 0.751728 0.000000
0.009555 0.752559 0.000000
0.047022 0.753391 0.000000
0.083484 0.754223 0.000000
0.119459 0.755054 0.000000
0.155106 0.755886 0.000000
0.190507 0.756718 0.000000
0.225710 0.757549 0.000000
0.260749 0.758381 0.000000
0.295646 0.759212 0.000000
0.330420 0.760044 0.000000
0.365085 0.760875 0.000000
0.399650 0.761706 0.000000
0.434127 0.762538 0.000000
0.468521 0.763369 0.000000
0.502840 0.764201 0.000000
0.537088 0.765032 0.000000
0.571271 0.765863 0.000000
0.605393 0.766694 0.000000
0.639457 0.767526 0.000000
0.673466 0.768357 0.000000
0.707424 0.769188 0.000000
0.741334 0.770019 0.000000
0.775197 0.770850 0.000000
0.809015 0.771681 0.000000
0.842791 0.772512 0.000000
0.876527 0.773343 0.000000
0.910224 0.774174 0.000000
0.943883 0.775005 0.000000
0.977506 0.775836 0.000000
1.000000 0.776667 0.000000
1.000000 0.777498 0.000000
1.000000 0.778329 0.000000
0.000000 0.784880 0.000000
0.008219 0.785711 0.000000
0.045750 0.786542 0.000000
0.082235 0.787372 0.000000
0.118222 0.788203 0.000000
0.153879 0.789033 0.000000
0.189288 0.789864 0.000000
0.224497 0.790694 0.000000
0.259541 0.791525 0.000000
0.294443 0.792355 0.000000
0.329221 0.793186 0.000000
0.363889 0.794016 0.000000
0.398458 0.794846 0.000000
0.432938 0.795677 0.000000
0.467335 0.796507 0.000000
0.501656 0.797337 0.000000
0.535906 0.798167 0.000000
0.570091 0.798998 0.000000
0.604215 0.799828 0.000000
0.638281 0.800658 0.000000
0.672293 0.801488 0.000000
0.706253 0.802318 0.000000
0.740164 0.803148 0.000000
0.774028 0.803978 0.000000
0.807848 0.804808 0.000000
0.841626 0.805638 0.000000
0.875363 0.806468 0.000000
0.909061 0.807298 0.000000
0.942721 0.808128 0.000000
0.976346 0.808958 0.000000
1.000000 0.809788 0.000000
1.000000 0.810618 0.000000
1.000000 0.811448 0.000000
0.000000 0.817991 0.000000
0.006876 0.818821 0.000000
0.044477 0.819650 0.000000
0.080984 0.820480 0.000000
0.116986 0.821309 0.000000
0.152652 0.822139 0.000000
0.188068 0.822968 0.000000
0.223284 0.823798 0.000000
0.258333 0.824627 0.000000
0.293240 0.825457 0.000000
0.328022 0.826286 0.000000
0.362694 0.827115 0.000000
0.397266 0.827945 0.000000
0.431748 0.828774 0.000000
0.466148 0.829603 0.000000
0.500472 0.830432 0.000000
0.534725 0.831262 0.000000
0.568912 0.832091 0.000000
0.603038 0.832920 0.000000
0.637106 0.833749 0.000000
0.671119 0.834578 0.000000
0.705081 0.835407 0.000000
0.738993 0.836236 0.000000
0.772859 0.837066 0.000000
0.806681 0.837895 0.000000
0.840460 0.838724 0.000000
0.874198 0.839553 0.000000
0.907897 0.840381 0.000000
0.941559 0.841210 0.000000
0.975185 0.842039 0.000000
1.000000 0.842868 0.000000
1.000000 0.843697 0.000000
1.000000 0.844526 0.000000
0.000000 0.851061 0.000000
0.005525 0.851890 0.000000
0.043204 0.852719 0.000000
0.079733 0.853547 0.000000
0.115749 0.854376 0.000000
0.151425 0.855204 0.000000
0.186849 0.856033 0.000000
0.222071 0.856861 0.000000
0.257125 0.857690 0.000000
0.292037 0.858518 0.000000
0.326823 0.859347 0.000000
0.361498 0.860175 0.000000
0.396074 0.861003 0.000000
0.430559 0.861832 0.000000
0.464961 0.862660 0.000000
0.499287 0.863488 0.000000
0.533543 0.864316 0.000000
0.567732 0.865145 0.000000
0.601860 0.865973 0.000000
0.635930 0.866801 0.000000
0.669945 0.867629 0.000000
0.703909 0.868457 0.000000
0.737823 0.869285 0.000000
0.771691 0.870114 0.000000
0.805514 0.870942 0.000000
0.839294 0.871770 0.000000
0.873034 0.872598 0.000000
0.906734 0.873426 0.000000
0.940397 0.874254 0.000000
0.974024 0.875082 0.000000
1.000000 0.875910 0.000000
1.000000 0.876737 0.000000
1.000000 0.877565 0.000000
0.000000 0.884093 0.000000
0.004164 0.884921 0.000000
0.041929 0.885749 0.000000
0.078482 0.886576 0.000000
0.114511 0.887404 0.000000
0.150198 0.888232 0.000000
0.185629 0.889059 0.000000
0.220858 0.889887 0.000000
0.255917 0.890714 0.000000
0.290833 0.891542 0.000000
0.325624 0.892369 0.000000
0.360302 0.893197 0.000000
0.394881 0.894024 0.000000
0.429369 0.894851 0.000000
0.463775 0.895679 0.000000
0.498103 0.896506 0.000000
0.532361 0.897333 0.000000
0.566553 0.898161 0.000000
0.600683 0.898988 0.000000
0.634755 0.899815 0.000000
0.668771 0.900642 0.000000
0.702737 0.901470 0.000000
0.736653 0.902297 0.000000
0.770522 0.903124 0.000000
0.804346 0.903951 0.000000
