presets/film_stocks/Kodak_Vision3_200T_5213.cube
# 独寻胶片模拟 -- Kodak Vision3 200T 5213
# Kodak, ISO 200, 2010, negative
TITLE "Kodak Vision3 200T 5213"
LUT_3D_SIZE 33
DOMAIN_MIN 0.0 0.0 0.0
DOMAIN_MAX 1.0 1.0 1.0
0.000000 0.000000 0.000000
0.046754 0.001275 0.000000
0.088307 0.002409 0.000000
0.128100 0.003495 0.000000
0.166791 0.004550 0.000000
0.204682 0.005584 0.000000
0.241949 0.006600 0.000000
0.278703 0.007603 0.000000
0.315026 0.008594 0.000000
0.350974 0.009575 0.000000
0.386593 0.010546 0.000000
0.421919 0.011510 0.000000
0.456980 0.012467 0.000000
0.491801 0.013417 0.000000
0.526401 0.014360 0.000000
0.560797 0.015299 0.000000
0.595004 0.016232 0.000000
0.629035 0.017160 0.000000
0.662902 0.018084 0.000000
0.696613 0.019004 0.000000
0.730177 0.019920 0.000000
0.763604 0.020831 0.000000
0.796899 0.021740 0.000000
0.830070 0.022645 0.000000
0.863121 0.023546 0.000000
0.896059 0.024445 0.000000
0.928889 0.025341 0.000000
0.961614 0.026233 0.000000
0.994239 0.027123 0.000000
1.000000 0.028011 0.000000
1.000000 0.028896 0.000000
1.000000 0.029778 0.000000
1.000000 0.030658 0.000000
0.000000 0.045097 0.000000
0.044941 0.045945 0.000000
0.086597 0.046792 0.000000
0.126446 0.047637 0.000000
0.165176 0.048482 0.000000
0.203097 0.049324 0.000000
0.240387 0.050166 0.000000
0.277162 0.051006 0.000000
0.313501 0.051845 0.000000
0.349464 0.052683 0.000000
0.385096 0.053519 0.000000
0.420434 0.054355 0.000000
0.455506 0.055189 0.000000
0.490336 0.056022 0.000000
0.524945 0.056854 0.000000
0.559350 0.057685 0.000000
0.593565 0.058515 0.000000
0.627603 0.059344 0.000000
0.661476 0.060171 0.000000
0.695193 0.060998 0.000000
0.728764 0.061824 0.000000
0.762196 0.062648 0.000000
0.795497 0.063472 0.000000
0.828672 0.064295 0.000000
0.861729 0.065117 0.000000
0.894672 0.065938 0.000000
0.927505 0.066758 0.000000
0.960235 0.067577 0.000000
0.992864 0.068395 0.000000
1.000000 0.069212 0.000000
1.000000 0.070028 0.000000
1.000000 0.070844 0.000000
1.000000 0.071659 0.000000
0.000000 0.085177 0.000000
0.043122 0.085978 0.000000
0.084883 0.086779 0.000000
0.124790 0.087579 0.000000
0.163560 0.088378 0.000000
0.201511 0.089177 0.000000
0.238825 0.089975 0.000000
0.275619 0.090773 0.000000
0.311976 0.091569 0.000000
0.347954 0.092366 0.000000
0.383599 0.093161 0.000000
0.418948 0.093956 0.000000
0.454031 0.094751 0.000000
0.488871 0.095544 0.000000
0.523489 0.096338 0.000000
0.557902 0.097130 0.000000
0.592125 0.097922 0.000000
0.626170 0.098714 0.000000
0.660050 0.099505 0.000000
0.693774 0.100295 0.000000
0.727350 0.101085 0.000000
0.760788 0.101874 0.000000
0.794094 0.102662 0.000000
0.827275 0.103451 0.000000
0.860336 0.104238 0.000000
0.893284 0.105025 0.000000
0.926122 0.105812 0.000000
0.958856 0.106598 0.000000
0.991490 0.107383 0.000000
1.000000 0.108168 0.000000
1.000000 0.108952 0.000000
1.000000 0.109736 0.000000
1.000000 0.110520 0.000000
0.000000 0.123558 0.000000
0.041295 0.124334 0.000000
0.083166 0.125108 0.000000
0.123132 0.125882 0.000000
0.161942 0.126656 0.000000
0.199923 0.127430 0.000000
0.237262 0.128203 0.000000
0.274076 0.128975 0.000000
0.310450 0.129747 0.000000
0.346442 0.130519 0.000000
0.382101 0.131290 0.000000
0.417463 0.132061 0.000000
0.452556 0.132832 0.000000
0.487406 0.133602 0.000000
0.522033 0.134372 0.000000
0.556454 0.135141 0.000000
0.590684 0.135910 0.000000
0.624737 0.136678 0.000000
0.658624 0.137447 0.000000
0.692354 0.138214 0.000000
0.725937 0.138982 0.000000
0.759380 0.139749 0.000000
0.792692 0.140515 0.000000
0.825878 0.141281 0.000000
0.858944 0.142047 0.000000
0.891896 0.142813 0.000000
0.924739 0.143578 0.000000
0.957477 0.144343 0.000000
0.990115 0.145107 0.000000
1.000000 0.145871 0.000000
1.000000 0.146635 0.000000
1.000000 0.147398 0.000000
1.000000 0.148161 0.000000
0.000000 0.160877 0.000000
0.039461 0.161634 0.000000
0.081446 0.162391 0.000000
0.121473 0.163147 0.000000
0.160323 0.163903 0.000000
0.198335 0.164659 0.000000
0.235697 0.165415 0.000000
0.272532 0.166170 0.000000
0.308923 0.166924 0.000000
0.344931 0.167679 0.000000
0.380603 0.168433 0.000000
0.415976 0.169187 0.000000
0.451080 0.169940 0.000000
0.485940 0.170694 0.000000
0.520576 0.171447 0.000000
0.555005 0.172199 0.000000
0.589244 0.172952 0.000000
0.623304 0.173704 0.000000
0.657197 0.174456 0.000000
0.690934 0.175207 0.000000
0.724522 0.175958 0.000000
0.757972 0.176709 0.000000
0.791289 0.177460 0.000000
0.824480 0.178210 0.000000
0.857551 0.178960 0.000000
0.890508 0.179710 0.000000
0.923355 0.180459 0.000000
0.956098 0.181209 0.000000
0.988740 0.181958 0.000000
1.000000 0.182706 0.000000
1.000000 0.183455 0.000000
1.000000 0.184203 0.000000
1.000000 0.184951 0.000000
0.000000 0.197426 0.000000
0.037619 0.198169 0.000000
0.079723 0.198912 0.000000
0.119811 0.199654 0.000000
0.158702 0.200397 0.000000
0.196745 0.201139 0.000000
0.234132 0.201881 0.000000
0.270987 0.202623 0.000000
0.307396 0.203364 0.000000
0.343419 0.204105 0.000000
0.379104 0.204846 0.000000
0.414489 0.205587 0.000000
0.449604 0.206327 0.000000
0.484474 0.207068 0.000000
0.519119 0.207808 0.000000
0.553557 0.208548 0.000000
0.587803 0.209287 0.000000
0.621870 0.210026 0.000000
0.655770 0.210765 0.000000
0.689513 0.211504 0.000000
0.723108 0.212243 0.000000
0.756563 0.212981 0.000000
0.789885 0.213719 0.000000
0.823082 0.214457 0.000000
0.856158 0.215195 0.000000
0.889119 0.215932 0.000000
0.921971 0.216670 0.000000
0.954718 0.217407 0.000000
0.987364 0.218143 0.000000
1.000000 0.218880 0.000000
1.000000 0.219616 0.000000
1.000000 0.220352 0.000000
1.000000 0.221088 0.000000
0.000000 0.233371 0.000000
0.035770 0.234103 0.000000
0.077996 0.234835 0.000000
0.118147 0.235567 0.000000
0.157080 0.236298 0.000000
0.195154 0.237029 0.000000
0.232566 0.237760 0.000000
0.269442 0.238491 0.000000
0.305867 0.239222 0.000000
0.341906 0.239952 0.000000
0.377605 0.240683 0.000000
0.413002 0.241413 0.000000
0.448128 0.242143 0.000000
0.483007 0.242872 0.000000
0.517661 0.243602 0.000000
0.552108 0.244331 0.000000
0.586361 0.245060 0.000000
0.620436 0.245789 0.000000
0.654343 0.246518 0.000000
0.688092 0.247246 0.000000
0.721693 0.247975 0.000000
0.755154 0.248703 0.000000
0.788482 0.249431 0.000000
0.821683 0.250158 0.000000
0.854765 0.250886 0.000000
0.887731 0.251613 0.000000
0.920587 0.252341 0.000000
0.953339 0.253068 0.000000
0.985989 0.253794 0.000000
1.000000 0.254521 0.000000
1.000000 0.255247 0.000000
1.000000 0.255974 0.000000
1.000000 0.256700 0.000000
0.000000 0.268823 0.000000
0.033911 0.269545 0.000000
0.076266 0.270268 0.000000
0.116481 0.270991 0.000000
0.155456 0.271713 0.000000
0.193562 0.272435 0.000000
0.230999 0.273157 0.000000
0.267896 0.273879 0.000000
0.304339 0.274601 0.000000
0.340392 0.275322 0.000000
0.376105 0.276043 0.000000
0.411514 0.276765 0.000000
0.446651 0.277485 0.000000
0.481540 0.278206 0.000000
0.516203 0.278927 0.000000
0.550658 0.279647 0.000000
0.584920 0.280368 0.000000
0.619002 0.281088 0.000000
0.652916 0.281808 0.000000
0.686671 0.282528 0.000000
0.720279 0.283247 0.000000
0.753745 0.283967 0.000000
0.787078 0.284686 0.000000
0.820285 0.285405 0.000000
0.853371 0.286124 0.000000
0.886342 0.286843 0.000000
0.919203 0.287562 0.000000
0.951959 0.288280 0.000000
0.984613 0.288998 0.000000
1.000000 0.289717 0.000000
1.000000 0.290435 0.000000
1.000000 0.291153 0.000000
1.000000 0.291870 0.000000
0.000000 0.303857 0.000000
0.032044 0.304572 0.000000
0.074532 0.305287 0.000000
0.114812 0.306001 0.000000
0.153831 0.306716 0.000000
0.191969 0.307430 0.000000
0.229431 0.308144 0.000000
0.266348 0.308859 0.000000
0.302809 0.309572 0.000000
0.338878 0.310286 0.000000
0.374604 0.311000 0.000000
0.410026 0.311713 0.000000
0.445173 0.312427 0.000000
0.480073 0.313140 0.000000
0.514745 0.313853 0.000000
0.549208 0.314566 0.000000
0.583478 0.315278 0.000000
0.617567 0.315991 0.000000
0.651488 0.316703 0.000000
0.685250 0.317416 0.000000
0.718863 0.318128 0.000000
0.752336 0.318840 0.000000
0.785675 0.319552 0.000000
0.818886 0.320263 0.000000
0.851977 0.320975 0.000000
0.884953 0.321686 0.000000
0.917819 0.322398 0.000000
0.950579 0.323109 0.000000
0.983237 0.323820 0.000000
1.000000 0.324531 0.000000
1.000000 0.325241 0.000000
1.000000 0.325952 0.000000
1.000000 0.326662 0.000000
0.000000 0.338531 0.000000
0.030166 0.339239 0.000000
0.072795 0.339947 0.000000
0.113142 0.340655 0.000000
0.152204 0.341362 0.000000
0.190374 0.342070 0.000000
0.227862 0.342777 0.000000
0.264801 0.343484 0.000000
0.301279 0.344191 0.000000
0.337364 0.344898 0.000000
0.373103 0.345605 0.000000
0.408537 0.346312 0.000000
0.443695 0.347019 0.000000
0.478605 0.347725 0.000000
0.513286 0.348431 0.000000
0.547758 0.349138 0.000000
0.582036 0.349844 0.000000
0.616132 0.350550 0.000000
0.650060 0.351255 0.000000
0.683829 0.351961 0.000000
0.717448 0.352667 0.000000
0.750926 0.353372 0.000000
0.784270 0.354077 0.000000
0.817488 0.354783 0.000000
0.850584 0.355488 0.000000
0.883564 0.356193 0.000000
0.916434 0.356897 0.000000
0.949198 0.357602 0.000000
0.981861 0.358307 0.000000
1.000000 0.359011 0.000000
1.000000 0.359715 0.000000
1.000000 0.360420 0.000000
1.000000 0.361124 0.000000
0.000000 0.372887 0.000000
0.028278 0.373589 0.000000
0.071054 0.374291 0.000000
0.111469 0.374993 0.000000
0.150576 0.375694 0.000000
0.188779 0.376396 0.000000
0.226292 0.377097 0.000000
0.263252 0.377798 0.000000
0.299748 0.378499 0.000000
0.335848 0.379200 0.000000
0.371602 0.379901 0.000000
0.407047 0.380602 0.000000
0.442217 0.381302 0.000000
0.477137 0.382003 0.000000
0.511827 0.382703 0.000000
0.546308 0.383404 0.000000
0.580593 0.384104 0.000000
0.614697 0.384804 0.000000
0.648632 0.385504 0.000000
0.682407 0.386204 0.000000
0.716032 0.386903 0.000000
0.749516 0.387603 0.000000
0.782866 0.388302 0.000000
0.816088 0.389002 0.000000
0.849190 0.389701 0.000000
0.882175 0.390400 0.000000
0.915049 0.391099 0.000000
0.947818 0.391798 0.000000
0.980485 0.392497 0.000000
1.000000 0.393195 0.000000
1.000000 0.393894 0.000000
1.000000 0.394592 0.000000
1.000000 0.395291 0.000000
0.000000 0.406961 0.000000
0.026378 0.407657 0.000000
0.069309 0.408353 0.000000
0.109795 0.409050 0.000000
0.148946 0.409746 0.000000
0.187182 0.410442 0.000000
0.224721 0.411138 0.000000
0.261702 0.411833 0.000000
0.298217 0.412529 0.000000
0.334332 0.413225 0.000000
0.370099 0.413920 0.000000
0.405558 0.414615 0.000000
0.440738 0.415311 0.000000
0.475668 0.416006 0.000000
0.510368 0.416701 0.000000
0.544857 0.417396 0.000000
0.579150 0.418091 0.000000
0.613262 0.418785 0.000000
0.647203 0.419480 0.000000
0.680985 0.420174 0.000000
0.714617 0.420869 0.000000
0.748106 0.421563 0.000000
0.781462 0.422257 0.000000
0.814689 0.422952 0.000000
0.847795 0.423646 0.000000
0.880785 0.424339 0.000000
0.913664 0.425033 0.000000
0.946438 0.425727 0.000000
0.979109 0.426421 0.000000
1.000000 0.427114 0.000000
1.000000 0.427807 0.000000
1.000000 0.428501 0.000000
1.000000 0.429194 0.000000
0.000000 0.440779 0.000000
0.024467 0.441470 0.000000
0.067560 0.442162 0.000000
0.108117 0.442853 0.000000
0.147315 0.443544 0.000000
0.185584 0.444235 0.000000
0.223150 0.444926 0.000000
0.260152 0.445617 0.000000
0.296685 0.446308 0.000000
0.332816 0.446998 0.000000
0.368597 0.447689 0.000000
0.404067 0.448379 0.000000
0.439259 0.449070 0.000000
0.474199 0.449760 0.000000
0.508908 0.450450 0.000000
0.543406 0.451140 0.000000
0.577707 0.451830 0.000000
0.611826 0.452520 0.000000
0.645774 0.453210 0.000000
0.679563 0.453900 0.000000
0.713200 0.454589 0.000000
0.746696 0.455279 0.000000
0.780057 0.455968 0.000000
0.813290 0.456658 0.000000
0.846401 0.457347 0.000000
0.879396 0.458036 0.000000
0.912279 0.458725 0.000000
0.945057 0.459414 0.000000
0.977732 0.460103 0.000000
1.000000 0.460792 0.000000
1.000000 0.461480 0.000000
1.000000 0.462169 0.000000
1.000000 0.462857 0.000000
0.000000 0.474365 0.000000
0.022541 0.475052 0.000000
0.065807 0.475739 0.000000
0.106438 0.476426 0.000000
0.145682 0.477112 0.000000
0.183984 0.477799 0.000000
0.221577 0.478485 0.000000
0.258601 0.479171 0.000000
0.295152 0.479858 0.000000
0.331299 0.480544 0.000000
0.367094 0.481230 0.000000
0.402576 0.481916 0.000000
0.437780 0.482602 0.000000
0.472729 0.483288 0.000000
0.507448 0.483973 0.000000
0.541954 0.484659 0.000000
0.576263 0.485345 0.000000
0.610390 0.486030 0.000000
0.644345 0.486715 0.000000
0.678140 0.487401 0.000000
0.711784 0.488086 0.000000
0.745285 0.488771 0.000000
0.778652 0.489456 0.000000
0.811890 0.490141 0.000000
0.845006 0.490826 0.000000
0.878006 0.491511 0.000000
0.910894 0.492195 0.000000
0.943676 0.492880 0.000000
0.976356 0.493565 0.000000
1.000000 0.494249 0.000000
1.000000 0.494933 0.000000
1.000000 0.495618 0.000000
1.000000 0.496302 0.000000
0.000000 0.507738 0.000000
0.020601 0.508421 0.000000
0.064050 0.509104 0.000000
0.104756 0.509786 0.000000
0.144047 0.510469 0.000000
0.182384 0.511151 0.000000
0.220003 0.511833 0.000000
0.257048 0.512516 0.000000
0.293618 0.513198 0.000000
0.329781 0.513880 0.000000
0.365590 0.514562 0.000000
0.401085 0.515244 0.000000
0.436299 0.515925 0.000000
0.471260 0.516607 0.000000
0.505988 0.517289 0.000000
0.540502 0.517970 0.000000
0.574820 0.518652 0.000000
0.608953 0.519333 0.000000
0.642916 0.520014 0.000000
0.676717 0.520696 0.000000
0.710367 0.521377 0.000000
0.743875 0.522058 0.000000
0.777247 0.522739 0.000000
0.810490 0.523420 0.000000
0.843611 0.524101 0.000000
0.876616 0.524781 0.000000
0.909509 0.525462 0.000000
0.942295 0.526143 0.000000
0.974979 0.526823 0.000000
1.000000 0.527503 0.000000
1.000000 0.528184 0.000000
1.000000 0.528864 0.000000
1.000000 0.529544 0.000000
0.000000 0.540915 0.000000
0.018644 0.541594 0.000000
0.062288 0.542273 0.000000
0.103072 0.542951 0.000000
0.142411 0.543630 0.000000
0.180782 0.544309 0.000000
0.218428 0.544987 0.000000
0.255496 0.545665 0.000000
0.292084 0.546344 0.000000
0.328263 0.547022 0.000000
0.364085 0.547700 0.000000
0.399593 0.548378 0.000000
0.434819 0.549056 0.000000
0.469789 0.549734 0.000000
0.504527 0.550412 0.000000
0.539050 0.551090 0.000000
0.573375 0.551767 0.000000
0.607517 0.552445 0.000000
0.641486 0.553122 0.000000
0.675294 0.553800 0.000000
0.708950 0.554477 0.000000
0.742464 0.555154 0.000000
0.775841 0.555832 0.000000
0.809090 0.556509 0.000000
0.842216 0.557186 0.000000
0.875225 0.557863 0.000000
0.908123 0.558540 0.000000
0.940913 0.559217 0.000000
0.973602 0.559894 0.000000
1.000000 0.560570 0.000000
1.000000 0.561247 0.000000
1.000000 0.561923 0.000000
1.000000 0.562600 0.000000
0.000000 0.573910 0.000000
0.016668 0.574585 0.000000
0.060522 0.575260 0.000000
0.101385 0.575935 0.000000
0.140773 0.576610 0.000000
0.179179 0.577285 0.000000
0.216852 0.577960 0.000000
0.253942 0.578635 0.000000
0.290549 0.579310 0.000000
0.326744 0.579984 0.000000
0.362581 0.580659 0.000000
0.398101 0.581333 0.000000
0.433338 0.582008 0.000000
0.468319 0.582682 0.000000
0.503066 0.583356 0.000000
0.537598 0.584031 0.000000
0.571931 0.584705 0.000000
0.606080 0.585379 0.000000
0.640056 0.586053 0.000000
0.673871 0.586727 0.000000
0.707533 0.587401 0.000000
0.741052 0.588074 0.000000
0.774435 0.588748 0.000000
0.807689 0.589422 0.000000
0.840821 0.590095 0.000000
0.873835 0.590769 0.000000
0.906737 0.591442 0.000000
0.939532 0.592116 0.000000
0.972224 0.592789 0.000000
1.000000 0.593462 0.000000
1.000000 0.594135 0.000000
1.000000 0.594809 0.000000
1.000000 0.595482 0.000000
0.000000 0.606734 0.000000
0.014671 0.607406 0.000000
0.058752 0.608078 0.000000
0.099695 0.608750 0.000000
0.139133 0.609421 0.000000
0.177574 0.610093 0.000000
0.215275 0.610764 0.000000
0.252387 0.611436 0.000000
0.289013 0.612107 0.000000
0.325224 0.612779 0.000000
0.361075 0.613450 0.000000
0.396608 0.614121 0.000000
0.431857 0.614792 0.000000
0.466848 0.615463 0.000000
0.501604 0.616134 0.000000
0.536145 0.616805 0.000000
0.570486 0.617476 0.000000
0.604642 0.618147 0.000000
0.638626 0.618817 0.000000
0.672447 0.619488 0.000000
0.706116 0.620159 0.000000
0.739641 0.620829 0.000000
0.773029 0.621500 0.000000
0.806289 0.622170 0.000000
0.839425 0.622840 0.000000
0.872444 0.623511 0.000000
0.905351 0.624181 0.000000
0.938150 0.624851 0.000000
0.970847 0.625521 0.000000
1.000000 0.626191 0.000000
1.000000 0.626861 0.000000
1.000000 0.627531 0.000000
1.000000 0.628201 0.000000
0.000000 0.639400 0.000000
0.012649 0.640069 0.000000
0.056976 0.640737 0.000000
0.098003 0.641406 0.000000
0.137491 0.642074 0.000000
0.175969 0.642743 0.000000
0.213697 0.643411 0.000000
0.250832 0.644079 0.000000
0.287476 0.644748 0.000000
0.323704 0.645416 0.000000
0.359569 0.646084 0.000000
0.395115 0.646752 0.000000
0.430375 0.647420 0.000000
0.465376 0.648088 0.000000
0.500142 0.648756 0.000000
0.534691 0.649424 0.000000
0.569041 0.650091 0.000000
0.603205 0.650759 0.000000
0.637195 0.651427 0.000000
0.671023 0.652094 0.000000
0.704698 0.652762 0.000000
0.738229 0.653429 0.000000
0.771623 0.654096 0.000000
0.804888 0.654764 0.000000
0.838029 0.655431 0.000000
0.871053 0.656098 0.000000
0.903965 0.656765 0.000000
0.936769 0.657432 0.000000
0.969469 0.658099 0.000000
1.000000 0.658766 0.000000
1.000000 0.659433 0.000000
1.000000 0.660100 0.000000
1.000000 0.660767 0.000000
0.000000 0.671916 0.000000
0.010597 0.672581 0.000000
0.055196 0.673247 0.000000
0.096309 0.673913 0.000000
0.135848 0.674578 0.000000
0.174362 0.675244 0.000000
0.212118 0.675909 0.000000
0.249275 0.676574 0.000000
0.285939 0.677240 0.000000
0.322183 0.677905 0.000000
0.358062 0.678570 0.000000
0.393621 0.679235 0.000000
0.428892 0.679900 0.000000
0.463904 0.680565 0.000000
0.498679 0.681230 0.000000
0.533238 0.681895 0.000000
0.567595 0.682560 0.000000
0.601767 0.683225 0.000000
0.635764 0.683889 0.000000
0.669599 0.684554 0.000000
0.703280 0.685219 0.000000
0.736817 0.685883 0.000000
0.770217 0.686548 0.000000
0.803487 0.687212 0.000000
0.836633 0.687876 0.000000
0.869662 0.688541 0.000000
0.902578 0.689205 0.000000
0.935386 0.689869 0.000000
0.968092 0.690533 0.000000
1.000000 0.691197 0.000000
1.000000 0.691861 0.000000
1.000000 0.692525 0.000000
1.000000 0.693189 0.000000
0.000000 0.704291 0.000000
0.008509 0.704954 0.000000
0.053410 0.705616 0.000000
0.094612 0.706279 0.000000
0.134203 0.706942 0.000000
0.172753 0.707605 0.000000
0.210538 0.708267 0.000000
0.247718 0.708930 0.000000
0.284401 0.709592 0.000000
0.320661 0.710255 0.000000
0.356555 0.710917 0.000000
0.392127 0.711579 0.000000
0.427409 0.712242 0.000000
0.462432 0.712904 0.000000
0.497217 0.713566 0.000000
0.531784 0.714228 0.000000
0.566150 0.714890 0.000000
0.600329 0.715552 0.000000
0.634333 0.716214 0.000000
0.668174 0.716876 0.000000
0.701862 0.717538 0.000000
0.735405 0.718200 0.000000
0.768810 0.718861 0.000000
0.802086 0.719523 0.000000
0.835237 0.720185 0.000000
0.868271 0.720846 0.000000
0.901191 0.721508 0.000000
0.934004 0.722169 0.000000
0.966714 0.722831 0.000000
0.999324 0.723492 0.000000
1.000000 0.724153 0.000000
1.000000 0.724814 0.000000
1.000000 0.725476 0.000000
0.000000 0.736532 0.000000
0.006373 0.737192 0.000000
0.051619 0.737852 0.000000
0.092912 0.738513 0.000000
0.132556 0.739173 0.000000
0.171144 0.739833 0.000000
0.208957 0.740493 0.000000
0.246160 0.741153 0.000000
0.282862 0.741812 0.000000
0.319139 0.742472 0.000000
0.355048 0.743132 0.000000
0.390632 0.743792 0.000000
0.425926 0.744451 0.000000
0.460959 0.745111 0.000000
0.495753 0.745770 0.000000
0.530329 0.746430 0.000000
0.564703 0.747089 0.000000
0.598890 0.747749 0.000000
0.632902 0.748408 0.000000
0.666750 0.749067 0.000000
0.700444 0.749727 0.000000
0.733992 0.750386 0.000000
0.767404 0.751045 0.000000
0.800684 0.751704 0.000000
0.833841 0.752363 0.000000
0.866879 0.753022 0.000000
0.899805 0.753681 0.000000
0.932622 0.754340 0.000000
0.965336 0.754998 0.000000
0.997950 0.755657 0.000000
1.000000 0.756316 0.000000
1.000000 0.756975 0.000000
1.000000 0.757633 0.000000
0.000000 0.768647 0.000000
0.004169 0.769305 0.000000
0.049822 0.769962 0.000000
0.091209 0.770620 0.000000
0.130907 0.771277 0.000000
0.169533 0.771935 0.000000
0.207374 0.772592 0.000000
0.244601 0.773250 0.000000
0.281322 0.773907 0.000000
0.317616 0.774564 0.000000
0.353539 0.775222 0.000000
0.389136 0.775879 0.000000
0.424442 0.776536 0.000000
0.459486 0.777193 0.000000
0.494290 0.777850 0.000000
0.528875 0.778507 0.000000
0.563257 0.779164 0.000000
0.597451 0.779821 0.000000
0.631470 0.780478 0.000000
0.665325 0.781135 0.000000
0.699025 0.781791 0.000000
0.732580 0.782448 0.000000
0.765996 0.783105 0.000000
0.799283 0.783761 0.000000
0.832444 0.784418 0.000000
0.865488 0.785074 0.000000
0.898418 0.785731 0.000000
0.931239 0.786387 0.000000
0.963957 0.787043 0.000000
0.996576 0.787700 0.000000
1.000000 0.788356 0.000000
1.000000 0.789012 0.000000
1.000000 0.789668 0.000000
0.000000 0.800641 0.000000
0.001847 0.801297 0.000000
0.048020 0.801952 0.000000
0.089503 0.802607 0.000000
0.129256 0.803262 0.000000
0.167920 0.803917 0.000000
0.205791 0.804572 0.000000
0.243041 0.805227 0.000000
0.279782 0.805882 0.000000
0.316092 0.806537 0.000000
0.352030 0.807192 0.000000
0.387641 0.807847 0.000000
0.422958 0.808502 0.000000
0.458012 0.809156 0.000000
0.492826 0.809811 0.000000
0.527420 0.810466 0.000000
0.561810 0.811120 0.000000
0.596012 0.811775 0.000000
0.630038 0.812429 0.000000
0.663899 0.813084 0.000000
0.697606 0.813738 0.000000
0.731167 0.814392 0.000000
0.764589 0.815047 0.000000
0.797881 0.815701 0.000000
0.831047 0.816355 0.000000
0.864096 0.817009 0.000000
0.897030 0.817663 0.000000
0.929857 0.818317 0.000000
0.962579 0.818971 0.000000
0.995201 0.819625 0.000000
1.000000 0.820279 0.000000
1.000000 0.820933 0.000000
1.000000 0.821587 0.000000
0.000000 0.832521 0.000000
0.000000 0.833174 0.000000
0.046211 0.833827 0.000000
0.087795 0.834480 0.000000
0.127604 0.835133 0.000000
0.166306 0.835786 0.000000
0.204207 0.836438 0.000000
0.241480 0.837091 0.000000
0.278241 0.837744 0.000000
0.314568 0.838396 0.000000
0.350521 0.839049 0.000000
0.386144 0.839702 0.000000
0.421473 0.840354 0.000000
0.456538 0.841006 0.000000
0.491362 0.841659 0.000000
0.525964 0.842311 0.000000
0.560363 0.842963 0.000000
0.594572 0.843616 0.000000
0.628606 0.844268 0.000000
0.662474 0.844920 0.000000
0.696187 0.845572 0.000000
0.729753 0.846224 0.000000
0.763182 0.846876 0.000000
0.796478 0.847528 0.000000
0.829650 0.848180 0.000000
0.862703 0.848832 0.000000
0.895643 0.849484 0.000000
0.928474 0.850136 0.000000
0.961200 0.850788 0.000000
0.993827 0.851439 0.000000
1.000000 0.852091 0.000000
1.000000 0.852743 0.000000
1.000000 0.853394 0.000000
0.000000 0.864291 0.000000
0.000000 0.864942 0.000000
0.044396 0.865593 0.000000
0.086083 0.866244 0.000000
0.125949 0.866894 0.000000
0.164691 0.867545 0.000000
0.202621 0.868195 0.000000
0.239919 0.868846 0.000000
0.276699 0.869497 0.000000
0.313043 0.870147 0.000000
0.349011 0.870797 0.000000
0.384647 0.871448 0.000000
0.419988 0.872098 0.000000
0.455064 0.872748 0.000000
0.489897 0.873399 0.000000
0.524508 0.874049 0.000000
0.558915 0.874699 0.000000
0.593133 0.875349 0.000000
0.627173 0.875999 0.000000
0.661048 0.876649 0.000000
0.694767 0.877299 0.000000
0.728340 0.877949 0.000000
0.761774 0.878599 0.000000
0.795076 0.879249 0.000000
0.828253 0.879898 0.000000
0.861311 0.880548 0.000000
0.894255 0.881198 0.000000
0.927091 0.881848 0.000000
0.959821 0.882497 0.000000
0.992452 0.883147 0.000000
1.000000 0.883796 0.000000
1.000000 0.884446 0.000000
1.000000 0.885095 0.000000
0.000000 0.895957 0.000000
0.000000 0.896606 0.000000
0.042574 0.897254 0.000000
0.084368 0.897903 0.000000
0.124293 0.898551 0.000000
0.163074 0.899200 0.000000
0.201034 0.899848 0.000000
0.238356 0.900497 0.000000
0.275156 0.901145 0.000000
0.311518 0.901794 0.000000
0.347500 0.902442 0.000000
0.383150 0.903090 0.000000
0.418503 0.903738 0.000000
0.453589 0.904387 0.000000
0.488432 0.905035 0.000000
0.523052 0.905683 0.000000
0.557468 0.906331 0.000000
0.591693 0.906979 0.000000
0.625740 0.907627 0.000000
0.659622 0.908275 0.000000
0.693348 0.908923 0.000000
0.726926 0.909571 0.000000
0.760366 0.910218 0.000000
0.793674 0.910866 0.000000
