presets/film_stocks/Kodak_Ektachrome_Radiance_III_Paper.cube
# 独寻胶片模拟 -- Kodak Ektachrome Radiance III Paper
# Kodak, ISO 0, 0, positive
TITLE "Kodak Ektachrome Radiance III Paper"
LUT_3D_SIZE 9
DOMAIN_MIN 0.0 0.0 0.0
DOMAIN_MAX 1.0 1.0 1.0
0.000000 0.000000 0.000000
0.052490 0.000000 0.000624
0.090210 0.000000 0.001072
0.123830 0.000000 0.001472
0.155037 0.000000 0.001842
0.184564 0.000000 0.002193
0.212817 0.000000 0.002529
0.240054 0.000000 0.002853
0.266450 0.000000 0.003166
0.055652 0.229775 0.000000
0.092939 0.229631 0.000000
0.126331 0.229487 0.000000
0.157387 0.229343 0.000000
0.186802 0.229198 0.000000
0.214969 0.229054 0.000000
0.242135 0.228910 0.000000
0.268471 0.228765 0.000000
0.294101 0.228621 0.000000
0.095645 0.394896 0.000000
0.128817 0.394772 0.000000
0.159726 0.394648 0.000000
0.189033 0.394525 0.000000
0.217114 0.394401 0.000000
0.244210 0.394277 0.000000
0.270488 0.394153 0.000000
0.296067 0.394029 0.000000
0.321042 0.393905 0.000000
0.131291 0.542069 0.000000
0.162057 0.541955 0.000000
0.191257 0.541842 0.000000
0.219254 0.541729 0.000000
0.246281 0.541615 0.000000
0.272500 0.541502 0.000000
0.298030 0.541388 0.000000
0.322961 0.541275 0.000000
0.347363 0.541161 0.000000
0.164377 0.678676 0.000000
0.193474 0.678570 0.000000
0.221388 0.678463 0.000000
0.248347 0.678357 0.000000
0.274509 0.678250 0.000000
0.299989 0.678144 0.000000
0.324876 0.678037 0.000000
0.349240 0.677931 0.000000
0.373137 0.677824 0.000000
0.195683 0.807930 0.000000
0.223516 0.807829 0.000000
0.250408 0.807727 0.000000
0.276513 0.807626 0.000000
0.301944 0.807524 0.000000
0.326789 0.807423 0.000000
0.351115 0.807321 0.000000
0.374977 0.807220 0.000000
0.398421 0.807119 0.000000
0.225639 0.931610 0.000000
0.252465 0.931512 0.000000
0.278513 0.931415 0.000000
0.303896 0.931318 0.000000
0.328698 0.931220 0.000000
0.352986 0.931123 0.000000
0.376814 0.931025 0.000000
0.400228 0.930928 0.000000
0.423264 0.930830 0.000000
0.254516 1.000000 0.000000
0.280510 1.000000 0.000000
0.305845 1.000000 0.000000
0.330604 1.000000 0.000000
0.354855 1.000000 0.000000
0.378649 1.000000 0.000000
0.402032 1.000000 0.000000
0.425040 1.000000 0.000000
0.447704 1.000000 0.000000
0.282502 1.000000 0.000000
0.307790 1.000000 0.000000
0.332507 1.000000 0.000000
0.356721 1.000000 0.000000
0.380482 1.000000 0.000000
0.403834 1.000000 0.000000
0.426814 1.000000 0.000000
0.449453 1.000000 0.000000
0.471776 1.000000 0.000000
0.135212 0.000000 0.198283
0.165757 0.000000 0.198380
0.194792 0.000000 0.198477
0.222658 0.000000 0.198574
0.249577 0.000000 0.198671
0.275705 0.000000 0.198768
0.301156 0.000000 0.198865
0.326018 0.000000 0.198962
0.350359 0.000000 0.199059
0.168064 0.197148 0.196900
0.196998 0.196998 0.196998
0.224783 0.196847 0.197095
0.251635 0.196696 0.197192
0.277707 0.196546 0.197289
0.303109 0.196395 0.197387
0.327928 0.196244 0.197484
0.352231 0.196094 0.197581
0.376073 0.195943 0.197678
0.199196 0.367160 0.195515
0.226902 0.367033 0.195612
0.253689 0.366907 0.195710
0.279705 0.366780 0.195807
0.305059 0.366654 0.195905
0.329836 0.366527 0.196002
0.354101 0.366401 0.196100
0.377909 0.366274 0.196197
0.401304 0.366147 0.196294
0.229016 0.516773 0.194127
0.255738 0.516658 0.194224
0.281699 0.516543 0.194322
0.307005 0.516428 0.194420
0.331740 0.516313 0.194517
0.355968 0.516198 0.194615
0.379743 0.516083 0.194713
0.403107 0.515968 0.194810
0.426098 0.515853 0.194908
0.257782 0.654963 0.192736
0.283689 0.654856 0.192834
0.308948 0.654748 0.192932
0.333641 0.654641 0.193029
0.357832 0.654533 0.193127
0.381574 0.654426 0.193225
0.404908 0.654318 0.193323
0.427871 0.654211 0.193421
0.450495 0.654103 0.193518
0.285675 0.785369 0.191342
0.310887 0.785267 0.191440
0.335539 0.785165 0.191538
0.359694 0.785063 0.191636
0.383402 0.784960 0.191734
0.406706 0.784858 0.191832
0.429642 0.784756 0.191930
0.452240 0.784654 0.192028
0.474526 0.784551 0.192126
0.312824 0.909946 0.189946
0.337435 0.909848 0.190044
0.361553 0.909750 0.190142
0.385228 0.909651 0.190240
0.408503 0.909553 0.190339
0.431411 0.909455 0.190437
0.453984 0.909357 0.190535
0.476247 0.909259 0.190633
0.498222 0.909161 0.190731
0.339327 1.000000 0.188546
0.363409 1.000000 0.188645
0.387052 1.000000 0.188743
0.410297 1.000000 0.188841
0.433178 1.000000 0.188940
0.455726 1.000000 0.189038
0.477966 1.000000 0.189137
0.499919 1.000000 0.189235
0.521606 1.000000 0.189333
0.365262 1.000000 0.187144
0.388873 1.000000 0.187242
0.412088 1.000000 0.187341
0.434943 1.000000 0.187440
0.457466 1.000000 0.187538
0.479683 1.000000 0.187637
0.501615 1.000000 0.187736
0.523281 1.000000 0.187834
0.544700 1.000000 0.187933
0.232379 0.000000 0.340773
0.259000 0.000000 0.340856
0.284874 0.000000 0.340940
0.310105 0.000000 0.341023
0.334774 0.000000 0.341107
0.358943 0.000000 0.341190
0.382665 0.000000 0.341273
0.405981 0.000000 0.341357
0.428928 0.000000 0.341440
0.261037 0.162924 0.339585
0.286858 0.162765 0.339669
0.312043 0.162606 0.339752
0.336670 0.162447 0.339836
0.360803 0.162288 0.339919
0.384492 0.162129 0.340003
0.407778 0.161970 0.340086
0.430698 0.161811 0.340170
0.453281 0.161652 0.340253
0.288838 0.338823 0.338397
0.313977 0.338693 0.338480
0.338564 0.338564 0.338564
0.362660 0.338435 0.338647
0.386316 0.338305 0.338731
0.409573 0.338176 0.338815
0.432466 0.338046 0.338898
0.455023 0.337917 0.338982
0.477272 0.337787 0.339065
0.315908 0.491126 0.337207
0.340454 0.491009 0.337290
0.364515 0.490892 0.337374
0.388138 0.490776 0.337458
0.411366 0.490659 0.337541
0.434231 0.490543 0.337625
0.456764 0.490426 0.337709
0.478990 0.490309 0.337792
0.500931 0.490193 0.337876
0.342342 0.631008 0.336016
0.366367 0.630899 0.336100
0.389958 0.630790 0.336183
0.413156 0.630682 0.336267
0.435995 0.630573 0.336351
0.458503 0.630464 0.336435
0.480706 0.630355 0.336518
0.502625 0.630247 0.336602
0.524280 0.630138 0.336686
0.368216 0.762626 0.334824
0.391776 0.762523 0.334907
0.414945 0.762420 0.334991
0.437756 0.762316 0.335075
0.460240 0.762213 0.335159
0.482420 0.762110 0.335243
0.504318 0.762007 0.335326
0.525953 0.761904 0.335410
0.547342 0.761801 0.335494
0.393591 0.888136 0.333630
0.416731 0.888037 0.333714
0.439516 0.887939 0.333798
0.461975 0.887840 0.333882
0.484133 0.887741 0.333966
0.506010 0.887642 0.334050
0.527625 0.887543 0.334134
0.548995 0.887445 0.334217
0.570135 0.887346 0.334301
0.418515 1.000000 0.332435
0.441274 1.000000 0.332519
0.463709 1.000000 0.332603
0.485844 1.000000 0.332687
0.507700 1.000000 0.332771
0.529295 1.000000 0.332855
0.550647 1.000000 0.332939
0.571769 1.000000 0.333023
0.592675 1.000000 0.333107
0.443030 1.000000 0.331240
0.465440 1.000000 0.331324
0.487553 1.000000 0.331408
0.509388 1.000000 0.331492
0.530964 1.000000 0.331576
0.552297 1.000000 0.331660
0.573402 1.000000 0.331744
0.594292 1.000000 0.331828
0.614978 1.000000 0.331912
0.318983 0.000000 0.467774
0.343467 0.000000 0.467851
0.367470 0.000000 0.467927
0.391043 0.000000 0.468003
0.414223 0.000000 0.468080
0.437046 0.000000 0.468156
0.459540 0.000000 0.468232
0.481729 0.000000 0.468309
0.503636 0.000000 0.468385
0.345350 0.126534 0.466688
0.369318 0.126363 0.466764
0.392859 0.126193 0.466841
0.416010 0.126022 0.466917
0.438806 0.125852 0.466993
0.461276 0.125681 0.467070
0.483442 0.125510 0.467146
0.505328 0.125339 0.467223
0.526951 0.125168 0.467299
0.371163 0.309805 0.465601
0.394672 0.309672 0.465677
0.417795 0.309540 0.465753
0.440565 0.309407 0.465830
0.463010 0.309274 0.465906
0.485154 0.309142 0.465983
0.507018 0.309009 0.466059
0.528622 0.308876 0.466136
0.549981 0.308743 0.466212
0.396484 0.465097 0.464513
0.419578 0.464979 0.464589
0.442321 0.464860 0.464666
0.464742 0.464742 0.464742
0.486864 0.464624 0.464818
0.508707 0.464505 0.464895
0.530291 0.464387 0.464971
0.551632 0.464268 0.465048
0.572743 0.464150 0.465124
0.421359 0.606794 0.463424
0.444076 0.606684 0.463500
0.466473 0.606574 0.463577
0.488572 0.606465 0.463653
0.510394 0.606355 0.463730
0.531959 0.606245 0.463807
0.553281 0.606135 0.463883
0.574376 0.606025 0.463960
0.595256 0.605915 0.464036
0.445829 0.739690 0.462334
0.468201 0.739587 0.462411
0.490278 0.739483 0.462488
0.512080 0.739379 0.462564
0.533625 0.739275 0.462641
0.554929 0.739171 0.462717
0.576007 0.739067 0.462794
0.596870 0.738963 0.462871
0.617532 0.738859 0.462947
0.469928 0.866175 0.461244
0.491983 0.866076 0.461321
0.513765 0.865977 0.461398
0.535290 0.865877 0.461474
0.556576 0.865778 0.461551
0.577637 0.865678 0.461627
0.598484 0.865579 0.461704
0.619130 0.865479 0.461781
0.639585 0.865380 0.461857
0.493686 0.987668 0.460153
0.515447 0.987572 0.460230
0.536954 0.987476 0.460307
0.558222 0.987380 0.460383
0.579265 0.987284 0.460460
0.600097 0.987188 0.460537
0.620727 0.987093 0.460614
0.641168 0.986997 0.460690
0.661428 0.986901 0.460767
0.517128 1.000000 0.459062
0.538616 1.000000 0.459139
0.559866 1.000000 0.459215
0.580892 1.000000 0.459292
0.601708 1.000000 0.459369
0.622323 1.000000 0.459446
0.642750 1.000000 0.459522
0.662996 1.000000 0.459599
0.683070 1.000000 0.459676
0.399371 0.000000 0.585659
0.422420 0.000000 0.585731
0.445122 0.000000 0.585802
0.467504 0.000000 0.585874
0.489590 0.000000 0.585946
0.511400 0.000000 0.586017
0.532953 0.000000 0.586089
0.554265 0.000000 0.586161
0.575349 0.000000 0.586232
0.424197 0.086877 0.584639
0.446873 0.086687 0.584710
0.469232 0.086498 0.584782
0.491295 0.086308 0.584854
0.513085 0.086119 0.584926
0.534619 0.085929 0.584997
0.555912 0.085739 0.585069
0.576979 0.085549 0.585141
0.597833 0.085358 0.585213
0.448623 0.280004 0.583618
0.470958 0.279867 0.583690
0.492999 0.279731 0.583762
0.514768 0.279595 0.583833
0.536283 0.279458 0.583905
0.557558 0.279321 0.583977
0.578608 0.279185 0.584049
0.599446 0.279048 0.584120
0.620083 0.278912 0.584192
0.472682 0.438654 0.582597
0.494702 0.438534 0.582669
0.516450 0.438413 0.582740
0.537945 0.438293 0.582812
0.559203 0.438173 0.582884
0.580236 0.438052 0.582956
0.601058 0.437932 0.583028
0.621680 0.437812 0.583099
0.642112 0.437691 0.583171
0.496402 0.582307 0.581575
0.518131 0.582196 0.581647
0.539607 0.582085 0.581719
0.560846 0.581974 0.581791
0.581862 0.581862 0.581862
0.602668 0.581751 0.581934
0.623275 0.581640 0.582006
0.643693 0.581529 0.582078
0.663931 0.581418 0.582150
0.519809 0.716554 0.580553
0.541266 0.716449 0.580625
0.562488 0.716345 0.580697
0.583488 0.716240 0.580768
0.604278 0.716135 0.580840
0.624869 0.716030 0.580912
0.645273 0.715925 0.580984
0.665497 0.715820 0.581056
0.685550 0.715715 0.581128
0.542925 0.844058 0.579530
0.564129 0.843958 0.579602
0.585112 0.843857 0.579674
0.605886 0.843757 0.579746
0.626462 0.843657 0.579818
0.646851 0.843557 0.579890
0.667062 0.843457 0.579962
0.687103 0.843356 0.580033
0.706981 0.843256 0.580105
0.565768 0.966360 0.578507
0.586734 0.966264 0.578579
0.607493 0.966167 0.578651
0.628054 0.966071 0.578723
0.648429 0.965974 0.578795
0.668626 0.965878 0.578867
0.688654 0.965782 0.578939
0.708520 0.965685 0.579010
0.728231 0.965589 0.579082
0.588356 1.000000 0.577483
0.609098 1.000000 0.577555
0.629645 1.000000 0.577627
0.650006 1.000000 0.577699
0.670190 1.000000 0.577771
0.690205 1.000000 0.577843
0.710058 1.000000 0.577915
0.729758 1.000000 0.577987
0.749309 1.000000 0.578059
0.475431 0.000000 0.697197
0.497416 0.000000 0.697266
0.519132 0.000000 0.697334
0.540597 0.000000 0.697402
0.561826 0.000000 0.697471
0.582832 0.000000 0.697539
0.603629 0.000000 0.697607
0.624226 0.000000 0.697675
0.644635 0.000000 0.697744
0.499114 0.040948 0.696226
0.520810 0.040714 0.696294
0.542256 0.040479 0.696362
0.563467 0.040245 0.696431
0.584456 0.040010 0.696499
0.605237 0.039774 0.696567
0.625820 0.039538 0.696636
0.646215 0.039302 0.696704
0.666431 0.039066 0.696772
0.522486 0.249285 0.695254
0.543913 0.249144 0.695322
0.565107 0.249003 0.695391
0.586080 0.248862 0.695459
0.606844 0.248721 0.695527
0.627412 0.248580 0.695596
0.647793 0.248439 0.695664
0.667995 0.248298 0.695732
0.688028 0.248157 0.695800
0.545570 0.411757 0.694282
0.566745 0.411634 0.694350
0.587702 0.411512 0.694418
0.608451 0.411389 0.694487
0.629004 0.411267 0.694555
0.649370 0.411144 0.694623
0.669559 0.411022 0.694692
0.689579 0.410899 0.694760
0.709438 0.410777 0.694828
0.568382 0.557528 0.693309
0.589322 0.557416 0.693377
0.610056 0.557303 0.693446
0.630594 0.557191 0.693514
0.650946 0.557078 0.693582
0.671122 0.556965 0.693651
0.691129 0.556853 0.693719
0.710975 0.556740 0.693788
0.730668 0.556628 0.693856
0.590942 0.693207 0.692336
0.611660 0.693101 0.692404
0.632183 0.692995 0.692473
0.652521 0.692890 0.692541
0.672683 0.692784 0.692609
0.692678 0.692678 0.692678
0.712512 0.692572 0.692746
0.732193 0.692466 0.692815
0.751726 0.692360 0.692883
0.613262 0.821777 0.691362
0.633771 0.821676 0.691431
0.654095 0.821575 0.691499
0.674244 0.821474 0.691568
0.694226 0.821373 0.691636
0.714048 0.821272 0.691704
0.733717 0.821171 0.691773
0.753239 0.821070 0.691841
0.772621 0.820969 0.691910
0.635358 0.944920 0.690388
0.655668 0.944823 0.690457
0.675804 0.944726 0.690525
0.695773 0.944629 0.690594
0.715582 0.944532 0.690662
0.735240 0.944435 0.690731
0.754751 0.944338 0.690799
0.774122 0.944241 0.690868
0.793359 0.944144 0.690936
0.657240 1.000000 0.689414
0.677362 1.000000 0.689483
0.697319 1.000000 0.689551
0.717116 1.000000 0.689620
0.736762 1.000000 0.689688
0.756262 1.000000 0.689757
0.775623 1.000000 0.689825
0.794849 1.000000 0.689894
0.813945 1.000000 0.689962
0.548211 0.000000 0.803926
0.569358 0.000000 0.803992
0.590288 0.000000 0.804057
0.611013 0.000000 0.804123
0.631542 0.000000 0.804188
0.651886 0.000000 0.804254
0.672053 0.000000 0.804320
0.692053 0.000000 0.804385
0.711892 0.000000 0.804451
0.570993 0.000000 0.802993
0.591907 0.000000 0.803058
0.612616 0.000000 0.803124
0.633130 0.000000 0.803189
0.653460 0.000000 0.803255
0.673614 0.000000 0.803321
0.693601 0.000000 0.803386
0.713428 0.000000 0.803452
0.733102 0.000000 0.803518
0.593524 0.217464 0.802059
0.614218 0.217317 0.802124
0.634717 0.217171 0.802190
0.655033 0.217024 0.802256
0.675174 0.216878 0.802321
0.695149 0.216731 0.802387
0.714963 0.216584 0.802453
0.734625 0.216438 0.802518
0.754141 0.216291 0.802584
0.615818 0.384358 0.801124
0.636304 0.384233 0.801190
0.656606 0.384108 0.801256
0.676733 0.383983 0.801322
0.696695 0.383858 0.801387
0.716498 0.383733 0.801453
0.736148 0.383608 0.801519
0.755653 0.383483 0.801584
0.775017 0.383358 0.801650
0.637889 0.532437 0.800190
0.658177 0.532323 0.800256
0.678291 0.532209 0.800321
0.698240 0.532095 0.800387
0.718031 0.531981 0.800453
0.737670 0.531867 0.800518
0.757163 0.531753 0.800584
0.776517 0.531639 0.800650
0.795737 0.531525 0.800716
0.659747 0.669638 0.799255
0.679848 0.669531 0.799321
0.699785 0.669424 0.799387
0.719563 0.669317 0.799452
0.739191 0.669210 0.799518
0.758673 0.669103 0.799584
0.778017 0.668996 0.799650
0.797226 0.668889 0.799715
0.816307 0.668782 0.799781
0.681404 0.799325 0.798320
0.701328 0.799223 0.798386
0.721095 0.799122 0.798452
0.740711 0.799020 0.798517
0.760182 0.798918 0.798583
0.779515 0.798816 0.798649
0.798715 0.798715 0.798715
0.817786 0.798613 0.798780
0.836733 0.798511 0.798846
0.702871 0.923343 0.797385
0.722625 0.923246 0.797451
0.742230 0.923148 0.797516
0.761690 0.923050 0.797582
0.781013 0.922953 0.797648
0.800202 0.922855 0.797714
0.819263 0.922757 0.797779
0.838201 0.922659 0.797845
0.857020 0.922562 0.797911
0.724155 1.000000 0.796449
0.743748 1.000000 0.796515
0.763198 1.000000 0.796581
0.782509 1.000000 0.796646
0.801689 1.000000 0.796712
0.820740 1.000000 0.796778
0.839669 1.000000 0.796844
0.858479 1.000000 0.796910
0.877174 1.000000 0.796975
0.618372 0.000000 0.906814
0.638834 0.000000 0.906878
0.659114 0.000000 0.906941
0.679220 0.000000 0.907004
0.699162 0.000000 0.907068
0.718945 0.000000 0.907131
0.738577 0.000000 0.907195
0.758064 0.000000 0.907258
0.777412 0.000000 0.907322
0.640417 0.000000 0.905912
0.660683 0.000000 0.905975
0.680777 0.000000 0.906038
0.700706 0.000000 0.906102
0.720477 0.000000 0.906165
0.740097 0.000000 0.906229
0.759573 0.000000 0.906292
0.778911 0.000000 0.906356
0.798114 0.000000 0.906419
0.662252 0.184275 0.905009
0.682332 0.184122 0.905072
0.702248 0.183968 0.905136
0.722008 0.183815 0.905199
0.741617 0.183661 0.905263
0.761082 0.183508 0.905326
0.780409 0.183354 0.905390
0.799602 0.183200 0.905453
0.818667 0.183047 0.905516
0.683887 0.356400 0.904106
0.703790 0.356272 0.904169
0.723538 0.356145 0.904233
0.743136 0.356017 0.904296
0.762590 0.355889 0.904360
0.781906 0.355762 0.904423
0.801089 0.355634 0.904487
0.820144 0.355507 0.904550
0.839077 0.355379 0.904614
0.705331 0.507010 0.903202
0.725067 0.506894 0.903266
0.744653 0.506779 0.903329
0.764096 0.506663 0.903393
0.783402 0.506547 0.903456
0.802575 0.506432 0.903520
0.821621 0.506316 0.903583
0.840544 0.506201 0.903647
0.859348 0.506085 0.903710
0.726595 0.645833 0.902299
0.746170 0.645725 0.902362
0.765602 0.645617 0.902426
0.784897 0.645509 0.902489
0.804061 0.645401 0.902553
0.823097 0.645293 0.902616
0.842010 0.645185 0.902680
0.860806 0.645077 0.902743
0.879487 0.644969 0.902807
0.747686 0.776695 0.901395
0.767108 0.776593 0.901458
0.786392 0.776490 0.901522
0.805545 0.776388 0.901586
0.824572 0.776285 0.901649
0.843476 0.776183 0.901713
0.862262 0.776080 0.901776
0.880935 0.775977 0.901840
0.899497 0.775875 0.901903
0.768612 0.901624 0.900491
0.787886 0.901526 0.900554
0.807029 0.901427 0.900618
0.826046 0.901329 0.900681
0.844941 0.901231 0.900745
0.863718 0.901132 0.900809
0.882382 0.901034 0.900872
0.900936 0.900936 0.900936
0.919383 0.900837 0.900999
0.789379 1.000000 0.899586
0.808512 1.000000 0.899650
0.827519 1.000000 0.899714
0.846405 1.000000 0.899777
0.865173 1.000000 0.899841
0.883828 1.000000 0.899904
0.902374 1.000000 0.899968
0.920813 1.000000 0.900031
0.939150 1.000000 0.900095
0.686366 0.000000 1.000000
0.706250 0.000000 1.000000
0.725979 0.000000 1.000000
0.745558 0.000000 1.000000
0.764995 0.000000 1.000000
0.784294 0.000000 1.000000
0.803461 0.000000 1.000000
0.822501 0.000000 1.000000
0.841419 0.000000 1.000000
0.707790 0.000000 1.000000
0.727506 0.000000 1.000000
0.747075 0.000000 1.000000
0.766500 0.000000 1.000000
0.785789 0.000000 1.000000
0.804946 0.000000 1.000000
0.823977 0.000000 1.000000
0.842885 0.000000 1.000000
0.861675 0.000000 1.000000
0.729033 0.149308 1.000000
0.748590 0.149146 1.000000
0.768005 0.148983 1.000000
0.787283 0.148820 1.000000
0.806431 0.148657 1.000000
0.825451 0.148494 1.000000
0.844350 0.148331 1.000000
0.863131 0.148168 1.000000
0.881798 0.148005 1.000000
0.750105 0.327813 1.000000
0.769509 0.327682 1.000000
0.788777 0.327552 1.000000
0.807914 0.327421 1.000000
0.826925 0.327291 1.000000
0.845814 0.327160 1.000000
0.864586 0.327029 1.000000
0.883245 0.326899 1.000000
0.901794 0.326768 1.000000
0.771012 0.481220 1.000000
0.790270 0.481103 1.000000
0.809397 0.480986 1.000000
0.828398 0.480868 1.000000
0.847278 0.480751 1.000000
0.866041 0.480634 1.000000
0.884691 0.480517 1.000000
0.903231 0.480399 1.000000
0.921666 0.480282 1.000000
0.791761 0.621781 1.000000
0.810879 0.621672 1.000000
0.829870 0.621562 1.000000
0.848741 0.621453 1.000000
0.867495 0.621344 1.000000
0.886137 0.621235 1.000000
0.904669 0.621126 1.000000
0.923095 0.621017 1.000000
0.941419 0.620908 1.000000
0.812360 0.753879 1.000000
0.831342 0.753776 1.000000
0.850204 0.753673 1.000000
0.868949 0.753569 1.000000
0.887581 0.753466 1.000000
0.906105 0.753362 1.000000
0.924523 0.753259 1.000000
0.942840 0.753156 1.000000
0.961057 0.753052 1.000000
0.832813 0.879758 1.000000
0.851665 0.879658 1.000000
0.870402 0.879559 1.000000
0.889026 0.879460 1.000000
0.907541 0.879361 1.000000
0.925951 0.879262 1.000000
0.944260 0.879163 1.000000
0.962469 0.879064 1.000000
0.980582 0.878965 1.000000
0.853126 1.000000 0.999506
0.871854 1.000000 0.999568
0.890469 1.000000 0.999630
0.908976 1.000000 0.999691
0.927378 1.000000 0.999753
0.945679 1.000000 0.999815
0.963881 1.000000 0.999877
0.981987 1.000000 0.999938
1.000000 1.000000 1.000000
