presets/film_stocks/Kodak_5222.cube
# 独寻胶片模拟 -- Kodak 5222
# Kodak, ISO 250, 1959, negative
TITLE "Kodak 5222"
LUT_3D_SIZE 5
DOMAIN_MIN 0.0 0.0 0.0
DOMAIN_MAX 1.0 1.0 1.0
0.000000 0.000000 0.000000
0.299550 0.000000 0.000000
0.547312 0.000000 0.000000
0.778677 0.000000 0.000000
1.000000 0.000000 0.000000
0.000000 0.299550 0.000000
0.299550 0.299550 0.000000
0.547312 0.299550 0.000000
0.778677 0.299550 0.000000
1.000000 0.299550 0.000000
0.000000 0.547312 0.000000
0.299550 0.547312 0.000000
0.547312 0.547312 0.000000
0.778677 0.547312 0.000000
1.000000 0.547312 0.000000
0.000000 0.778677 0.000000
0.299550 0.778677 0.000000
0.547312 0.778677 0.000000
0.778677 0.778677 0.000000
1.000000 0.778677 0.000000
0.000000 1.000000 0.000000
0.299550 1.000000 0.000000
0.547312 1.000000 0.000000
0.778677 1.000000 0.000000
1.000000 1.000000 0.000000
0.000000 0.000000 0.299550
0.299550 0.000000 0.299550
0.547312 0.000000 0.299550
0.778677 0.000000 0.299550
1.000000 0.000000 0.299550
0.000000 0.299550 0.299550
0.299550 0.299550 0.299550
0.547312 0.299550 0.299550
0.778677 0.299550 0.299550
1.000000 0.299550 0.299550
0.000000 0.547312 0.299550
0.299550 0.547312 0.299550
0.547312 0.547312 0.299550
0.778677 0.547312 0.299550
1.000000 0.547312 0.299550
0.000000 0.778677 0.299550
0.299550 0.778677 0.299550
0.547312 0.778677 0.299550
0.778677 0.778677 0.299550
1.000000 0.778677 0.299550
0.000000 1.000000 0.299550
0.299550 1.000000 0.299550
0.547312 1.000000 0.299550
0.778677 1.000000 0.299550
1.000000 1.000000 0.299550
0.000000 0.000000 0.547312
0.299550 0.000000 0.547312
0.547312 0.000000 0.547312
0.778677 0.000000 0.547312
1.000000 0.000000 0.547312
0.000000 0.299550 0.547312
0.299550 0.299550 0.547312
0.547312 0.299550 0.547312
0.778677 0.299550 0.547312
1.000000 0.299550 0.547312
0.000000 0.547312 0.547312
0.299550 0.547312 0.547312
0.547312 0.547312 0.547312
0.778677 0.547312 0.547312
1.000000 0.547312 0.547312
0.000000 0.778677 0.547312
0.299550 0.778677 0.547312
0.547312 0.778677 0.547312
0.778677 0.778677 0.547312
1.000000 0.778677 0.547312
0.000000 1.000000 0.547312
0.299550 1.000000 0.547312
0.547312 1.000000 0.547312
0.778677 1.000000 0.547312
1.000000 1.000000 0.547312
0.000000 0.000000 0.778677
0.299550 0.000000 0.778677
0.547312 0.000000 0.778677
0.778677 0.000000 0.778677
1.000000 0.000000 0.778677
0.000000 0.299550 0.778677
0.299550 0.299550 0.778677
0.547312 0.299550 0.778677
0.778677 0.299550 0.778677
1.000000 0.299550 0.778677
0.000000 0.547312 0.778677
0.299550 0.547312 0.778677
0.547312 0.547312 0.778677
0.778677 0.547312 0.778677
1.000000 0.547312 0.778677
0.000000 0.778677 0.778677
0.299550 0.778677 0.778677
0.547312 0.778677 0.778677
0.778677 0.778677 0.778677
1.000000 0.778677 0.778677
0.000000 1.000000 0.778677
0.299550 1.000000 0.778677
0.547312 1.000000 0.778677
0.778677 1.000000 0.778677
1.000000 1.000000 0.778677
0.000000 0.000000 1.000000
0.299550 0.000000 1.000000
0.547312 0.000000 1.000000
0.778677 0.000000 1.000000
1.000000 0.000000 1.000000
0.000000 0.299550 1.000000
0.299550 0.299550 1.000000
0.547312 0.299550 1.000000
0.778677 0.299550 1.000000
1.000000 0.299550 1.000000
0.000000 0.547312 1.000000
0.299550 0.547312 1.000000
0.547312 0.547312 1.000000
0.778677 0.547312 1.000000
1.000000 0.547312 1.000000
0.000000 0.778677 1.000000
0.299550 0.778677 1.000000
0.547312 0.778677 1.000000
0.778677 0.778677 1.000000
1.000000 0.778677 1.000000
0.000000 1.000000 1.000000
0.299550 1.000000 1.000000
0.547312 1.000000 1.000000
0.778677 1.000000 1.000000
1.000000 1.000000 1.000000
